/* XPM */
static const char *bos2g1[] = {
/* columns rows colors chars-per-pixel */
"128 128 256 2 ",
"   c #0C0C0C",
".  c #050707",
"X  c #1D170B",
"o  c #141414",
"O  c #1C1C1C",
"+  c #181816",
"@  c #090F12",
"#  c #231B0C",
"$  c #28190C",
"%  c #231C16",
"&  c #3A130D",
"*  c #14290E",
"=  c #1B2718",
"-  c #1A3814",
";  c #112A15",
":  c #2A220E",
">  c #292319",
",  c #332413",
"<  c #382919",
"1  c #2F2F14",
"2  c #020223",
"3  c #171828",
"4  c #121A2E",
"5  c #1B2026",
"6  c #232323",
"7  c #2C2C2C",
"8  c #272828",
"9  c #342C27",
"0  c #36332A",
"q  c #333333",
"w  c #3B3C3C",
"e  c #383937",
"r  c #2B332D",
"t  c #201F21",
"y  c #490404",
"u  c #530202",
"i  c #5A0807",
"p  c #581919",
"a  c #4E180E",
"s  c #660606",
"d  c #790202",
"f  c #761919",
"g  c #68150F",
"h  c #463219",
"j  c #53371B",
"k  c #4F2A0E",
"l  c #692805",
"z  c #732B00",
"x  c #762C02",
"c  c #7A3505",
"v  c #773917",
"b  c #6B3313",
"n  c #492623",
"m  c #483725",
"M  c #573B24",
"N  c #473836",
"B  c #583030",
"V  c #6E3030",
"C  c #7F1D21",
"Z  c #1D4417",
"A  c #24491B",
"S  c #27561D",
"D  c #33501A",
"F  c #2B5822",
"G  c #354E2F",
"H  c #2E6424",
"J  c #326827",
"K  c #38772B",
"L  c #3B7132",
"P  c #39641F",
"I  c #734A14",
"U  c #5A4327",
"Y  c #464538",
"T  c #554834",
"R  c #565537",
"E  c #514C28",
"W  c #664728",
"Q  c #754C2B",
"!  c #755330",
"~  c #487531",
"^  c #706C32",
"/  c #695719",
"(  c #373742",
")  c #444444",
"_  c #4B4B4C",
"`  c #474747",
"'  c #564A47",
"]  c #4D4D50",
"[  c #535353",
"{  c #5C5C5C",
"}  c #575756",
"|  c #53534B",
" . c #6E544F",
".. c #536D4E",
"X. c #706B58",
"o. c #5B5C64",
"O. c #636363",
"+. c #6B6B6B",
"@. c #686868",
"#. c #747474",
"$. c #7B7B7B",
"%. c #797877",
"&. c #726F6D",
"*. c #5E6062",
"=. c #403F44",
"-. c #870403",
";. c #980202",
":. c #841B1B",
">. c #A70303",
",. c #B70201",
"<. c #B21713",
"1. c #833D06",
"2. c #87391D",
"3. c #8A2828",
"4. c #9A3636",
"5. c #90302E",
"6. c #A33B3B",
"7. c #B92929",
"8. c #801D21",
"9. c #C60201",
"0. c #D70000",
"q. c #CC1A1B",
"w. c #E70000",
"e. c #F90101",
"r. c #F71A1A",
"t. c #EE2F30",
"y. c #CD2A2A",
"u. c #89460A",
"i. c #94530E",
"p. c #995A12",
"a. c #8A5013",
"s. c #9D6317",
"d. c #A46918",
"f. c #AB741D",
"g. c #B17D1E",
"h. c #885934",
"j. c #93532C",
"k. c #99643B",
"l. c #92712A",
"z. c #A8762C",
"x. c #AD583C",
"c. c #8C504E",
"v. c #AA4545",
"b. c #B65050",
"n. c #8C6B4E",
"m. c #B07349",
"M. c #8D7871",
"N. c #AF7272",
"B. c #C57C4F",
"V. c #DE5C5C",
"C. c #A63D42",
"Z. c #3D8633",
"A. c #3C832E",
"S. c #438934",
"D. c #47973A",
"F. c #559D3D",
"G. c #4BA13E",
"H. c #739B38",
"J. c #52AB45",
"K. c #56B84B",
"L. c #4FAA45",
"P. c #68B24B",
"I. c #788B75",
"U. c #62A35A",
"Y. c #5CC753",
"T. c #5ED457",
"R. c #62CC55",
"E. c #65D85B",
"W. c #72CD54",
"Q. c #6BE763",
"!. c #75FD6D",
"~. c #72F369",
"^. c #77F66D",
"/. c #6CD964",
"(. c #968C31",
"). c #B78726",
"_. c #BE932C",
"`. c #AD9134",
"'. c #9BAB3C",
"]. c #C3982F",
"[. c #CBA637",
"{. c #D3B43E",
"}. c #CFB03C",
"|. c #918B48",
" X c #B28D4F",
".X c #B6AF4C",
"XX c #928875",
"oX c #9FA966",
"OX c #CE8958",
"+X c #D7BA44",
"@X c #CAB14B",
"#X c #CFA26C",
"$X c #B2D051",
"%X c #99EE6A",
"&X c #DCC348",
"*X c #D0CB5C",
"=X c #E3CD4C",
"-X c #E8D755",
";X c #E6CE52",
":X c #F2E65C",
">X c #EFE45D",
",X c #D9CE6E",
"<X c #E6D96F",
"1X c #C7F66A",
"2X c #F4EC62",
"3X c #FBF768",
"4X c #F3F16E",
"5X c #7A7A81",
"6X c #7D8081",
"7X c #838484",
"8X c #8B8B8B",
"9X c #888586",
"0X c #939393",
"qX c #9B9B9B",
"wX c #959898",
"eX c #91908B",
"rX c #AA9490",
"tX c #B3AD95",
"yX c #9E9FA1",
"uX c #A3A3A3",
"iX c #ABABAB",
"pX c #A7A8A9",
"aX c #B3B3B3",
"sX c #BBBBBC",
"dX c #B7B8B9",
"fX c #B2AFAB",
"gX c #99A999",
"hX c #CF9495",
"jX c #CEB3B0",
"kX c #D8ABA6",
"lX c #8EF889",
"zX c #B6CCB7",
"xX c #D1CA8C",
"cX c #CECAB1",
"vX c #E3CEB7",
"bX c #EAE492",
"nX c #BFC1C1",
"mX c #C4C4C4",
"MX c #CCCCCC",
"NX c #CAC5C5",
"BX c #D7CBCB",
"VX c #CED3D3",
"CX c #D3D3D3",
"ZX c #DBDCDC",
"AX c #D7D8D8",
"SX c #CED2CE",
"DX c #D1EBD1",
"FX c #DCE1E1",
"GX c #E3E4E4",
"HX c #EBEBEB",
"JX c #E6E8E9",
"KX c #F3F3F3",
"LX c #ECF0F0",
"PX c #E4E0D2",
"IX c None",
"UX c black",
/* pixels */
"IXIXIXIXIXIXIXIXIXIXIXIXIXIXIXIXIXIXIXIXIXIXIXIXIXIXIXIXIXIXIXIXIXIXIXIXIXIXIXIXIXIXIXIXIXIXIXIXIXIXIXIXIXIXIXIXIXIXIXIXd -.;.,.9.0.0.w.IXIXIXIXIXIXIXIXIXIXIXIXIXIXIXIXIXIXIXIXIXIXIXIXIXIXIXIXIXIXIXIXIXIXIXIXIXIXIXIXIXIXIXIXIXIXIXIXIXIXIXIXIXIXIXIXIXIXIXIX",
"IXIXIXIXIXIXIXIXIXIXIXIXIXIXIXIXIXIXIXIXIXIXIXIXIXIXIXIXIXIXIXIXIXIXIXIXIXIXIXIXIXIXIXIXIXIXIXIXIXIXIXIXIXIXIXIXIXIXIXu d d -.>.,.9.0.0.w.IXIXIXIXIXIXIXIXIXIXIXIXIXIXIXIXIXIXIXIXIXIXIXIXIXIXIXIXIXIXIXIXIXIXIXIXIXIXIXIXIXIXIXIXIXIXIXIXIXIXIXIXIXIXIXIXIXIXIX",
"IXIXIXIXIXIXIXIXIXIXIXIXIXIXIXIXIXIXIXIXIXIXIXIXIXIXIXIXIXIXIXIXIXIXIXIXIXIXIXIXIXIXIXIXIXIXIXIXIXIXIXIXIXIXIXIXIXIXy y u s d -.;.,.9.0.w.w.e.e.IXIXIXIXIXIXIXIXIXIXIXIXIXIXIXIXIXIXIXIXIXIXIXIXIXIXIXIXIXIXIXIXIXIXIXIXIXIXIXIXIXIXIXIXIXIXIXIXIXIXIXIXIXIXIXIX",
"IXIXIXIXIXIXIXIXIXIXIXIXIXIXIXIXIXIXIXIXIXIXIXIXIXIXIXIXIXIXIXIXIXIXIXIXIXIXIXIXIXsXMXCXZXGXHXKXKXKXKXKXKXKXGXIXIXIX& & & y u s d -.;.,.0.w.e.e.e.IXIXIXIXIXIXIXIXIXIXIXIXIXIXy u d >.IXIXIXIXIXIXIXIXIXIXIXIXIXIXIXIXIXIXIXIXIXIXIXIXIXIXIXIXIXIXIXIXIXIXIXIXIX",
"IXIXIXIXIXIXIXIXIXIXIXIXIXIXIXIXIXIXIXIXIXIXIXIXIXIXIXIXIXIXIXIXIXIXIXIXIXIXIXIXsXsXmXMXMXCXCXAXZXZXGXGXGXGXAXAXIXIX} ` q % a i i s d ;.,.0.w.e.e.e.IXIXIXIXIXIXIXIXIXIXIXIXa u u d ;.,.IXIXIXIXIXIXIXIXIXIXIXIXIXIXIXIXIXIXIXIXIXIXIXIXIXIXIXIXIXIXIXIXIXIXIXIX",
"IXIXIXIXIXIXIXIXIXIXIXIXIXIXIXIXIXIXIXIXIXIXIXIXIXIXIXIXIXIXIXIXIXIXIXIXuXiXmXMXMXNXaXuXqX0X9X7X9X0XuXiXdXsXsXmXCXMXfX7X_ q N N N p i d ;.,.0.e.e.r.hXAXFXGXFXZXCXMXmXdXuX%.' n y s -.>.9.w.w.w.IXIXIXIXIXIXIXIXIXIXIXIXIXIXIXIXIXIXIXIXIXIXIXIXIXIXIXIXIXIXIXIX",
"IXIXIXIXIXIXIXIXIXIXIXIXIXIXIXIXIXIXIXIXIXIXIXIXIXIXIXIXIXIXIXIXIXIXIXIXiXaXdXsXsXiXwX9X9X7X$.$.$.9XqXuXiXaXdXsXNXMXmXuX+.{ #.$.@.' p i d >.9.w.e.r.V.kXBXFXJXGXAXCXNXsXiXeX+.' n a i -.,.0.w.w.IXIXIXIXIXIXIXIXIXIXIXIXIXIXIXIXIXIXIXIXIXIXIXIXIXIXIXIXIXIXIXIX",
"IXIXIXIXIXIXIXIXIXIXIXIXIXIXIXIXIXIXIXIXIXIXIXIXIXIXIXIXIXIXIXIXIXIXiXaXsXaXqX0X7X$.#.7XuXsXNXMXMXCXZXZXZXAXAXMXiXuXqX0X7XeXdXmXiXM.` n s -.>.9.w.e.r.V.kXFXJXHXGXZXMXNXsXiX8X&.' e 9 p -.,.0.w.e.e.IXIXIXIXIXIXIXIXIXIXIXIXIXIXIXIXIXIXIXIXIXIXIXIXIXIXIXIXIXIX",
"IXIXIXIXIXIXIXIXIXIXIXIXIXIXIXIXIXIXIXIXIXIXIXIXIXIXIXIXIXIXIXIXIX9XuXiXuXwX7X#.$.7X0XuXsXMXCXCXCXAXZXGXGXGXGXCXsXaXiXuXwXqXsXMXMXiXO.N i d ;.,.0.w.e.t.hXVXZXGXHXGXZXCXNXdXqX7X@._ w 0 p -.9.w.w.e.IXIXIXIXIXIXIXIXIXIXIXIXIXIXIXIXIXIXIXIXIXIXIXIXIXIXIXIXIXIX",
"IXIXIXIXIXIXIXIXIXIXIXIXIXIXIXIXIXIXIXIXIXIXIXIXIXIXIXIXIXIXIXIX+.$.qXqX7X#.+.#.wXaXMXMXmXdXiXuXuXiXiXdXjXmXmXNXMXMXMXsXuXwXqXdXZXMX9X' p s -.>.9.0.w.t.hXmXVXZXHXHXHXZXMXdXuX0X7X+.[ ) e p >.0.w.w.IXIXIXIXIXIXIXIXIXIXIXIXIXIXIXIXIXIXIXIXIXIXIXIXIXIXIXIXIXIX",
"IXIXIXIXIXIXIXIXIXIXIXIXIXIXIXIXIXIXIXIXIXIXIXIXIXIXIXIXIXIXIXIX#.$.7X$.+.+.7XqXsXMXMXdX8X+.{ [ [ [ [ { { O.*.+.$.qXsXmXdXuXwXiXZXZXiX&.N a d ;.>.,.9.y.hXCXAXZXHXHXGXZXMXsXiXuXuXqX8X&._ n -.9.w.9.f IXIXIXIXIXIXIXIXIXIXIXIXIXIXIXIXIXIXIXIXIXIXIXIXIXIXIXIXIX",
"IXIXIXIXIXIXIXIXIXIXIXIXIXIXIXIXIXIXIXIXIXIXIXIXIXIXIXIXIXIXIXIX#.#.#.+.O.#.uXsXNXsXuX7X[ 7 O o + + o o o o   O q } 9XiXdXiXqXuXCXZXmX0X` , s -.<.7.7.b.jXFXZXAXGXGXGXZXCXMXmXsXmXNXmXuX+.B :.>.0.<.p r IXIXIXIXIXIXIXIXIXIXIXIXIXIXIXIXIXIXIXIXIXIXIXIXIXIXIXIX",
"IXIXIXIXIXIXIXIXIXIXIXIXIXIXIXIXIXIXIXIXIXIXIXIXIXIXIXIXIXIXw _ +.#.+.+.$.wXsXmXiX9XO.) 7 +   . . . . . . . .   O 7 w { 8XuXuXiXaXsXVXiX} < u C N.kXkXjXBXCXNXmXMXCXZXZXAXAXCXCXZXZXZXNXwXX.f ;.,.>.n q ` O.$.qXsXNXmXsXIXIXIXIXIXIXIXIXIXIXIXIXIXIXIXIXIXIXIXIX",
"IXIXIXIXIXIXIXIXIXIXIXIXIXIXIXIXIXIXIXIXIXIXIXIXIXIXIXIXIXIXw ` O.+.O.#.wXiXdXuX#._ q 6 % > < < , < m m < < < < < > + 8 [ $.8X0XeXuXMXmX7X . .M.jXFXFXZXCXNXaXiXsXMXCXGXGXGXGXGXGXGXGXCXsXeXc.:.>.;.n e ] @.7XqXmXMXMXMXIXIXIXIXIXIXIXIXIXIXIXIXIXIXIXIXIXIXIXIX",
"IXIXIXIXIXIXIXIXIXIXIXIXIXIXIXIXIXIXIXIXIXIXIXIXIXIXIXIXIXIX` ` _ [ { $.iXdXwX+.e O O > < U h.k.h.h.m.m.n.k.k.k.! M > + O q [ @.+.8XsXMXsXaXjXNXVXVXNXmXmXsXiXuXiXsXCXGXHXHXHXHXGXAXMXMXCXsXeXc.:.-.n w [ +.7XuXMXGXGXGXCXsXiXwX7X$.IXIXIXIXIXIXIXIXIXIXIXIXIXIX",
"IXIXIXIXIXIXIXIXIXIXIXIXIXIXIXIXIXIXIXIXIXIXIXIXIXIXIXIXIXq ` ` w ` +.9XiXqXO.e > > m M U h.m.B.m.m.OXOXm.m.B.m.k.h.W M h < 0 e ) O.qXsXCXAXZXCXmXsXaXaXsXsXaXfXsXNXCXGXGXHXKXHXGXCXMXMXCXVXdXeX3.d n e ` O.$.qXMXGXHXHXCXsXiXqX0X7X+.IXIXIXIXIXIXIXIXIXIXIXIXIX",
"IXIXIXIXIXIXIXIXIXIXIXIXIXIXIXIXIXIXIXIXIXIXIXIXIXIXIXIX6 7 ) ) q ` $.wX8X+.q % , M ! h.h.n.OXOX XOX#X#XOX XOXOXm.m.m.m.h.W > O = w #.qXsXMXMXNXaXpXuXiXsXmXsXmXMXCXAXZXZXGXHXHXFXCXVXMXCXCXCXtX4.g n q w _ @.8XsXAXHXGXCXmXiXuXqX7X+.{ IXIXIXIXIXIXIXIXIXIXIXIX",
"IXIXIXIXIXIXIXIXIXIXIXIXIXIXIXIXIXIXIXIXIXIXIXIXIXIXIXIX6 7 w w q ` 7X9X*.N 9 < h W k.m.M.XXtXkXkXkXjXjXvXvXvXvXjXjXkXtXrXM.T , % 7 { +.o.5XdXCXNXsXfXfXdXsXsXmXNXMXCXAXAXAXCXCXAXZXAXAXCXCXMXfXM. .' w w ) [ $.iXMXAXAXMXsXiXuXqX8X#.@.IXIXIXIXIXIXIXIXIXIXIXIX",
"IXIXIXIXIXIXIXIXIXIXIXIXIXIXIXIXIXIXIXIXIXIXIXIXIXIXIXIX6 7 q q q _ $.%.w 6 m M M W n. XrXpXiXzXzXzXSXDXDXDXDXDXDXSXzXzXpXeXn.T 0 w [ _ 4 ( 5XsXMXCXmXsXsXdXsXsXsXmXMXCXZXAXMXMXCXCXCXCXCXMXNXdXqX7XO._ w w ` +.qXdXNXNXsXaXuXqXwX7X&.+.IXIXIXIXIXIXIXIXIXIXIXIX",
"IXIXIXIXIXIXIXIXIXIXIXIXIXIXIXIXIXIXIXIXIXIXIXIXIXIXIXIX6 6 6 q ` { #.@.q > U Q W ! M.uXnXzXoXR./.%XlXlXlXlXlXlXlXlXlX^./.W.eXM.@.{ { ` 4 2 7 o.iXAXZXAXMXsXaXiXiXdXMXAXGXGXCXMXMXmXsXsXNXMXNXsXuX8X$.+._ w ) { 9XuXiXiXuXqXwX8X7X#.{ O.7XqXIXIXIXIXIXIXIXIXIXIX",
"IXIXIXIXIXIXIXIXIXIXIXIXIXIXIXIXIXIXIXIXIXIXIXIXIXIXIXIX6 6 6 q _ { { _ 9 < Q h.n.X.#.I.gXgXP.K.T.Q.~.!.!.!.!.!.!.!.~.Q.T.R.I.XXI.O.{ ( 4 2 2 ( wXCXGXGXZXMXsXiXuXiXmXAXHXHXZXSXsXaXiXaXNXCXCXMXdXuX8X#.[ ) w _ #.8XwXwX0X9X7X$.#.O._ { 7XwX7XIXIXIXIXIXIXIXIXIX",
"IXIXIXIXIXIXIXIXIXIXIXIXIXIXIXIXIXIXIXIXIXIXIXIXIXIXIXIXO O 6 q _ [ w 0 , j h.m.XXI...L S.D.J.K.R.Q.~.!.!.!.!.!.!.!.~.Q.E.Y.K.J.D.S...( 4 2 2 ( 5XaXMXGXHXGXMXaXuXuXsXCXGXGXGXCXdXiXiXdXMXZXHXGXMXaX8X#.{ ` q w { #.$.$.$.#.#.+.O.[ ) [ 7X8X#.O.IXIXIXIXIXIXIXIX",
"IXIXIXIXIXIXIXIXIXIXIXIXIXIXIXIXIXIXIXIXIXIXIXIXIXIXIXIXIXO 6 7 w w 7 % # m n.M.&...L K K A.D.K.R.E.Q.~.~.!.!.!.!.~.Q.E.R.Y.L.G.D.S.~ G 4 2 2 4 ( +.uXMXGXHXFXMXiXuXiXsXMXCXMXmXaXaXNXCXGXHXHXAXdX0X#.{ [ ) 7 q ` [ { { [ [ [ _ ` _ { #.7X$.O.[ IXIXIXIXIXIXIXIX",
"IXIXIXIXIXIXIXIXIXIXIXIXIXIXIXIXIXIXIXIXIXIXIXIXIXIXIXIXIXIX6 6 7 7 O + X 0 &.I.~ H K S.S.S.D.L.K.R.E.Q.Q.~.~.~.~.Q.E.Y.Y.K.L.L.D.S.S.H 4 2 2 2 @ 7 +.uXMXHXHXZXsXuXuXuXdXsXdXaXaXmXGXHXHXGXAXdX$.{ _ ` ` w 7 6 q w w w w w e w ) { 7X0X7X+.[ ) IXIXIXIXIXIXIXIX",
"IXIXIXIXIXIXIXIXIXIXIXIXIXIXIXIXIXIXIXIXIXIXIXIXIXIXIXIXIXIXO O O + @ o = =.#.I.~ A.D.L.L.L.S.S.L.K.Y.R.E.E.Q.Q.E.E.Y.K.K.K.K.K.K.K.D.J 4 2 2 2 . + q @.iXAXHXGXCXsXuXuXiXaXiXaXmXCXHXHXGXNXwX@.q 6 6 q ) w 6 6 7 q q q q 7 7 ` $.wXqX9XO._ IXIXIXIXIXIXIXIXIXIX",
"IXIXIXIXIXIXIXIXIXIXIXIXIXIXIXIXIXIXIXIXIXIXIXIXIXIXIXIXIXIXO + o o & & n B O.@.~ S.J.Y.R.K.G.D.D.D.J.K.Y.R.E.E.R.Y.Y.K.K.K.Y.R.R.K.D.J 4 2 4 4 3 + + q #.iXAXHXZXMXdXaXsXsXsXsXCXZXGXAXsX0X[ 8 . . + q _ ` 7 6 0 q q w [ [ _ @.0XuX8X&.' N IXIXIXIXIXIXIXIXIXIX",
"IXIXIXIXIXIXIXIXIXIXIXIXIXIXIXIXIXIXIXIXIXIXIXIXIXIXIXIXIXIXIXIXo & -.>.;.f m F H K L.R.Q.Q.T.K.D.S.S.D.K.Y.R.R.T.Y.Y.Y.R.E.Q./.R.L.Z.S 4 4 o.@.` 7 O 6 w #.sXGXGXAXCXCXCXCXCXAXGXGXAXsX7X[ 6 . . . 7 ` @.{ q 6 q q q [ 8XuX0X7X$.+.[ ' T W IXIXIXIXIXIXIXIXIXIX",
"IXIXIXIXIXIXIXIXIXIXIXIXIXIXIXIXIXIXIXIXIXIXIXIXIXIXIXIXIXIXIXIXi d >.9.>.d , - - F Z.K.E.Q.Q.T.L.D.D.L.Y.E.Q.Q.E.E.E.E.Q.Q.Q.R.J.Z.F - ; 9 c.N.M.&.O.{ @.7XdXCXZXGXGXGXGXGXGXHXKXHXAXuX{ 7 o o 6 w { #.6X+.w q [ O.{ +.9XeX5X+.| Y N T ! h.IXIXIXIXIXIXIXIXIXIX",
"IXIXIXIXIXIXIXIXIXIXIXIXIXIXIXIXIXIXIXIXIXIXIXIXIXIXIXIXIXIXIXIX9.9.,.>.-.g 1 *   * A Z.Y.Q.E.E.T.Y.Y.E.~.!.!.!.~.Q.Q.Q.Q.Q.R.L.K A * @ - k <.t.hXNXnXsXmXsXaXsXAXHXHXHXHXHXHXHXHXGXCXqX` 6 7 ) { M.uXiXwX+.w w #.0X8X$.{ ` ) w m m W ! k.m.IXIXIXIXIXIXIXIXIXIX",
"IXIXIXIXIXIXIXIXIXIXIXIXIXIXIXIXIXIXIXIXIXIXIXIXIXIXIXIXIXIXIX9.w.w.0.<.v. .G *   . * S D.K.K.Y.Y.R.E.Q.!.!.!.!.!.~.~.Q.Q.Y.L.K Z *   * - k 9.t.kXJXJXGXCXaX7X8XNXGXHXHXHXKXKXLXHXCXiX9X&.+.$.0XiXNXCXNXqX+.w q [ +.@.} e 9 < m M W Q h.m.m.B.IXIXIXIXIXIXIXIXIX",
"IXIXIXIXIXIXIXIXIXIXIXIXIXIXIXIXIXIXIXIXIXIXIXIXIXIXIXIXIXIX>.,.0.w.w.y.hXgX..- * * * - J A.S.D.L.K.E.~.!.!.!.!.!.!.~.E.K.D.K A * + * - Z k 9.t.hXVXZXAXMXuX+.+.uXMXZXHXHXHXHXGXMXiX9X7XuXsXMXAXJXJXGXNX0XO.q 6 7 q q 0 < , , j Q h.h.h.m.m.B.OXIXIXIXIXIXIXIXIX",
"IXIXIXIXIXIXIXIXIXIXIXIXIXIXIXIXIXIXIXIXIXIXIXIXIXIXIXIXIXIX;.>.0.w.w.t.kXzX..S J K K H S S H F A J K.Q.!.!.!.!.!.!.Q.K.J A A S H J J H S k ,.q.c.6X0XuXaXuX7X#.#.0XMXHXHXHXZXsX9X#.$.qXMXGXHXJXZXMXdXqX$.{ q > % > > < < < < j Q h.k.k.k.m.OXOXIXIXIXIXIXIXIXIX",
"IXIXIXIXIXIXIXIXIXIXIXIXIXIXIXIXIXIXIXIXIXIXIXIXIXIXIXIXIXIXd -.,.0.0.t.kXzX..S S.J.K.D.K F S A - H J.Q.~.!.!.!.~.~.Q.K.J A S K G.L.D.K S k >.>.V N ' X.M.9X7X$.+.6XsXGXHXJXCXiX+.O.7XiXMXCXjXfXrX9X#.+.O._ 7 O X # : , h m M M Q h.k.k.k.k.m.OXIXIXIXIXIXIXIXIX",
"IXIXIXIXIXIXIXIXIXIXIXIXIXIXIXIXIXIXIXIXIXIXIXIXIXIXIXIXIXIXu s -.>.,.7.rXwXG A S.K.E.E.K.S.H S K D.K.R.E.Q.Q.Q.Q.Q.E.Y.D.Z.K D.Y.E.J.A.A , -.;.s a p n N [ +.$.6XwXsXAXHXJXCXiX$.$.qXiXuXM.V p p n N ) _ ) 6 + # : : , h M Q Q U W k.m.k.k.m.m.B.OXIXIXIXIXIXIX",
"IXIXIXIXIXIXIXIXIXIXIXIXIXIXIXIXIXIXIXIXIXIXIXIXIXIXIXIXIXIXIXu s d -.3.M.%.r - H D.K.Y.L.A.H F K D.L.K.Y.T.E.E.T.Y.Y.K.L.Z.K Z.K.K.D.J Z : d d u y u y a n B  .@.6XuXNXZXGXMXiX7X&.&.X. .B y & a n ` _ ` q % + : , , , < j ! ! W W h.k.k.k.k.k.m.B.IXIXIXIXIXIX",
"IXIXIXIXIXIXIXIXIXIXIXIXIXIXIXIXIXIXIXIXIXIXIXIXIXIXIXIXIXIXIXIXu u s f  .{ 8 * * A K S.K P F P ~ S.F.J.P.R.W.W.R.P.K.J.D.~ P J S.S.H A - 1 g g u y u i i i s p N { 7XpXMXCXsXqX%.' p y y y y n ' @.+.O.) 8 # # , < < , , h Q ! W W Q h.m.k.h.h.k.m.IXIXIXIXIXIX",
"IXIXIXIXIXIXIXIXIXIXIXIXIXIXIXIXIXIXIXIXIXIXIXIXIXIXIXIXIXIXIXIXIXy u a N G A - $ & j / / / / l.(.'.'..X$X$X1X1X$X$X$X'.(.l./ / / / k 1 S ..XXN.p y u g f f :.f p B O.9XuXiX8X@.B p y y y p  .M.8X7X+.[ q > # # : , < < , < j W ! ! W Q h.k.h.! ! h.k.IXIXIXIXIX",
"IXIXIXIXIXIXIXIXIXIXIXIXIXIXIXIXIXIXIXIXIXIXIXIXIXIXIXIXIXIXIXIXIXIXy & 9 r F D a u g z c u.p.d.g.).].[.@X+X*X*X+X@X[._.f.p.i.u.1.z i k ~ U.DXNXc.p i s f 5.4.4.3.V B *.$.M.O.B p u y y y B rXnXiX9X{ w 7 % + # # , < < , , , j Q ! W U W Q ! Q U W h.n.IXIXIXIX",
"IXIXIXIXIXIXIXIXIXIXIXIXIXIXIXIXIXIXIXIXIXIXIXIXIXIXIXIXIXIXIXIXIXIXIXIX% 8 F D a u u y i i g l v 2.2.j.2.2.v v v v 2.2.b l g i i i u k ~ U.zXFXNXeXB u f 5.v.b.v.5.p n ]  .V 5.5.C i & & V aXCXqX@.w 6 % O X # # $ , < , , , < m U W W M M M U U j j ! 9XiXIXIX",
"IXIXIXIXIXIXIXIXIXIXIXIXIXIXIXIXIXIXIXIXIXIXIXIXIXIXIXIXIXIXIXIXIXIXIXIXt > A D j k a u y & y u g 8.3.3.8.g u u i f C C g i y y y u g b ~ U.iXCXHXBXM.V f f C.b.b.v.f p B V 4.6.6.3.g p V M.NXNX$.` 7 O O + # # # # $ , , , : : , h j j h < h h h m T X.oXxXIXIX",
"IXIXIXIXIXIXIXIXIXIXIXIXIXIXIXIXIXIXIXIXIXIXIXIXIXIXIXIXIXIXIXIXIXIXIXIX7 7 - S K ~ I x i y u g 3.4.v.b.6.5.f f 3.4.6.4.3.f i u y g 1./ ~ ..XXfXCXGXFXfXV i 3.v.b.b.6.5.5.4.b.b.4.3.3.c.tXMXMXuXO.q O o IXIX: # # # # # : : # # # # : , < < , , , T M.tX,X>X3X3X",
"IXIXIXIXIXIXIXIXIXIXIXIXIXIXIXIXIXIXIXIXIXIXIXIXIXIXIXIXIXIXIXIXIXIXIXIXw Y ` ..L S.H.^ a.v i i f 5.v.b.b.C.3.3.6.v.v.4.8.g u i v a.l.^ P G O.9XiXMXFXSXrXc.f 8.v.b.v.6.4.6.v.v.4.6.N.kXBXVXpX#.) 6 O IXIXIXIX: # # # # # # # # X X # # $ $ # < ' M.oX,X2X2X3X3X",
"IXIXIXIXIXIXIXIXIXIXIXIXIXIXIXIXIXIXIXIXIXIXIXIXIXIXIXIXIXIXIXIXIXIXIXIX` [ @.O.L K L.W.'.z.v g g f 5.v.b.b.6.6.v.v.4.3.g i i b z.'.P.D.H G | +.7XqXdXMXZXjX .f 4.v.v.6.6.6.4.4.v.N.BXGXCXiX$._ 7 O IXIXIXIXIXIX: : # X X # # # # X X # > > < R 9XtX,X>X3X2X-X;X",
"IXIXIXIXIXIXIXIXIXIXIXIXIXIXIXIXIXIXIXIXIXIXIXIXIXIXIXIXIXIXIXIXIXIXIXIXIX[ [ ` A S Z.K.W.'.`.s.g s f 5.6.v.v.C.4.3.f i y g p.`.'.P.D.~ ..@.%.#.@.#.wXdXVXSXjXN.c.3.4.6.6.5.f V rXBXFXCXfX7X[ q 6 O IXIXIXIXIXIXIX% + + X X # X X X X 9 O.XXeXrX,X<X2X3X2X-X}.].",
"IXIXIXIXIXIXIXIXIXIXIXIXIXIXIXIXIXIXIXIXIXIXIXIXIXIXIXIXIXIXIXIXIXIXIXIXIXIXq r r A F Z.K.W.$X`.a.b 2.j.x.m.B.m.x.j.v l l I `..XP.D.H G O.#.#.+.[ [ +.9XuXNXJXjXV s 8.5.4.5.V n.NXGXMXiX7X{ w 6 O O IXIXIXIXIXIXIXIXO O % > > 9 0 0 0 | 8XpXpXtX<X:X3X2X-X{.).d.",
"IXIXIXIXIXIXIXIXIXIXIXIXIXIXIXIXIXIXIXIXIXIXIXIXIXIXIXIXIXIXIXIXIXIXIXIXIXIX6 6 q 0 - S A.G.P.'.(.).].@X+X;X<X<X;X@X[._.).(.P.P.D.J Z r Y _ ) ) ` ` ) [ #.yXMXfXV y s f :.v.tXBXAXNXwX&.[ w 6 O IXIXIXIXIXIXIXIXIXIX6 6 7 w ] O.&.%.$.7X9X$.*.X.*X3X2X-X+X_.s.u.",
"IXIXIXIXIXIXIXIXIXIXIXIXIXIXIXIXIXIXIXIXIXIXIXIXIXIXIXIXIXIXIXIXIXIXIXIXIXIXIX6 7 7 = - S K D.J.'..X$X$X$X1X1X1X1X1X$X$X'.'.F.Z.H A r G @.$.#.+.{ ` q q [ $.iXfXM. .g s s c.NXLXCXuX+.` w 7 O + IXIXIXIXIXIXIXIXIXIX> 6 7 w _ O.+.$.$.$.+.+.&.XX*X:X=X{._.d.u.c ",
"IXIXIXIXIXIXIXIXIXIXIXIXIXIXIXIXIXIXIXIXIXIXIXIXIXIXIXIXIXIXIXIXIXIXIXIXIXIXIXIXO O O = - A J S.J.R.W./.Q.~.^.%X%X~.E.R.K.F.S.H A - Y +.iXMXMXsX8XO.w q ` @.8XaXMXtX5.u y V jXAXiX$._ q q 7 O o IXIXIXIXIXIXIXIXIXIX+ + O 6 q ) ` _ [ [ _ &.fXcX,X{.[._.d.i.c z ",
"IXIXIXIXIXIXIXIXIXIXIXIXIXIXIXIXIXIXIXIXIXIXIXIXIXIXIXIXIXIXIXIXIXIXIXIXIXIXIXIXIXIXIX+ + * Z F K S.L.K.Y.E.Q.Q.Q.E.K.L.Z.J S A r q w { 8XdXVXMXuX$.[ w w _ @.8XnXuXV p c.rXaXuX#.[ ) q 7 6 O IXIXIXIXIXIXIXIXIXIXIXo + O 7 w ` [ [ [ [ [ %.sXcXOXg.f.p.u.c x IX",
"IXIXIXIXIXIXIXIXIXIXIXIXIXIXIXIXIXIXIXIXIXIXIXIXIXIXIXIXIXIXIXIXIXIXIXIXIXIXIXIXIXIXIXIXo + * - A F K Z.D.L.K.Y.K.L.D.K F A - > e w q G O.9XiXdXuX7X{ ` w w ) O.0X9XV  .jXCXuX#.) q w q O o IXIXIXIXIXIXIXIXIXIXIXIXo + 6 7 w _ { O.O.{ { $.aXtXk.i.u.1.v v IXIX",
"IXIXIXIXIXIXIXIXIXIXIXIXIXIXIXIXIXIXIXIXIXIXIXIXIXIXIXIXIXIXIXIXIXIXIXIXIXIXIXIXIXIXIXIXIXIXIXIXIXIXA S J A.S.S.Z.K H F G G G e q 7 7 w [ +.$.7X$.+.[ ` w 7 6 w +.eXuXjXCXmX7X[ 7 6 7 7 O o IXIXIXIXIXIXIXIXIXIXIXIXIXIXO 6 7 q ` [ { } [ +.uXrXh.c x I n.M.IXIX",
"IXIXIXIXIXIXIXIXIXIXIXIXIXIXIXIXIXIXIXIXIXIXIXIXIXIXIXIXIXIXIXIXIXIXIXIXIXIXIXIXIXIXIXIXIXIXIXIXIXIX* - A F F F S A - r q w ) w 7 7 ) { #.7X9X9X7X$.#.@.[ ) 7 q [ 7XmXZXNXqXO.q 6 O O O + o IXIXIXIXIXIXIXIXIXIXIXIXIXIXO O O 8 w ` [ [ ` O.qXrX! b v n.rXfXIXIX",
"IXIXIXIXIXIXIXIXIXIXIXIXIXIXIXIXIXIXIXIXIXIXIXIXIXIXIXIXIXIXIXIXIXIXIXIXIXIXIXIXIXIXIXIXIXIXIXIXIXIX6 > = = = = = 6 q e w w q 7 6 q O.9XiXsXMXMXMXmXaXqX9X+._ w w *.uXdXqX#.w O + + + + IXIXIXIXIXIXIXIXIXIXIXIXIXIXIXIX+ + O 6 q ) _ _ ` { 0XeX{ ' X.eXfXmXIXIX",
"IXIXIXIXIXIXIXIXIXIXIXIXIXIXIXIXIXIXIXIXIXIXIXIXIXIXIXIXIXIXIXIXIXIXIXIXIXIXIXIXIXIXIXIXIXIXIXIXIXIX8 7 7 7 e ) [ O.#.$.%.O.) 7 O 7 [ #.0XuXfXaXiXuXqX9X$.@.` w q [ 8XqX7XO.) 7 6 O 6 6 IXIXIXIXIXIXIXIXIXIXIXIXIXIXIXIXIX+ + O 6 7 w w e ] 7X7X[ ] #.qXsXMXIXIX",
"IXIXIXIXIXIXIXIXIXIXIXIXIXIXIXIXIXIXIXIXIXIXIXIXIXIXIXIXIXIXIXIXIXIXIXIXIXIXIXIXIXIXIXIXIXIXIXIXIXIX7 q ) [ O.$.qXsXMXCXmXqX} 7 6 7 ` { @.#.$.7X$.#.+.O.{ _ ) w w _ %.7X+.@.@.{ ` w q q IXIXIXIXIXIXIXIXIXIXIXIXIXIXIXIXIXIXo o + % 9 0 0 ` +.+.` ` #.qXaXsXIXIX",
"IXIXIXIXIXIXIXIXIXIXIXIXIXIXIXIXIXIXIXIXIXIXIXIXIXIXIXIXIXIXIXIXIXIXIXIXIXIXIXIXIXIXIXIXIXIXIXIXIXIXq w [ @.$.qXsXCXGXGXCXiXO.) ` { $.8XqXuXaXaXuXqXwX8X7X#.O.[ ) ` { @.+.%.9X9X#.O.[ ` w IXIXIXIXIXIXIXIXIXIXIXIXIXIXIXIXIXIX$ a k b Q Q ^ X.o.w ) +.9XyXiXIXIX",
"IXIXIXIXIXIXIXIXIXIXIXIXIXIXIXIXIXIXIXIXIXIXIXIXIXIXIXIXIXIXIXIXIXIXIXIXIXIXIXIXIXIXIXIXIXIXIXIXIXIXq ) [ +.7XqXsXCXGXGXMXqX@.[ @.$.qXiXaXdXmXmXsXaXiXqXwX9X#.O.[ ` ` [ +.7XqXuX8X#.{ ` q 7 IXIXIXIXIXIXIXIXIXIXIXIXIXIXIXIXIXIXz c a.d.f.z.n.{ ) ( [ +.7X0XIXIX",
"IXIXIXIXIXIXIXIXIXIXIXIXIXIXIXIXIXIXIXIXIXIXIXIXIXIXIXIXIXIXIXIXIXIXIXIXIXIXIXIXIXIXIXIXIXIXIXIXO 6 7 q ) [ +.7XuXsXMXMXuX7X{ { $.7X7X$.+.+.#.$.$.#.+.@.O.{ O.O.{ [ ` _ *.%.0X0X#.{ ` q 7 6 6 6 IXIXIXIXIXIXIXIXIXIXIXIXIXIXIXIXx c u.p.f.).`.|.X._ q ) @.$.IXIX",
"IXIXIXIXIXIXIXIXIXIXIXIXIXIXIXIXIXIXIXIXIXIXIXIXIXIXIXIXIXIXIXIXIXIXIXIXIXIXIXIXIXIXIXIXIXIXIXIX+ O 6 7 7 w _ @.$.8XuXqX$.O.` ` { @.{ { [ [ O.+.#.+.{ _ ` ) ` _ _ ` ) ) [ @.$.#.[ w 7 7 7 7 q q IXIXIXIXIXIXIXIXIXIXIXIXIXIXIXIXx x c u.s.g._.`.X.] 6 6 _ @.IXIX",
"IXIXIXIXIXIXIXIXIXIXIXIXIXIXIXIXIXIXIXIXIXIXIXIXIXIXIXIXIXIXIXIXIXIXIXIXIXIXIXIXIXIXIXIXIXIXIXIX+ + O 6 6 7 q w ` [ { { [ ` q 7 7 q ) [ +.$.8XqXqXwX$.O._ ) w q 7 7 7 q w ` [ ` q 6 6 7 q ) _ [ ` ` IXIXIXIXIXIXIXIXIXIXIXIXIXIXz z x c i.d.f.z.X.` 6 6 ) [ IXIX",
"IXIXIXIXIXIXIXIXIXIXIXIXIXIXIXIXIXIXIXIXIXIXIXIXIXIXIXIXIXIXIXIXIXIXIXIXIXIXIXIXIXIXIXIXIXIXIX#.{ _ ` w w q q q 7 7 q w q 7 6 6 6 q [ #.0XpXsXNXMXmXiXqX9X#.O._ e 7 6 6 7 q q 7 6 6 7 w [ #.7X9X$.#.#.IXIXIXIXIXIXIXIXIXIXIXIXm M b x x 1.u.i.a.T q 8 7 w ` IXIX",
"IXIXIXIXIXIXIXIXIXIXIXIXIXIXIXIXIXIXIXIXIXIXIXIXIXIXIXIXIXIXIXIXIXIXIXIXIXIXIXIXIXIXIXIXIXIXwXwXqXwX$.+.{ _ ) q 6 O 6 6 O O O 6 q _ #.qXsXMXAXGXHXHXGXCXMXdXqX#._ q 6 O O O O O O 7 ) { 7XuXsXmXdXuX8X7XIXIXIXIXIXIXIXIXIXIX7 w _ ' b z x v a.I N e w w w w IXIX",
"IXIXIXIXIXIXIXIXIXIXIXIXIXIXIXIXIXIXIXIXIXIXIXIXIXIXIXIXIXIXIXIXIXIXIXIXIXIXIXIXIXIXIXIXIXsXmXNXMXsXuX8X$.+.{ ` q 6 O + O O 6 7 w { 7XuXMXZXGXHXHXKXHXGXAXNXiX9XO.) 7 O + + + O 7 ` +.9XiXsXMXMXMXmXiXwX$.IXIXIXIXIXIXIXIXIX7 w [ } m m  .n.XXrXeX7X+.[ q 7 IXIX",
"IXIXIXIXIXIXIXIXIXIXIXIXIXIXIXIXIXIXIXIXIXIXIXIXIXIXIXIXIXIXIXIXIXIXIXIXIXIXIXIXIXIXIXIXNXCXGXGXZXMXdXqX9X#.{ ` q 6 O + + O 6 7 w { $.qXNXAXGXGXHXHXHXGXCXmXuX7XO.` 7 O + + O 6 w [ $.qXaXsXsXNXCXCXMXiX9X#.IXIXIXIXIXIXIXIX7 q _ ` 7 q @.8XpXdXsXiX8X@.w 6 IXIX",
"IXIXIXIXIXIXIXIXIXIXIXIXIXIXIXIXIXIXIXIXIXIXIXIXIXIXIXIXIXIXIXIXIXIXIXIXIXIXIXIXIXIXsXMXZXGXHXGXAXMXdXqX$.O.` q 6 O O + + + O 6 7 ) { 7XiXNXCXAXZXZXZXCXMXdX0X#.[ q 6 O + + O 7 w [ +.$.8XqXpXdXNXCXZXMXiXwXIXIXIXIXIXIXIXIX6 7 7 7 6 q { $.wXqXwX8X9X+.` q IXIX",
"IXIXIXIXIXIXIXIXIXIXIXIXIXIXIXIXIXIXIXIXIXIXIXIXIXIXIXIXIXIXIXIXIXIXIXIXIXIXIXIXIXxXcXCXGXHXHXGXCXNXiX8X+._ q 6 O 6 q q 6 O O O 6 q ` @.0XiXsXMXMXMXMXmXaXqX%.{ w 7 O + o o + 3 8 e ` { @.#.7XqXdXMXGXZXNXdXqXIXIXIXIXIXIXIXO O 6 t O 7 _ O.+.+.O.{ { [ q 7 IXIX",
"IXIXIXIXIXIXIXIXIXIXIXIXIXIXIXIXIXIXIXIXIXIXIXIXIXIXIXIXIXIXIXIXIXIXIXIXIXIXIXIX-X<XPXJXJXHXHXGXCXsXqX$.[ q 6 O 6 w { { ) 7 O + O 6 q _ #.8XqXiXaXaXiXuX0X$.{ ) 7 O + o o + + + + > 8 q ` [ O.$.uXmXZXGXZXNXqX9XIXIXIXIXIXIX+ O 6 6 O 6 w ) q q q 7 7 6 O + IXIX",
"IXIXIXIXIXIXIXIXIXIXIXIXIXIXIXIXIXIXIXIXIXIXIXIXIXIXIXIXIXIXIXIXIXIXIXIXIXIXIX*XxXvXPXHXHXGXGXAXNXiX7X{ w 6 6 7 ` O.#.#.{ w O o + O 6 q ` { +.#.$.$.$.#.@.[ w 7 6 + o # h U / / ^ W > O 7 w _ @.9XiXCXGXGXCXiXqXIXIXIXIXIXIXIXO 6 6 6 6 7 7 7 q ` ` q 6 O o IXIX",
"IXIXIXIXIXIXIXIXIXIXIXIXIXIXIXIXIXIXIXIXIXIXIXIXIXIXIXIXIXIXIXIXIXIXIXIXIXIX+X,XcXZXHXHXHXGXZXMXaXeX+.` 7 6 7 _ #.8X8X7X@.` 6 o o + O O 7 q w ` ` ` ` ` w q 8 O + o + < I d._.[.+X`.E > > 7 w [ #.wXmXZXGXAXmXaXIXIXIXIXIXIXIXIX6 6 6 6 O 6 7 ) [ { ` q O o IXIX",
"IXIXIXIXIXIXIXIXIXIXIXIXIXIXIXIXIXIXIXIXIXIXIXIXIXIXIXIXIXIXIXIXIXIXIXIXIXIX=X<XvXJXHXHXGXZXMXdXwX#._ q 6 q { 7XuXdXiX0X+.` 6 +     o O O 6 7 7 r q 7 7 8 6 O + o # k I s.).[.{.+X+X@X|.0 O 7 ` O.7XiXMXZXAXNXiX7X+.IXIXIXIXIXIX+ O O O O O 6 7 7 7 O O IXIXIXIX",
"IXIXIXIXIXIXIXIXIXIXIXIXIXIXIXIXIXIXIXIXIXIXIXIXIXIXIXIXIXIXIXIXIXIXIXIXIXIX,XbXPXJXGXGXZXMXdXqX$.[ w 7 q _ 7XiXNXNXdXwX+.` 7 O     o o + O O O 6 6 O O O + o o # k c p.f._.}.+X&X-X3X*X^ Y r e _ +.wXdXMXCXNXiX7X#.IXIXIXIXIXIXo + O O O O O O o   . . IXIXIXIX",
"IXIXIXIXIXIXIXIXIXIXIXIXIXIXIXIXIXIXIXIXIXIXIXIXIXIXIXIXIXIXIXIXIXIXIXIX+X@XxXcXAXGXGXZXCXsXqX$.[ w 7 q _ $.iXMXMXmXiX8X@.` 7 O + o     o + + + + + + + + o o $ k I i.d.).[.}.&X;X-X>X>X<X.XE 6 w { $.qXsXmXsXiX0X7XIXIXIXIXIXIXIXIXIXIXIXIXIXIXIXIXIXIXIXIXIXIX",
"IXIXIXIXIXIXIXIXIXIXIXIXIXIXIXIXIXIXIXIXIXIXIXIXIXIXIXIXIXIXIXIXIXIXIXIX&X,XcXMXAXZXAXCXsXuX$.{ w 7 7 ` #.qXNXCXMXsXuX9X{ w 7 O + o     o o o o o o o # & & & k c u.u.s.).].[.+X&X-X-X:X3X>X|.R G ( *.7XuXaXaXiXwX8XIXIXIXIXIXIXIXIXIXIXIXIXIXIXIXIXIXIXIXIXIXIX",
"IXIXIXIXIXIXIXIXIXIXIXIXIXIXIXIXIXIXIXIXIXIXIXIXIXIXIXIXIXIXIXIXIXIXIXIX-X<XvXCXAXAXCXsXuX7X{ N 6 6 w O.wXsXCXCXmXiXqX$.[ w 7 O + o   . IXIXIXIXIXIXIXIXl l l l z c 1.i.d.)._.[.{.&X;X>X3X3X4X*XR e ` @.9XqXuXqX0X7XIXIXIXIXIXIXIXIXIXIXIXIXIXIXIXIXIXIXIXIXIXIX",
"IXIXIXIXIXIXIXIXIXIXIXIXIXIXIXIXIXIXIXIXIXIXIXIXIXIXIXIXIXIXIXIXIXIXIX=X2XbXvXAXAXCXmXiX7XO.) 7 6 q { 9XsXCXCXMXsXuX7X@.` q 6 O + o   IXIXIXIXIXIXIXIXIXIXIXIXx z x 1.u.p.f.)._.[.}.}.&X-X3X3X4X.X|.| ] +.7X0X8X$.+.{ IXIXIXIXIXIXIXIXIXIXIXIXIXIXIXIXIXIXIXIXIX",
"IXIXIXIXIXIXIXIXIXIXIXIXIXIXIXIXIXIXIXIXIXIXIXIXIXIXIXIXIXIXIXIXIXIX+X;X2XbXvXVXVXNXiX8X@.` 7 6 6 ` $.iXMXAXMXmXiX0X+.` q 6 O + o o IXIXIXIXIXIXIXIXIXIXIXIXIXIXz c c u.i.p.d.g._.].].[.&X>X3X3X3X*XR q [ +.$.#.@.{ ] ` IXIXIXIXIXIXIXIXIXIXIXIXIXIXIXIXIXIXIXIX",
"IXIXIXIXIXIXIXIXIXIXIXIXIXIXIXIXIXIXIXIXIXIXIXIXIXIXIXIXIXIXIXIXIXIX;X-X>X<XcXmXmXiX8X+.` 7 O 6 w @.uXNXCXCXNXaXwX#.[ w 8 O + o     IXIXIXIXIXIXIXIXIXIXIXIXIXIXIXIXx c u.i.p.d.g.)._.[.+X-X3X3X3X*XR 6 w [ O.O.[ ` ( w IXIXIXIXIXIXIXIXIXIXIXIXIXIXIXIXIXIXIXIX",
"IXIXIXIXIXIXIXIXIXIXIXIXIXIXIXIXIXIXIXIXIXIXIXIXIXIXIXIXIXIXIXIXIXIX>X>X,XxXcXdXiX0X+._ r O + 7 [ 7XsXCXMXmXaXqX$.{ w 7 O + o     . IXIXIXIXIXIXIXIXIXIXIXIXIXIXIXIXz x c u.a.p.d.g.).].}.=X:X3X3X,X|.R Y ) _ [ ` Y R R IXIXIXIXIXIXIXIXIXIXIXIXIXIXIXIXIXIXIXIX",
"IXIXIXIXIXIXIXIXIXIXIXIXIXIXIXIXIXIXIXIXIXIXIXIXIXIXIXIXIXIXIXIX+X=X2X4XxXfXaXiXwX#.[ q O + O w #.uXmXMXsXiXwX$.{ w 7 O + o     IXIXIXIXIXIXIXIXIXIXIXIXIXIXIXIXIXIXz z x c u.u.p.d.f._.}.&X-X2X3X3X>X.XR q ) ) e T l.`.IXIXIXIXIXIXIXIXIXIXIXIXIXIXIXIXIXIXIXIX",
"IXIXIXIXIXIXIXIXIXIXIXIXIXIXIXIXIXIXIXIXIXIXIXIXIXIXIXIXIXIXIXIX&X;X:X<XtXpXpXwX#.[ 7 9 E R Y [ 8XdXNXmXiX8X#.[ w 8 O o @     IXIXIXIXIXIXIXIXIXIXIXIXIXIXIXIXIXIXIXIXz z x c 1.u.p.d.g._.[.&X-X2X3X3X*XR 3 q w q E l.).IXIXIXIXIXIXIXIXIXIXIXIXIXIXIXIXIXIXIXIX",
"IXIXIXIXIXIXIXIXIXIXIXIXIXIXIXIXIXIXIXIXIXIXIXIXIXIXIXIXIXIXIXIX-X-X-X,XtXuX0X#.[ e 6 E `. XX.+.uXsXsXuX9X+.] e 6 O + o   . IXIXIXIXIXIXIXIXIXIXIXIXIXIXIXIXIXIXIXIXIXIXz z z c 1.u.p.s.f.).[.&X-X:X3X*XR 8 7 r 7 m a.p.IXIXIXIXIXIXIXIXIXIXIXIXIXIXIXIXIXIXIXIX",
"IXIXIXIXIXIXIXIXIXIXIXIXIXIXIXIXIXIXIXIXIXIXIXIXIXIXIXIXIXIXIX;X2X2X&X@XXX9X&.] 7 0 ^ `.[..XXX9XiXaXqX$.*.` 7 O + # a a $ IXIXIXIXIXIXIXIXIXIXIXIXIXIXIXIXIXIXIXIXIXIXIXz z z x c c u.i.p.f.].}.&X-X3X2X.X|.Y 6 5 < I i.IXIXIXIXIXIXIXIXIXIXIXIXIXIXIXIXIXIXIXIX",
"IXIXIXIXIXIXIXIXIXIXIXIXIXIXIXIXIXIXIXIXIXIXIXIXIXIXIXIXIXIX+X=X2X>X@X|.M.@.] w 0 ^ .X=X[. XXXwXuXwX#.[ w 6 + o X & l x IXIXIXIXIXIXIXIXIXIXIXIXIXIXIXIXIXIXIXIXIXIXIXIXz z z z z x c u.i.d.)._.[.&X>X3X3X*XR O % k c 1.IXIXIXIXIXIXIXIXIXIXIXIXIXIXIXIXIXIXIXIX",
"IXIXIXIXIXIXIXIXIXIXIXIXIXIXIXIXIXIXIXIXIXIXIXIXIXIXIXIXf._.&X-X=X@XXX&.*.` q Y |.@X}.].f.z.XX0X6X@.` 7 3 o   X a l IXIXIXIXIXIXIXIXIXIXIXIXIXIXIXIXIXIXIXIXIXIXIXIXIXIXIXIXz z z z x 1.i.p.d.d.g.].=X2X3X*XR % k c c c IXIXIXIXIXIXIXIXIXIXIXIXIXIXIXIXIXIXIXIX",
"IXIXIXIXIXIXIXIXIXIXIXIXIXIXIXIXIXIXIXIXIXIXIXIXIXIXIXn. X X,X,X,X#XrX8X$.+.X.(.&X=X[.).l.n.XX7X{ w 6 % , , & & l IXIXIXIXIXIXIXIXIXIXIXIXIXIXIXIXIXIXIXIXIXIXIXIXIXIXIXIXIXIXz z z z v k.m.m. X X#X,XbX<XoXR 9 j b b k IXIXIXIXIXIXIXIXIXIXIXIXIXIXIXIXIXIXIXIX",
"IXIXIXIXIXIXIXIXIXIXIXIXIXIXIXIXIXIXIXIXIXIXIXIXIXIX+.$.0XpXfXsXcXcXcXsXfXtX<X>X&X}.).z.n.#.$.+.w t o : I u.c l IXIXIXIXIXIXIXIXIXIXIXIXIXIXIXIXIXIXIXIXIXIXIXIXIXIXIXIXIXIXIXIXz z z Q M.uXfXcXCXZXZXcXuXXX} N w 0 9 8 IXIXIXIXIXIXIXIXIXIXIXIXIXIXIXIXIXIXIXIX",
"IXIXIXIXIXIXIXIXIXIXIXIXIXIXIXIXIXIXIXIXIXIXIXIXIX+.#.7XyXfXfXpXyXwX0XwXuXaXbXxXoX|.d.l.n.&.*.` 6 % h b I u.1.IXIXIXIXIXIXIXIXIXIXIXIXIXIXIXIXIXIXIXIXIXIXIXIXIXIXIXIXIXIXIXIXIXM M W  .M.wXuXfXdXsXdXuX7X+.{ ` w r 6 t IXIXIXIXIXIXIXIXIXIXIXIXIXIXIXIXIXIXIXIX",
"IXIXIXIXIXIXIXIXIXIXIXIXIXIXIXIXIXIXIXIXIXIXIXIX#.$.7XwXiXsXaXuX8X$.+.+.6XwXiXpX8XX.h.Q X.O.w 6 % < I a.c z IXIXIXIXIXIXIXIXIXIXIXIXIXIXIXIXIXIXIXIXIXIXIXIXIXIXIXIXIXIXIXIXIXIX_ [ O.#.7X8X0XqXqXqXwX8X$.+.O.[ ) q 6 O IXIXIXIXIXIXIXIXIXIXIXIXIXIXIXIXIXIXIXIX",
"IXIXIXIXIXIXIXIXIXIXIXIXIXIXIXIXIXIXIXIXIXIX9X0XqXuXdXNXCXZXAXCXmXiXwX$.O.{ @.%.8XXX .T | ` 8 > j I 1.1.IXIXIXIXIXIXIXIXIXIXIXIXIXIXIXIXIXIXIXIXIXIXIXIXIXIXIXIXIXIXIXIXIXIX{ { O.&.7XqXaXNXMXMXCXMXmXaXuXwX7X+._ q 6 6 IXIXIXIXIXIXIXIXIXIXIXIXIXIXIXIXIXIXIXIX",
"IXIXIXIXIXIXIXIXIXIXIXIXIXIXIXIXIXIXIXIXIXIX7X8XiXmXCXGXHXHXHXHXGXCXmXqX#.[ ` [ $.7XO.] w 0 , k I u.c z IXIXIXIXIXIXIXIXIXIXIXIXIXIXIXIXIXIXIXIXIXIXIXIXIXIXIXIXIXIXIXIXIXIX{ @.#.7XqXaXCXGXHXKXKXGXAXMXsXuX8X+.[ q 6 O IXIXIXIXIXIXIXIXIXIXIXIXIXIXIXIXIXIXIXIX",
"IXIXIXIXIXIXIXIXIXIXIXIXIXIXIXIXIXIXIXIX9X7X#.7XuXsXMXAXGXGXHXHXJXGXCXmXiX7X[ w _ { +.{ 7 , I u.c c IXIXIXIXIXIXIXIXIXIXIXIXIXIXIXIXIXIXIXIXIXIXIXIXIXIXIXIXIXIXIXIXIXIXq ) { +.$.0XuXdXCXGXHXHXGXZXMXsXpX0X$.O.` 7 O + IXIXIXIXIXIXIXIXIXIXIXIXIXIXIXIXIXIXIXIX",
"IXIXIXIXIXIXIXIXIXIXIXIXIXIXIXIXIXIXIX7XuXqX#.+.8XiXmXCXAXZXGXGXGXGXCXNXdX0X{ w q ) { [ 7 , v u.c IXIXIXIXIXIXIXIXIXIXIXIXIXIXIXIXIXIXIXIXIXIXIXIXIXIXIXIXIXIXIXIXIXIXIX7 q ` { +.$.8XqXfXsXNXMXNXsXaXuX8X$.@._ w 6 O IXIXIXIXIXIXIXIXIXIXIXIXIXIXIXIXIXIXIXIXIX",
"IXIXIXIXIXIXIXIXIXIXIXIXIXIXIXIXIXIX{ 7XmXmX7X+.#.7XuXsXMXCXCXCXAXCXNXdXqX7X{ =.7 7 w w 7 < l x IXIXIXIXIXIXIXIXIXIXIXIXIXIXIXIXIXIXIXIXIXIXIXIXIXIXIXIXIXIXIXIXIXIXIXIXO 6 q w ` [ @.#.$.9XwXqXwX0X9X$.+.{ _ w 6 O IXIXIXIXIXIXIXIXIXIXIXIXIXIXIXIXIXIXIXIXIXIX",
"IXIXIXIXIXIXIXIXIXIXIXIXIXIXIXIXIXIX[ $.NXCXuX$.{ { $.0XuXiXdXsXsXaXiXqX7X+.[ ) 7 6 7 8 O % k IXIXIXIXIXIXIXIXIXIXIXIXIXIXIXIXIXIXIXIXIXIXIXIXIXIXIXIXIXIXIXIXIXIXIXIXIXO 6 7 7 q w ) ` [ { O.@.@.O.{ [ ` w 7 6 + o IXIXIXIXIXIXIXIXIXIXIXIXIXIXIXIXIXIXIXIXIXIX",
"IXIXIXIXIXIXIXIXIXIXIXIXIXIXIXIXIXIX) +.sXZXMXqX{ ) [ O.+.$.9X0X8X9X7X$.@.[ ` w 7 3 O + + o IXIXIXIXIXIXIXIXIXIXIXIXIXIXIXIXIXIXIXIXIXIXIXIXIXIXIXIXIXIXIXIXIXIXIXIXIXIX7 7 w w ) ` ` _ [ _ ` ) ) w w q 7 6 O o   . IXIXIXIXIXIXIXIXIXIXIXIXIXIXIXIXIXIXIXIXIXIX",
"IXIXIXIXIXIXIXIXIXIXIXIXIXIXIXIX8X+.) [ qXMXZXmX#.` q q w ` { O.O.{ [ _ ` ) w q 6 O o   IXIXIXIXIXIXIXIXIXIXIXIXIXIXIXIXIXIXIXIXIXIXIXIXIXIXIXIXIXIXIXIXIXIXIXIXIXIXw ) ` [ +.$.wXuXuXuXwX$.[ w q 7 6 O O + + o IXIXIXIXIXIXIXIXIXIXIXIXIXIXIXIXIXIXIXIXIXIXIXIX",
"IXIXIXIXIXIXIXIXIXIXIXIXIXIXIXIXqX7X_ ` #.iXCXCXuX#.[ w 7 7 q q w w q 7 7 7 7 6 O +   . IXIXIXIXIXIXIXIXIXIXIXIXIXIXIXIXIXIXIXIXIXIXIXIXIXIXIXIXIXIXIXIXIXIXIXIXIXIXq w _ { #.9XuXsXMXMXNXiX7X@.{ ` w 7 O o o o IXIXIXIXIXIXIXIXIXIXIXIXIXIXIXIXIXIXIXIXIXIXIXIX",
"IXIXIXIXIXIXIXIXIXIXIXIXIXIXIXIXsXqXO.` { $.iXMXMXsXqX+.w O O O 6 6 6 O O O + +     IXIXIXIXIXIXIXIXIXIXIXIXIXIXIXIXIXIXIXIXIXIXIXIXIXIXIXIXIXIXIXIXIXIXIXIXIXIXIXIX7 q ) _ [ { +.9XiXNXCXCXNXdXuX9X+._ 7 + o o IXIXIXIXIXIXIXIXIXIXIXIXIXIXIXIXIXIXIXIXIXIXIXIX",
"IXIXIXIXIXIXIXIXIXIXIXIXIXIXIXIXCXaX$.[ ` { 7XiXNXMXmXuX#._ 7 O + o + o o       . . IXIXIXIXIXIXIXIXIXIXIXIXIXIXIXIXIXIXIXIXIXIXIXIXIXIXIXIXIXIXIXIXIXIXIXIXIXIXIXIXe ) { +.$.$.#.#.$.9XuXaXdXiXqX7X+.` 6 + + IXIXIXIXIXIXIXIXIXIXIXIXIXIXIXIXIXIXIXIXIXIXIXIXIX",
"IXIXIXIXIXIXIXIXIXIXIXIXIXIXIXIXZXNX0X@.` ) { $.qXaXmXmXiX7X[ q 6 + + o       . . . IXIXIXIXIXIXIXIXIXIXIXIXIXIXIXIXIXIXIXIXIXIXIXIXIXIXIXIXIXIXIXIXIXIXIXIXIXIXIXIX` [ #.0XiXiXqX$.[ ` { +.$.$.+.{ ` 7 O o IXIXIXIXIXIXIXIXIXIXIXIXIXIXIXIXIXIXIXIXIXIXIXIXIXIX",
"IXIXIXIXIXIXIXIXIXIXIXIXIXIXIXiXCXCXuX#.) 7 w [ @.$.9XwXqXwX$.+.[ w 7 O +     . . IXIXIXIXIXIXIXIXIXIXIXIXIXIXIXIXIXIXIXIXIXIXIXIXIXIXIXIXIXIXIXIXIXIXIXIXIXIXIXIXIXq w _ +.8XiXsXuX#.[ ) ) _ [ ` w 7 O o   IXIXIXIXIXIXIXIXIXIXIXIXIXIXIXIXIXIXIXIXIXIXIXIXIXIX",
"IXIXIXIXIXIXIXIXIXIXIXIXIXIX9XuXCXCXiX#.w 6 6 7 w ` [ { #.$.7X$.@._ q 6 +     . IXIXIXIXIXIXIXIXIXIXIXIXIXIXIXIXIXIXIXIXIXIXIXIXIXIXIXIXIXIXIXIXIXIXIXIXIXIXIXIXIXIX7 7 w [ +.8XaXdX0X+.w 7 7 7 7 6 O +   . IXIXIXIXIXIXIXIXIXIXIXIXIXIXIXIXIXIXIXIXIXIXIXIXIXIX",
"IXIXIXIXIXIXIXIXIXIXIXIXIXIX0XiXCXCXuX+.w 6 O O 6 7 7 q w w ` ) w q 6 O o   IXIXIXIXIXIXIXIXIXIXIXIXIXIXIXIXIXIXIXIXIXIXIXIXIXIXIXIXIXIXIXIXIXIXIXIXIXIXIXIXIXIXIXIX) _ O.+.+.+.$.8XqX7X_ 7 O O O 6 6 6 IXIXIXIXIXIXIXIXIXIXIXIXIXIXIXIXIXIXIXIXIXIXIXIXIXIXIXIX",
"IXIXIXIXIXIXIXIXIXIXIXIXIXIXqXaXCXMX0X{ q O o O 7 ) [ { [ ` ) q 7 6 O +   . IXIXIXIXIXIXIXIXIXIXIXIXIXIXIXIXIXIXIXIXIXIXIXIXIXIXIXIXIXIXIXIXIXIXIXIXIXIXIXIXIXIXIXIX) _ +.$.7X$.+.#.8X8X+.` 6 + 6 7 7 q IXIXIXIXIXIXIXIXIXIXIXIXIXIXIXIXIXIXIXIXIXIXIXIXIXIXIXIX",
"IXIXIXIXIXIXIXIXIXIXIXIXIXIXiXdXCXsX$.` 7 O o 6 [ $.iXsXuX7X@.` 7 O + o IXIXIXIXIXIXIXIXIXIXIXIXIXIXIXIXIXIXIXIXIXIXIXIXIXIXIXIXIXIXIXIXIXIXIXIXIXIXIXIXIXIXIXIXIXIX7 q _ #.uXuX$.+.#.7X9X+.q 6 q w IXIXIXIXIXIXIXIXIXIXIXIXIXIXIXIXIXIXIXIXIXIXIXIXIXIXIXIXIXIX",
"IXIXIXIXIXIXIXIXIXIXIXIXIXIXdXsXMXiX@.q O + 6 ` 9XaXsXiX7XO.` q O + o IXIXIXIXIXIXIXIXIXIXIXIXIXIXIXIXIXIXIXIXIXIXIXIXIXIXIXIXIXIXIXIXIXIXIXIXIXIXIXIXIXIXIXIXIXIXIXO 6 7 ` $.0X8X$.{ { #.+.q 6 q w IXIXIXIXIXIXIXIXIXIXIXIXIXIXIXIXIXIXIXIXIXIXIXIXIXIXIXIXIXIX",
"IXIXIXIXIXIXIXIXIXIXIXIXIXIXsXsXsX0X_ 6 O 6 ) #.dXNXqX#.` 6 O o   . IXIXIXIXIXIXIXIXIXIXIXIXIXIXIXIXIXIXIXIXIXIXIXIXIXIXIXIXIXIXIXIXIXIXIXIXIXIXIXIXIXIXIXIXIXIXIXIXo o o 6 ` +.8X7X` w [ _ q 6 7 q IXIXIXIXIXIXIXIXIXIXIXIXIXIXIXIXIXIXIXIXIXIXIXIXIXIXIXIXIXIX",
"IXIXIXIXIXIXIXIXIXIXIXIXIX8XsXNXuX#.w 6 6 ` 7XuXuX9X{ q 6 +   . . IXIXIXIXIXIXIXIXIXIXIXIXIXIXIXIXIXIXIXIXIXIXIXIXIXIXIXIXIXIXIXIXIXIXIXIXIXIXIXIXIXIXIXIXIXIXIXIXIXo o + 6 q ` ` ` q 7 7 7 6 6 7 7 IXIXIXIXIXIXIXIXIXIXIXIXIXIXIXIXIXIXIXIXIXIXIXIXIXIXIXIXIXIX",
"IXIXIXIXIXIXIXIXIXIXIXIX+.7XaXdX9X{ 7 6 ` #.uXiX$.[ 7 + o     . IXIXIXIXIXIXIXIXIXIXIXIXIXIXIXIXIXIXIXIXIXIXIXIXIXIXIXIXIXIXIXIXIXIXIXIXIXIXIXIXIXIXIXIXIXIXIXIXIXIXO O O 6 q q 6 6 q 7 O + O 7 w ` IXIXIXIXIXIXIXIXIXIXIXIXIXIXIXIXIXIXIXIXIXIXIXIXIXIXIXIXIXIX",
"IXIXIXIXIXIXIXIXIXIXIXIX@.#.0X0X+.` 6 q #.0XwX$.[ q O o     IXIXIXIXIXIXIXIXIXIXIXIXIXIXIXIXIXIXIXIXIXIXIXIXIXIXIXIXIXIXIXIXIXIXIXIXIXIXIXIXIXIXIXIXIXIXIXIXIXIXIXIXq 7 6 6 q w w ) ` w 7 6 7 ` +.$.IXIXIXIXIXIXIXIXIXIXIXIXIXIXIXIXIXIXIXIXIXIXIXIXIXIXIXIXIXIX",
"IXIXIXIXIXIXIXIXIXIXIXw _ { #.+.[ q 6 w 7XwX$.{ q O o     IXIXIXIXIXIXIXIXIXIXIXIXIXIXIXIXIXIXIXIXIXIXIXIXIXIXIXIXIXIXIXIXIXIXIXIXIXIXIXIXIXIXIXIXIXIXIXIXIXIXIXIX#.` w q w ` [ { O.+.+.*.] w ` #.8XiXIXIXIXIXIXIXIXIXIXIXIXIXIXIXIXIXIXIXIXIXIXIXIXIXIXIXIXIXIX",
"IXIXIXIXIXIXIXIXIXIXq q w ) _ ` w 7 6 w #.$.{ w 6 o   . IXIXIXIXIXIXIXIXIXIXIXIXIXIXIXIXIXIXIXIXIXIXIXIXIXIXIXIXIXIXIXIXIXIXIXIXIXIXIXIXIXIXIXIXIXIXIXIXIXIXIXIXyX7X{ ) ` [ +.#.$.7X0XqXyX9X[ ` { 7XiXaXwX7XIXIXIXIXIXIXIXIXIXIXIXIXIXIXIXIXIXIXIXIXIXIXIXIXIXIX",
"IXIXIXIXIXIXIXIXIX8Xw 6 7 7 q 7 6 6 6 q ` ) 7 7 q 7 + IXIXIXIXIXIXIXIXIXIXIXIXIXIXIXIXIXIXIXIXIXIXIXIXIXIXIXIXIXIXIXIXIXIXIXIXIXIXIXIXIXIXIXIXIXIXIXIXIXIXIXIX.XXX+.) q ` { $.8XqXuXqXqXuXwX$.@.[ { $.7X$.#.@.IXIXIXIXIXIXIXIXIXIXIXIXIXIXIXIXIXIXIXIXIXIXIXIXIX",
"IXIXIXIXIXIXIXIXNXuX{ q 7 6 O O O O 6 6 6 O O q [ @.IXIXIXIXIXIXIXIXIXIXIXIXIXIXIXIXIXIXIXIXIXIXIXIXIXIXIXIXIXIXIXIXIXIXIXIXIXIXIXIXIXIXIXIXIXIXIXIXIXIXIXIX+X.XX.) 8 6 q [ #.8XuXuXeX9X0XuXiXqXO.` ` _ } { { { IXIXIXIXIXIXIXIXIXIXIXIXIXIXIXIXIXIXIXIXIXIXIXIX",
"IXIXIXIXIXIX#.9XiXaXuX7X{ w 6 + + + O 6 6 q _ +.8XqX7X$.IXIXIXIXIXIXIXIXIXIXIXIXIXIXIXIXIXIXIXIXIXIXIXIXIXIXIXIXIXIXIXIXIXIXIXIXIXIXIXIXIXIXIXIXIXIXIXIXIXIX&X.XR 8 O + 6 w [ +.$.7X#.$.qXsXAXMXyX&.) q q w ] +.qXdXIXIXIXIXIXIXIXIXIXIXIXIXIXIXIXIXIXIXIXIXIXIX",
"IXIXIXIXIXIX9X9XwXuXiXuX9X+.` 7 O + + O 7 _ $.qXqX8X#.@.IXIXIXIXIXIXIXIXIXIXIXIXIXIXIXIXIXIXIXIXIXIXIXIXIXIXIXIXIXIXIXIXIXIXIXIXIXIXIXIXIXIXIXIXIXIXIXIXIXIX[.(.m + o o O 6 w ` [ { O.%.rXcXPXPXcXXXY 6 6 e | XXtXcXIXIXIXIXIXIXIXIXIXIXIXIXIXIXIXIXIXIXIXIXIXIX",
"IXIXIXIXuXiXiXuX9X$.$.9XiXuX$.[ q O + > w @.wXqX$.{ ` _ O.&.IXIXIXIXIXIXIXIXIXIXIXIXIXIXIXIXIXIXIXIXIXIXIXIXIXIXIXIXIXIXIXIXIXIXIXIXIXIXIXIXIXIXIXIXIXIXIXIXd.a.< o o o + O 6 7 7 w O.M. X@X,X<X<X.XT 6 7 T l.@X*X,XcXdXIXIXIXIXIXIXIXIXIXIXIXIXIXIXIXIXIXIXIXIX",
"IXIXIX8XpXsXMXNXaX0X#.&.9X0X9X+.w t + 6 [ +.$.#.[ [ +.7X9X9X%.IXIXIXIXIXIXIXIXIXIXIXIXIXIXIXIXIXIXIXIXIXIXIXIXIXIXIXIXIXIXIXIXIXIXIXIXIXIXIXIXIXIXIXIXIXIXIXu.c , @ o o o + O O O 8 `  .l.).[.=X>X.XE 3 8 E l.].&X-XxXxXIXIXIXIXIXIXIXIXIXIXIXIXIXIXIXIXIXIXIXIX",
"IXIX+.$.qXdXMXAXAXsX9X@.[ { #.+.) 6 + 7 O.+.` q ) +.iXmXiX8X+.{ IXIXIXIXIXIXIXIXIXIXIXIXIXIXIXIXIXIXIXIXIXIXIXIXIXIXIXIXIXIXIXIXIXIXIXIXIXIXIXIXIXIXIXIXIXIXx x IXIXIXIXIXIX+ o o O 7 m I p.).}.=X.XE O 5 m a.f.[.&X;X-XIXIXIXIXIXIXIXIXIXIXIXIXIXIXIXIXIXIXIXIX",
"IXIX) ] *.#.7XqXaXdXuX7X[ ` [ [ ` q 6 6 ` ` 7 w #.qXuX0X@.` e 7 8 IXIXIXIXIXIXIXIXIXIXIXIXIXIXIXIXIXIXIXIXIXIXIXIXIXIXIXIXIXIXIXIXIXIXIXIXIXIXIXIXIXIXIXIXIXIXIXIXIXIXIXIXIXIXIXIXIXIXj c p.).].).l.U IXIXj u.p.f._.+X=XIXIXIXIXIXIXIXIXIXIXIXIXIXIXIXIXIXIXIXIX",
"IXIXT T R | X.X.$.8XqX8X{ w q w ) w 6 3 7 7 7 _ 0XqX$.} N < < 0 Y R IXIXIXIXIXIXIXIXIXIXIXIXIXIXIXIXIXIXIXIXIXIXIXIXIXIXIXIXIXIXIXIXIXIXIXIXIXIXIXIXIXIXIXIXIXIXIXIXIXIXIXIXIXIXIXIXIXIXu.p.).).p.1.IXIXIXIXu.u.i.f.].}.IXIXIXIXIXIXIXIXIXIXIXIXIXIXIXIXIXIXIXIX",
"IXIX.X.X.X.X.X|.' ` *.O.[ w 6 O 7 7 6 O O 7 ` O.+.{ e m ^ (.(..X@X*XIXIXIXIXIXIXIXIXIXIXIXIXIXIXIXIXIXIXIXIXIXIXIXIXIXIXIXIXIXIXIXIXIXIXIXIXIXIXIXIXIXIXIXIXIXIXIXIXIXIXIXIXIXIXIXIXIXIXIXIXd.d.IXIXIXIXIXIXIXIXIXIXf.f.IXIXIXIXIXIXIXIXIXIXIXIXIXIXIXIXIXIXIXIX",
"IXIX:X:X-X=X{.`.W m e w w q O o + O + + o 6 ` [ =.9 , j d.].[.+X:X3XIXIXIXIXIXIXIXIXIXIXIXIXIXIXIXIXIXIXIXIXIXIXIXIXIXIXIXIXIXIXIXIXIXIXIXIXIXIXIXIXIXIXIXIXIXIXIXIXIXIXIXIXIXIXIXIXIXIXIXIXp.p.IXIXIXIXIXIXIXIXIXIXp.p.IXIXIXIXIXIXIXIXIXIXIXIXIXIXIXIXIXIXIXIX",
"-X-X-X-X&X}._.f.s.I < 6 8 6 O o         o O 7 7 O > b u.p.d.g._.}.;X2X3XIXIXIXIXIXIXIXIXIXIXIXIXIXIXIXIXIXIXIXIXIXIXIXIXIXIXIXIXIXIXIXIXIXIXIXIXIXIXIXIXIXIXIXIXIXIXIXIXIXIXIXIXIXIXIXIXIXIXIXIXIXIXIXIXIXIXIXIXIXIXIXIXIXIXIXIXIXIXIXIXIXIXIXIXIXIXIXIXIXIXIXIX",
"&X+X}.[._.g.d.p.i.b , + O O o   . . .     o O + o $ l 1.1.u.p.d.g.[.;X>XIXIXIXIXIXIXIXIXIXIXIXIXIXIXIXIXIXIXIXIXIXIXIXIXIXIXIXIXIXIXIXIXIXIXIXIXIXIXIXIXIXIXIXIXIXIXIXIXIXIXIXIXIXIXIXIXIXIXIXIXIXIXIXIXIXIXIXIXIXIXIXIXIXIXIXIXIXIXIXIXIXIXIXIXIXIXIXIXIXIXIXIX",
"]._.).f.d.p.u.1.c l $ o o o   . IXIXIXIX.   o o o $ l x x c 1.u.p.f.[.+XIXIXIXIXIXIXIXIXIXIXIXIXIXIXIXIXIXIXIXIXIXIXIXIXIXIXIXIXIXIXIXIXIXIXIXIXIXIXIXIXIXIXIXIXIXIXIXIXIXIXIXIXIXIXIXIXIXIXIXIXIXIXIXIXIXIXIXIXIXIXIXIXIXIXIXIXIXIXIXIXIXIXIXIXIXIXIXIXIXIXIXIX",
"f.f.f.IXIXIXIXIXIXIXIXIXIXIXIXIXIXIXIXIXIXIXIXIXIXIXIXIXIXIXIXIXIXd.f.g.IXIXIXIXIXIXIXIXIXIXIXIXIXIXIXIXIXIXIXIXIXIXIXIXIXIXIXIXIXIXIXIXIXIXIXIXIXIXIXIXIXIXIXIXIXIXIXIXIXIXIXIXIXIXIXIXIXIXIXIXIXIXIXIXIXIXIXIXIXIXIXIXIXIXIXIXIXIXIXIXIXIXIXIXIXIXIXIXIXIXIXIX",
"p.p.IXIXIXIXIXIXIXIXIXIXIXIXIXIXIXIXIXIXIXIXIXIXIXIXIXIXIXIXIXIXIXIXp.p.IXIXIXIXIXIXIXIXIXIXIXIXIXIXIXIXIXIXIXIXIXIXIXIXIXIXIXIXIXIXIXIXIXIXIXIXIXIXIXIXIXIXIXIXIXIXIXIXIXIXIXIXIXIXIXIXIXIXIXIXIXIXIXIXIXIXIXIXIXIXIXIXIXIXIXIXIXIXIXIXIXIXIXIXIXIXIXIXIXIXIXIX"
};
