/* XPM */
static const char *bos2h3[] = {
/* columns rows colors chars-per-pixel */
"128 128 256 2 ",
"   c #151515",
".  c #1C1C1C",
"X  c #191816",
"o  c #19150E",
"O  c #241B0C",
"+  c #2A1B0D",
"@  c #271D14",
"#  c #37130F",
"$  c #1A3813",
"%  c #162C10",
"&  c #29240E",
"*  c #2B2316",
"=  c #372816",
"-  c #2C3319",
";  c #1D1E20",
":  c #242424",
">  c #2B2C2C",
",  c #292826",
"<  c #362D25",
"1  c #38332B",
"2  c #343434",
"3  c #3B3B3C",
"4  c #383737",
"5  c #2C312D",
"6  c #1F2323",
"7  c #440101",
"8  c #4A0505",
"9  c #570505",
"0  c #471414",
"q  c #541A17",
"w  c #660606",
"e  c #6A1212",
"r  c #781919",
"t  c #6F0B07",
"y  c #452D19",
"u  c #4B341D",
"i  c #48361B",
"p  c #55371B",
"a  c #542A0E",
"s  c #682A04",
"d  c #742C01",
"f  c #772C02",
"g  c #7C3402",
"h  c #793606",
"j  c #763B15",
"k  c #6A3512",
"l  c #463724",
"z  c #553C23",
"x  c #463B37",
"c  c #502E2C",
"v  c #712E2C",
"b  c #1E4315",
"n  c #254919",
"m  c #27541D",
"M  c #3A4013",
"N  c #2F522A",
"B  c #37762C",
"V  c #326929",
"C  c #54571A",
"Z  c #7B4618",
"A  c #704914",
"S  c #594428",
"D  c #48443A",
"F  c #544C32",
"G  c #674628",
"H  c #754B2A",
"J  c #7C522E",
"K  c #7B5738",
"L  c #6C5133",
"P  c #506E2A",
"I  c #746B31",
"U  c #66651D",
"Y  c #3E3F40",
"T  c #3F4141",
"R  c #434444",
"E  c #4B4B4C",
"W  c #494746",
"Q  c #554945",
"!  c #59534A",
"~  c #535454",
"^  c #5C5C5C",
"/  c #575757",
"(  c #4D4F50",
")  c #66594A",
"_  c #665856",
"`  c #73524B",
"'  c #69645B",
"]  c #776A56",
"[  c #5E6162",
"{  c #646464",
"}  c #6B6B6B",
"|  c #686767",
" . c #746B68",
".. c #78746B",
"X. c #6E7171",
"o. c #737374",
"O. c #7B7C7C",
"+. c #787877",
"@. c #6C7070",
"#. c #59625C",
"$. c #403F40",
"%. c #950404",
"&. c #891010",
"*. c #A90202",
"=. c #B80101",
"-. c #AE1717",
";. c #823C05",
":. c #823514",
">. c #882727",
",. c #922C2C",
"<. c #993636",
"1. c #893636",
"2. c #A33A3A",
"3. c #AD2828",
"4. c #C80000",
"5. c #DB0000",
"6. c #D30101",
"7. c #D11717",
"8. c #E70000",
"9. c #F10000",
"0. c #FE0000",
"q. c #D42E2E",
"w. c #E33E3E",
"e. c #894509",
"r. c #8A4709",
"t. c #914D0A",
"y. c #96550D",
"u. c #854B13",
"i. c #995A12",
"p. c #8B5417",
"a. c #9D6317",
"s. c #82671B",
"d. c #A36917",
"f. c #AB761D",
"g. c #B07C1E",
"h. c #875A35",
"j. c #8D592D",
"k. c #98643A",
"l. c #8E6F30",
"z. c #AB7B25",
"x. c #B17E21",
"c. c #A26B39",
"v. c #915050",
"b. c #A94545",
"n. c #B75656",
"m. c #AA5555",
"M. c #8F6F50",
"N. c #A86D42",
"B. c #B77649",
"V. c #B07349",
"C. c #887768",
"Z. c #847B78",
"A. c #926E6B",
"S. c #B37070",
"D. c #C95151",
"F. c #F14B4B",
"G. c #C47D4F",
"H. c #C76C6C",
"J. c #E86B6B",
"K. c #3D8533",
"L. c #428B36",
"P. c #47983B",
"I. c #659338",
"U. c #4DA442",
"Y. c #4DAA44",
"T. c #52AB46",
"R. c #56B74B",
"E. c #58BE50",
"W. c #5F9A52",
"Q. c #5CC652",
"!. c #5FD057",
"~. c #64D359",
"^. c #68E160",
"/. c #968935",
"(. c #B78726",
"). c #BD922B",
"_. c #AE8C32",
"`. c #B6912E",
"'. c #C3982D",
"]. c #C49D32",
"[. c #CAA637",
"{. c #D3B33D",
"}. c #CEAF38",
"|. c #988E4E",
" X c #AB8F50",
".X c #B9AA4F",
"XX c #89837A",
"oX c #968973",
"OX c #AA8F6E",
"+X c #B6A871",
"@X c #8BAC4A",
"#X c #CA8354",
"$X c #D48B5C",
"%X c #C9B649",
"&X c #D8BC45",
"*X c #C8AF4F",
"=X c #CAB46A",
"-X c #DE9363",
";X c #DCC347",
":X c #D4C956",
">X c #E2CC4C",
",X c #E8D755",
"<X c #E2CC50",
"1X c #F3E75E",
"2X c #EEE15B",
"3X c #D9CA6F",
"4X c #F4EA63",
"5X c #FBF669",
"6X c #F3F16C",
"7X c #E7DE63",
"8X c #A3C84E",
"9X c #7C7D80",
"0X c #7D8081",
"qX c #838383",
"wX c #8B8C8C",
"eX c #888887",
"rX c #958A87",
"tX c #949494",
"yX c #9B9C9C",
"uX c #989797",
"iX c #90918E",
"pX c #A69A97",
"aX c #AD8C8A",
"sX c #B0A794",
"dX c #9C9DA1",
"fX c #9EA2A3",
"gX c #A3A4A4",
"hX c #ACACAC",
"jX c #A6A8A9",
"kX c #B7A9A5",
"lX c #B4B4B4",
"zX c #BBBBBB",
"xX c #B8B8B8",
"cX c #B3B2AD",
"vX c #89A386",
"bX c #C8B8B8",
"nX c #CAB3B1",
"mX c #C78E8E",
"MX c #CCC5A6",
"NX c #BEC3C4",
"BX c #C4C4C4",
"VX c #CBCBCB",
"CX c #C9C8C7",
"ZX c #D4C9C9",
"AX c #D3D3D3",
"SX c #DCDCDC",
"DX c #D5DBDB",
"FX c #D3D4CD",
"GX c #E6D3CE",
"HX c #DDE4E4",
"JX c #E3E3E3",
"KX c #EBEBEB",
"LX c #E3EAEA",
"PX c #ECF5F5",
"IX c #E6E1CC",
"UX c None",
/* pixels */
"UXUXUXUXUXUXUXUXUXUXUXUXUXUXUXUXUXUXUXUXUXUXUXUXUXUXUXUXUXUXUXUXUXUXUX9.9.8.8.6.4.4.=.=.=.-.m.pXlXBXVXDXSXSXDXBXaXb.-.=.4.4.6.6.5.5.8.8.9.9.9.9.9.9.9.9.9.9.9.0.0.0.0.0.0.0.0.0.0.0.0.0.0.9.9.9.9.9.9.9.9.9.9.UXUXUXUXUXUXUXUXUXUXUXUXUXUXUXUXUXUXUXUXUXUXUXUXUX",
"UXUXUXUXUXUXUXUXUXUXUXUXUXUXUXUXUXUXUXUXUXUXUXUXUXUXUXUXUXUXUXUXUXUXUXJ.F.F.F.D.D.D.D.D.b.n.aXkXxXzXBXBXBXbXkXaXn.3.*.*.=.=.=.=.=.4.4.4.6.5.5.5.5.8.8.5.7.q.q.w.w.F.F.F.F.F.F.F.F.F.F.F.F.F.w.q.q.7.7.6.5.5.5.5.UXUXUXUXUXUXUXUXUXUXUXUXUXUXUXUXUXUXUXUXUXUXUXUX",
"UXUXUXUXUXUXUXUXUXUXUXUXUXUXUXUXUXUXUXUXUXUXUXUXUXUXUXUXUXUXSXSXSXSXSXGXGXGXGXGXZXZXbXnXnXnXbXzXxXlXhXjXfXrXm.3.-.%.%.%.%.%.%.%.%.%.*.*.*.*.=.=.=.=.4.-.b.A.rXpXkXnXbXZXGXGXGXGXGXGXGXGXbXnXkXpXrXm.3.*.=.=.=.4.6.5.8.9.9.UXUXUXUXUXUXUXUXUXUXUXUXUXUXUXUXUXUXUX",
"UXUXUXUXUXUXUXUXUXUXUXUXUXUXUXUXUXUXUXUXUXUXUXUXUXUXUXUXSXSXSXSXJXJXJXJXHXHXLXLXHXAXCXNXxXlXhXhXgXgXyXyXuXrXA.v.b.1.v r t t >.v.m.m.v.v.1.1.v r r >.1.v.A.tXfXlXNXAXDXHXLXPXPXPXPXPXPXPXHXAXBXxXjXrXA.v.1.1.>.&.*.=.4.5.8.8.UXUXUXUXUXUXUXUXUXUXUXUXUXUXUXUXUXUX",
"UXUXUXUXUXUXUXUXUXUXUXUXUXUXUXUXUXUXUXUXUXUXUXUXBXBXCXDXSXJXJXJXJXLXJXSXDXDXDXDXVXBXxXhXgXgXgXdXyXyXgXgXhXjXpXuXwXZ. .Q q q ` aXhXjXuXeX ._ ~ E E ~ | +.wXgXlXzXCXDXSXLXKXKXKXKXKXKXKXKXLXSXAXBXxXhXpXiXO.| _ v &.%.*.=.4.5.8.9.UXUXUXUXUXUXUXUXUXUXUXUXUXUXUXUX",
"UXUXUXUXUXUXUXUXUXUXUXUXUXUXUXUXUXUXUXUXUXUXUXxXVXDXJXLXKXKXLXLXJXJXSXDXAXVXCXBXxXlXhXhXlXxXzXBXBXBXBXBXBXBXxXjXyXtXqX ._ _  .wXtXwX+.| ~ E W E ~ [ X.0XtXgXhXxXBXVXDXJXLXKXKXKXKXKXKXLXJXDXAXBXxXlXjXyXwX+.} _ ` v r %.%.=.4.5.8.9.UXUXUXUXUXUXUXUXUXUXUXUXUXUX",
"UXUXUXUXUXUXUXUXUXUXUXUXUXUXUXUXUXUXUXUXUXhXlXxXVXJXKXKXKXKXKXJXSXDXAXVXCXBXxXxXxXxXxXzXBXVXDXSXSXSXDXDXAXCXzXlXgXuXwXqX+.o.o.o.} [ ~ R 3 3 R E / { o.O.eXuXgXhXxXNXBXVXAXDXSXSXSXSXDXDXDXVXCXBXxXhXgXuXwXqXo.X.} _ ` v &.%.*.4.5.8.8.UXUXUXUXUXUXUXUXUXUXUXUXUX",
"UXUXUXUXUXUXUXUXUXUXUXUXUXUXUXUXUXUXUXtXuXgXhXxXCXDXSXKXKXKXJXDXFXCXBXNXzXxXxXxXzXCXDXDXSXSXSXDXDXFXCXBXxXxXxXxXhXgXuXeX0Xo.{ ~ E R 3 4 4 3 R E ~ [ | o.O.qXwXuXgXhXhXlXxXxXxXzXBXBXBXBXBXzXxXxXhXgXuXiXqXO.o.} | o.eXrXA.r t %.=.6.5.8.9.UXUXUXUXUXUXUXUXUXUXUX",
"UXUXUXUXUXUXUXUXUXUXUXUXUXUXUXUXUXUXUXtXuXuXgXlXBXAXSXLXLXSXFXBXxXxXlXlXxXxXzXBXAXSXJXJXDXVXxXgXuXeXqXqXqXtXgXxXxXlXgXuXeX+.{ ~ R 3 4 4 4 3 R E ~ / { } o.+.qXeXtXuXuXuXyXyXyXgXhXhXhXlXhXhXhXgXyXuXeXqX+.o.} { _ o.tXhXpXA.v.,.=.6.8.9.9.UXUXUXUXUXUXUXUXUXUXUX",
"UXUXUXUXUXUXUXUXUXUXUXUXUXUXUXUXUXUXUXuXuXuXuXgXxXAXSXSXDXVXxXhXgXgXgXhXxXBXAXSXLXLXSXVXxXuX+./ 3 > , 4 ~ o.uXzXCXBXxXhXuXqXo.{ ~ E R Y 3 3 R R E / { | o.o.O.qXqXqXqXqXqXqXeXwXwXtXuXuXuXuXuXuXwXqX+.o.} | { ~ ~ { qXyXhXxXnXH.7.8.9.0.0.UXUXUXUXUXUXUXUXUXUXUX",
"UXUXUXUXUXUXUXUXUXUXUXUXUXUXUXUXUXUXxXhXhXgXgXgXxXBXCXBXzXlXhXgXgXgXhXlXzXCXDXJXSXDXBXgXqX_ $., X X : R } tXxXVXDXAXBXxXgXwXO.} { { ^ ~ E R R R E ~ / { { | | } } } } | } } } o.o.o.O.Z.qXqXqXqXO.+.o.| { / ~ E W ~ } eXjXNXbXH.q.5.8.9.0.UXUXUXUXUXUXUXUXUXUXUX",
"UXUXUXUXUXUXUXUXUXUXUXUXUXUXUXUXCXVXCXBXBXzXxXxXxXxXlXhXgXyXgXgXhXlXxXBXCXFXDXDXCXxXuXo.W > . X . 2 E +.gXBXDXJXJXDXBXxXgXwXO.o.} o.o.} ^ E R R R E ~ / / / / / / / / ^ ^ ^ ^ ^ ^ { { | | | | } } | { { / ( W 3 3 R ^ o.tXlXnXH.3.4.6.8.9.UXUXUXUXUXUXUXUXUXUXUX",
"UXUXUXUXUXUXUXUXUXUXUXUXUXUXtXgXbXAXDXDXDXDXAXVXCXBXxXhXgXyXgXhXxXzXBXBXCXVXAXBXhXqX^ 3 . X : 4 ~ o.uXxXAXJXLXJXDXBXlXgXwX+.| ^ { o.O.+.} { ~ R 3 R R E ( ~ / ^ ^ { { | } } | { ^ / ~ ~ ~ / / ^ ^ ^ ~ ~ E R 3 4 4 3 E ^ O.fXkXS.3.=.4.8.8.UXUXUXUXUXUXUXUXUXUXUX",
"UXUXUXUXUXUXUXUXUXUXUXUXUXUXuXgXzXDXLXKXKXLXJXSXDXVXBXlXhXhXxXzXBXVXAXAXAXAXAXBXjXZ.^ R 4 3 ~ o.tXxXVXSXLXLXSXAXBXhXuXqXo.{ ~ E ~ { o.O.+.o.{ ~ E ~ / ^ { } o.O.qXqXeXwXtXtXwXqXo.| ^ ~ ~ E E ~ ~ ( E R R 3 3 2 2 4 3 ( X.tXpXm.3.*.4.6.8.UXUXUXUXUXUXUXUXUXUXUX",
"UXUXUXUXUXUXUXUXUXUXUXUXUXUXgXhXBXSXKXKXKXKXJXSXDXAXCXBXzXBXVXDXSXSXJXJXJXSXSXDXVXzXlXjXgXgXlXBXVXDXJXJXSXDXBXhXuXqXo.{ ~ E R R E ~ { } +.O.O.+.O.qXtXuXgXhXxXzXBXBXCXCXCXCXBXzXhXuXqX} ^ ~ E E E R R R 3 3 4 2 5 4 3 E } eXrXm.-.*.=.4.6.UXUXUXUXUXUXUXUXUXUXUX",
"UXUXUXUXUXUXUXUXUXUXUXUXUXUXhXxXVXJXKXKXKXLXSXDXAXBXxXgXyXhXCXSXLXLXKXKXLXLXJXSXDXDXDXDXDXSXJXLXJXSXDXVXBXlXyXqX ._ Q x > > 2 3 R E E / { o.+.qXeXuXyXhXlXzXBXCXAXDXDXSXSXSXSXDXVXzXhXuXO.{ ~ E R 3 3 3 3 4 4 4 4 3 R ~ } qXrXv.-.*.=.=.4.UXUXUXUXUXUXUXUXUXUXUX",
"UXUXUXUXUXUXUXUXUXUXUXUXUXUXhXxXCXJXKXKXLXSXAXBXxXhXtXo.{ O.hXAXJXLXLXJXJXSXDXAXVXCXCXVXDXDXSXSXDXCXxXjXuXqXX.^ Q c 0 # @ @ > 4 3 3 3 R W E / | o.O.qXeXtXuXyXgXhXxXzXBXCXCXVXAXVXVXBXxXgXeXo./ R 3 3 4 4 2 2 3 R E E ~ } 0XZ.v.-.*.=.=.=.UXUXUXUXUXUXUXUXUXUXUX",
"UXUXUXUXUXUXUXUXUXUXUXUXUXUXo.wXxXSXKXKXSXVXxXyXqXo.{ ^ | qXlXAXSXDXDXVXBXxXlXhXhXhXhXxXxXzXxXxXhXgXtXZ._ x c c c c Q _ ' { E 2 , > 2 4 4 3 R E ( ~ / / ^ [ { } o.O.qXwXuXyXgXjXhXlXxXxXlXgXtX+.{ ~ R 3 4 4 3 R E ~ E E ^ X.C.v.-.=.=.*.*.UXUXUXUXUXUXUXUXUXUXUX",
"UXUXUXUXUXUXUXUXUXUXUXUXUXUX/ o.gXDXKXLXDXzXyXqX{ E ~ } eXgXzXVXVXBXxXhXuXwXqXqXqXqXeXwXtXtXeXqXO.o.{ x q 7 8 0 c  .iXhXNXxXqXR > , 5 1 1 5 5 2 2 1 1 1 1 1 4 3 x R E ~ ^ | o.o.O.eXuXyXgXhXgXuXqX} ~ R 3 R R E ~ ~ R 3 E [  .b.-.=.=.*.*.UXUXUXUXUXUXUXUXUXUXUX",
"UXUXUXUXUXUXUXUXUXUXUXUXUXUXyXhXBXJXLXJXDXBXlXgXwXqXqXuXhXxXxXxXhXyXwXO.} { { { { | } X.o.X.| [ ! x c 0 7 8 c ` Z.gXzXDXJXSXzXiX..) F z l l l l l S L L G z l < < 1 4 3 R E ~ ^ { } +.qXeXtXuXuXtXqXo.{ / ~ ~ ~ E R 3 4 T ~ _ <.-.=.*.%.%.UXUXUXUXUXUXUXUXUXUXUX",
"UXUXUXUXUXUXUXUXUXUXUXUXUXUXDXDXSXJXJXSXDXAXBXzXlXhXhXxXxXlXjXyXeXo.{ ~ W x x W W Q Q Q Q Q W x c 0 7 # 7 q ` uXzXAXSXLXKXJXVXxXpXC.h.H G S G H J h.k.k.h.H G z l l 1 1 1 3 D W E ~ / { | o.+.qXeXqXO.o.{ ^ ~ E R 3 2 2 3 E ! 1.-.=.*.%.%.UXUXUXUXUXUXUXUXUXUXUX",
"UXUXUXUXUXUXUXUXUXUXUXUXUXUXDXDXSXSXSXDXDXVXBXzXxXhXhXhXgXuXqXo.{ ~ W c 0 0 0 0 0 0 0 0 0 0 0 0 8 7 7 7 7 q A.xXDXKXKXJXSXCXhXiXZ.M.M.h.J J h.N.B.B.B.N.k.h.J H H G z l < = = = = < 4 R E ~ { } o.o.} { ~ E R 3 2 > > 5 4 R Q v -.*.%.t w UXUXUXUXUXUXUXUXUXUXUX",
"UXUXUXUXUXUXUXUXUXUXUXUXUXUXVXAXDXSXDXDXFXCXBXxXlXhXgXuXwX+._ x x c c 0 7 7 7 7 7 7 7 7 7 7 7 7 7 7 7 q v v.pXZXLXLXJXAXzXhXtXZ.M.M.N.k.k.k.V.#X$X#XB.V.c.k.k.k.k.h.G z u y y = = = * , 1 1 D E ~ ~ E R 3 4 > , : : > 2 4 3 x v %.%.%.w 9 UXUXUXUXUXUXUXUXUXUXUX",
"UXUXUXUXUXUXUXUXUXUXUXUXUXUXCXVXAXDXDXAXCXBXxXlXhXgXuXeXo._ c 0 8 8 8 8 7 7 8 9 9 9 9 8 7 7 7 7 7 7 q ` pXBXAXDXDXAXBXhXuXeXoX XB.N.k.k.N.B.#X-X-X#XB.N.N.V.V.B.V.k.J G G G G z l y = * + @ @ , > > > > , : . X X . > 2 4 4 x q t %.t 9 8 UXUXUXUXUXUXUXUXUXUXUX",
"UXUXUXUXUXUXUXUXUXUXUXUXUXUXBXCXAXDXDXAXCXBXxXhXyXwXeXeXZ.] v e w w 9 9 8 9 9 e e e e e 9 9 7 7 q ` A.pXCXDXDXCXzXhXyXeXo. .M.B.B.c.k.N.B.$X-X-X-X#XV.V.B.G.B.B.N.k.J H H J H G z i = * & + O O X X X X X X X X . , > 4 4 2 < q w w 9 8 7 UXUXUXUXUXUXUXUXUXUXUX",
"UXUXUXUXUXUXUXUXUXUXUXUXUXUXzXBXAXDXDXAXCXzXlXgXeXo.+.wXuXZ.v.,.>.r e e 9 e r >.>.>.>.r e e 9 q ` pXFXDXAXCXxXhXuXeX+.} { _ M.N.N.c.k.N.#X-X-X$X#XG.B.B.G.G.B.N.k.h.J J h.h.J G u i y y = = * + O o   X     X : > 2 4 4 2 > , 0 9 9 9 7 7 UXUXUXUXUXUXUXUXUXUXUX",
"UXUXUXUXUXUXUXUXUXUXUXUXUXUXxXzXVXDXDXVXBXxXhXuXo.^ { eXgXpXS.n.<.>.r r r >.<.b.b.2.<.>.r v v.rXkXVXDXVXxXgXtXqX+.o.o.C.M.M.N.k.k.k.N.B.$X-X$X#XB.B.G.G.#XG.V.k.h.h.k.k.h.h.H z i i p p u = = & O O o   X . : > > 2 2 2 > : @ # 9 w 9 7 7 UXUXUXUXUXUXUXUXUXUXUX",
"UXUXUXUXUXUXUXUXUXUXUXUXUXUXhXlXBXVXCXzXhXyXwX+.[ E [ tXlXnXmXH.b.,.>.>.<.b.n.D.n.b.,.r e v aXZXHXDXBXhXtXO.} { ^ [ | C.V.B.c.h.h.c.B.G.$X$X#XV.N.B.#X#XG.B.c.h.h.h.c.k.h.H G z i u z z i = * * * @ X X X : , > > > > > , @ # 8 w w 9 7 7 UXUXUXUXUXUXUXUXUXUXUX",
"UXUXUXUXUXUXUXUXUXUXUXUXUXUXuXyXlXzXxXyXqX} / E R UXUXzXBXnXmXH.b.,.>.<.n.n.D.n.b.>.e 9 8 v rXZXAXxXuX0X| ~ E R R E ~ ` M.N.k.h.h.N.#X#X#XB.V.N.c.B.G.G.N.k.h.h.h.k.k.k.H z u p z z z l = + + + * * @ . . : , , > , : @ # e t t w 9 9 7 7 UXUXUXUXUXUXUXUXUXUXUX",
"UXUXUXUXUXUXUXUXUXUXUXUXUXUXeXtXgXjXuX+._ E R R UXUXUXbXnXmXH.n.2.,.,.b.n.D.n.<.>.e 9 q v A.pXbXxXuX+.^ E 3 3 R W Q ) K h.h.h.h.h.N.G.G.V.k.k.k.c.V.B.V.k.J J h.k.h.h.H S u i z S z u = * O O + + @ X X . . : : : ; . . 0 t %.t w 9 7 7 7 UXUXUXUXUXUXUXUXUXUXUX",
"UXUXUXUXUXUXUXUXUXUXUXUXUXUXUXUXeXqXo.^ E 3 UXUXUXCXnXmXS.n.b.2.<.,.<.b.n.b.,.r w 9 q A.kXCXzXjXwXo.^ W 3 4 R ~ _ ` h.h.J H H J h.c.V.N.h.J h.k.N.N.c.k.J G H h.h.J G p z z z S S u = & & & O O o     X X X . . . X   X # 9 t w 9 7 7 UXUXUXUXUXUXUXUXUXUXUXUXUX",
"UXUXUXUXUXUXUXUXUXUXUXUXUXUXUXUX{ { ^ ~ R UXUXUXUXAXnXaXn.2.,.,.,.<.<.2.2.,.e 9 v v.A.kXCXBXgXO.{ ~ R 3 3 $.R R Q L J H p p z J h.h.h.J G z H h.k.h.J H G G H J J G u y u z z u i = * & & * * O               X X X     O 8 w 9 8 UXUXUXUXUXUXUXUXUXUXUXUXUXUXUX",
"UXUXUXUXUXUXUXUXUXUXUXUXUXUXUXUXE E E UXUXUXUXUXUXSXbXS.b.,.>.r >.<.<.,.>.r 9 q v.kXFXCXhXtXo.~ R 4 4 3 R E E E Q ) K L z z L h.k.h.L S z i p G G S u u z G G G G p y = u z p = & & & * = y l < , , , , : : . X X X X     UXUXUXUXUXUXUXUXUXUXUXUXUXUXUXUXUXUXUX",
"UXUXUXUXUXUXUXUXUXUXUXUXUXUXUXUXUXUXUXUXUXUXUXUXUXJXbXS.<.>.r r >.,.>.e w v v.aXkXcXjXtXo.^ E 3 4 4 4 4 4 R | wXgXkXkXkXpXpXsXkXnXkXsXZ.F = & = y = = y u p p p u y y y i u y * O O + = x )  ...+.O.qXqX+.| / R 2 , : UXUXUXUXUXUXUXUXUXUXUXUXUXUXUXUXUXUXUXUXUX",
"UXUXUXUXUXUXUXUXUXUXUXUXUXUXUXUXUXUXUXUXUXUXUXUXUXKXbXS.,.r r r >.b.v.v v ` aXzXhXwX} ~ $.2 > > 2 2 3 3 3 / eXnXFXIXIXIXIXIXIXFXFXIXZXsX .D 1 l 1 = = = = y = = = = y l y = * + O * < D ' eXgXlXzXBXCXBXxXgXqX{ R 3 UXUXUXUXUXUXUXUXUXUXUXUXUXUXUXUXUXUXUXUXUXUX",
"UXUXUXUXUXUXUXUXUXUXUXUXUXUXUXUXUXUXUXUXUXUXUXUXUXJXbXS.>.t w r m.kXbXkXpXrXZ.o.{ ~ R 3 > , > > > > 2 ( o.rX+X=X3X3X3X3X3X3X=X=X*X*X=X+XsXuXuXwX+.! = O + * * & & = = = = + O O & D ' eXgXxXCXDXSXSXDXAXzXgXeX{ R 4 UXUXUXUXUXUXUXUXUXUXUXUXUXUXUXUXUXUXUXUXUXUX",
"UXUXUXUXUXUXUXUXUXUXUXUXUXUXUXUXUXUXUXUXUXUXUXUXUXHXnXA.r r 1.A.pXZXAXNXfXeX| E 3 3 4 > : , 4 R $.4 3 _ oX+X=X&X;X;X;X>X>X>X&X{.[.[.[.*X+XsXsXaXoX] ! 4 - & O & * * = = + O O O = ! XXgXxXBXVXDXDXDXCXzXhXtXo.~ 3 > UXUXUXUXUXUXUXUXUXUXUXUXUXUXUXUXUXUXUXUXUXUX",
"UXUXUXUXUXUXUXUXUXUXUXUXUXUXUXUXUXUXUXUXUXUXUXUXUXSXkXv.v v.pXZXFXzXgX0X{ ~ UXUXUXUXUX: : 4 ~ o.} / ! K l.`.%X<X,X,X,X2X4X5X1X,X>X;X&X[._.c.i.p.j.M.rXO.Q * O O & & & & O O O * y ! Z.uXjXhXlXxXxXlXgXtXO.| ~ 3 > , UXUXUXUXUXUXUXUXUXUXUXUXUXUXUXUXUXUXUXUXUXUX",
"UXUXUXUXUXUXUXUXUXUXUXUXUXUXUXUXUXUXUXUXUXUXUXUXUXBXlXaXA.aXbXAXNXgXeXo.~ UXUXUXUXUXUXUXE ^ O.tXrXC.h.l.z.).{.,X1X4X4X5X5X5X5X5X1X,X<X{.).f.d.i.i.k.M.C.] Q x = O O O O O O * < x / o.qXwXwXtXwXeXqXo.| / E 3 2 > UXUXUXUXUXUXUXUXUXUXUXUXUXUXUXUXUXUXUXUXUXUXUX",
"UXUXUXUXUXUXUXUXUXUXUXUXUXUXUXUXUXUXUXUXUXUXUXUXUXgXlXCXDXFXBXhXyXwXqXUXUXUXUXUXUXUXUXqXqXeXuXpXOX Xz.(.).[.&X<X1X6X5X5X5X5X5X5X5X1X,X;X}.'.(.x.f.i.t.j.M.Z.{ x @ o o O O & - 3 E / { } o.} } { ^ ~ E R 3 > > , UXUXUXUXUXUXUXUXUXUXUXUXUXUXUXUXUXUXUXUXUXUXUXUX",
"UXUXUXUXUXUXUXUXUXUXUXUXUXUXUXUXUXUXUXUXUXUXUXUXwXiXyXlXBXxXgXuXwXqXUXUXUXUXUXUXUXUXqXdXhXkXOX Xc.z.x.x.(.).}.;X,X2X4X5X5X5X5X4X1X,X<X&X[.(.x.f.d.y.e.p.M.qX+./ x < @ O O * , 4 R E ( ~ ~ ~ ~ E R 3 3 > , . X UXUXUXUXUXUXUXUXUXUXUXUXUXUXUXUXUXUXUXUXUXUXUXUXUX",
"UXUXUXUXUXUXUXUXUXUXUXUXUXUXUXUXUXUXUXUXUXUXUXUXUXqXwXuXgXuXwXqXUXUXUXUXUXUXUXUXUXeXtXjXxXsX Xa.i.d.f.f.f.(.'.}.&X;X,X,X1X1X2X,X<X;X{.[.(.f.d.i.y.r.e.p.M.Z.O.| ~ 4 * o X : , > 2 3 3 3 R R R 3 4 2 > : X X   UXUXUXUXUXUXUXUXUXUXUXUXUXUXUXUXUXUXUXUXUXUXUXUXUX",
"UXUXUXUXUXUXUXUXUXUXUXUXUXUXUXUXUXUXUXUXUXUXUXUXUXUXUXeXwXeXUXUXUXUXUXUXUXUXUXqXuXhXlXjXuXZ.h.u.t.y.d.d.f.(.).].[.}.}.{.{.{.{.}.[.'.).x.f.a.i.t.e.;.g Z ] +.X.^ R 5 @   X . : , > > > > > > > > > , . X X UXUXUXUXUXUXUXUXUXUXUXUXUXUXUXUXUXUXUXUXUXUXUXUXUXUXUX",
"UXUXUXUXUXUXUXUXUXUXUXUXUXUXUXUXUXUXUXUXUXUXUXUXUXUXUXUXqXUXUXUXUXUXUXUXUXUXo.qXuXxXzXfX+.' ] M.k.N.c.c.d.d.f.x.(.(.(.(.).).).).(.x.f.d.d.i.y.t.;.g f j ` | | ~ R > X   X X . . * : : ; . . . . . X X   UXUXUXUXUXUXUXUXUXUXUXUXUXUXUXUXUXUXUXUXUXUXUXUXUXUXUXUX",
"UXUXUXUXUXUXUXUXUXUXUXUXUXUXUXUXUXUXUXUXUXUXUXUXUXUXUXUXUXUXUXUXUXUXUXUXUXUXo.O.uXlXlXtX} | XXpXkXkXsXOXj.t.r.t.y.i.a.d.f.x.(.x.f.d.a.i.i.i.y.t.;.g f j L ' [ ~ R 2 . X X X . . . . . . X X X X X X UXUXUXUXUXUXUXUXUXUXUXUXUXUXUXUXUXUXUXUXUXUXUXUXUXUXUXUXUXUX",
"UXUXUXUXUXUXUXUXUXUXUXUXUXUXUXUXUXUXUXUXUXUXUXUXUXUXUXUXUXUXUXUXUXUXUXUXUX3XsXuXuXuXtXwXeXeXwXtXjXNXCXkXOXM.p.;.;.e.t.y.i.a.a.a.i.i.y.t.r.e.;.;.h Z H L ) / ( R 3 4 > > 2 3 R E ~ ~ ~ ~ E R 3 4 2 2 3 UXUXUXUXUXUXUXUXUXUXUXUXUXUXUXUXUXUXUXUXUXUXUXUXUXUXUXUXUX",
"UXUXUXUXUXUXUXUXUXUXUXUXUXUXUXUXUXUXUXU.U.U.T.T.T.T.T.U.U.P.L.L.W.vXsX3X6X6XMXcXtX+.o.wXjXgXZ. .Z.lXAXVXxXpXM.Z h g e.e.e.e.e.e.e.e.e.;.h h h h j K  .| / E $.3 4 3 E ~ ^ | +.wXuXgXgXgXuXeXO.} { ~ E R R UXUXUXUXUXUXUXUXUXUXUXUXUXUXUXUXUXUXUXUXUXUXUXUXUXUXUX",
"UXUXUXUXUXUXUXUXUXUXUXUXUXUXUXE.E.E.Q.Q.Q.E.T.U.P.P.P.T.T.T.Y.T.@X+X3X,X,X3XsXgXwXo.| X.O.A.b.3.2.v.Z.iXdXuXZ.` G j g g g g g g g f g j h.M.C.C.C. .} [ ( R R E / { o.O.wXyXhXzXCXAXAXAXCXzXlXgXtXO.{ / ~ UXUXUXUXUXUXUXUXUXUXUXUXUXUXUXUXUXUXUXUXUXUXUXUXUXUXUX",
"UXUXUXUXUXUXUXUXUXUXUXUXUXQ.Q.Q.Q.Q.!.!.!.R.P.L.B B K.P.R.E.Q.~.8X:X<X<X%X.XoXZ.+.+.o.X.} v.2.-.-.v W [ O.qX+.{ ! z k s d d d d d h j h.C.tXyXuXeXo.^ E R R E / | o.O.eXyXhXzXCXAXDXSXDXDXCXBXxXgXwXo.{ / UXUXUXUXUXUXUXUXUXUXUXUXUXUXUXUXUXUXUXUXUXUXUXUXUXUXUX",
"UXUXUXUXUXUXUXUXUX^.^.^.^.!.Q.Q.!.~.!.E.U.K.V n b n m B P.R.@X.X}.}.%X=XsXoX| ~ / +.tXjXlXpXA.v v ' o.o.| { / E x 1 y a s d d d j h.C.rXtXuXtXqXo.^ E 3 3 R W ( ~ ^ { } o.qXtXyXhXlXxXxXhXgXuXwXqXo.^ E E UXUXUXUXUXUXUXUXUXUXUXUXUXUXUXUXUXUXUXUXUXUXUXUXUXUXUX",
"UXUXUXUXUXUXUXUX^.^.^.~.!.Q.E.E.Q.!.E.P.B m $ % % - n V P I._.[.[..X XoXqX@.E 3 E o.uXlXBXxXeX[ [ X.+.} / E R 3 $.W E Q L H H H K C.qXeXqX+.X.{ ~ R 3 4 4 3 3 3 R R R E ~ / { } o.O.qXqX+.} { { / E R 3 4 UXUXUXUXUXUXUXUXUXUXUXUXUXUXUXUXUXUXUXUXUXUXUXUXUXUXUX",
"UXUXUXUXUXUX!.!.!.!.Q.E.T.T.U.Y.T.T.P.B m $ % % 5 N W W E I l._. XOXXX} ~ R 3 3 E | 0XtXyXuXeX+.X.{ ^ ~ R D 3 R ~ X.qXqXZ.Z.Z.Z... .{ ^ ~ W R 3 4 2 2 > > > > > > > > > 2 4 3 3 R E E E E R 3 3 3 2 > > , UXUXUXUXUXUXUXUXUXUXUXUXUXUXUXUXUXUXUXUXUXUXUXUXUXUXUX",
"UXUXUXUXQ.Q.Q.E.R.T.U.P.P.P.U.U.U.P.B m $ $ 5 N W ~ / ^ _ ) K K ]  .o.@.{ ^ ~ ~ ~ ^ { X.+.+.o.| ^ ~ E ~ / ^ ^ ^ { } o.o.o.X.X.X.| / E 3 2 > , , , , , , , , , , > > > > > > > > > > 4 3 3 4 4 4 2 2 > > > UXUXUXUXUXUXUXUXUXUXUXUXUXUXUXUXUXUXUXUXUXUXUXUXUXUXUX",
"UXUXUXR.R.R.T.T.U.P.L.B B L.U.U.P.L.V m n N ~ { { { } +.O.o./ E W ~ { qXuXuXqX} ^ ~ E ~ ~ ~ ( E R R E ^ o.+.+.o.| / E E E E E E E R 3 4 > : . . . . . . : , > > 4 3 R E E R 3 2 > > 4 3 R R E E E R 3 3 4 UXUXUXUXUXUXUXUXUXUXUXUXUXUXUXUXUXUXUXUXUXUXUXUXUXUXUX",
"R.U.K.B B L.T.T.U.P.L.L.L.P.U.U.U.P.P.W.X.o.+.+.o.+.qXuXgXwX} / / | qXgXzXxXyXqX{ E 3 4 4 3 R ( / ^ [ [ [ ^ ^ / ~ E 3 3 4 2 > > 3 ~ { | [ ~ 3 , X X X . , 5 3 R ~ | qXtXtXeX+.{ E R R E ^ } +.qXqXo./ R R UXUXUXUXUXUXUXUXUXUXUXUXUXUXUXUXUXUXUXUXUXUXUXUXUXUXUX",
"R.T.L.V V L.T.E.T.U.P.P.P.P.P.P.L.P.W.vXgXyXeX0X0XqXtXhXlXuXo.^ { +.tXhXzXxXgXqX{ E 4 > > 3 ! ] ..C...' ~ R R R R 3 4 > , : , 2 E | qXqX+.{ E 2 : . . , > 4 3 E ^ qXhXBXCXBXlXuXO.| { { o.wXgXxXxXgXo./ ~ UXUXUXUXUXUXUXUXUXUXUXUXUXUXUXUXUXUXUXUXUXUXUXUXUXUXUX",
"E.E.E.E.Q.Q.!.Q.R.U.P.L.K.B B V m V #.W.yXtXO.o.O.wXuXyXyXqX{ ~ / | +.eXuXtXqX} ~ 3 5 4 E ' |..X*X.X XM.) E W R 3 2 , . . > E o.qXqXo.{ E 3 4 3 3 4 2 2 4 3 3 3 R } uXzXAXDXDXBXlXuX+.} O.uXhXBXVXxXtX+.} UXUXUXUXUXUXUXUXUXUXUXUXUXUXUXUXUXUXUXUXUXUXUXUXUXUXUX",
"U.U.T.Q.Q.R.Y.P.L.K.B V V P P P C C P ..eXO.| ^ } qXeXeXqX} ~ R R E ~ { { { / ~ R 3 D ! ..|.*X&X{.'.(.l.L F x 3 R E ~ ~ E ~ o.tXtX+.^ E R R E ^ { ^ ~ E R R 3 2 3 ~ o.uXxXVXDXDXAXxXuXqXqXtXgXBXAXzXuXqXqXUXUXUXUXUXUXUXUXUXUXUXUXUXUXUXUXUXUXUXUXUXUXUXUXUXUXUX",
"V B B B B V m m m m b $ n U /._.(.z.l.C.o.[ E R ~ { } } | ^ E 3 4 2 2 4 3 3 4 3 R ( ' |..X*X].(.f.a.t.e.h k y < E qXhXxXhXuXwXO.} ~ W ~ } qXtXuXuXtXqXo.^ E R 3 3 3 R / O.gXzXAXDXVXxXgXuXwXtXhXzXhXeXo.qXgXxXUXUXUXUXUXUXUXUXUXUXUXUXUXUXUXUXUXUXUXUXUXUXUXUXUX",
"@X@X@X/.I.I.I I U U U C C I _.].'.(.N.] | / R 3 R ~ / / ~ ~ E 3 2 , : . : > 4 E ) ] |. X`.).f.a.t.;.g j h.` ]  .eXhXCXBXhXuXo.^ ~ ^  .qXgXxXBXzXxXhXuXqX} / E R 3 2 > 2 E } eXhXzXBXBXxXgXeXqXtXyXwX} { o.tXfXUXUXUXUXUXUXUXUXUXUXUXUXUXUXUXUXUXUXUXUXUXUXUXUXUX",
"6X6X4X,X<X;X%X}.[.).(.z.f.f.UXUXUXUXUX} { ~ R 3 R E E E E E E R 4 , . X . 5 E ' M._.(.x.d.i.t.e.;.g j h.Z.pXxXBXBXBXlXyXqX| ~ R ~ qXhXBXAXDXDXVXBXhXuXeXo.{ ~ E 3 2 , : > 3 ~ o.uXhXzXzXgXeXO.O.+.| ~ E ^ +.eXrXUXUXUXUXUXUXUXUXUXUXUXUXUXUXUXUXUXUXUXUXUXUXUXUX",
"UXUXUXUXUXUXUXUXUXUXUXUXUXUXUXUXUXUXv _ / E $.4 3 3 3 3 3 3 R R 3 > : ; : 1 L h.l.d.d.y.e.;.g g j J M.oXhXNXCXCXzXgXeX} ~ E ~ o.iXlXAXSXJXDXVXzXhXuXqXo.| / E R 4 5 > , : : 2 ( } eXgXhXyXqXo.| { ~ R D ) M. X+XkXUXUXUXUXUXUXUXUXUXUXUXUXUXUXUXUXUXUXUXUXUXUXUX",
"UXUXUXUXUXUXUXUXUXUXUXUXUXUXUXUX&.r v x W R 3 4 2 > > > > 2 3 3 4 > , : , < G u.u.Z h d s s s d J C.uXhXBXVXBXlXuX+.{ E R E o.gXBXDXJXSXDXCXxXyXeX+.} { ~ E Y 2 > > > , , * < 4 E { qXtXeX+.} ^ ~ R 4 x L _.*X+XkXhXUXUXUXUXUXUXUXUXUXUXUXUXUXUXUXUXUXUXUXUXUXUX",
"UXUXUXUXUXUXUXUXUXUXUXUXUXUX<.>.r e q c 4 3 3 4 2 > > > > > > > > > , : : * = y y y = = + + # UXUXkXxXBXCXBXlXuX+.~ R E | eXhXVXSXJXDXVXzXhXtXO.} { / ~ R 3 > : . . X @ i A G l 1 W ^ | | { ^ ~ E Y 5 1 L _.*X+XpXdXUXUXUXUXUXUXUXUXUXUXUXUXUXUXUXUXUXUXUXUXUXUX",
"UXUXUXUXUXUXUXUXUXUXUXUXUX,.,.>.:.k p = , > 2 2 > , , , : : : : : , : . . . . . ; ; . X   . UXUXUXCXBXBXzXhXtXo.^ R 3 ^ tXzXAXSXSXDXBXxXyXeXo.{ / E R 3 5 , < D F S i p A i.u.p , 5 Y E E E E R R D F L /.%X%X+XoXeXUXUXUXUXUXUXUXUXUXUXUXUXUXUXUXUXUXUXUXUXUXUX",
"UXUXUXUXUXUXUXUXUXUXUXb.2.>.r r i.z.l.C $ % : , , , : ; . . . . . . . . X X X X X X     UXUXwXuXgXxXzXlXyXeX} ~ W R ~ +.lXDXSXDXVXzXhXuXO.} ^ ~ W 3 2 , . . F /.%X%X`.(.f.a.Z u , , 5 4 4 4 2 > > F |.%X<X,X:X+XXXo.UXUXUXUXUXUXUXUXUXUXUXUXUXUXUXUXUXUXUXUXUXUX",
"UXUXUXUXUXUXUXUXUXUXb.2.,.r w e i.(./.C n m V V N : . . X X X X X X X X X X X         UXUXUXhXgXhXhXhXuXO.{ E 3 R ^ O.gXCXSXDXCXxXgXwX+.{ ~ R 4 2 F I I I I |.%X<X>X{.'.f.i.Z k y = , > , , : . * F  X,X5X5X7X=X XoXoXUXUXUXUXUXUXUXUXUXUXUXUXUXUXUXUXUXUXUXUXUX",
"UXUXUXUXUXUXUXUXm.b.2.,.r e 9 s u.a.l.P V K.T.T.B 5 . X . . . X X X               UXUXUXUXUXxXlXhXgXtXo.~ R 2 4 ~ qXlXCXDXDXCXxXpXeXo.{ ~ R 2 , l l.%X,X4X4X2X;X&X}.[.(.d.t.;.g s a = : ; . X X * F  X,X5X5X6X,X;X*X+XpXdXUXUXUXUXUXUXUXUXUXUXUXUXUXUXUXUXUXUXUX",
"UXUXUXUXUXUX2.<.<.,.>.e e f :.Z A C P P P.Y.R.T.L.N - $ $ % % X X   UXUXUXUXUXUXUXUXUXUXUXyXhXhXyXqX{ E 2 , , 4 / uXBXDXAXBXxXgXeXo.^ W 2 > D I |.:X1X5X5X5X,X;X[.).(.d.y.;.g f f a = .     * i I /.%X,X4X4X1X,X;X*XOXiXwXUXUXUXUXUXUXUXUXUXUXUXUXUXUXUXUXUXUXUX",
"UXUXUXUXUXUX2.<.>.r e e s j p.s.C n V K.P.U.P.L.B V m n n $ % % UXUXUXUXUXUXUXUXUXUXUXUXuXuXyXuXqX^ 3 1 < < 1 E X.gXCXAXBXxXdXeXo./ R 2 < l I %X2X5X5X5X4X,X&X[.).f.a.t.;.f d s s a @ X X @ i J (.}.;X,X,X,X,X>X&X*X XC.+.UXUXUXUXUXUXUXUXUXUXUXUXUXUXUXUXUXUXUX",
"UXUXUXUXUXUXUXUXUXUX:.e.u.A p M n n m V B B V V m n b b UXUXUXUXUXUXUXUXUXUXUXUXUXUXUXUXuXtXqXo./ 4 , i A j.M.+.tXxXVXCXxXyXqX| ~ 4 > l I /.%X7X5X5X4X,X;X{.'.(.d.y.e.g f d s 0 + o X X = k p.a.(.'.[.}.&X;X;X;X&X*X_.l.j.UXUXUXUXUXUXUXUXUXUXUXUXUXUXUXUXUXUXUX",
"UXUXUXUXUXUXUXUXUXUXUXA A i & % $ n n m m m m n b $ % UXUXUXUXUXUXUXUXUXUXUXUXUXUXUXUXeXwXqX| ~ D D F I (.`.OXpXhXNXCXzXgXqX| ~ D 4 S I _.<X1X5X6X1X,X&X[.(.f.d.y.;.g d d d s 0 + + + = k u.i.d.f.f.(.(.).].[.[.[.).f.i.t.UXUXUXUXUXUXUXUXUXUXUXUXUXUXUXUXUXUXUX",
"UXUXUXUXUXUXUXUXUXUXUX& & & % % $ $ $ $ $ $ UXUXUXUXUXUXUXUXUXUXUXUXUXUXUXUXUXUXUX{ | o.+.} E 4 F |.%X&X{.*X=XkXxXBXBXhXwXo.~ 3 D L /.[.,X6X5X4X,X;X}.'.x.d.i.y.e.;.f d d d d s s s h h Z e.t.y.i.a.d.d.d.d.d.d.d.a.y.t.e.UXUXUXUXUXUXUXUXUXUXUXUXUXUXUXUXUXUXUX",
"UXUXUXUXUXUXUXUXUXUXUXUX% % % $ % % % % % UXUXUXUXUXUXUXUXUXUXUXUXUXUXUXUXUXUXUXUX{ { | { ~ 2 > F .X4X1X,X:XMXcXxXxXlXuXo./ 3 > 1 l.[.,X5X5X5X,X;X}.'.x.d.y.r.;.h j j k j g g f f g ;.;.;.e.e.t.t.t.t.t.t.t.t.p.h.h.J H H UXUXUXUXUXUXUXUXUXUXUXUXUXUXUXUXUXUXUX",
"UXUXUXUXUXUXUXUXUXUXUXUXUXUXUXUXUXUXUXUXUXUXUXUXUXUXUXUXUXUXUXUXUXUXUXUXUXUXUXUXUX| { ^ E 3 > , I .X6X5X2X,XMXcXhXgXuXO.^ R > , S /.:X1X5X5X4X<X{.'.(.d.i.e.g f d z Q ! L Z ;.g f d d f g ;.e.e.e.e.e.r.e.r.p.M...o.{ ^ / UXUXUXUXUXUXUXUXUXUXUXUXUXUXUXUXUXUXUX",
"UXUXUXUXUXUXUXUXUXUXUXUXUXUXUXUXUXUXUXUXUXUXUXUXUXUXUXUXUXUXUXUXUXUXUXUXUXUXUXUXUX{ ^ E 3 1 z H /.%X,X<X{.*X+XpXuXwXO.{ E x F I /.%X1X5X4X,X;X[.).x.a.y.e.h s a l x E ~ ) ` J Z h g f d f g g g g Z h.M.C.oXoXoXeXO.| / E R R UXUXUXUXUXUXUXUXUXUXUXUXUXUXUXUXUX",
"UXUXUXUXUXUXUXUXUXUXUXUXUXUXUXUXUXUXUXUXUXUXUXUXUXUXUXUXUXUXUXUXUXUXUXUXUXUXUXUXUX~ E 3 > < A a.(.[.[.'.(.z.M.XX0Xo.{ ( 4 4 I .X<X1X6X4X<X{.'.(.d.i.e.h d s a = > 4 R E ^ { ] K u.;.g f d d d h j K C.wXuXgXgXuXqXo.{ ~ E E E E UXUXUXUXUXUXUXUXUXUXUXUXUXUXUXUX",
"UXUXUXUXUXUXUXUXUXUXUXUXUXUXUXUXUXUXUXUXUXUXUXUXUXUXUXUXUXUXUXUXUXUXUXUXUXUXUXUXUX3 3 > . * k t.d.d.f.d.y.p.K ' { / E 4 : 1 I :X4X1X,X&X[.).f.a.t.e.g s a + @ @ : > 4 R E / _ ' ] K u.;.f d j h.C.XXwXwXqXo.| [ / ~ ~ / ^ { { ^ ~ E UXUXUXUXUXUXUXUXUXUXUXUXUXUX",
"UXUXUXUXUXUXUXUXUXUXUXUXUXUXUXUXUXUXUXUXUXUXUXUXUXUXUXUXUXUXUXUXUXUXUXUXUXUXUXUXUX> , . X @ y k Z j.j.j.j.h.` _ ~ W 3 > ; 1 I :X1X,X{.'.(.d.y.e.h g f s #       X : > 2 3 R ( ^ { ) H Z j H K C.qXeXO.o.{ ~ E ~ / { o.XXeXwXeXo.{ ~ E UXUXUXUXUXUXUXUXUXUXUXUXUX",
"UXUXUXUXUXUXUXUXUXUXUXUXUXUXUXUXUXUXUXUXUXUXUXUXUXUXUXUXUXUXUXUXUXUXUXUXUXUXUXUXUX. . X X * < D ! ] C.XXrXrXXXo.{ ~ R 4 > 4 I .X&X}.(.f.i.t.;.g f f UXUXUXUXUX  X X . : > 2 3 R E W D Q _  ... .{ / E R R E ^ o.tXgXlXzXBXBXlXuXo.^ E R 3 UXUXUXUXUXUXUXUXUXUXUX",
"UXUXUXUXUXUXUXUXUXUXUXUXUXUXUXUXUXUXUXUXUXUXUXUXUXUXUXUXUXUXUXUXUXUXUXUXUXUXUXUXUX: , > 2 R ~ } 0XtXjXxXBXBXxXgXuXqXo.| { ' C.|. Xl.J Z Z g g f UXUXUXUXUXUXUXUX  X X X . : , > 2 3 W ( [ | | ~ R 3 3 R ~ | qXyXxXBXBXBXxXhXuXO.{ ~ E R R E UXUXUXUXUXUXUXUXUXUX",
"UXUXUXUXUXUXUXUXUXUXUXUXUXUXUXUXUXUXUXUXUXUXUXUXUXUXUXUXUXUXUXUXUXUXUXUXUXUXUXUXUX> 2 3 E { qXyXlXBXAXSXLXLXJXDXCXzXhXgXyXuXeXO.| ~ x l a d d UXUXUXUXUXUXUXUXUXUXUX  X X X X X ; 2 E ~ ~ E Y 4 > 4 R / o.wXgXxXzXxXhXuXqX} ^ ( R R E / ^ { { { UXUXUXUXUXUXUXUX",
"UXUXUXUXUXUXUXUXUXUXUXUXUXUXUXUXUXUXUXUXUXUXUXUXUXUXUXUXUXUXUXUXUXUXUXUXUXUXUXUXUX4 3 R ~ { +.tXgXlXBXCXAXAXVXBXxXlXgXgXgXyXuXwXO.| ~ W x z l 1 UXUXUXUXUXUXUXUXUXUXUX        X X , 4 3 4 > > > 2 3 R ~ | qXwXtXtXqXo.^ ~ E E / } O.eXtXwXqXo.{ ~ UXUXUXUXUXUXUX",
"UXUXUXUXUXUXUXUXUXUXUXUXUXUXUXUXUXUXUXUXUXUXUXUXUXUXUXUXUXUXUXUXUXUXUXUXUXUXUXUXUX2 4 3 R ( ^ | +.qXtXyXgXgXgXuXtXeXqXqXqXeXeXwXqX+.} ^ E x 3 4 2 2 UXUXUXUXUXUXUXUXUXUXUX  X X X . . : . X ; > 4 3 R E ~ { { { ~ E 3 4 3 E ^ O.gXxXBXBXlXuX+.{ E R 3 UXUXUXUXUX",
"UXUXUXUXUXUXUXUXUXUXUXUXUXUXUXUXUXUXUXUXUXUXUXUXUXUXUXUXUXUXUXUXUXUXUXUXUXUXUXUXUX: , , > > 4 R E ~ ~ ^ { { { { ^ / / ~ ~ ~ / ^ ' { { ^ ~ ( W R 3 3 R R UXUXUXUXUXUXUXUXUXUXUXX X X X X X X X , 2 3 R R R R 3 4 > > > 3 ~ +.uXxXBXVXBXxXgXqX{ ~ R 3 3 UXUXUXUXUX",
"UXUXUXUXUXUXUXUXUXUXUXUXUXUXUXUXUXUXUXUXUXUXUXUXUXUXUXUXUXUXUXUXUXUXUXUXUXUXUXUXUXX X X . : , 2 4 3 R E ~ ^ { | | { { / E W R E E ~ ~ ~ ~ ~ E E E E E E ~ UXUXUXUXUXUXUXUXUXUXUX          X X : > 2 4 4 2 > , : : > R / O.gXzXCXBXzXhXuXO.{ ~ R 3 4 2 UXUXUXUXUX",
"UXUXUXUXUXUXUXUXUXUXUXUXUXUXUXUXUXUXUXUXUXUXUXUXUXUXUXUXUXUXUXUXUXUXUXUXUXUXUXUXUXX X . : , 2 3 E ~ { o.qXuXgXhXlXhXgXtXO.| ^ ~ ~ ( E E E E E ~ ~ ^ { { { ^ / UXUXUXUXUXUXUXUXUXUXUX    X X . , > > , : . . : , 2 E | wXgXxXBXlXyXeX+.| ^ ~ E R 3 4 > , : UXUXUX",
"UXUXUXUXUXUXUXUXUXUXUXUXUXUXUXUXUXUXUXUXUXUXUXUXUXUXUXUXUXUXUXUXUXUXUXUXUXUXUXUXUXUX. . , > 3 E / | +.tXhXzXVXDXSXDXAXBXhXuXeX+.o.| { { ^ ^ { | } o.o.o.} { { UXUXUXUXUXUXUXUXUXUXUXUX  X X . : , : . X X X , 4 E { qXuXgXgXyXwXO.o.o.o.o.+.o.o.| / E 3 2 UXUXUX",
"UXUXUXUXUXUXUXUXUXUXUXUXUXUXUXUXUXUXUXUXUXUXUXUXUXUXUXUXUXUXUXUXUXUXUXUXUXUXUXUXUXUXUX: , 5 R ~ { o.qXgXzXAXSXLXKXKXLXDXVXzXhXgXuXwXqXqXO.+.O.qXqXqXqX+.o.} } UXUXUXUXUXUXUXUXUXUXUXUXUXUXX X X . X X X X : 2 E | +.eXwXqXo.} | } +.wXgXhXxXlXhXuXqX| ~ R UXUXUX",
"UXUXUXUXUXUXUXUXUXUXUXUXUXUXUXUXUXUXUXUXUXUXUXUXUXUXUXUXUXUXUXUXUXUXUXUXUXUXUXUXUXUXUXUX: > 3 E / { o.wXhXBXCXAXDXDXAXCXzXlXgXyXuXeXqXO.+.o.o.} | | { { { { { ~ E UXUXUXUXUXUXUXUXUXUXUXUXUX  X X X X . , 2 R ~ { | | { { { } O.uXhXzXCXCXBXxXgXeXo./ R 3 UXUXUX",
"UXUXUXUXUXUXUXUXUXUXUXUXUXUXUXUXUXUXUXUXUXUXUXUXUXUXUXUXUXUXUXUXUXUXUXUXUXUXUXUXUXUXUXUXX : 2 3 R E / o.qXuXgXgXjXhXgXgXuXwXeXqXO.o.| { { / ~ E E ~ ~ ~ ^ ^ ^ ~ ~ ~ UXUXUXUXUXUXUXUXUXUXUXUXUX  X X . , 2 R E E ~ E E E ~ { +.uXxXBXVXCXBXhXuXqX| ~ R 4 > UXUXUX",
"UXUXUXUXUXUXUXUXUXUXUXUXUXUXUXUXUXUXUXUXUXUXUXUXUXUXUXUXUXUXUXUXUXUXUXUXUXUXUXUXUXUXUXUXUXUX> 5 4 3 R E / { { } } o.o.} | { { ^ ~ E R 3 3 3 3 R E / { } } } } { { { UXUXUXUXUXUXUXUXUXUXUXUXUXX X . : , 2 3 Y 3 4 4 3 R ^ +.wXyXjXgXuXqXo.| ^ ~ R 3 2 > , UXUXUX",
"UXUXUXUXUXUXUXUXUXUXUXUXUXUXUXUXUXUXUXUXUXUXUXUXUXUXUXUXUXUXUXUXUXUXUXUXUXUXUXUXUXUXUXUXUXUX: : , > > 2 4 3 x R R E E E R R 3 3 4 2 > > > > 3 E / { o.o.o.} | | { { UXUXUXUXUXUXUXUXUXUXUXUXUXX X . : , > 2 2 > , > 3 E { +.eXeXqXo.{ E R R R R E E 3 2 > UXUXUX",
"UXUXUXUXUXUXUXUXUXUXUXUXUXUXUXUXUXUXUXUXUXUXUXUXUXUXUXUXUXUXUXUXUXUXUXUXUXUXUXUXUXUXUXUXUXUXX X X . : : > > 2 2 4 4 4 2 > > > > > > > 2 4 R ~ { } } | { / ~ ~ ~ / / UXUXUXUXUXUXUXUXUXUXUXUXUX  X X . : : : : : , 2 R ~ ^ | | / E 3 4 4 3 E / } O.O.{ E 3 UXUXUX",
"UXUXUXUXUXUXUXUXUXUXUXUXUXUXUXUXUXUXUXUXUXUXUXUXUXUXUXUXUXUXUXUXUXUXUXUXUXUXUXUXUXUXUXUXUXUXUX  X X X : > > 2 4 4 2 2 > > > 4 3 R ~ / ^ { { { | { ^ ~ ~ ~ ~ / { | } UXUXUXUXUXUXUXUXUXUXUXUXUXUX  X X . X X . : > 4 R ~ ~ E R 3 2 > 4 R / o.eXuXgXuX+./ E UXUXUX",
"UXUXUXUXUXUXUXUXUXUXUXUXUXUXUXUXUXUXUXUXUXUXUXUXUXUXUXUXUXUXUXUXUXUXUXUXUXUXUXUXUXUXUXUXUXUXUXUXUXX . , 5 4 3 R R 3 3 3 R E / } O.wXuXuXwXqXo.^ E R R E / | o.O.qXqXUXUXUXUXUXUXUXUXUXUXUXUXUXUXUXUX  X X X . , 2 3 R E R 4 > > > 3 ~ } eXgXlXxXlXgXO.^ E UXUXUX",
"UXUXUXUXUXUXUXUXUXUXUXUXUXUXUXUXUXUXUXUXUXUXUXUXUXUXUXUXUXUXUXUXUXUXUXUXUXUXUXUXUXUXUXUXUXUXUXUXUX. : > 2 3 E ~ / { | o.0XwXuXhXlXxXhXyXqX} / E R E ^ | +.qXqX+.o.o.UXUXUXUXUXUXUXUXUXUXUXUXUXUXUXUX    X . : > 4 3 3 3 4 > , > 3 E o.tXgXhXgXgXuXqX{ E 3 UXUXUX",
"UXUXUXUXUXUXUXUXUXUXUXUXUXUXUXUXUXUXUXUXUXUXUXUXUXUXUXUXUXUXUXUXUXUXUXUXUXUXUXUXUXUXUXUXUXUXUXUXUX: , > 2 3 R ~ { o.qXtXgXxXzXBXBXxXgXqX{ E R R E | qXuXuXtXqX| / ~ UXUXUXUXUXUXUXUXUXUXUXUXUXUXUXUX  X X . , 2 4 3 2 > > > > 3 E { qXyXgXuXqXo.{ ~ R 4 > UXUXUX",
"UXUXUXUXUXUXUXUXUXUXUXUXUXUXUXUXUXUXUXUXUXUXUXUXUXUXUXUXUXUXUXUXUXUXUXUXUXUXUXUXUXUXUXUXUXUXUXUXUXUXUX, > > 2 3 R E ^ } O.eXtXtXeX+.{ ~ 3 4 R / o.tXhXlXgXwXo.~ R E / { UXUXUXUXUXUXUXUXUXUXUXUXUXUXUXUX. : , > 4 4 > , , > 4 E { o.O.O.o.{ ~ E R 3 2 > , UXUXUX",
"UXUXUXUXUXUXUXUXUXUXUXUXUXUXUXUXUXUXUXUXUXUXUXUXUXUXUXUXUXUXUXUXUXUXUXUXUXUXUXUXUXUXUXUXUXUXUXUXUXUXUXUX: : : : , > 3 R ~ ^ ^ ^ ~ R 2 > > 2 ~ +.uXhXxXlXtXo.^ E E ~ { } UXUXUXUXUXUXUXUXUXUXUXUXUXUXUXUXUX: , > 2 5 > , > 2 R ~ | X.{ / ~ ~ ~ E R 3 2 , : UXUXUX",
"UXUXUXUXUXUXUXUXUXUXUXUXUXUXUXUXUXUXUXUXUXUXUXUXUXUXUXUXUXUXUXUXUXUXUXUXUXUXUXUXUXUXUXUXUXUXUXUXUXUXUXUXUXUXX X X . : > 3 R 3 4 > : . : > R } yXxXxXhXtX| E E / { o.O.qXUXUXUXUXUXUXUXUXUXUXUXUXUXUXUXUXUX. . : > > , , > 3 R E ~ ~ R 3 E { +.O.+.| E 5 : UXUXUX",
"UXUXUXUXUXUXUXUXUXUXUXUXUXUXUXUXUXUXUXUXUXUXUXUXUXUXUXUXUXUXUXUXUXUXUXUXUXUXUXUXUXUXUXUXUXUXUXUXUXUXUXUXUXUXUX  X X . > 3 W E R 3 > : , 3 ~ qXlXBXxXuX+./ E / +.wXwXqXqXUXUXUXUXUXUXUXUXUXUXUXUXUXUXUXUXUXX X . : : : , > 3 R R 3 3 4 3 ~ O.yXhXgXwX{ 3 , UXUXUX",
"UXUXUXUXUXUXUXUXUXUXUXUXUXUXUXUXUXUXUXUXUXUXUXUXUXUXUXUXUXUXUXUXUXUXUXUXUXUXUXUXUXUXUXUXUXUXUXUXUXUXUXUXUXUXUXUXUX. , 4 E { } o.{ E 4 3 E { iXxXBXgXO.{ ^ { O.gXxXyXO.| UXUXUXUXUXUXUXUXUXUXUXUXUXUXUXUXUX  X X X . : , > 4 3 2 > > 4 E | uXxXBXzXgXo.R > UXUXUX",
"UXUXUXUXUXUXUXUXUXUXUXUXUXUXUXUXUXUXUXUXUXUXUXUXUXUXUXUXUXUXUXUXUXUXUXUXUXUXUXUXUXUXUXUXUXUXUXUXUXUXUXUXUXUXUXUXUX. : > R ^ +.tXwX} ~ E ~ | wXxXxXuXX.{ } qXuXlXlXtX{ ~ UXUXUXUXUXUXUXUXUXUXUXUXUXUXUXUXUXUX  X X X . , > > > > , > R / +.gXzXzXlXgXqX~ UXUXUXUX",
"UXUXUXUXUXUXUXUXUXUXUXUXUXUXUXUXUXUXUXUXUXUXUXUXUXUXUXUXUXUXUXUXUXUXUXUXUXUXUXUXUXUXUXUXUXUXUXUXUXUXUXUXUXUXUXUXUXX . , 4 ~ +.yXgXeX} { ^ | qXhXhXwX{ { O.uXgXhXuXo.E 3 UXUXUXUXUXUXUXUXUXUXUXUXUXUXUXUXUXUXUXX X X . : : , , , > 2 E { +.uXgXuXeXqXO.UXUXUXUXUX",
"UXUXUXUXUXUXUXUXUXUXUXUXUXUXUXUXUXUXUXUXUXUXUXUXUXUXUXUXUXUXUXUXUXUXUXUXUXUXUXUXUXUXUXUXUXUXUXUXUXUXUXUXUXUXUXUXUXUXUX, 2 R | tXyXuXqXo.{ { qXgXgXqX{ { qXyXgXtX+.^ R 2 UXUXUXUXUXUXUXUXUXUXUXUXUXUXUXUXUXUXUXUX. . X X . : , > 2 3 E / { { { ^ ~ E E UXUXUXUXUX",
"UXUXUXUXUXUXUXUXUXUXUXUXUXUXUXUXUXUXUXUXUXUXUXUXUXUXUXUXUXUXUXUXUXUXUXUXUXUXUXUXUXUXUXUXUXUXUXUXUXUXUXUXUXUXUXUXUXUXUXUX, 4 ~ o.eXwXeX+.{ { o.tXuX+./ ^ O.uXwXo.^ R 4 > UXUXUXUXUXUXUXUXUXUXUXUXUXUXUXUXUXUXUX> , : X X X . , > 3 R E E E R 4 > > , : UXUXUXUXUX",
"UXUXUXUXUXUXUXUXUXUXUXUXUXUXUXUXUXUXUXUXUXUXUXUXUXUXUXUXUXUXUXUXUXUXUXUXUXUXUXUXUXUXUXUXUXUXUXUXUXUXUXUXUXUXUXUXUXUXUXUX. , 3 ~ | +.qXo.{ / { O.qX| ~ ~ } qXo./ R 4 > , UXUXUXUXUXUXUXUXUXUXUXUXUXUXUXUXUXE R 3 5 , ; X X . , 2 3 R R 3 4 > : X X X X UXUXUXUXUX",
"UXUXUXUXUXUXUXUXUXUXUXUXUXUXUXUXUXUXUXUXUXUXUXUXUXUXUXUXUXUXUXUXUXUXUXUXUXUXUXUXUXUXUXUXUXUXUXUXUXUXUXUXUXUXUXUXUXUXUXUXX . > 3 ~ | o.o.^ E / | | / E E / { / R 2 , : : UXUXUXUXUXUXUXUXUXUXUXUXUXUXUXUX{ { / E 3 5 , . X . : > 4 3 4 2 > > > 5 4 3 3 UXUXUXUXUX",
"UXUXUXUXUXUXUXUXUXUXUXUXUXUXUXUXUXUXUXUXUXUXUXUXUXUXUXUXUXUXUXUXUXUXUXUXUXUXUXUXUXUXUXUXUXUXUXUXUXUXUXUXUXUXUXUXUXUXUXUXX . : > 3 ~ | { ~ R E ~ ~ E 3 3 R R 3 2 , : . . UXUXUXUXUXUXUXUXUXUXUXUXUXUX{ { o.+.o.{ E 3 > . X X . : , > > 2 3 R E { o.o.| / ~ UXUXUX",
"UXUXUXUXUXUXUXUXUXUXUXUXUXUXUXUXUXUXUXUXUXUXUXUXUXUXUXUXUXUXUXUXUXUXUXUXUXUXUXUXUXUXUXUXUXUXUXUXUXUXUXUXUXUXUXUXUXUXUXUXUX. X . > 3 E E R 4 3 R R 3 2 > 2 2 > , . . X UXUXUXUXUXUXUXUXUXUXUXUXUXUX| o.o.0XqXqXo./ R 4 > : : : , > 4 R ~ ^ } O.uXhXhXdXeXO.UXUXUX",
"UXUXUXUXUXUXUXUXUXUXUXUXUXUXUXUXUXUXUXUXUXUXUXUXUXUXUXUXUXUXUXUXUXUXUXUXUXUXUXUXUXUXUXUXUXUXUXUXUXUXUXUXUXUXUXUXUXUXUXUXUXUXUX  X > 4 4 > , > 2 2 > , : , , : . X X UXUXUXUXUXUXUXUXUXUXUXUXUX{ { | o.O.qXqXO.} / E 3 2 > > > 4 R ~ { o.eXuXhXxXCXZXbXcXkXUXUXUX",
"UXUXUXUXUXUXUXUXUXUXUXUXUXUXUXUXUXUXUXUXUXUXUXUXUXUXUXUXUXUXUXUXUXUXUXUXUXUXUXUXUXUXUXUXUXUXUXUXUXUXUXUXUXUXUXUXUXUXUXUXUXUXUX  X . , , ; . . . : . . . . . X X X X UXUXUXUXUXUXUXUXUXR ^ o.+.o.{ { ^ ^ { { { ^ E R 3 4 2 > 2 R / } qXuXhXxXzXkXOX X=X3X3XUXUXUX",
"UXUXUXUXUXUXUXUXUXUXUXUXUXUXUXUXUXUXUXUXUXUXUXUXUXUXUXUXUXUXUXUXUXUXUXUXUXUXUXUXUXUXUXUXUXUXUXUXUXUXUXUXUXUXUXUXUXUXUXUXUXUX. X X : > 2 2 2 2 2 > > > , : . X X X X UXUXUXUXUXUXUXG S D ! | o.| { ~ E R R E E R 3 3 4 2 > > 2 R / } qXuXgXlXcXOXk.i.(.{.>X,XUXUX",
"UXUXUXUXUXUXUXUXUXUXUXUXUXUXUXUXUXUXUXUXUXUXUXUXUXUXUXUXUXUXUXUXUXUXUXUXUXUXUXUXUXUXUXUXUXUXUXUXUXUXUXUXUXUXUXUXUXUXqXo./ R 2 , > 3 E / | o.o.} { / E 3 > , . . ; . UXUXUXUXUXx.f.a.u.Z G Q ~ ~ ~ E 3 > > > > > > , , : . . : > 3 E / | o.0XXXM.H ;.i.(.].&X,X2X",
"UXUXUXUXUXUXUXUXUXUXUXUXUXUXUXUXUXUXUXUXUXUXUXUXUXUXUXUXUXUXUXUXUXUXUXUXUXUXUXUXUXUXUXUXUXUXUXUXUXUXUXUXUXUXUXUXqXO.+.| / E R $.E ^ o.eXuXgXgXuXwXO.| ~ R 4 > > 2 R UXUXUXUXf.d.a.y.r.h p 1 2 4 3 4 > : . . X X . X X X X X X : > 2 3 R E / ^ L k f e.i.x.[.&X<X",
"UXUXUXUXUXUXUXUXUXUXUXUXUXUXUXUXUXUXUXUXUXUXUXUXUXUXUXUXUXUXUXUXUXUXUXUXUXUXUXUXUXUXUXUXUXUXUXUXUXo.+.qXuXuXtXqXO.o.X.| { ^ ^ { o.wXgXxXzXBXxXhXgXtXqX} / E Y 3 R ^ o.XX|.z.d.i.r.;.g s a @ . : > , : . X X X X X X X X     X X . : , > 2 3 x z k f g e.i.x.'.[.",
"UXUXUXUXUXUXUXUXUXUXUXUXUXUXUXUXUXUXUXUXUXUXUXUXUXUXUXUXUXUXUXUXUXUXUXUXUXUXUXUXUXUXUXUXUXiXjXlXuXW.o.} } } | | @.O.wXtXuXuXuXuXyXgXlXxXzXxXxXhXyXuXqXo.^ E R Y R / } C.M.z.f.a.UXUXUXUXUXUXUXUXUXUXUXUXUXUXUXUXUXUXUXUXUXUXUXUXUXUXUXUX< u p a s UXUXUXt.a.d.d.",
"UXUXUXUXUXUXUXUXUXUXUXUXUXUXUXUXUXUXUXUXUXUXUXUXUXUXUXUXUXUXUXUXUXUXUXUXUXUXUXUXUXUXUXoXXXrXpXhXgXqX} ~ R 3 R !  .XXsXcXnXbXbXbXxXlXhXgXgXgXuXtXwXqXO.} / E 3 3 Y E ^ ] l.z.f.UXUXUXUXUXUXUXUXUXUXUXUXUXUXUXUXUXUXUXUXUXUXUXUXUXUXUXUXUXUXd d d UXUXUXUXUXe.e.e.",
"UXUXUXUXUXUXUXUXUXUXUXUXUXUXUXUXUXUXUXUXUXUXUXUXUXUXUXUXUXUXUXUXUXUXUXUXUXUXUXUXUXUX%X X X|.oXuXtXeXo.~ 2 1 I |..X.X.X X XOXsXbXBXhXtXqXO.+.o.o.} } { ^ E 3 4 2 4 3 R F H p.i.d.g.UXUXUXUXUXUXUXUXUXUXUXUXUXUXUXUXUXUXUXUXUXUXUXUXUXUXUXUXUXUXUXUXUXUXUXUXUXUXUX",
"UXUXUXUXUXUXUXUXUXUXUXUXUXUXUXUXUXUXUXUXUXUXUXUXUXUXUXUXUXUXUXUXUXUXUXUXUXUXUXUX;X;X{.].(.z.M.C.Z.Z.+.' F L /.;X>X{.'.g.d.d.OXnXzXdX+.{ ^ / ~ ~ ~ ( E R 3 > > > > > 5 1 p h t.i.d.f.UXUXUXUXUXUXUXUXUXUXUXUXUXUXUXUXUXUXUXUXUXUXUXUXUXUXUXUXUXUXUXUXUXUXUXUXUXUX",
"UXUXUXUXUXUXUXUXUXUXUXUXUXUXUXUXUXUXUXUXUXUXUXUXUXUXUXUXUXUXUXUXUXUXUXUXUXUX,X,X,X;X{.].(.f.a.j.h.] ..oX X].%X&X{.].(.f.d.d.OXkXhXwX{ ~ R 3 4 4 4 4 2 > , : . . ; 6 , < a d g e.t.y.UXUXUXUXUXUXUXUXUXUXUXUXUXUXUXUXUXUXUXUXUXUXUXUXUXUXUXUXUXUXUXUXUXUXUXUXUXUX",
"UXUXUXUXUXUXUXUXUXUXUXUXUXUXUXUXUXUXUXUXUXUXUXUXUXUXUXUXUXUXUXUXUXUXUXUXUX{.;X;X&X}.].(.f.i.r.;.j Q ' |.*X&X{.}.).x.d.y.t.p.M.oXqX} E 3 > , : : : : . . X X X X X . . * a d g g g h UXUXUXUXUXUXUXUXUXUXUXUXUXUXUXUXUXUXUXUXUXUXUXUXUXUXUXUXUXUXUXUXUXUXUXUXUXUX",
"UXUXUXUXUXUXUXUXUXUXUXUXUXUXUXUXUXUXUXUXUXUXUXUXUXUXUXUXUXUXUXUXUXUXUXUX'.].[.].'.(.x.d.y.e.g f k c D ] .X{.[.(.f.i.t.;.g h G ) / E 4 > . X X X X X X X X X X   X X X * a h ;.g f f UXUXUXUXUXUXUXUXUXUXUXUXUXUXUXUXUXUXUXUXUXUXUXUXUXUXUXUXUXUXUXUXUXUXUXUXUXUX",
"UXUXUXUXUXUXUXUXUXUXUXUXUXUXUXUXUXUXUXUXUXUXUXUXUXUXUXUXUXUXUXUXUXUXUX(.(.).).).UXUXUXUXUXUXUXUXUXUXD l._.'.).x.f.i.e.UXUXUXUXUXUXUXUXUXUXUXUXUXUXUXUXUXUXUXUXUXUXUXUXUXUXh e.;.g g UXUXUXUXUXUXUXUXUXUXUXUXUXUXUXUXUXUXUXUXUXUXUXUXUXUXUXUXUXUXUXUXUXUXUXUXUXUX",
"UXUXUXUXUXUXUXUXUXUXUXUXUXUXUXUXUXUXUXUXUXUXUXUXUXUXUXUXUXUXUXUXUXUXUXg.g.x.UXUXUXUXUXUXUXUXUXUXUXUXUXUXx.x.x.g.f.UXUXUXUXUXUXUXUXUXUXUXUXUXUXUXUXUXUXUXUXUXUXUXUXUXUXUXUXUXUXe.e.e.UXUXUXUXUXUXUXUXUXUXUXUXUXUXUXUXUXUXUXUXUXUXUXUXUXUXUXUXUXUXUXUXUXUXUXUXUXUX",
"UXUXUXUXUXUXUXUXUXUXUXUXUXUXUXUXUXUXUXUXUXUXUXUXUXUXUXUXUXUXUXUXUXUXUXUXUXUXUXUXUXUXUXUXUXUXUXUXUXUXUXUXf.f.f.UXUXUXUXUXUXUXUXUXUXUXUXUXUXUXUXUXUXUXUXUXUXUXUXUXUXUXUXUXUXUXUXUXUXUXUXUXUXUXUXUXUXUXUXUXUXUXUXUXUXUXUXUXUXUXUXUXUXUXUXUXUXUXUXUXUXUXUXUXUXUXUXUX",
"UXUXUXUXUXUXUXUXUXUXUXUXUXUXUXUXUXUXUXUXUXUXUXUXUXUXUXUXUXUXUXUXUXUXUXUXUXUXUXUXUXUXUXUXUXUXUXUXUXUXUXUXf.f.f.UXUXUXUXUXUXUXUXUXUXUXUXUXUXUXUXUXUXUXUXUXUXUXUXUXUXUXUXUXUXUXUXUXUXUXUXUXUXUXUXUXUXUXUXUXUXUXUXUXUXUXUXUXUXUXUXUXUXUXUXUXUXUXUXUXUXUXUXUXUXUXUXUX"
};
