/* XPM */
static const char *bos2n0[] = {
/* columns rows colors chars-per-pixel */
"128 128 256 2 ",
"   c #0B0B0B",
".  c #060405",
"X  c #170807",
"o  c #19140B",
"O  c #040316",
"+  c #141414",
"@  c #1C1C1C",
"#  c #191716",
"$  c #100B13",
"%  c #280606",
"&  c #3B0202",
"*  c #350807",
"=  c #28160B",
"-  c #37160B",
";  c #261A17",
":  c #361816",
">  c #340218",
",  c #193311",
"<  c #292519",
"1  c #362816",
"2  c #393617",
"3  c #2A2C0F",
"4  c #0E072F",
"5  c #29072C",
"6  c #1E2122",
"7  c #242424",
"8  c #2C2C2C",
"9  c #292727",
"0  c #352725",
"q  c #343434",
"w  c #3C3C3C",
"e  c #383737",
"r  c #32322E",
"t  c #440201",
"y  c #4C0201",
"u  c #480A09",
"i  c #530202",
"p  c #5B0101",
"a  c #580C08",
"s  c #47160B",
"d  c #571509",
"f  c #471817",
"g  c #561816",
"h  c #480213",
"j  c #640101",
"k  c #6B0101",
"l  c #670B08",
"z  c #730101",
"x  c #7B0101",
"c  c #760A09",
"v  c #681609",
"b  c #751709",
"n  c #681917",
"m  c #761514",
"M  c #710B14",
"N  c #462A17",
"B  c #48341B",
"V  c #56381C",
"C  c #542910",
"Z  c #752B03",
"A  c #7A3707",
"S  c #662617",
"D  c #782716",
"F  c #6B3112",
"G  c #492929",
"H  c #5A2827",
"J  c #473727",
"K  c #563C23",
"L  c #473937",
"P  c #583836",
"I  c #412E30",
"U  c #682626",
"Y  c #71352C",
"T  c #55102C",
"R  c #1D4217",
"E  c #264819",
"W  c #27551D",
"Q  c #394D1D",
"!  c #375924",
"~  c #2C5624",
"^  c #2E6223",
"/  c #336827",
"(  c #39782F",
")  c #4E4B1B",
"_  c #714C18",
"`  c #59473A",
"'  c #514B2E",
"]  c #674526",
"[  c #774B2A",
"{  c #745231",
"}  c #50712E",
"|  c #6C712A",
" . c #74661B",
".. c #08024E",
"X. c #31344A",
"o. c #0B0271",
"O. c #2C0756",
"+. c #500D4F",
"@. c #3D4142",
"#. c #434444",
"$. c #4C4C4C",
"%. c #494745",
"&. c #554947",
"*. c #545454",
"=. c #5B5B5B",
"-. c #595656",
";. c #53534F",
":. c #684A49",
">. c #675856",
",. c #755756",
"<. c #705046",
"1. c #576A4D",
"2. c #726A53",
"3. c #5D6263",
"4. c #646464",
"5. c #6B6B6B",
"6. c #6A6866",
"7. c #786969",
"8. c #747474",
"9. c #7B7B7B",
"0. c #7A7776",
"q. c #72726E",
"w. c #6B5D61",
"e. c #830101",
"r. c #8C0101",
"t. c #860908",
"y. c #940101",
"u. c #9C0000",
"i. c #980B08",
"p. c #8E1712",
"a. c #A40101",
"s. c #AC0101",
"d. c #A70B09",
"f. c #B30100",
"g. c #BA0201",
"h. c #A61911",
"j. c #89330E",
"k. c #B1340D",
"l. c #8B302C",
"z. c #B1312A",
"x. c #C40000",
"c. c #CA0303",
"v. c #D70202",
"b. c #C3120F",
"n. c #E70000",
"m. c #FA0000",
"M. c #D82E10",
"N. c #88470A",
"B. c #915213",
"V. c #B04B0D",
"C. c #97661A",
"Z. c #A76C19",
"A. c #875934",
"S. c #8E532F",
"D. c #936A32",
"F. c #A77726",
"G. c #A87136",
"H. c #AD4832",
"J. c #D06521",
"K. c #8D504C",
"L. c #AB5050",
"P. c #8F6D50",
"I. c #AB744B",
"U. c #847978",
"Y. c #8D716A",
"T. c #AC7972",
"R. c #C37E50",
"E. c #3D8734",
"W. c #468A35",
"Q. c #48993C",
"!. c #558C36",
"~. c #6E9236",
"^. c #64A13D",
"/. c #559448",
"(. c #4CA743",
"). c #55AA45",
"_. c #56B64A",
"`. c #59B950",
"'. c #6CB147",
"]. c #7A8677",
"[. c #659547",
"{. c #5CC853",
"}. c #5DCD55",
"|. c #64D75B",
" X c #67C856",
".X c #6BE662",
"XX c #73F76B",
"oX c #77F66B",
"OX c #65E05F",
"+X c #8B8A34",
"@X c #B68727",
"#X c #B48F35",
"$X c #A1A73D",
"%X c #C69833",
"&X c #CAA738",
"*X c #D2B13C",
"=X c #EEA139",
"-X c #968852",
";X c #AE924E",
":X c #92AD44",
">X c #B3AC4E",
",X c #928877",
"<X c #A7936A",
"1X c #B5AA70",
"2X c #D6BA45",
"3X c #CAB04A",
"4X c #DAAF5B",
"5X c #A3E260",
"6X c #D8C94C",
"7X c #E8D655",
"8X c #EBCF4F",
"9X c #F3E65A",
"0X c #D0CA76",
"qX c #F6F16D",
"wX c #D8ED6F",
"eX c #080392",
"rX c #0300A9",
"tX c #726786",
"yX c #7E8182",
"uX c #838383",
"iX c #8C8C8C",
"pX c #898786",
"aX c #968988",
"sX c #939393",
"dX c #9B9B9B",
"fX c #999796",
"gX c #92928E",
"hX c #A8938E",
"jX c #B0AA93",
"kX c #9EA0A1",
"lX c #A3A3A3",
"zX c #ABABAB",
"xX c #A7A8A8",
"cX c #B4B4B4",
"vX c #BCBCBC",
"bX c #B7B8B8",
"nX c #B4AFAB",
"mX c #9796A4",
"MX c #C4BABB",
"NX c #D8D395",
"BX c #BFC2C3",
"VX c #C4C4C4",
"CX c #CBCBCB",
"ZX c #C6C8C7",
"AX c #D3D3D3",
"SX c #DBDBDB",
"DX c #DAD3D3",
"FX c #D1CECE",
"GX c #E3E3E3",
"HX c #ECECEC",
"JX c #F4F4F4",
"KX c #FCFCFC",
"LX c #BEBFC0",
"PX c None",
"IX c black",
"UX c #897989",
/* pixels */
"PXPXPXPXPXPXPXPXPXPXPXPXPXPXPXPXPXPXPXPXPXPXPXPXPXPXPXPXPXPXPXPXPXPXPXPXPXPXPXPXPXPXPXPXPXPXPXPXPXPXPXPXPXPXPXPXPXPXPXPXPXfXbXCXxXfXdXSXHXAXVXVXVXbXxXfXPXPXPXPXPXPXPXPXPXPXPXPXPXPXPXPXPXPXPXPXPXPXPXPXPXPXPXPXPXPXPXPXPXPXPXPXPXPXPXPXPXPXPXPXPXPXPXPXPXPXPXPX",
"PXPXPXPXPXPXPXPXPXPXPXPXPXPXPXPXPXPXPXPXPXPXPXPXPXPXPXPXPXPXPXPXPXPXPXPXPXPXPXPXPXPXPXPXPXPXPXPXPXPXPXPXPXPXPXPXPXPXPXPXPXfXbXCXxXiXsXCXGXAXVXvXvXcXxXfXsXPXPXPXPXPXPXPXPXPXPXPXPXPXPXPXPXPXPXPXPXPXPXPXPXPXPXPXPXPXPXPXPXPXPXPXPXPXPXPXPXPXPXPXPXPXPXPXPXPXPXPX",
"PXPXPXPXPXPXPXPXPXPXPXPXPXPXPXPXPXPXPXPXPXPXPXPXPXPXPXPXPXPXPXPXPXPXPXPXPXPXPXPXPXPXPXPXPXPXPXPXPXPXPXPXPXPXPXPXPXPXPXPXPXdXvXCXlXpXuXzXZXCXVXbXbXcXxXfXiXPXPXPXPXPXPXPXPXPXPXPXPXPXPXPXPXPXPXPXPXPXPXPXPXPXPXPXPXPXPXPXPXPXPXPXPXPXPXPXPXPXPXPXPXPXPXPXPXPXPXPX",
"PXPXPXPXPXPXPXPXPXPXPXPXPXPXPXPXPXPXPXPXPXPXPXPXPXPXPXPXPXPXPXPXPXPXPXPXPXPXPXPXPXPXPXPXPXPXPXPXPXPXPXPXPXPXPXPXPXPXPXPX8.lXVXCXfX8.6.9.lXVXvXcXcXcXxXdXiXPXPXPXPXPXPXPXPXPXPXPXPXPXPXPXPXPXPXPXPXPXPXPXPXPXPXPXPXPXPXPXPXPXPXPXPXPXPXPXPXPXPXPXPXPXPXPXPXPXPXPX",
"PXPXPXPXPXPXPXPXPXPXPXPXPXPXPXPXPXPXPXPXPXPXPXPXPXPXPXPXPXPXPXPXPXPXPXPXPXPXPXPXPXPXPXPXPXPXPXPXPXPXPXPXPXPXPXPXPXPXPXPX5.xXCXCXsX=.#.%.0.bXbXxXxXzXzXdXpX6.$.PXPXPXPXPXPXPXPXPXPXPXPXPXPXPXPXPXPXPXPXPXPXPXPXPXPXPXPXPXPXPXPXPXPXPXPXPXPXPXPXPXPXPXPXPXPXPXPXPX",
"PXPXPXPXPXPXPXPXPXPXPXPXPXPXPXPXPXPXPXPXPXPXPXPXPXPXPXPXPXPXPXPXPXPXPXPXPXPXPXPXPXPXPXPXPXPXPXPXPXPXPXPXPXPXPXPXPXPXPX*.5.xXAXCXiX*.8 7 =.xXxXlXdXxXzXlXpX6.$.#.PXPXPXPXPXPXPXPXPXPXPXPXPXPXPXPXPXPXPXPXPXPXPXPXPXPXPXPXPXPXPXPXPXPXPXPXPXPXPXPXPXPXPXPXPXPXPXPX",
"PXPXPXPXPXPXPXPXPXPXPXPXPXPXPXPXPXPXPXPXPXPXPXPXPXPXPXPXPXPXPXPXPXPXPXPXPXPXPXPXPXPXPXPXPXPXPXPXPXPXPXPXPXPXPXPXPXPXPX-.q.xXAXCX9.%.7 # #.iXfXfXsXlXxXlXuX4.$.w PXPXPXPXPXPXPXPXPXPXPXPXPXPXPXPXPXPXPXPXPXPXPXPXPXPXPXPXPXPXPXPXPXPXPXPXPXPXPXPXPXPXPXPXPXPXPXPX",
"PXPXPXPXPXPXPXPXPXPXPXPXPXPXPXPXPXPXPXPXPXPXPXPXPXPXPXPXPXPXPXPXPXPXPXPXPXPXPXPXPXPXPXPXPXPXPXPXPXPXPXPXPXPXPXPXPXPXPX=.8.xXCXVX8.w @ # q 6.iXfXiXfXxXlXuX4.$.w q w =.pXsXfXsX8.8.zXSXHXHXHXGXAXvXbXPXPXPXPX=.=.=.4.5.8.9.uXuXuXPXPXPXPXPXPXPXPXPXPXPXPXPXPXPXPX",
"PXPXPXPXPXPXPXPXPXPXPXPXPXPXPXPXPXPXPXPXPXPXPXPXPXPXPXPXPXPXPXPXPXPXPXPXPXPXPXPXPXPXPXPXPXPXPXPXPXPXPXPXPXPXPXPXPXPXPX=.8.xXCXVX8.e @ # 7 $.9.sXpXsXlXlXuX4.$.w q w 4.iXsXsXsX8.8.zXSXHXJXHXGXAXVXbXPXPXPX6.4.=.=.6.8.9.uXuXuX9.PXPXPXPXPXPXPXPXPXPXPXPXPXPXPXPX",
"PXPXPXPXPXPXPXPXPXPXPXPXPXPXPXPXPXPXPXPXPXPXPXPXPXPXPXPXPXPXPXPXPXPXPXPXPXPXPXPXPXPXPXPXPXPXPXPXPXPXPXPXPXPXPXPXPXPXPX=.8.xXCXVX8.e @ # 7 w 8.sXpXsXdXlXpX4.*.#.e #.6.sXsXsXfXpXuXcXAXHXJXJXHXAXVXbXbXPXPX0.6.4.6.8.uXiXiXiXpX9.8.PXPXPXPXPXPXPXPXPXPXPXPXPXPXPX",
"PXPXPXPXPXPXPXPXPXPXPXPXPXPXPXPXPXPXPXPXPXPXPXPXPXPXPXPXPXPXPXPXPXPXPXPXPXPXPXPXPXPXPXPXPXPXPXPXPXPXPXPXPXPXPXPXPXPX$.=.8.zXAXVX8.e # @ 7 q 8.fXsXsXdXxXiX6.*.#.e %.5.dXgXiXkXfXfXbXAXHXJXKXJXSXVXbXvXvXnXiX8.6.5.uXsXdXdXfXiX9.6.PXPXPXPXPXPXPXPXPXPXPXPXPXPXPX",
"PXPXPXPXPXPXPXPXPXPXPXPXPXPXPXPXPXPXPXPXPXPXPXPXPXPXPXPXPXPXPXPXPXPXPXPXPXPXPXPXPXPXPXPXPXPXPXPXPXPXPXPXPXPXPXPXPXPX$.-.0.cXAXCX9.w @ 7 7 8 6.fXfXfXfXzXgX6.-.%.#.$.8.xXiXpXxXxXzXbXAXGXJXKXKXSXCXvXvXvXzXfXuX8.9.sXxXcXcXlXsX0.=.#.PXPXPXPXPXPXPXPXPXPXPXPXPXPX",
"PXPXPXPXPXPXPXPXPXPXPXPXPXPXPXPXPXPXPXPXPXPXPXPXPXPXPXPXPXPXPXPXPXPXPXPXPXPXPXPXPXPXPXPXPXPXPXPXPXPXPXPXPXPXPXPXPXPX*.=.9.bXAXCXiX*.q q 8 7 =.iXfXfXdXxXiX6.*.$.$.-.9.xXiXiXzXbXbXvXCXGXJXKXJXSXCXVXvXbXxXfXiX9.pXfXzXvXvXcXfX5.$.e PXPXPXPXPXPXPXPXPXPXPXPXPXPX",
"PXPXPXPXPXPXPXPXPXPXPXPXPXPXPXPXPXPXPXPXPXPXPXPXPXPXPXPXPXPXPXPXPXPXPXPXPXPXPXPXPXPXPXPXPXPXPXPXPXPXPXPXPXPXPXPXPX-.=.6.pXbXAXAXxX0.-.%.q @ %.8.fXlXkXdXuX4.*.$.-.6.pXlXsXsXzXbXbXbXCXSXHXJXHXAXCXVXbXxXdXfXfXiXiXdXbXVXVXVXkX-.e 7 PXPXPXPXPXPXPXPXPXPXPXPXPXPX",
"PXPXPXPXPXPXPXPXPXPXPXPXPXPXPXPXPXPXPXPXPXPXPXPXPXPXPXPXPXPXPXPXPXPXPXPXPXPXPXPXPXPXPXPXPXPXPXPXPXPXPXPXPXPXPXPXPX=.6.8.sXbXAXSXVXlX9.=.e @ q =.fXxXxXsX8.=.$.*.6.0.iXfXsXfXnXcXcXbXVXAXGXGXSXCXCXVXcXdXiXfXdXfXsXfXbXVXVXAXxXe @ #   PXPXPXPXPXPXPXPXPXPXPXPXPX",
"PXPXPXPXPXPXPXPXPXPXPXPXPXPXPXPXPXPXPXPXPXPXPXPXPXPXPXPXPXPXPXPXPXPXPXPXPXPXPXPXPXPXPXPXPXPXPXPXPXPXPXPXPXPXPXPX$.=.8.uXfXbXFXSXAXVXxX8.%.7 7 $.iXxXxXiX5.-.$.-.5.iXsXsXfXxXcXzXzXbXvXCXAXAXCXCXCXVXzXsXpXfXxXlXfXfXcXvXbXCXdX7       PXPXPXPXPXPXPXPXPXPXPXPXPX",
"PXPXPXPXPXPXPXPXPXPXPXPXPXPXPXPXPXPXPXPXPXPXPXPXPXPXPXPXPXPXPXPXPXPXPXPXPXPXPXPXPXPXPXPXPXPXPXPXPXPXPXPXPXPXPXPX$.=.8.pXfXbXCXAXSXAXbXiX-.7 7 $.uXxXxXiX6.-.$.=.8.iXfXfXlXzXcXcXzXbXbXbXvXVXVXCXAXCXzXsXpXlXvXcXdXsXzXzXfXxX0.# .   # @ PXPXPXPXPXPXPXPXPXPXPXPX",
"PXPXPXPXPXPXPXPXPXPXPXPXPXPXPXPXPXPXPXPXPXPXPXPXPXPXPXPXPXPXPXPXPXPXPXPXPXPXPXPXPXPXPXPXPXPXPXPXPXPXPXPXPXPXPXw $.4.8.pXfXcXVXCXAXAXCXxX6.8 8 $.0.lXzXiX5.-.$.=.8.pXfXdXzXbXbXcXcXbXxXdXlXxXbXAXGXSXcXsXiXcXAXVXlXiXxXfX6.6.%.    @ 8 8 PXPXPXPXPXPXPXPXPXPXPXPX",
"PXPXPXPXPXPXPXPXPXPXPXPXPXPXPXPXPXPXPXPXPXPXPXPXPXPXPXPXPXPXPXPXPXPXPXPXPXPXPXPXPXPXPXPXPXPXPXPXPXPXPXPXPXPXPXw *.4.8.uXfXxXbXVXCXAXAXbX0.e w *.6.fXzXiX8.-.$.-.8.uXsXxXbXvXbXcXcXbXdXpXpXsXnXAXHXGXbXfXfXvXGXCXxXiXdXuXw 8 @   # 8 w #.PXPXPXPXPXPXPXPXPXPXPXPX",
"PXPXPXPXPXPXPXPXPXPXPXPXPXPXPXPXPXPXPXPXPXPXPXPXPXPXPXPXPXPXPXPXPXPXPXPXPXPXPXPXPXPXPXPXPXPXPXPXPXPXPXPXPXPXPXw *.=.6.9.gXxXbXvXVXCXAXVXiX-.-.=.=.iXxXsX8.-.$.-.5.9.fXbXVXCXvXbXzXzXsX8.8.pXxXAXJXHXVXxXlXCXGXCXxXpXfX8.q 7 @ 6 7 e $.$.PXPXPXPXPXPXPXPXPXPXPXPX",
"PXPXPXPXPXPXPXPXPXPXPXPXPXPXPXPXPXPXPXPXPXPXPXPXPXPXPXPXPXPXPXPXPXPXPXPXPXPXPXPXPXPXPXPXPXPXPXPXPXPXPXPXPXPXPX#.$.=.4.8.iXlXzXbXbXVXCXvXxXiXuX6.$.0.lXfX0.-.%.*.6.9.fXVXAXAXCXbXxXdXuX6.6.0.dXFXJXJXAXbXcXCXGXVXkXuXiX8.w w #.%.#.#.$.-.PXPXPXPXPXPXPXPXPXPXPXPX",
"PXPXPXPXPXPXPXPXPXPXPXPXPXPXPXPXPXPXPXPXPXPXPXPXPXPXPXPXPXPXPXPXPXPXPXPXPXPXPXPXPXPXPXPXPXPXPXPXPXPXPXPXPXPXPX#.$.*.-.6.uXfXxXcXcXbXbXcXbXvXxX8.w 6.fXlX9.-.#.$.4.9.lXCXSXGXAXbXfXiX8.=.4.8.fXVXHXKXGXCXVXAXSXbXfXuXiX8.*.6.8.8.=.$.*.-.PXPXPXPXPXPXPXPXPXPXPXPX",
"PXPXPXPXPXPXPXPXPXPXPXPXPXPXPXPXPXPXPXPXPXPXPXPXPXPXPXPXPXPXPXPXPXPXPXPXPXPXPXPXPXPXPXPXPXPXPXPXPXPXPXPXPXPXPX#.$.$.$.=.8.sXlXxXxXxXzXxXLXSXbX9.w =.iXdX9.*.#.%.3.9.xXAXHXHXSXbXfXiX8.4.6.0.sXbXSXJXGXAXAXSXAXbXfXpXpX8.6.uXfXiX5.-.-.-.PXPXPXPXPXPXPXPXPXPXPXPX",
"PXPXPXPXPXPXPXPXPXPXPXPXPXPXPXPXPXPXPXPXPXPXPXPXPXPXPXPXPXPXPXPXPXPXPXPXPXPXPXPXPXPXPXPXPXPXPXPXPXPXPXPXPXPXPXw $.$.%.*.6.uXsXdXdXlXxXxXbXCXzX9.*.=.8.iX8.$.w %.=.9.zXSXJXJXSXvXlXfXpX0.uXiXfXzXCXGXSXAXSXGXSXVXxXsXiX9.8.pXsXiX8.=.=.=.PXPXPXPXPXPXPXPXPXPXPXPX",
"PXPXPXPXPXPXPXPXPXPXPXPXPXPXPXPXPXPXPXPXPXPXPXPXPXPXPXPXPXPXPXPXPXPXPXPXPXPXPXPXPXPXPXPXPXPXPXPXPXPXPXPXPXPXPXe $.$.L %.-.5.,XiXsXfXkXdXlXlXiX9.8.=.=.8.6.$.w #.=.yXcXGXKXJXSXVXcXzXxXdXxXxXlXdXxXVXVXCXSXHXHXAXbXdXsXuX0.9.uX9.5.=.=.=.PXPXPXPXPXPXPXPXPXPXPXPX",
"PXPXPXPXPXPXPXPXPXPXPXPXPXPXPXPXPXPXPXPXPXPXPXPXPXPXPXPXPXPXPXPXPXPXPXPXPXPXPXPXPXPXPXPXPXPXPXPXPXPXPXPXPXPXPX8 $.$.w e %.=.5.0.pXsXfXfXiX9.5.8.sX4.#.=.=.%.e w -.uXbXHXKXJXAXVXVXVXVXvXVXVXzXfXfXxXzXvXSXHXJXGXCXxXfXiX9.8.6.6.6.=.=.-.PXPXPXPXPXPXPXPXPXPXPXPX",
"PXPXPXPXPXPXPXPXPXPXPXPXPXPXPXPXPXPXPXPXPXPXPXPXPXPXPXPXPXPXPXPXPXPXPXPXPXPXPXPXPXPXPXPXPXPXPXPXPXPXPXPXPXPXPX7 #.$.w e w $.=.6.8.uXiXiX9.5.=.8.fX6.w $.$.#.e e *.9.cXGXJXHXCXCXAXAXAXAXSXAXVXfXiXfXdXzXAXHXKXHXAXcXdXiX0.6.=.=.=.=.*.$.PXPXPXPXPXPXPXPXPXPXPXPX",
"PXPXPXPXPXPXPXPXPXPXPXPXPXPXPXPXPXPXPXPXPXPXPXPXPXPXPXPXPXPXPXPXPXPXPXPXPXPXPXPXPXPXPXPXPXPXPXPXPXPXPXPXPXPXPX7 e %.%.@.w #.$.*.4.8.0.8.8.5.4.5.iX6.%.%.#.w q q $.0.zXAXGXSXVXCXSXGXSXSXGXGXAXzXfXsXiXfXCXGXJXJXSXbXxXiXq.=.*.;.*.$.%.w PXPXPXPXPXPXPXPXPXPXPXPX",
"PXPXPXPXPXPXPXPXPXPXPXPXPXPXPXPXPXPXPXPXPXPXPXPXPXPXPXPXPXPXPXPXPXPXPXPXPXPXPXPXPXPXPXPXPXPXPXPXPXPXPXPXPXPXPX; 0 ' $.%.w e e #.$.=.6.4.6.8.6.6.9.5.-.w e e 8 8 %.8.xXVXCXCXbXCXGXGXSXSXGXHXHXZXxXiX9.iXvXSXHXKXGXbXxXiX6.*.$.%.#.#.e e e PXPXPXPXPXPXPXPXPXPXPX",
"PXPXPXPXPXPXPXPXPXPXPXPXPXPXPXPXPXPXPXPXPXPXPXPXPXPXPXPXPXPXPXPXPXPXPXPXPXPXPXPXPXPXPXPXPXPXPXPXPXPXPXPXPXPXPX@ 1 L *.$.#.e q e #.$.-.*.4.0.6.6.5.8.=.e e e 8 8 w 8.dXbXvXbXzXVXGXGXSXSXGXHXJXSXbXfX0.uXbXFXGXJXGXVXcXiX=.$.#.w e e q e e PXPXPXPXPXPXPXPXPXPXPX",
"PXPXPXPXPXPXPXPXPXPXPXPXPXPXPXPXPXPXPXPXPXPXPXPXPXPXPXPXPXPXPXPXPXPXPXPXPXPXPXPXPXPXPXPXPXPXPXPXPXPXPXPXPXPXPX; N P ;.$.%.w e e w %.$.$.=.8.6.=.4.5.6.e e #.8 8 e 5.fXbXbXxXdXbXCXAXSXSXGXHXKXHXCXxXpXpXxXVXSXJXGXCXvXfX6.$.X.e q q q e w PXPXPXPXPXPXPXPXPXPXPX",
"PXPXPXPXPXPXPXPXPXPXPXPXPXPXPXPXPXPXPXPXPXPXPXPXPXPXPXPXPXPXPXPXPXPXPXPXPXPXPXPXPXPXPXPXPXPXPXPXPXPXPXPXPXPXPXPXV ' $.$.$.$.%.#.@.#.%.#.*.6.=.-.-.6.6.w #.$.q 8 e 6.fXbXcXdXiXdXcXVXCXSXSXHXKXJXGXVXdXiXlXbXCXHXGXAXVXlX8.*.#.e 8 8 q w #.PXPXPXPXPXPXPXPXPXPXPX",
"PXPXPXPXPXPXPXPXPXPXPXPXPXPXPXPXPXPXPXPXPXPXPXPXPXPXPXPXPXPXPXPXPXPXPXPXPXPXPXPXPXPXPXPXPXPXPXPXPXPXPXPXPXPXPXPX] ` %.$.*.-.*.$.%.%.%.%.$.=.-.$.$.4.4.#.%.$.e 8 e 4.fXvXcXfXuXiXdXzXvXCXCXGXKXKXJXSXcXfXfXxXVXGXHXGXAXzX9.=.#.q 8 8 e #.%.PXPXPXPXPXPXPXPXPXPXPX",
"PXPXPXPXPXPXPXPXPXPXPXPXPXPXPXPXPXPXPXPXPXPXPXPXPXPXPXPXPXPXPXPXPXPXPXPXPXPXPXPXPXPXPXPXPXPXPXPXPXPXPXPXPXPXPXPX] ] ` %.$.-.*.*.$.$.$.*.*.*.*.$.$.=.=.#.%.$.e q w =.iXVXvXlXpXuXsXlXxXxXxXVXHXKXKXHXVXkXiXfXbXGXHXHXSXvXiX6.%.q 8 8 e #.#.PXPXPXPXPXPXPXPXPXPXPX",
"PXPXPXPXPXPXPXPXPXPXPXPXPXPXPXPXPXPXPXPXPXPXPXPXPXPXPXPXPXPXPXPXPXPXPXPXPXPXPXPXPXPXPXPXPXPXPXPXPXPXPXPXPXPXPXPX] { ` %.#.%.;.-.=.4.4.6.=.$.$.$.$.-.*.w w #.e e $.*.pXCXFXbXsXiXiXfXpX8.8.fXCXJXKXJXAXxXpXsXbXGXJXJXHXCXlX8.$.8 7 8 w w e PXPXPXPXPXPXPXPXPXPXPX",
"PXPXPXPXPXPXPXPXPXPXPXPXPXPXPXPXPXPXPXPXPXPXPXPXPXPXPXPXPXPXPXPXPXPXPXPXPXPXPXPXPXPXPXPXPXPXPXPXPXPXPXPXPXPXPX1 ] { { ` w @.$.=.6.8.8.9.6.$.$.$.$.$.%.e e e e %.-.%.0.AXGXCXxXfXsXsX6.#.#.6.xXSXKXKXSXcXuXpXcXHXKXKXJXGXbX9.$.8 7 8 w e 8 PXPXPXPXPXPXPXPXPXPXPX",
"PXPXPXPXPXPXPXPXPXPXPXPXPXPXPXPXPXPXPXPXPXPXPXPXPXPXPXPXPXPXPXPXPXPXPXPXPXPXPXPXPXPXPXPXPXPXPXPXPXPXPXPXPXPXPX1 ] A.{ ` L ` $.-.6.8.9.uX5.$.$.*.$.$.w q 8 q e $.=.w 5.CXHXSXcXlXfXfX3.7 @ #.uXVXJXKXHXbXuXpXzXHXKXKXKXHXVXpX$.8 7 8 w e 8 PXPXPXPXPXPXPXPXPXPXPX",
"PXPXPXPXPXPXPXPXPXPXPXPXPXPXPXPXPXPXPXPXPXPXPXPXPXPXPXPXPXPXPXPXPXPXPXPXPXPXPXPXPXPXPXPXPXPXPXPXPXPXPXPXPXPXPX1 ] A.A.{ ` <.&.$.=.6.q.8.5.=.=.-.$.%.e 8 8 8 e *.=.e =.bXGXGXvXnXzXzX5.7   7 =.dXSXJXJXVXpXpXzXGXKXKXKXHXVXpX$.8 7 8 e q 8 PXPXPXPXPXPXPXPXPXPXPX",
"PXPXPXPXPXPXPXPXPXPXPXPXPXPXPXPXPXPXPXPXPXPXPXPXPXPXPXPXf.PXPXPXPXPXPXPXPXPXPXPXPXPXPXPXPXPXPXPXPXPXPXPXPXPXPX1 ] A.A.{ P.P.:.e #.;.=.3.6.5.6.=.$.#.e 7 7 8 e *.=.q $.kXAXGXVXvXVXCXiXq     q 8.bXHXJXAXiXiXzXAXJXKXKXHXVXuX$.7 7 8 8 8 8 @ PXPXPXPXPXPXPXPXPXPX",
"PXPXPXPXPXPXPXPXPXPXPXPXPXPXPXPXPXPXPXPXPXPXPXPXPXPXPXPXf.f.PXPXPXPXPXPXPXPXPXPXPXPXPXPXPXPXPXPXPXPXPXPXPXPXPX1 ] A.{ A.I.I.<.8 e #.$.;.4.8.5.=.$.w q 7 @ 8 e *.-.8 w pXVXAXVXVXAXGXlX$.# . # $.fXSXHXAXfXsXxXVXGXKXKXHXVXuX%.7 7 8 8 8 8 7 @ PXPXPXPXPXPXPXPXPX",
"PXPXPXPXPXPXPXPXPXPXPXPXPXPXPXPXPXPXPXPXPXPXPXPXPXPXPXPXf.f.PXPXPXPXPXPXPXPXPXPXPXPXPXPXPXPXPXPXPXPXPXPXPXPXPX1 ] A.[ S.I.R.A.I L ` &.&.>.8.6.-.#.e 8 @ @ 7 w *.-.8 e 8.xXVXbXvXAXGXcX4.7   + e 8.bXAXCXdXfXfXdXvXGXKXJXCXpX$.7 8 e 8 8 8 7 @ PXPXPXPXPXPXPXPXPX",
"PXPXPXPXPXPXPXPXPXPXPXPXPXPXPXPXPXPXPXPXPXPXPXPXPXPXPXPXf.f.PXPXPXPXPXPXPXPXPXPXPXPXPXPXPXPXPXPXPXPXPXPXPXPXPX1 [ A.[ S.H.I.A.] { { ` <.,.4.=.$.e 8 7 @ # 7 e *.-.8 e 6.iXdXfXzXVXSXbX9.#.7 7 7 %.uXxXbXxXfXpX5.iXVXJXKXAXgX$.7 q w e e q 8 7 PXPXPXPXPXPXPXPXPX",
"PXPXPXPXPXPXPXPXPXPXPXPXPXPXPXPXPXPXPXPXPXPXPXPXPXPXPXPXf.f.PXPXPXPXPXPXPXPXPXPXPXPXPXPXPXPXPXPXPXrXPXPXPXPXPX1 [ A.[ Y l.D.A.A.I.P.{ P.P.;.%.w 8 7 @ # + @ e ;.*.8 q =.8.9.uXfXcXVXvXfX6.$.w @ 7 $.8.dXbXlX8.#.-.dXGXKXGXfX-.8 e $.%.w e 8 8 PXPXPXPXPXPXPXPXPX",
"PXPXPXPXPXPXPXPXPXPXPXPXPXPXPXPXPXPXPXPXPXPXPXPXPXPXPXPXf.f.PXPXPXPXPXPXPXPXPXPXPXPXPXPXPXPXPXPXeXeXPXPXPXPXPXN [ A.] D l.S.D.I.R.I.A.I.K.%.w q 8 7 @ # + @ e $.$.q q *.4.5.0.iXlXbXbXzXpX5.-.7 + 8 =.iXvXxX8.7 q 0.CXJXHXxX6.e w $.%.w q 8 8 PXPXPXPXPXPXPXPXPX",
"PXPXPXPXPXPXPXPXPXPXPXPXPXPXPXPXPXPXPXPXPXPXPXPXPXPXPXPXf.f.PXPXPXPXPXPXPXPXPXPXPXPXPXPXPXPXPXPXO.O.PXPXPXPXPXN Y S.] D m [ I.I.I.G.D.I.A.' e r 0 1 ; # # @ e $.$.q q %.=.5.uXiXsXdXcXVXzXsX6.q # 7 $.pXVXbX8.@ @ *.xXSXHXbX9.%.#.%.#.e 8 8 8 PXPXPXPXPXPXPXPXPX",
"PXPXPXPXPXPXPXPXPXPXPXPXPXPXPXPXPXPXPXPXPXPXPXPXPXPXPXPXf.f.PXPXPXPXPXPXPXPXPXPXPXPXPXPXPXPXPXPXT T PXPXPXPXPXB D D V v m [ I.R.I.D.D.G.{ J r J J B < o # 7 e #.#.q 8 w =.0.fXfXpXpXxXCXAXcX9.$.8 7 %.uXVXLXuX7   8 8.bXHXCXfX=.%.w e 8 7 7 7 PXPXPXPXPXPXPXPXPX",
"PXPXPXPXPXPXPXPXPXPXPXPXPXPXPXPXPXPXPXPXPXPXPXPXPXPXPXPXf.f.PXPXPXPXPXPXPXPXPXPXPXPXPXPXPXPXPXPXt.t.PXPXPXPXPXB b b V v b [ I.R.A.A.D.D.{ K J J K B 1 = # 7 q e e q 8 e =.iXcXlXuX8.fXCXHXAXsX6.%.e $.uXCXCXsXq   # $.dXGXSXcX8.$.e 8 7 @ @ @ PXPXPXPXPXPXPXPXPX",
"PXPXPXPXPXPXPXPXPXPXPXPXPXPXPXPXPXPXPXPXPXPXPXPXPXPXPXPXf.f.PXPXPXPXPXPXPXPXPXPXPXPXPXPXPXPXPXPXy.r.PXPXPXPX2 B l b ] n c D G.I.A.A.D.A.{ K B V K B 1 = @ 7 q e e 8 8 e 4.fXVXbXiX6.pXvXHXGXcXiX5.*.4.iXAXAXlX$.@ # e pXGXHXVXiX-.q 9 < < @ # PXPXPXPXPXPXPXPXPX",
"PXPXPXPXPXPXPXPXPXPXPXPXPXPXPXPXPXPXPXPXPXPXPXPXPXPXPXPXf.f.PXPXPXPXPXPXPXPXPXPXPXPXPXPXPXPXPXPXe.k 5 PXPXPX9 1 a n A.D z D S.D.A.A.A.{ [ ] K K V N = o @ 8 q q 8 8 8 w 5.xXSXCXdX6.5.lXGXHXAXvXlX9.uXlXSXSXbX8.w 7 8 8.SXHXSXxX4.r 0 2 1 # $ PXPXPXPXPXPXPXPXPX",
"PXPXPXPXPXPXPXPXPXPXPXPXPXPXPXPXPXPXPXPXPXPXPXPXPXPXPXPXf.f.PXPXPXPXPXPXPXPXPXPXPXPXPXPXPXPXPXPXk h ..PXPX7 7 < u S A.D z t.l.A.A.A.[ [ ] ] ] ] B 1 = # @ 8 8 8 8 7 8 #.8.cXHXGXcX6.=.uXCXHXHXGXCXlXdXbXSXGXVXfX4.e q 5.AXJXHXVX0.J 2 B B ; $ PXPXPXPXPXPXPXPXPX",
"PXPXPXPXPXPXPXPXPXPXPXPXPXPXPXPXPXPXPXPXPXPXPXPXPXPXPXPXf.s.PXPXPXPXPXPXPXPXPXPXPXPXPXPXPXPXPXPXp h ....PX6 6 6 * S S.j.z e.D [ A.A.] ] ] ] ] K N < o # @ 7 8 8 7 7 8 %.0.bXHXHXVX8.*.6.cXSXHXJXSXbXxXbXAXSXCXxX9.-.#.8.AXJXJXAX,X` J V K < # PXPXPXPXPXPXPXPXPX",
"PXPXPXPXPXPXPXPXPXPXPXPXPXPXPXPXPXPXPXPXPXPXPXPXPXPXPXPXf.a.PXPXPXPXPXPXPXPXPXPXPXPXPXPXPXPXPXPXi > o.o.PX4 4 4 * d S.D b e.D [ A.A.] F Y ] K V 1 = o # @ 7 8 8 7 7 8 #.8.zXSXHXCXpX=.-.iXbXSXHXAXzXlXxXbXVXZXzXsX0.6.iXAXJXKXGXdX>.K K ] J J PXPXPXPXPXPXPXPXPX",
"PXPXPXPXPXPXPXPXPXPXPXPXPXPXPXPXPXPXPXPXPXPXPXPXPXPXPXPXf.a.c ,.sXbXPXPXPXPXPXPXPXPXPXPXPXPXPXPXi > o.o.4 ....4 > a S Y j.t.D { A.{ K m D ] V N 1 ; # # @ 7 7 7 7 7 9 e 6.dXCXGXAXlX6.%.6.iXbXCXVXfXfXfXfXxXcXxXlXfXiXxXSXJXKXHXcX0.` K ] ] ] PXPXPXPXPXPXPXPXPX",
"PXPXPXPXPXPXPXPXPXPXPXPXPXPXPXPXPXPXPXPXPXPXPXPXPXPXPXPXf.u.c <.gXbXPXPXPXPXPXPXPXPXPXPXPXPXPXPXi > o.o.4 ....4 > t u Y l.t.D [ A.[ V b b K B 1 3 # # @ @ @ 7 7 9 7 7 q 4.sXcXAXSXbX8.#.$.6.sXzXxXpXuXuX9.gXkXdXlXxXxXbXSXJXKXHXZXpX` K ] { A.PXPXPXPXPXPXPXPXPX",
"PXPXPXPXPXPXPXPXPXPXPXPXPXPXPXPXPXPXPXPXPXPXPXPXPXPXPXPXf.u.c :.pXbXfXPXPXPXPXPXPXPXPXPXPXPXPXPXPXh o.o.......4 > & t S D c m [ [ ] V l v V N 1 < @ # @ @ # 6 7 : : ; 8 =.pXdXVXAXZXiX*.#.*.8.iXiXq.5.5.6.0.pXpXsXdXxXbXAXJXKXJXCXsX` K ] A.PXPXPXPXPXPXPXPXPXPX",
"PXPXPXPXPXPXPXPXPXPXPXPXPXPXPXPXPXPXPXPXPXPXPXPXPXPXPXPXs.u.x P yXbX0.PXPXPXPXPXPXPXPXPXPXPXPXPXPXh O...o...4 4 $ % t d S k b D [ ] B d d S N 1 < < @ @ # $ 6 : f - % ; -.9.iXxXVXCXlX5.$.%.*.6.6.=.-.=.=.4.6.6.5.0.iXxXCXHXKXKXAXfX&.K ] A.PXPXPXPXPXPXPXPXPXPX",
"PXPXPXPXPXPXPXPXPXPXPXPXPXPXPXPXPXPXPXPXu.u.PXPXPXPXPXPXs.u.x G q.cX6.@ PXPXPXPXPXPXPXPXPXr.r.PXPXPX> O.o...O $ O X t u a p k b Y K 1 - s n N 1 9 7 7 7 +   @ : i y * # $.8.0.sXbXCXcXpX=.#.e $.*.%.$.;.=.=.-.*.*.-.5.sXvXGXKXKXAXsX` K ] PXPXPXPXPXPXPXPXPXPXPX",
"PXPXPXPXPXPXPXPXPXPXPXPXPXPXPXPXPXPXPXPXi.u.PXPXPXPXPXPXa.y.x H >.dX=.7 PXPXPXPXPXPXPXPXPXr.e.PXPXPXt O.o.4 O $ O $ & & t i k l V B 1 = s d f 1 r q q 8 # . ; f p a * + %.6.6.U.lXvXbXsX6.#.q #.$.%.$.=.6.4.=.*.%.#.-.0.xXCXHXJXFXgX` K K PXPXPXPXPXPXPXPXPXPXPX",
"PXPXPXPXPXPXPXPXPXPXPXPXPXPXPXPXPXPXPXPXz.y.PXPXPXPXPXPXy.r.e.m { 0.*.q PXPXPXPXPXPXPXPXPXPXM PXPXPXt 5 ..4 O $ O O % % > i j l C 1 = = - g 1 0 e #.$.#.@ . = u l U G + w >.:.7.iXlXxXsX5.$.e %.-.=.6.0.iXiX0.6.*.#.#.-.9.xXAXHXCXiX` B V [ PXPXPXPXPXPXPXPXPXPX",
"PXPXPXPXPXPXPXPXPXPXPXPXPXPXPXPXPXPXPXDXL.r.PXPXbXPXPXPXr.r.r.i.D &.#.#.PXPXPXPXPXPXPXPXPXPXPXeXPXPXt 5 4 O O O O O $ 4 5 y j j s 3 = = - N 1 8 w -.4.*.9   * i c <.%.+ q &.Y <.8.pXiXiX8.=.$.-.6.8.pXlXbXbXxXiX6.$.e e *.pXbXSXVXpX` N B [ PXPXPXPXPXPXPXPXPXPX",
"PXPXPXPXPXPXPXPXPXPXPXPXPXPXPXPXPXPXPXDXL.e.PXbXnXPXPXPXe.e.r.a.m 9 X.$.PXPXPXPXPXPXPXPXPXPXPXeXPXPXt % O O O O . O O 4 4 y j j - ; = = : N 0 8 #.6.0.6.q X & p c ,.*.# 8 I n P =.5.0.uX8.6.=.6.8.uXfXbXAXSXCXxXuX=.e 8 e 4.fXVXbX,X` 1 N [ D.PXPXPXPXPXPXPXPXPX",
"PXPXPXPXPXPXPXPXPXPXPXPXPXPXPXPXPXPXSXDXL.e.PXhXhXPXPXPXx e.y.i.M 4 X.*.PXPXPXPXPXPXPXPXPXPXPXrXo.PXt % . O O O . . O ....h j l G 0 ; ; : C 0 e $.8.iX8.w X & p c <.%.= ; G u G %.4.8.8.6.4.3.5.8.yXfXbXAXGXSXVXxXpX=.w e $.9.zXlX0.J : N [ A.PXPXPXPXPXPXPXPXPX",
"PXPXPXPXPXPXPXPXPXPXPXPXPXPXPXPXPXPXAXDXL.x PXL.L.PXPXPXPXr.y.c T ..X.PXPXPXPXPXPXPXPXPXPXPXPXrX+.y.PX% % O O O . . O ....h j l ` ' 9 ; - n G @.$.9.fXuX%.= & p l U G * - - % ; e =.5.6.-.*.3.q.8.8.uXkXVXSXGXGXAXbXiX4.#.w =.iXiX6.J - s ] { { PXPXPXPXPXPXPXPX",
"PXPXPXPXPXPXPXPXPXPXPXPXPXPXPXPXPXvXFXDXL.x PXh.h.PXPXPXPXPXy.g O.o.PXPXPXPXPXPXPXPXPXPXPXPXPXrX+.u.PX& * O O . . . O o.o.h j m >.-.q < s c P $.-.pXlXiX&.= & i p a u & t & X   7 -.6.=.#.%.=.5.5.4.8.iXzXCXGXHXHXGXbXpX-.e #.5.8.=.1 u a V [ [ PXPXPXPXPXPXPXPX",
"PXPXPXPXPXPXPXPXPXPXPXPXPXPXPXPXPXvXCXCXL.x PXi.y.PXPXPXPXPXp.H X.eXPXPXPXPXPXPXPXPXPXPXPXPXPXrX+.u.PXp t 4 O   # @ 4 o.o.h j m 7.3.w 0 u x P ;.=.iXlXgX:.- & t i t t t t % . . # %.-.&.q I :.7.6.=.8.iXdXbXAXHXJXHXAXlX6.e e -.3.;.1 i l S Y [ PXPXPXPXPXPXPXPX",
"PXPXPXPXPXPXPXPXPXPXPXPXPXPXPXPXvXVXZXMXK.t.PXl.r.PXPXPXPXPXl.Y L eXPXPXPXPXPXPXPXPXPXPXPXPXPXrX+.a.PXk h 4 4 % L X...eXo.h j m 7.5.#.g l z P *.=.pXkXaX<.- % & y t t t * X . .   G P G ; G Y >.3.=.yXfXfXfXzXCXSXSXSXbXuX%.q %.$.%.f c r.b D j.PXPXPXPXPXPXPXPX",
"PXPXPXPXPXPXPXPXPXPXPXPXPXPXPXPXvXVXvXnXl.p.aXl.e.PXPXp PXPXP.{ ] PXPXPXPXPXPXPXPXPXPXPXPXPXPXPXPXPXu.x h 4 4 * 7.tXeXeXo.h k m Y.5.%.m x l P *.4.uXfX,X{ u X % t t t t % . . . X f g f o u p.:.-.4.sXxXiX9.uXxXbXVXAXVXfX=.e e @.L g t.f.t.p.i.PXPXPXPXPXPXPXPX",
"PXPXPXPXPXPXPXPXPXPXPXPXPXPXPXPXvXvXbXdXl.l.aXK.e.PXPXi PXPXU.D.B.PXPXPXPXPXPXPXPXPXPXPXPXPXPXPXPXPXu.x h ..4 s aXmXeXeXo.h k l.Y.5.&.p.e.i L -.4.0.aX,X[ y X X t t t t X . . . . & t & . t d.Y *.4.fXxXuX6.6.gXdXlXVXVXdX4.e q e I n d.x.u.y.a.PXPXPXPXPXPXPXPX",
"PXPXPXPXPXPXPXPXPXPXPXPXPXPXPXPXvXbXzXiXl.l.aXK.x PXH u PX2.Y.D.B.PXPXPXPXPXPXPXPXPXPXPXPXPXPXPXPXPXu.e.h 5 5 g hXmXo.o.O.h m K.U.5.&.p.x u &.3.6.8.U.P.l.a X X & t y t % X X . . % * % . y f.Y #.-.pXfX5.=.6.sXsXpXxXzXsX4.w 8 q L n a.g.u.y.s.PXPXPXPXPXPXPXPX",
"PXPXPXPXPXPXPXPXPXPXPXPXPXPXPXPXPXcXkXU.D l.U.K.m Y.&.- 3 } P.C.B.N.PXPXPXPXPXPXPXPXPXPXPXPXPXPXPXPXPXPXPX5 > g hXmXO.5 5 u Y T.,X5.&.m k s &.5.5.q.2.K.p.j X   % i p t % % % X . X X X . y f.U @.%.6.8.-.-.5.dXiX6.uXiX9.-.w 8 e %.PXu.a.u.PXPXa.y.x PXPXPXPXPX",
"PXPXPXPXPXPXPXPXPXPXPXPXPXPXPXPXPXxXsXq.D l.U.Y m Y.;.= , } F.Z.B.N.PXPXPXPXPXPXPXPXPXPXPXPXPXPXPXPXPXPXPXh t g hXaXf > h y K.hX,X4.%.n a : -.8.5.w.<.l.p.z %   X i j t & & & X   X X   . y s.U e e $.-.$.-.0.zXiX-.4.6.4.$.e 8 w $.PXr.r.PXPXPXs.y.z PXPXPXPXPX",
"PXPXPXPXPXPXPXPXPXPXPXPXPXPXPXPXPXlXiXq.U D 7.Y m Y.&.< , | @XZ.B._ PXPXPXPXPXPXPXPXPXPXPXPXPXPXPXPXPXPXPXa h T aXaXH g n n Y.aX7.-.L g u : &.7.>.<.Y p.i.r.%   X i j i t t t %   X X X . i s.U r 8 e %.;.=.8.cXsX*.&.&.%.L I G L &.PXPXx PXPXPXf.u.z PXPXPXPXPX",
"PXPXPXPXPXPXPXPXPXPXPXPXPXPXPXPXPXdXiX8.Y Y w.Y c K.P 3 E | &XZ.B._ } PXPXPXPXPXPXPXPXPXPXPXPXPXPXPXPXPXPXl > O.UXhXK.K.K.,.P.Y.:.L r : - - P :.:.Y p.i.g.s.*     t k k i t i %   X % % % j s.n 9 < 8 %.5.6.5.zXkX4.P G G G H m U U d.PXx PXPXPXx.a.k PXPXPXPXPX",
"PXPXPXPXPXPXPXPXPXPXPXPXPXPXvXVXVXdXiX9.PXPX-.U e.p.S 2 ~ ~.2XJ.N.) W._.).Q.Q.Q.Q.Q.W.PXPXPXPXPXPXPXPXPXZ.v 5 o.tXhXhXhXhXaXK.Y H : < = = - g U U p.d.s.v.c.s   . & k e.p t p %   % t t & k s.d < ; 7 $.iX8.4.xXxX8.H s f g m i.m m s.PXPXz PXPXv.s.k PXPXPXPXPX",
"PXPXPXPXPXPXPXPXPXPXPXPXPXPXvXVXvXfXpXuXPXPX;.U e.r.v 2 ^ ~.2XJ.B.} Q._._.Q.W.Q.(.(.W.W.PXPXPXPXPXPXPX@XZ.Z 5 eXtXjXbXVXvXdXK.l y - ; = = - s l l t.a.f.v.c.d o X & j r.j i j * X & p j t x f.v = = 9 -.fX8.-.lXxXU.Y u t y x f.r.z s.PXPXx z PXn.f.j PXPXPXPXPX",
"PXPXPXPXPXPXPXPXPXPXPXPXPXPXvXvXbXfXpX].PXPX1.Y e.r.b B / ~.#XJ.V.| ^.'.).E.( (._.).Q.Q.PXPXPXPXPXPXPX;XG.N.T O.U.jXLXZXcXU.Y i & = < = - 1 a j k e.i.h.z.h.b a a & t e.z j z i & i k z p r.x.l % = L 6.iX6.*.fXdX8.<.H t t z s.r.z s.PXPXr.r.PXPXg.j PXPXPXPXPX",
"PXPXPXPXPXPXPXPXPXPXPXPXPXCXvXbXxXsXuX0.PXPX/.] e.r.c PXPX}  .k.M.+X:X:X)./ W (.{.{.)._.|.PXPXPXPXPX2X>X-XF.Y +.Y.jXvXbXhXK.n t % ; r - s N a k z z m K.K.l.d.f.u.& % z x x e.z j k x x j u.v.z * * >.9.5.$.$.pXpX6.Y.<.y t j y.x k PXPXPXa.a.PXPXPXPXPXPXPXPXPX",
"PXPXPXPXPXPXPXPXPXPXPXPXPXCXvXzXfXsXuX8.PXPX`.{ e.r.e.PXPXPXN g.M.&X2X>X'.^ R (.|.|.{.{.|.PXPXPXPXPX2X1X,X;XB.m T.nXbXxXU.U a & X 7 L g d J v z z j n ,.>.Y b.n.c.t % k e.y.y.r.e.x x e.k a.n.x & u Y.sX-.e %.8.5.-.pXY.u t p x z k PXPXPXf.f.PXPXPXPXPXPXPXPXPX",
"PXPXPXPXPXPXPXPXPXPXPXPXAXCXbXxXfXgX,X5.PXPX{.| c e.PXPXPXPX* s.M.=X8X6X'./ E _..X.X|.|..XPXPXPXPXPX6X1XfX>XG.l.<XnXcXdX7.d t % X 9 P l n P n l k i g >.*.U v.m.v.p t e.y.y.y.y.r.x z z j y.c.r.p l Y.kX*.e X.6.=.$.iXU.u i j z z k PXPXPXs.s.PXPXPXPXPXPXPXPXPX",
"PXPXPXPXPXPXPXPXPXPXPXPXCXVXbXlXgXsXU.4.[.|.{.} F t.PXPXPX2 & a.M.=X8X6X:X} / {.XXXX.X.X.XPXPXPXPXPX6X1XlX1XI.K.hXnXnXsX,.a & % + 0 U c n &.H g p u f P P H v.n.f.r.r.s.u.r.r.e.x k p a i x a.a.r.x T.xX4.w w -.$.#.yXPXa z x z z x e.PXPXe.r.PXPXPXPXPXPXPXPXPX",
"PXPXPXPXPXPXPXPXPXPXPXPXVXVXcXdXiXsX9.1./.}.{.!.) PXPX1 ( ) y y.M.=X9X9X3X~.Q.|.XXXXXXXX.XPXPXPXPXPX7X0XlXhX,XaXlXcXxXiX>.u % X @ f c r.D >.L f y - s n g l v.c.r.f.v.v.a.e.x z j i u - y p z g.x.y.T.zX8.$.w $.%.e PXPXPXu.y.x x e.r.PXPXj x a.PXPXPXPXPXPXPXPX",
"PXPXPXPXPXPXPXPXPXPXPXPXVXvXzXdXiXfX9.1.).}.`.W.} PXPX1 ( } l y.b.J.9XqX6X:X_..XXXXXXXXXXXPXPXPXPXPX7X0XxXdXfXkXnXcXlXpX>.s %   @ g r.u.l.>.#.0 t - - l p k c.f.k x.m.n.a.x z k p t * = & t i x.n.a.T.cXuX-.` *.%.q PXPXPXg.a.x e.r.r.PXPXt z a.PXPXPXPXPXPXPXPX",
"PXPXPXPXPXPXPXPXPXPXPXPXAXVXzXdXfXdX].} (.}.`.!.) PX* 1 W.| j.y.h.J.8XqX7X:X{..X.X|.XXXXXXoXPXPXPXPX7XNXzXkXkXzXbXcXkX9.-.f X   = a u.a.l.>.! < * = - z k k d.t.l g.n.c.u.z j j p t % X & & y x.n.d.T.vXiX2.2.6.-.r PXPXPXg.a.z r.a.r.PXPX& k a.PXPXPXPXPXPXPXPX",
"PXPXPXPXPXPXPXPXPXPXPXGXSXVXcXlXfXlX].! (.}._.| F d * 1 (.~.k.i.i.k.4XqXqX5X|..X{.(..XoXXXoX{.W :XqX9XNXzXxXxXzXbXcXfX0.;.0 o   % l u.a.l.-.e ; = o - e.e.k c l i a.g.y.r.z p k k t X X & t y x.n.f.hXBXfX-X-XaX9.PXPXPXz PXy.k y.f.PXPXPXPXPXPXPXPXPXPXPXPXPXPX",
"PXPXPXPXPXPXPXPXPXPXPXGXSXCXcXlXdXxX].! (.}._. .Z a & 2 ).:XJ.h.r.p.3XqXqX5X.X|.(.E.|.oXXXoX{.~ :XqX7X0XzXxXxXxXcXxXiX5.$.8 @ o * z a.u.l.;.r = = o - r.y.z s s i r.y.l x x p z x i % . * & i x.n.d.hXVXfX<X3XjXkXPXPXPXz PXPXj y.x.PXPXPXPXPXPXPXPXPXPXPXPXPXPX",
"PXPXPXPXPXPXPXPXPXPXPXGXSXCXzXdXfXlX]./ (.}._. .b a s Q '.>XJ.k.e.c #XqXqXwX5X{.Q.E.|.XXXXXX X} >X9X7X0XjXxXxXxXdXaX7.-.w 7 @ ; f m h.p.Y ` < o o ; s e.u.e.- - y z z a e.u.z r.u.x & . % * t b.M.h.hXLXdX1X4XnXPXPXPXPXz PXPXp r.f.PXPXPXPXPXPXPXPXPXPXPXPXPXPX",
"PXPXPXPXPXPXPXPXPXPXCXGXSXCXxXsXiXdX]./ (.|.`. .b l N } :X6X=Xk.x l F.7XqXwX5X_.Q.Q.|..X|..X X~.>X8X8X6X1XjXxXdXY.,.:.L 8 @ # 7 P K.K.l.Y G ; o   1 F z u.u.f = t j p y u.x.u.f.c.f.p X X X * V.J.l.T.zXlX1XPXPXPXPXPXPXz k p p z y.f.PXPXPXPXPXPXPXPXPXPXPXPXPX",
"PXPXPXPXPXPXPXPXPXPXVXGXSXVXdXuX0.sX].( (.|.{.| b l V !.:X6X8XV.x i B.2XqXqX5X^.Q._.|.|.{.{. X$X&X*X2X2X4XjXkXiX<.g g : @ # @ r >.Y.Y.,.P f = o   C A a y.s.f : t i t y f.n.x.v.n.n.c o X . = F.%X<.U.dXlXjXPXPXPXPXPXPXx k j j j z f.PXPXPXPXPXPXPXPXPXPXPXPXPX",
"PXPXPXPXPXPXPXPXPXbXVXSXSXvXfX8.6.pX].( (.}.}.| Z v ) ^.>X8X8XV.x a _ #XqXqX6X^.Q.{.|.{._._.'.&X&X&X*X2X3XhXsXU.H t & = @ 6 7 e 6.9.0.=.I * % o X C N.a r.d.f : t y t y s.n.v.v.n.n.t.o   . ; ;X4X6.8.iXdXkXPXPXPXPXPXPXt.m M M l z s.PXPXPXPXPXPXPXPXPXPXPXPXPX",
"PXPXPXPXPXPXPXPXPXbXVXSXAXbXgX6.:.9.].E.(.{.}.~._ b ) ).6X8X=Xk.e.a Z F.qXqX6X^.(.|.{._._.(.^.#X%X%X&X3X3XaXU.>.f & % ; 7 e w $.4.6.=.#.0 % X X X C A u c p.g - & d d t y.x.x.x.x.x.c o   . = <XNX].8.9.iXsXPXPXPXPXPXU l.l.Y Y m e.s.f.PXPXPXPXPXPXPXPXPXPXPXPX",
"PXPXPXPXPXPXPXPXPXVXCXSXAXcXpX:.H 7.].PX(._.{.'.| Z _ '.7X9X=Xk.r.m b B.7XqX7X'.{.|._.(._.(.!.C.@X%X&X3X<X,X,.H : = = ; e =.=.=.-.%.q 9 # X   X * d v PXn U g * % C v t k y.s.u.r.e.y     X - <XMXiX8.5.9.pXgXuXPXPXPXY Y.Y.P.P.l.a.a.s.PXPXPXPXPXPXPXPXPXPXPXPX",
"PXPXPXPXPXPXPXPXPXVXCXSXCXzX9.P f >.0.PXQ.).{.{.~.A  .'.wX9X=Xk.r.m l j.2X9X7X'.{.|.(.Q.`.(.} B.F.%X%X;X<X9.:.s : @ # 9 $.8.8.4.%.8 # $       X & t y PXI G a * X C Z t t k u.x p i *   o * g hXZXfX8.4.5.uXiXuXPXPXt Y hXfXaX,Xz.g.a.u.PXPXPXPXPXPXPXPXPXPXPXPX",
"PXPXPXPXPXPXPXPXPXVXCXAXVXlX7.H u &.w.PX!.).{.}.)._ | '.wX9X=Xk.r.m l j.&X8X6X^.). X)._.{.(.} B.Z.@X#X<X,X8.` - ; @ + 8 -.9.0.3.w @   . . . o - t t & PXq q u %   C Z y t j u.z t i * o e P <.nXZXdX5.=.6.9.iXuX,XPX_ P.zXxXdX,Xz.g.a.r.PXPXPXPXPXPXPXPXPXPXPXPX",
"PXPXPXPXPXPXPXPXPXLXVXCXLXdX<.f u J ` N.PX_.}.{.).| } ).5XwX8Xz.r.m l D @X2X2X} W.`.{.|.|._.!.C.Z.F.-X,X,X5.%.: ; +   r =.0.8.-.e # . . . PXN C t t & X 8 q = X   1 d p y k f.x t j t ; 6.,XaXMXBXfX6.*.6.0.pXuX<X3X#X<XcXzXdX,Xz.f.a.x PXPXPXPXPXPXPXPXPXPXPXPX",
"PXPXPXPXPXPXPXPXPXbXvXVXbXgXY u t 1 V N.PXPX}.{.).!.} Q..XwXqXH.r.m M D Z.=X=X) ! [. XXXXX{.^.F.B.C.Y.,XU.6.%.0 ; +   e =.8.6.$.8 # .   . PX_ F y t & X 7 q # X + ; s j p x x.e.y x i 0 sXMXMXCXbXiX=.$.6.0.uXuX<X2X6X0XcXzXdXU.l.s.u.z y PXPXPXPXPXPXPXPXPXPXPX",
"PXPXPXPXPXPXPXPXPXbXbXbXzXpXU t t 1 V j.PXPX{.`.).Q.W.W.|.5XqXJ.p.l.m b B.J.%X) r 1. XXXXX|.'.F.B.A.0.yX0.4.%.8 @ o % L 4.8.=.#.8 #     o PXZ.A y t * X 6 8 = o # + * k j x x.t.v p.v r xXSXAXCXnX0.*.$.5.uXpXuX<X6X9X0XzXxXfX0.l.d.i.m g PXPXPXPXPXPXPXPXPXPXPX",
"PXPXPXPXPXPXPXPXPXbXcXzXlXU.g t u N F j.j.[.{.{._.(.W.} {.5XqXJ.H.I.l.b N.J.J.B 1 { /.{..XOX'.C.D.P.0.9.8.=.#.9 @ % a P 4.5.-.e 7 #     1 PXZ.A u * %   # 7 * : 7 + * z k z a.p._ l.Y ` dXZXZXVXlX6.%.$.0.sXfXiX1X6X7X0XfXfXiX6.A.z.l.Y P n PXPXPXPXPXPXPXPXPXPX",
"PXPXPXPXPXPXPXPXPXcXzXlXfX0.g y a K F h.j.| `.{._.(.}  .).5X9X%X;X1XK.v N.V.V.N N Y ' Q.|..X'.C.P.U.0.8.5.-.e 7 + * i.Y 4.6.$.q 7 # o   ) *XZ.A u * ; + + ; a g 8 # * k z z e.N.G.P.,.;.iXxXxXbXfX*.e $.iXxXxXsX1X8X6X>X,XiXyX3.<.S.K.P.,.n e.a.PXPXPXPXPXPXPXPX",
"PXPXPXPXPXPXPXPXPXxXxXfXiXq.g i v K Y d.l.| _.{.`._.| _ !.:X7X&X4XNXP.v j.V.V.C C Y 2 ^ `.|.'.B.P.pX8.5.6.;.q @ # d b.S.4.4.$.8 @ # o . ) &XZ.Z u : 7 # $ = j n q 6 * k z k l B.#X,Xq.=.0.pXiXlXiX%.e -.fXbXbXsX1X8X*X;X2.].8.-.2.P.Y.Y.7.n e.a.PXPXPXPXPXPXPXPX",
"PXPXPXPXPXPXPXPXPXfXfXiXpX6.f i c K Y i.l.} )._.`._.~.B.| :X3X*X7XNXP.v j.V.k.C K [ ; R Q.`.[.{ P.yX5.4.=.%.8 @ < D M.L.4.=.#.7 @ # o . ] %XB.F H I r 7 # o p g e 7 : d x x v N.G.,X8.6.5.q.8.iX0.#.#.6.xXVXvXgX1X6X%XG.2.6.6.2.2.Y.Y.Y.K.m r.s.PXPXPXPXPXPXPXPX",
"PXPXPXPXPXPXPXPXPXuXuXpXyX4.f j t.K S i.Y } Q.(.`.`.~.C. .D.;X3X9XNXD.l V.V.k.A { | @ , ( /.1.<.2.5.3.*.%.w 9 # ) F.=XI.3.-.w 7 @ # o .  .#XN.S <.;.#.e 7 # s f e 8 0 f t.r.v j.S.2.5.5.4.=.4.0.5.#.*.uXvXAXvXiX<X*X#XD.<.-.>.D.2.7.Y.L.z.i.y.s.x.PXPXPXPXPXPXPX",
"PXPXPXPXPXPXPXPXPX5.8.uX0.>.f j t.C C t.Y } } Q._.`.+XZ.B. .D.3X9XqXD.v V.V.k.N.| /., + ^ } 1.w.>.-.*.%.e q 7 ;  .&X8X<X=.*.q @ # # + PXPXF.Z H U.5.-.%.8 # ; 0 q e q G t.i.Z b D &.5.8.3.*.-.6.4.$.6.fXCXAXvXuX-X&XG.A.<.%.<.#XP.4.Y.H.b.a.u.s.c.v.PXPXPXPXPXPX",
"PXPXPXPXPXPXPXPXPX4.5.9.8.:.g k t.B N c D ' / Q.).`.~.F.B._ { >X9XqXD.v V.V.j.B.+X_.E , ~ ' =.q.=.$.%.e 8 8 7 1 F.6XwX-X;.%.8 @ # + # PXPXC.F P iXyX4.*.e @ @ 7 8 e e r m i.Z b n &.q.uX6.-.-.4.=.*.0.xXCXAXbX9.-X;XI.P.<.&.| #XP.w.Y.H.b.f.a.a.x.v.PXPXPXPXPXPX",
"PXPXPXPXPXPXPXPXPXPX5.yX7.Y l k l 2 N l D ] ' W.(._.'.+X .) ) :XwXwXD.Z F.C.A j.+X|.( ~ ! ;.4.9.3.#.w 8 6 6 1 ) #X6X1X2.L e 7 # + $ @ +X@XN.Y ,.fXiX8.=.w 7 6 7 9 q e w Y l.Y Y Y >.pXfX0.6.5.6.4.4.pXzXVXZXcX0.-X1X<XP.P.P.-X*X-Xw.Y.H.h.f.a.u.g.c.PXPXPXPXPXPX",
"PXPXPXPXPXPXPXPXPXPXPXuX,.n z k s Q B l m U ' ( Q.).'.~.} Q 2 ^.5X5XD.A :X| F j.+X.X(.} 1.=.q.pX6.#.e 7 @ @ B C.*X3X-X` f 9 @ # + $ < #XF.S <.pXdXsX0.=.w 8 9 7 7 8 e #.:.<.:.:.,.9.dXzXgXuXpX8.6.5.sXcXbXbXxX0.,XjXaX<X;X>X3X6X;X2.Y.P.l.d.a.r.s.x.g.PXPXPXPXPX",
"PXPXPXPXPXPXPXPXPXPXPXU.<.x e.l - W Q a M S ' } W.)._.).W.~ , W.|.oX| _ '.!.V Z ~..X_./.=.4.8.iX6.%.e 8 7 7 ) F.2X>X;.f * ; # + + $ < #XF.g 7.dXfXgX0.=.w 8 8 7 @ 8 e $.-.>.>.6.0.iXxXbXdXfXfX0.5.8.fXzXxXxXfX8.iXnXkX1X2X6X7X7X;XP.Y.P.K.h.y.x a.g.g.PXPXPXPXPX",
"PXPXPXPXPXPXPXPXPXPXPXK.l.r.e.a - W Q g l S } } W.(._._.Q.^ R E.{.|.| _  X).' _ ~.{.(.1.-.3.q.uX6.$.$.%.%.%.<.;X2X>X%.: % # + + o X : D.A.H U.kXsXuX5.*.e 8 r 7 # 7 e $.&.>.2.0.yXiXkXxXfXfXfX0.6.5.sXxXfXsXpXq.gXvXlX1X8X9X9X7X>XI.P.Y.P.l.t.z y.f.g.PXPXPXPXPX",
"PXPXPXPXPXPXPXs.u.r.m l.p.a.e.a 1 E Q C v S } W.E.(._._.(.( E ( (.{.} ) |.`.} | !.Q.( ! %.*.4.8.6.=.6.5.8.9.,X<X3X#XL ; X + + + % % - F [ &.U.fXpX5.-.@.8 7 r 7 + 7 e ;.L ] -X,XyXuXiXsXiXsXfXq.=.4.uXfXiX9.q.5.fXVXxXjX9X9X7X8X3X;X;XI.P.{ n k r.a.PXx.f.y.PXPX",
"PXPXPXPXPXPXf.s.u.r.x t.d.f.z s 1 E ! K g V !.Q.W.(._._.(.( ^ / Q._.) ! |.{.Q.^.W./ E 8 e #.*.6.6.5.uXsXlXxXdX,X>X+Xe # X + + o & & & d K >.uXiX8.-.w q 7 @ q 8 # 7 w *.G F ;X<X9.0.8.8.9.iXiX6.*.-.8.iXyX6.=.6.fXVXxXjXqX9X7X6X2X3X;XI.Y.:.H k e.y.PXx.f.y.PXPX",
"PXPXPXPXPXPXg.s.u.r.e.e.a.a.l - 1 E ! ' g C !.!.} (._._.Q.( / / ( Q.W ~ }.{.(.Q.( E < ; 8 e %.=.6.0.sXxXbXbXkX,X-XD.r #   o o = s u t a Y q.,X9.5.$.q 7 @ @ q e q e %.*.G F #X<X8.6.3.=.5.0.0.=.$.$.6.0.8.=.&.,.hXVXlX1X9X7X6X2X*X3X;XT.Y.:.H k x e.PXg.f.y.r.PX",
"PXPXPXPXPXf.x.f.u.r.r.r.y.e.u = 3 E ~ ' g C }  . .!.).).W.( / ^ ^ / , W `._.E.( ! 1 - ; 7 r w *.6.uXlXcXcXxXgXq.2.] 9 @ # = % - F S u F A.-X0.5.6.$.8 6 + + q *.6.=.-.*.0 V D.2.=.=.$.$.=.6.6.*.%.$.=.6.6.;.L l.T.bXhX1X7X6X*X*X&X%XI.Y.7.P g k z z PXPXs.r.r.PX",
"t t t t k f.x.g.y.y.y.y.e.p * o , E ~ ! C d ) F j.!.(.(.( ^ ^ W E E , E ).Q.^ W 1 s t * 6 9 e $.4.uXxXcXxXgX8.=.` J 7 7 ; * * s C._ u B.#X>X2.=.4.%.8 @ + # e 8.dX9.4.-.r J <.;.%.$.X.e %.$.$.%.#.%.$.-.3.$.G h.L.xX<X;X3X&X%X&X%X#XY.7.w.U l k k k j PXPXr.r.r.",
"t t t t k s.x.f.r.r.y.y.z t % o , E W ! N s 1 b j.!.(.Q./ W ^ W , 3 o E Q.W.E 3 - y i * ; 7 8 #.=.uXxXxXfX0.4.*.w 8 7 9 0 & & d F.B.C F.&X3X2.$.=.#.8 < @ < %.pXbXiX5.=.L e %.w q e q 8 e w e e w %.%.$.=.@.G d.L.fXT.G.%X@X@X#X@XF.7.5.>.n k k k k j PXPXr.r.r.",
"t t t t z f.s.y.x e.r.r.k t % o , , W W 2 s 1 v j.!.(.Q.^ W ^ W 3 - - 2 } ) 2 - t p i t = ; 9 e -.8.sXsXuX6.=.$.w r 7 8 0 t t d B.B.B.#X*X#X{ X.$.q 9 B B ' 2.hXbXuX6.5.*.@.@.q 9 8 9 : 8 8 8 q e #.w @.*.@.G p.K.U.P.G.@XZ.Z.F.F.D.2.3.-.m z k j j k r.PXr.r.r.",
"PXPXPXPXPXPXr.z j z c c l t & = o , R E 2 1 - C ] ).).Q./ ^ ^ W 2 u a C ] V d u p j i t * ; 6 8 $.4.8.8.6.=.=.*.#.e q 8 0 y i a A C.#X*X&X@X' r e 7 < ]  .+X>XjXdX4.=.].5.*.X.8 6 7 ; * ; 7 7 8 e w e e $.w 0 n Y 6.2.D.Z.C.B.C.Z.C.w.3.&.M z k j j k u.x.PXPXPX",
"PXPXPXPXPXPXp i y p l l a i y * o , , E E 3 3 1 / ).).W./ ^ ^ W 2 l l n S v l k k k i y t = @ 7 w $.-.-.-.*.-.*.$.w e 8 : i p p v C.2X2X%XC.K 9 7 @ 1 C.#X3X7X0X9.%.;.pX0.=.w 9 @ @ = * ; @ 6 7 8 e r q %.e 9 0 L *.<.A.C.B.N.B.B.C.>.-.&.M z z k j k a.c.PXPXPX",
"PXPXPXPXPXPX& & & i l l a i i u = 3 3 , R , 3 3 ^ Q.Q.( ^ ^ ^ ^ 2 l c m m c z z z z p i i * # ; r w #.#.%.$.$.$.%.w e 9 : p j j b F.8X2X@XB.B 6 @ ; B F.&X6X9X0X6.e #.0.7.<.L : ; 8 0 f ; @ @ 7 8 q 8 8 w q 7 8 e %.` [ B.N.j.N.N.B.;.$.P l z z z k k s.v.PXPXPX",
"PXPXPXPXPXPX% % % t a a i y i u s s 1 , R , 3 , W ( ( ^ W W W ^ Q s v m M c z c c c j j p t * - 0 8 q e w @.@.@.w q 8 : u j k b B.#X6X&XF.N.1 @ @ 1 _ @X*X8X9X>X-.r q -.<.l.n s : #.P G 9 7 7 7 7 8 8 8 q 7 6 8 e ` ] _ N.j.A N.N._ &.L H l k z e.e.z s.PXPXPXPX",
"PXPXPXPXPXX X X % * y y t t i a a a s , , , 3 3 , ~ W E E E E ^ ! 1 d m m M c c c c k k k y t u : 6 7 8 q e q q r 9 @ - a k z p.#X3X&X@XZ.N.1 + @ ) C.@X2X8X8X;X%.8 9 q U p.t.p f >.4.&.q 8 8 7 7 7 8 8 7 @ @ 8 e ` F A A A A N.j.F ` G l k k k r.y.PXPXPXPXPXPX",
"PXPXPXPXPXX X X X * t t t t i a l k d 3 , , 3 3 3 E R , R R E / ~ 3 g m m m m m m m z z k p y y % # @ 9 r r 8 9 9 7 # t j k x j.3X2X@XZ.B.A - + < _ @X%X2X7X2X+Xw 9 @ ; c a.d.l H 7.8.-.e 8 8 7 @ 7 8 7 @ + @ 8 e L F Z Z Z A j.A F L G j j j k r.u.PXPXPXPXPXPX",
"PXPXPXPXPXX o o X * t t t t y a l k a = 3 - 1 - 1 , , , , R E / ^ 3 g m m m m m m m z z z p i i % + # ; : : : : : : % y j k p.V.*X&XF.C.N.Z s - B C.%X*X6X8X&X| q 6 ; u x d.h.l.:.0.8.*.e 8 8 @ @ @ 7 7 # + # 7 r e F Z Z Z Z A A F J f k j j k x r.PXPXPXPXPXPX",
"PXPXPXPXPXPXPXPXPXPXPXPXPXPXPXPXPXp y - - s s s s PXPXPXPXPXPXPXPXPXPXPXPXPXPXPXPXPXPXPXPXPXPXPXPXPXPX- s s s s u u u i j k j.F.%X@XC.B.j.b a d _ F.%X2X8X6X@X] 8 @ : k y.d.V.P.U.0.6.$.q 7 7 @ # @ @ @ + + # @ 9 r C Z Z Z Z A Z Z PXPXPXPXj j k k PXPXPXPXPXPX",
"PXPXPXPXPXPXPXPXPXPXPXPXPXPXPXPXPXt t t u a a a d PXPXPXPXPXPXPXPXPXPXPXPXPXPXPXPXPXPXPXPXPXPXPXPXPXPXi a y y y i i i p p k B.@X@XZ.N.N.Z l p v B.F.&X6X8X&XZ.F 7 # s r.u.h.Z.<XiX8.-.w 8 7 @ # + # # # + + # @ 6 9 C Z Z Z Z Z Z Z PXPXPXPXPXj p i PXy y PXPXPX",
"PXPXPXPXPXPXPXPXPXPXPXPXPXPXPXPXPXt t t i l l l l PXPXPXPXPXPXPXPXPXPXPXPXPXPXPXPXPXPXPXPXPXPXPXPXPXPXPXp i y i p p p p p j N.F.Z.N.A A Z j j b B.@X&X7X2X@XN.S : ; u r.y.p.B.P.uX4.%.q 7 @ @ # + + + + + + # @ @ < C Z Z Z Z Z Z Z PXPXPXPXPXj y t PXi y PXPXPX",
"PXPXPXPXPXPXPXPXPXPXPXPXPXPXPXPXPXPXt PXPXPXPXl PXPXPXPXPXPXPXPXPXPXPXPXPXPXPXPXPXPXPXPXPXPXPXPXPXPXPXPXPXi PXPXPXPXp i i p Z B.j.Z v Z v j j PXPXPXPXPX#XB.j.v s * i x x b A A.,.$.e 7 7 PXPXPXPXPXPXPXPXPXPXPXPXPXPXPXPXPXPXPXZ PXPXPXPXPXPXPXy PXPXPXPXPXPXPX",
"PXPXPXPXPXPXPXPXPXPXPXPXPXPXPXPXPXPXPXPXPXPXPXPXPXPXPXPXPXPXPXPXPXPXPXPXPXPXPXPXPXPXPXPXPXPXPXPXPXPXPXPXPXPXPXPXPXPXPXi i i v v v d a l l p PXPXPXPXPXPXB.D b l p i i j j j v S H r 7 @ PXPXPXPXPXPXPXPXPXPXPXPXPXPXPXPXPXPXPXPXPXPXPXPXPXPXPXPXPXPXPXPXPXPXPXPX",
"PXPXPXPXPXPXPXPXPXPXPXPXPXPXPXPXPXPXPXPXPXPXPXPXPXPXPXPXPXPXPXPXPXPXPXPXPXPXPXPXPXPXPXPXPXPXPXPXPXPXPXPXPXPXPXPXPXPXPXy i i i i i i i p p p PXPXPXPXPXPXl k z z k p i i i i i i u < @ # PXPXPXPXPXPXPXPXPXPXPXPXPXPXPXPXPXPXPXPXPXPXPXPXPXPXPXPXPXPXPXPXPXPXPXPX",
"PXPXPXPXPXPXPXPXPXPXPXPXPXPXPXPXPXPXPXPXPXPXPXPXPXPXPXPXPXPXPXPXPXPXPXPXPXPXPXPXPXPXPXPXPXPXPXPXPXPXPXPXPXPXPXPXPXPXPXy y y t t t t y i p p PXPXPXPXPXPXj j k z z j i y t t t y t ; # + PXPXPXPXPXPXPXPXPXPXPXPXPXPXPXPXPXPXPXPXPXPXPXPXPXPXPXPXPXPXPXPXPXPXPXPX"
};
