/* XPM */
static const char *bos2b6[] = {
/* columns rows colors chars-per-pixel */
"128 128 250 2 ",
"   c #141414",
".  c #1C1C1C",
"X  c #1A1914",
"o  c #151511",
"O  c #390A0A",
"+  c #251B19",
"@  c #381716",
"#  c #2B0F0B",
"$  c #15270C",
"%  c #1A2817",
"&  c #1C3B13",
"*  c #1A3512",
"=  c #16300E",
"-  c #2B230E",
";  c #2A2418",
":  c #332A13",
">  c #382B17",
",  c #353616",
"<  c #231F20",
"1  c #1E2121",
"2  c #232424",
"3  c #2B2423",
"4  c #2B2C2C",
"5  c #272927",
"6  c #372A28",
"7  c #3A3429",
"8  c #2D3132",
"9  c #333434",
"0  c #3B3B3B",
"q  c #393736",
"w  c #2B322C",
"e  c #480606",
"r  c #5C0202",
"t  c #550404",
"y  c #451818",
"u  c #561818",
"i  c #49180A",
"p  c #670303",
"a  c #740101",
"s  c #790404",
"d  c #6F1717",
"f  c #423219",
"g  c #4B381B",
"h  c #553A1C",
"j  c #4D2A11",
"k  c #692804",
"l  c #742B01",
"z  c #732901",
"x  c #7B3402",
"c  c #783506",
"v  c #6E3811",
"b  c #462828",
"n  c #473928",
"m  c #543C21",
"M  c #463A38",
"N  c #572F2F",
"B  c #6F2F2E",
"V  c #1E4116",
"C  c #234918",
"Z  c #28551D",
"A  c #374C19",
"S  c #2C5D21",
"D  c #255B21",
"F  c #304B2C",
"G  c #2F6223",
"H  c #336A26",
"J  c #38752B",
"K  c #3C7732",
"L  c #6E4718",
"P  c #5B4222",
"I  c #574836",
"U  c #4E483C",
"Y  c #664625",
"T  c #764B2A",
"R  c #79532C",
"E  c #765333",
"W  c #79672F",
"Q  c #52571E",
"!  c #3E4141",
"~  c #434343",
"^  c #4C4C4C",
"/  c #484747",
"(  c #544B4A",
")  c #4E5151",
"_  c #535353",
"`  c #5B5C5C",
"'  c #585858",
"]  c #545348",
"[  c #734848",
"{  c #6D554F",
"}  c #726759",
"|  c #5D6263",
" . c #636464",
".. c #6B6C6C",
"X. c #676868",
"o. c #766A68",
"O. c #737374",
"+. c #7C7C7C",
"@. c #777878",
"#. c #6D7172",
"$. c #555C66",
"%. c #3D3E40",
"&. c #840101",
"*. c #8B0101",
"=. c #860C0C",
"-. c #930101",
";. c #9C0101",
":. c #960C0C",
">. c #911616",
",. c #A40101",
"<. c #AB0000",
"1. c #AC0B0B",
"2. c #B30101",
"3. c #BA0303",
"4. c #A91919",
"5. c #833D05",
"6. c #883435",
"7. c #912D2D",
"8. c #B12E2E",
"9. c #C70202",
"0. c #D30000",
"q. c #DC0101",
"w. c #D70D0D",
"e. c #D01717",
"r. c #E90303",
"t. c #F40404",
"y. c #EC1616",
"u. c #CF2D2D",
"i. c #E52A2A",
"p. c #894609",
"a. c #93530E",
"s. c #99580E",
"d. c #985A12",
"f. c #8B4D13",
"g. c #9D6316",
"h. c #9F640F",
"j. c #A36918",
"k. c #AC761D",
"l. c #B07A1D",
"z. c #8C5B34",
"x. c #845631",
"c. c #89532E",
"v. c #98643A",
"b. c #97732B",
"n. c #AB7922",
"m. c #A8752F",
"M. c #8F4F4C",
"N. c #AD4E4E",
"B. c #8E6E52",
"V. c #A76C42",
"C. c #B67548",
"Z. c #A8774E",
"A. c #957878",
"S. c #8C736F",
"D. c #A87A6D",
"F. c #CC4F4F",
"G. c #C37C4E",
"H. c #C46D6D",
"J. c #833F40",
"K. c #3D8432",
"L. c #438C36",
"P. c #46963A",
"I. c #579839",
"U. c #4CA13F",
"Y. c #609539",
"T. c #52AD46",
"R. c #57B94C",
"E. c #50A945",
"W. c #5D9C53",
"Q. c #5DC853",
"!. c #5FD157",
"~. c #64D75B",
"^. c #61CF57",
"/. c #6BE663",
"(. c #72F66B",
"). c #B78826",
"_. c #BE932C",
"`. c #B28D34",
"'. c #9A9D38",
"]. c #C2982E",
"[. c #C49C31",
"{. c #CAA737",
"}. c #D2B23D",
"|. c #D2AE3B",
" X c #C18C1F",
".X c #908477",
"XX c #AC8C70",
"oX c #9F954C",
"OX c #CD8557",
"+X c #D7BB43",
"@X c #C7B14C",
"#X c #D4B454",
"$X c #DDC549",
"%X c #CEC955",
"&X c #E7D654",
"*X c #E1CC4D",
"=X c #EEE15A",
"-X c #F2E75D",
";X c #F4EB62",
":X c #FBF86B",
">X c #FDFD72",
",X c #E9E86B",
"<X c #DBD17B",
"1X c #A5C554",
"2X c #696A91",
"3X c #3B3BBB",
"4X c #7D8182",
"5X c #838383",
"6X c #8B8B8B",
"7X c #888787",
"8X c #968B89",
"9X c #8E9293",
"0X c #939393",
"qX c #9C9C9C",
"wX c #979798",
"eX c #92918F",
"rX c #A79998",
"tX c #AC928A",
"yX c #B0A69B",
"uX c #9899AA",
"iX c #9EA2A2",
"pX c #A3A3A3",
"aX c #ABABAB",
"sX c #A7A8A8",
"dX c #B6ACA9",
"fX c #ADB2B2",
"gX c #B4B4B4",
"hX c #BBBBBB",
"jX c #B7B8B6",
"kX c #B7B3AC",
"lX c #C4BBB6",
"zX c #C5B4AB",
"xX c #E58E90",
"cX c #CBC3B5",
"vX c #D6D68B",
"bX c #BCC1C2",
"nX c #C4C4C4",
"mX c #CBCBCB",
"MX c #C8C8C7",
"NX c #D3D3D3",
"BX c #DCDCDC",
"VX c #D5D8DA",
"CX c #D0CFCD",
"ZX c #E4E3E3",
"AX c #EBEBEB",
"SX c #F0F0F0",
"DX c #DEE0E1",
"FX c #B6B7C3",
"GX c None",
"HX c black",
/* pixels */
"GXGXGXGXGXGXGXGXGXGXGXGXGXGXGXGXGXGXGXq.0.9.3.<.;.*.&.a a a a s &.>.M.8XsXgXhXnXmXNXNXmXmXMXnXnXnXnXnXhXjXaXpX0X5XO.X.| ` [ 8.w.t.t.t.t.r.r.q.q.q.0.9.3.<.<.<.<.<.<.<.,.,.,.,.GXGXGXGXGXGXGXGXGXGXGXGXGXGXGXGXGXGXGXGXGXGXGXGXGXGXGXGXGXGXGXGXGXGXGXGXGXGXGXGXGX",
"GXGXGXGXGXGXGXGXGXGXGXGXGXGXGXGXGXGX2.2.<.,.-.&.=.>.B B 6.6.6.6.M.N.D.rXgXhXnXmXmXNXNXmXmXMXMXmXmXnXnXhXjXfXpX8XA.N.M.M.6.7.4.9.0.0.0.0.9.2.<.<.<.<.,.-.&.&.&.&.*.-.;.,.,.,.<.<.GXGXGXGXGXGXGXGXGXGXGXGXGXGXGXGXGXGXGXGXGXGXGXGXGXGXGXGXGXGXGXGXGXGXGXGXGXGXGXGX",
"GXGXGXGXGXGXGXGXGXGXGXGXGXr.q.9.2.;.&.a p r t t N [ S.7X0XrXdXdXlXlXlXnXmXmXNXNXNXNXNXmXmXMXmXmXmXMXnXhXjXaXrXD.F.y.r.r.w.9.2.;.-.-.-.-.&.a p p p p p r r r r r p a &.-.;.,.,.,.,.,.GXGXGXGXGXGXGXGXGXGXGXGXGXGXGXGXGXGXGXGXGXGXGXGXGXGXGXGXGXGXGXGXGXGXGXGXGXGX",
"GXGXGXGXGXGXGXGXGXGXGX0.9.2.<.;.&.a p u b N N N { S.wXaXhXMXNXBXDXDXBXVXVXVXVXVXNXNXNXmXmXmXnXnXnXbXhXgXyXH.F.u.y.r.r.0.2.,.>.d B B B B B [ [ [ [ [ [ [ { { [ [ [ M.M.M.M.M.M.6.7.6.B N GXGXGXGXGXGXGXGXGXGXGXGXGXGXGXGXGXGXGXGXGXGXGXGXGXGXGXGXGXGXGXGXGXGXGXGX",
"GXGXGXGXGXGXGXGXGX0.0.3.,.&.a r t e b M ( ` X.@.6XpXgXnXNXBXZXAXAXAXAXAXZXZXZXBXVXNXNXNXmXmXnXhXjXaXpXtXH.u.y.t.q.9.2.-.s d N (  .X.O.+.5X6X0XwXqXrXsXaXfXaXpXrXwX0X0X0X0XeX7XA.O. .` ) / / GXGXGXGXGXGXGXGXGXGXGXGXGXGXGXGXGXGXGXGXGXGXGXGXGXGXGXGXGXGXGXGXGXGX",
"GXGXGXGXGXGXGXr.0.3.,.-.a p t y y b M ^ ` X.+.6XqXfXnXCXBXZXAXAXSXSXAXAXAXAXZXZXBXNXNXCXmXMXbXgXsXtXH.F.i.y.r.0.2.-.s d N M ' X.O.4X7X9XqXsXgXhXbXMXmXNXNXCXMXhXjXgXfXaXsXpXqX0X7X+...` ' ^ / / '  ...GXGXGXGXGXGXGXGXGXGXGXGXGXGXGXGXGXGXGXGXGXGXGXGXGXGXGXGXGX",
"GXGXGXGXGXGXq.0.3.;.a p t e y b M / ) '  .O.5XwXsXjXnXNXZXAXAXAXAXAXAXAXAXAXZXZXBXNXNXmXMXlXkXrXD.F.i.t.t.q.9.,.=.p u N ( ` ..+.5X6XwXqXsXhXnXmXNXBXZXZXZXBXNXmXmXnXnXhXgXaXsXiXwX6X5XO. .` _ ^ _ `  . .GXGXGXGXGXGXGXGXGXGXGXGXGXGXGXGXGXGXGXGXGXGXGXGXGXGXGXGX",
"GXGXGXGXr.0.3.<.-.a r e y @ 7 M / _ `  ...+.6XqXaXhXnXNXBXZXAXAXAXAXAXAXAXZXZXBXNXNXmXnXhXdXtXF.i.y.t.r.0.<.&.s u N M ( ` ..+.6XwXqXpXsXjXnXmXNXBXZXAXAXZXZXVXNXmXnXnXhXjXgXfXaXsXqX0X5X@.X. .` ^ / / _ X.+.6X6X0X0XGXGXGXGXGXGXGXGXGXGXGXGXGXGXGXGXGXGXGXGXGXGX",
"GXGXGXq.0.9.,.&.p t u b b q ! ^ ' `  .X.@.5X0XpXgXhXMXNXVXZXZXZXZXZXZXZXZXBXVXNXNXmXnXbXfXrXH.i.t.t.r.0.1.>.d N M / ) ` X.@.5X6XwXqXsXaXjXnXmXNXBXZXZXZXZXZXVXNXmXnXlXhXjXgXgXaXaXsXwX6X+.@.X.` ^ 0 0 _ ..5X0XwXwXwXwXGXGXGXGXGXGXGXGXGXGXGXGXGXGXGXGXGXGXGXGXGX",
"GXGXGX9.9.<.&.p u N ( ( ^ / / _ `  .X.O.+.6XwXsXgXhXmXNXVXBXBXBXBXBXBXBXVXNXNXmXmXnXhXgXsXtXH.i.t.r.0.2.4.M.}  .` ' `  .X.@.+.6X0XwXqXsXgXhXmXNXVXBXBXZXBXBXVXNXmXnXhXjXgXaXaXsXsXpXwX6X+.@.X. ._ / / ` +.6XwXiXpXpXpXpXqXGXGXGXGXGXGXGXGXGXGXGXGXGXGXGXGXGXGXGX",
"GXGX0.9.<.-.a t e b ~ ^ ^ / ^ '  .X...@.+.6XwXpXaXhXnXmXNXNXVXVXVXNXNXNXNXNXmXMXnXhXdXtXH.F.u.y.r.0.<.-.7.M.@.@... .|  ...O.+.5X6X6XwXqXsXjXhXnXmXmXNXNXNXNXmXnXnXhXgXaXsXsXsXsXpXqX0X6X+.@... .` ^ / _ ` X.+.6XqXpXqXqXqXpXGXGXGXGXGXGXGXGXGXGXGXGXGXGXGXGXGXGX",
"t.r.q.3.,.&.p t e @ 6 q ! / _ `  ...O.+.5X7X0XwXpXaXjXnXmXNXNXNXNXNXNXmXmXmXmXnXbXfXtXH.i.y.t.t.q.3.-.s B { O.@.#. . . .X...@.+.5X6X0XwXqXsXaXgXjXhXhXhXhXhXhXjXaXsXpXrXqXqXqXwXwX0X6X5X+.@.O. .` _ / 0 q q ^ O.6XwXwXwXqXpXsXsXGXGXGXGXGXGXGXGXGXGXGXGXGXGXGXGX",
"t.r.0.2.-.s d N M q 9 q ! / _ ` `  ...@.+.5X6XwXqXsXgXhXnXmXmXmXmXmXmXmXmXmXnXbXgXsXtXF.i.t.t.q.9.4.7.[ { ` `  . . . . . .X.O.+.5X6X0XwXqXpXsXsXsXsXsXaXaXsXsXpXqXwXwX0X0X6X6X6X7X5X+.+.@.O...X. .' / 0 9 4 ~ ` +.6XwXsXsXsXsXsXGXGXGXGXGXGXGXGXGXGXGXGXGXGXGXGX",
"r.q.9.,.&.d B { ' ^ 0 q ~ / _ ' ` `  .O.+.5X6X0XwXpXsXgXhXnXMXmXmXmXmXnXnXnXhXjXfXiX8XN.i.r.r.0.3.8.M.O...' ^ ^ '  . . . . .O.+.5X5X6X0XwXwXwXwXwXwXwXqXqXwXwX0X6X6X6X5X5X+.+.+.@.O...X.X.X.X. .` ' ^ ~ q q 0 _  .+.0XpXaXaXaXaXaXGXGXGXGXGXGXGXGXGXGXGXGXGXGXGX",
"0.9.2.;.&.d B ( ) / 0 q 0 / ^ _ ' `  ...+.5X5X6XwXqXpXsXjXhXhXnXnXnXnXnXlXhXjXaXiXwXA.N.e.q.0.9.1.7.M.o.X._ / / '  . . .`  .X.O.@.+.+.5X5X6X6X6X6X6X0X0X0X6X6X5X5X5X+.+.@...X.X. . . .` ` ` ` ` ' _ / 0 q 9 q / _ ` ..+.6XqXaXjXgXaXsXGXGXGXGXGXGXGXGXGXGXGXGXGX",
"2.2.<.;.*.d N M ~ 0 q q q ~ / ^ _ `  ...@.+.5X6X6XwXqXsXaXgXjXhXhXhXhXhXjXgXsXpXqX0XA.N.8.9.9.3.1.7.M.o.| ) / / _ ` ` ` ` `  .X.....O.@.+.+.+.5X5X5X5X5X5X5X+.+.@.O...X. . .` ` ' ' ' _ _ _ ' _ ^ / ~ q 9 4 9 q ~ ~ / ^  .5XpXaXgXaXaXaXGXGXGXGXGXGXGXGXGXGXGXGX",
"-.-.;.,.,.=.d b 9 8 9 9 9 q 0 / _ `  .X...@.+.5X6X6XwXqXsXaXaXfXaXaXaXaXsXsXsXqXqX9XA.M.4.2.2.2.1.8.M.O.X.) ~ 0 / ^ _ ' ' ` ` `  . . .X.....O.O.O.@.@.@.O.O...X. .` ` ' _ _ ) ^ ^ / / / / / / / / ~ q 9 5 5 5 4 9 4 5 4 ~  .5XwXsXaXjXjXGXGXGXGXGXGXGXGXGXGXGXGX",
"&.*.;.<.<.:.d 6 8 8 4 8 9 9 q / _ `  . ...O.+.5X5X6X0XwXqXsXsXsXsXsXsXsXpXqXwX0X0X9XA.M.>.;.,.2.1.8.D.5XO._ q 9 q 0 ~ / / ^ ^ ) _ _ ' ' ` ` `  ...@.+.+.+.+.+.@... .` _ / / ~ ~ %.0 0 ~ ~ ~ ~ 0 q q 9 5 2 2 5 9 9 4 .   . q ' O.0XaXhXnXGXGXGXGXGXGXGXGXGXGXGXGX",
"&.*.;.<.<.:.d 6 8 8 8 9 9 q 0 / ' `  ...O.@.+.5X5X6X6X0XwXqXpXpXpXpXpXpXwX0X7X5X6X0X7XM.d &.-.<.3.8.D.8X@.) 8 2 5 9 9 q q q 0 0 0 0 0 ~ ~ / _  .+.6XwXqXpXpXpXwX6X+...` ^ ~ q q q q q q q q q 9 4 5 5 2 . 2 4 ~ ^ ~ 5       2 / +.sXnXmXGXGXGXGXGXGXGXGXGXGXGXGX",
"a a *.,.2.:.d 6 5 5 4 9 0 / ` O.5X0XwXwXwX0X6X5X5X6X6X0XwXqXqXqXqXqXpXqXwX6X5X5XwXsXrXS.B a &.;.1.7.M. .' ! 4 5 5 4 4 5 5 5 5 4 4 4 9 q ~ _  .+.qXgXnXmXmXmXnXnXjXsXwX5XO.` ^ 0 9 4 4 4 4 5 2 2 2 2 2 . . . 4 / '  . .` / 4 . q ..pXhXmXGXGXGXGXGXGXGXGXGXGXGXGX",
"t p a ;.<.:.d b 3 2 5 9 ~ ` O.6XsXjXhXhXgXsXwX6X6X6X6X0XwXqXqXqXqXqXqXqXwX6X5X6XsXnXjXA.B p a &.*.d u b 9 8 4 4 9 9 4 5 2 2 2 4 9 q 0 / ' X.4XqXhXmXVXBXBXVXNXNXmXnXjXsX0X+. ._ 0 9 5 5 2 2 . . . . .     . 2 0 ' @.wXsX0X| q ~ O.qXjXhXGXGXGXGXGXGXGXGXGXGXGXGX",
"e t p a *.;.:.:.>.u 6 8 ! ^ ' ` | ..4X0XqXpXqXwXwX6X6X6X0XwXwXwXwXwXwXwX0X6X5X6XsXhXkXA.B t r p a s s d u @ 3 4 9 0 ~ ~ ~ / ^ '  ...+.5X6X0XwXqXpXsXaXaXaXsXsXpXwXwX0X6X5X+.O. ._ / ~ q q 4 5 2 2 2 . .     . 2 q ` 6XsXsX6X+.+.5XwXqXpXGXGXGXGXGXGXGXGXGXGXGXGX",
"e e t r a &.<.9.1.>.u b M N N b 6 6 M ` O.5XwXqXwX6X5X5X6X0X0X0X0X0X0X0X6X5X5X6XiXgXsXS.N e e e r a &.&.p y + 5 9 / ^ ' `  .O.+.6XwXpXsXqXwX6X5X@.........X. . .` ` `  . . . .` ` _ ^ / U q 9 4 5 2 2 .     . 2 q ^ X.5XwXqXpXqX0X6X5X5XGXGXGXGXGXGXGXGXGXGXGXGX",
"GXGXGXe t r a &.*.:.:.:.:.:.:.:.=.s u b M ` 4X0X0X5X@.@.+.5X6X6X6X6X6X6X5X+.@.+.0XiXwX+._ b y e e r p p t @ + 5 8 0 ^ ` ..+.5X6X6X5X5X@.X.` ^ ~ q q 9 4 4 4 4 5 5 5 5 4 8 9 q q q 0 0 0 0 q 4 5 2 2 .       4 ^  . .' ^ ` @.6X6X5XO.X. .GXGXGXGXGXGXGXGXGXGXGXGX",
"GXGXGXO O O e t p s -.;.,.,.,.;.-.a t # + !  .+.+.@...O.+.5X5X5X5X5X5X+.+.@.O.@.5X6X6X4XX.' M y O e e e y 6 6 9 8 9 0 ^ `  .....X.| _ / 0 9 3 ; ; + X X o o X X X o o X X X . ; 2 5 4 4 4 5 2 2 . . . . 2 4 ^ @.6X+._ q q ` @.@. ._ / / GXGXGXGXGXGXGXGXGXGXGXGX",
"GXGXGX  o # O e e t t r r p p r r e O # . 8 / `  .X...@.+.+.+.+.+.+.+.+.@.O.....@.+.5X5X+.O.' M 3 + + 3 7 ~ ^ / q 2 2 5 9 q q q 9 4 5 5 ; ; : > > > > : - : > > > : - - : - ; + X X . . . .         . 5 ~ ` @.0XqX5X` ~ 0 _  .` / q 5 2 GXGXGXGXGXGXGXGXGXGXGXGX",
"GXGXGX    o # # O O O O O O O O O # # + 2 q / ' `  .X.O.@.@.@.O.O.........X.X.X.X.....O.O...` ^ ! q q 0 ~ ^ _ ^ ~ 9 4 3 3 ; ; ; ; ; ; ; > f g g g g g g g g g g g g g g > > : - + X X X X X X X X + 5 q ^  .5XwXsX0X..^ / ^ ' ^ q 5 2 . GXGXGXGXGXGXGXGXGXGXGXGX",
"GXGXGX      . + 3 3 3 3 3 3 + + + + 2 4 q ~ ^ ' ` |  . .X.X.X. . . . . . . . . .` ` ` ' ' _ ' ' ' ' _ _ _ ^ ^ ^ ^ / U n f f f g g f f g m Y Y Y P P Y Y Y Y Y P P P P m g f > > : : : : : - - ; ; 9 q ~ ^ ` +.wXsXqX+. .' _ ^ / q 4 5 2 GXGXGXGXGXGXGXGXGXGXGXGX",
"GXGXGX        . . . 1 1 1 1 1 1 1 2 5 9 q 0 ~ / ^ _ ' ' ` ` ` ` ` ` ` ` ` ` ` ` ' _ ) ^ / / / / / / / / ~ ~ ~ ~ ~ ~ U n m g g g h Y T R T T T x.z.z.x.R T R R x.R Y P m g g f > > : > > > : : : ; 4 9 q / ' O.6XpXsXwX5XO.` / ~ / ^ ^ _ GXGXGXGXGXGXGXGXGXGXGXGX",
"GXGXGX              . . 2 4 9 q 0 0 0 q q q q q q ~ / / / ^ ^ ^ ^ ^ ^ ^ ^ ^ ^ ^ / / / / ~ ~ ~ / / / ^ ^ _ ' ` ' _ ^ / I P Y P P Y R v.v.v.x.x.v.C.G.V.z.T x.v.V.v.R P m m m n f > > > > > > : : ; ; 2 4 q /  .+.0XpXsXpX6X ./ / _  .X...GXGXGXGXGXGXGXGXGXGXGXGX",
"GXGXGXGXGX            2 ~  .@.5X6X5X..' ~ q 4 4 4 q 0 0 ~ ~ ~ ~ ~ ~ ~ ~ ~ ~ ~ ~ 0 q q 4 4 q ' +.wXsXsXsXaXjXjXaXiX0XS.B.E T T Y R v.C.C.V.z.z.V.OXOXC.v.x.z.v.V.v.R Y P P P m g f > > f > > : - + X . 2 4 q ^  .@.5XwXwX6X.._ / _ ` ` ` GXGXGXGXGXGXGXGXGXGXGXGX",
"GXGXGXGXGXGXGX      . 9 ' +.wXsXaXsX0X@.` ~ 4 2 2 5 9 q q q q q q q q q q q q q 9 4 4 9 q _ +.sXmXVXVXBXZXZXZXBXCXhXyXXXB.x.R R x.V.C.G.C.v.z.V.OXOXC.V.z.z.V.C.v.x.Y P P Y P h f f f f > > : - + o   . 2 5 q / ` X.@.+.+.X.` _ ^ ^ / / GXGXGXGXGXGXGXGXGXGXGXGX",
"GXGXGXGXGXGXGXGXGXq 0 / ` ..+.6XwXqXpXwX6X .q . . 2 5 4 4 9 9 9 9 9 9 9 9 4 4 5 2 ; 4 _ +.wXaXhXnXmXmXmXmXmXmXMXnXhXyXXXZ.v.c.x.z.V.G.G.C.v.z.V.G.OXC.V.z.v.V.C.V.x.Y Y Y Y Y h f f f f f > : - + o       . 2 q ~ / _ ` ` ` ` ` ^ / 0 0 GXGXGXGXGXGXGXGXGXGXGXGX",
"GXGXGXGXGXGXGXGXGX/ / ^ _ `  .O.5X6XwXpXwX@.^ 9 2 2 2 2 2 5 5 2 2 2 2 2 2 2 2 .   X 4 ` 6XgXhXhXhXhXhXhXhXhXjXgXfXsXrXXXZ.v.z.x.z.V.G.G.C.v.z.V.G.OXC.V.z.v.C.C.V.z.Y Y Y Y Y h f f f f f > : - + X         . 2 4 q q ~ / _ ' _ / 0 q q GXGXGXGXGXGXGXGXGXGXGXGX",
"GXGXGXGXGXGXGXGXGXq q q 0 / ^ ` X.@.5X6X6X+.X.' ~ 4 2 . 2 2 2 2 2 2 2 2 2 2 2 . . . 4 _ 5XqXsXaXsXaXaXaXaXsXsXpXqX0X.XD.V.v.z.x.z.V.G.G.C.v.z.V.G.OXC.V.z.v.V.C.V.x.Y Y Y Y Y h f > f f f > : - - GXGXGX      . . 2 4 q 0 ~ / ~ q q 9 4 GXGXGXGXGXGXGXGXGXGXGXGX",
"GXGXGXGXGXGXGXGXGX2 2 2 5 9 q ~ / _ `  .X...X.| _ ~ q 9 q ~ ^ ` ..@.+.+.+.O. .' / 0 0 ^  .@.5X6X0XwXwXwXwXwXwX6X7X+.S.B.B.z.x.R x.v.C.G.V.z.x.v.C.OXC.v.x.z.v.V.v.R Y P P P m g f f f f f > : - - GXGXGXGX        . 2 5 4 9 q q 9 4 5 5 GXGXGXGXGXGXGXGXGXGXGXGX",
"GXGXGXGXGXGXGXGXGX    . . 2 2 5 4 q 0 / ^ _ ' ' ' ^ / ^ '  .+.qXhXmXVXBXNXnXaXwX+. .' ^ / ^ ` X.@.+.+.5X5X5X+.+.O...} { E R T T R v.V.C.v.x.x.v.V.C.V.z.x.x.v.v.z.T P h h h g g f > f f > > : - - GXGXGXGXGXGX      . . 2 2 4 4 5 5 2 2 GXGXGXGXGXGXGXGXGXGXGXGX",
"GXGXGXGXGXGXGXGXGXGXGX  . . . 2 2 5 9 q ~ / ^ ^ ^ / / _ | @.9XsXnXNXDXZXBXCXhXpXeX+.X.' / / / _ `  . .X.X.X. . .` ` _ ( I I Y T R x.x.x.z.z.z.z.z.z.z.v.v.z.R R Y Y P h g f > > > > > > : : - - - GXGXGXGXGXGX          . . 2 2 2 2 . 1 GXGXGXGXGXGXGXGXGXGXGXGX",
"GXGXGXGXGXGXGXGXGXGXGXGX. . . . 2 5 4 q q 0 ~ ~ ~ ~ / ( } S.8XrXgXnXmXCXMXFXuXuX7X2XO. ._ / ~ ~ ~ / ^ _ ' ' _ ^ / / ~ q q M I E R T Y Y R v.v.x.T T R z.v.x.Y h h h P h g > : : : : - - - - - - - GXGXGXGXGXGX              . . . . . GXGXGXGXGXGXGXGXGXGXGXGXGX",
"GXGXGXGXGXGXGXGXGXGXGXGX      . . 2 2 4 9 q q q q 0 M B 8.u.F.H.rXsXfXfXuX2X3X3X3X2X.. .' / 0 9 4 4 q q 0 0 0 0 q 9 4 4 5 6 n P Y Y h P T x.x.T Y h P T T Y h g g g g g > : : : : : - - - - - - - GXGXGXGXGXGXGXGXGX              GXGXGXGXGXGXGXGXGXGXGXGXGXGXGX",
"GXGXGXGXGXGXGXGXGXGXGXGXGX      . . 2 2 5 5 5 5 4 8 M d 1.q.e.N.A.7X9X6X2X3X3X3X3X$. . .' / 0 9 5 5 5 5 4 4 4 4 2 2 1 1 2 5 7 I I I I { } B.B.B.B.} } B.B.} { ] ] I I I I U n n n 7 7 7 > : - - - GXGXGXGXGXGXGXGXGXGX          GXGXGXGXGXGXGXGXGXGXGXGXGXGXGXGX",
"GXGXGXGXGXGXGXGXGXGXGXGXGXGXGX      . . . . . . 2 4 6 u =.;.>.6.{  .X...X.$.$.$.$.' ` ' ) / ~ q q 4 5 2 2 5 5 2 2 . . . 2 4 0 ( ` ..+.eXrXkXcXmXCXCXCXnXlXdXpXwXeX6X7XS.@...X. .` ' _ ) / q > - - GXGXGXGXGXGXGXGXGXGXGXGXGXGXGXGXGXGXGXGXGXGXGXGXGXGXGXGXGXGXGX",
"GXGXGXGXGXGXGXGXGXGXGXGXGXGXGXGX                . 2 5 6 u d u N M / ^ / / / U U U ! ~ %.0 q q 9 4 5 5 4 q / _ _ ^ ~ M N d d 7.6.J.{ o.+.6XiXaXzXxXxXxXxXxXxX8X5X4X4X+.@.O.X. .| ` ` ' ' ^ U 7 6 > GXGXGXGXGXGXGXGXGXGXGXGXGXGXGXGXGXGXGXGXGXGXGXGXGXGXGXGXGXGXGX",
"GXGXGXGXGXGXGXGXGXGXGXGXGXGXGXGX        .       . 2 2 8 q M M M 0 ! ~ ~ ~ 0 q q q 9 q q q q 9 4 5 5 8 q ' @.6X9X4XO.M.8.w.r.q.9.1.7.[ _ | X.o.M.u.y.y.y.y.e.6.( ) ) _ _ _ _ _ ) _ _ _ _ _ ^ / / / GXGXGXGXGXGXGXGXGXGXGXGXGXGXGXGXGXGXGXGXGXGXGXGXGXGXGXGXGXGXGX",
"GXGXGXGXGXGXGXGXGXGXGXGXGXGX. 2 4 9 0 ~ / ~ q q q ~ ^ ` X.@.+.5X5X6X6X0X0X0X6X6X5X5X+.+.O...X. .` ' ^ _ X.6XpXiX9X5XB.u.y.t.q.9.1.7.{ X.#.+.S.M.4.9.0.r.t.q.e.4.7.B ( _ `  . ...O.+.+.+.+.+.O.....O.@.GXGXGXGXGXGXGXGXGXGXGXGXGXGXGXGXGXGXGXGXGXGXGXGXGXGXGXGXGX",
"GXGXGXGXGXGXGXGXGXGXGXGXGX  . 5 q / ` X... .' _ ' | ..5XwXsXjXhXnXmXVXZXZXBXVXNXmXnXhXjXsXpXqXwX6X+. .` ..7XwXqX8XS.N.8.w.0.3.,.>.M.S.0XiXiXrXD.7.;.<.9.q.r.t.t.e.6.{ | ..@.+.6XwXiXsXsXsXsXqXwX6X5X+.+.GXGXGXGXGXGXGXGXGXGXGXGXGXGXGXGXGXGXGXGXGXGXGXGXGXGXGXGX",
"GXGXGXGXGXGXGXGXGXGXGXGX    . 2 q ~ _ `  .` ^ / ^ ` O.5XwXsXjXhXnXNXVXZXZXBXVXNXmXbXjXgXsXqXwX6X+...` _ | O.5XA.N.u.e.e.9.3.,.*.>.M.8XaXbXnXkXA.6.a &.,.3.0.t.t.e.M.o.#.#.@.2X6XwXpXaXhXnXnXnXnXgXqX0X0XwXqXGXGXGXGXGXGXGXGXGXGXGXGXGXGXGXGXGXGXGXGXGXGXGXGXGXGX",
"GXGXGXGXGXGXGXGXGXGXGXGX    . 2 4 q ~ ^ _ / q 9 ! )  .O.+.6XwXpXaXjXnXnXnXnXhXgXsXiXwX0X6X5X+... .' / ~ ^ ` X.M.8.w.r.0.3.,.=.d B B.rXjXMXmXlXtXM.B d =.;.2.0.q.e.8.M.B.o.@.+.4X6XwXsXgXbXmXNXNXnXjXsXpXqXqXqXGXGXGXGXGXGXGXGXGXGXGXGXGXGXGXGXGXGXGXGXGXGXGXGXGX",
"GXGXGXGXGXGXGXGXGXGXGXGX      . 2 4 q 0 M q 4 5 8 q ~ ^ ` X.O.+..X6X0XwXwXwX6X5X+.O.X. . .` ' ^ / q 9 4 9 ! ( B 4.9.9.3.;.=.B B { @.eXpXfXjXjXfXrXA.M.B a &.,.3.9.w.e.8.N.S.+.+.+.5X6XwXpXfXhXbXnXhXjXsXwX0XwXiXsXaXGXGXGXGXGXGXGXGXGXGXGXGXGXGXGXGXGXGXGXGXGXGX",
"GXGXGXGXGXGXGXGXGXGXGXGX      . . 2 5 4 4 5 2 . . 2 5 9 q ~ / ^ _ `  . . . .` ` _ / ~ 0 q q 9 4 5 2 2 2 2 8 q N >.1.2.;.&.d B ( | #.4X6X0XwXqXiXqXeXo.B u p s -.<.9.0.e.8.N.N.N.N.N.N.N.D.D.rXpXsXfXfXsXwX9X9XwXwXqXsXGXGXGXGXGXGXGXGXGXGXGXGXGXGXGXGXGXGXGXGXGX",
"GXGXGXGXGXGXGXGXGXGXGXGX. . . 2 2 5 5 4 5 2 .       . . 2 5 4 9 q q 0 ~ ~ ~ ~ 0 q 9 4 5 2 2 . . . . . . 1 2 3 y d :.-.&.a p N M ) ` X.O.O.@.@.O.#.X.` ^ M b u p a &.;.<.9.w.w.y.r.y.y.y.i.N.B.A.7X0XwXwX0XeX7X+.+.6XpXjXnXGXGXGXGXGXGXGXGXGXGXGXGXGXGXGXGXGXGXGX",
"GXGXGXGXGXGXGXGXGXGXGXGXGX/ / '  .....X. .^ 9 2 2 2 4 q ~ / ' ` X.O.+.+.+.+.@... .` ' ^ / 0 9 2 . . . . . 1 3 @ t s a a p t y M ! ^ ^ _ _ _ _ _ ^ / / ! 0 q 6 y e r a &.-.<.2.9.9.0.q.q.q.e.8.8.N.N.F.F.F.F.N.}  .O.6XqXsXGXGXGXGXGXGXGXGXGXGXGXGXGXGXGXGXGXGXGX",
"GXGXGXGXGXGXGXGXGXGXGXGX..@.5XwXaXhXhXjXpX+._ q 9 0 / ` ..+.6XqXaXhXmXNXNXnXhXsXpXwX6X+.O. .^ q 5 2 . . 2 5 4 6 u p p r t e @ 6 8 9 q q q q q 0 ! ~ M 0 0 q q q 6 y t t r p a a &.-.;.<.2.3.9.9.0.q.r.t.t.r.4.6.[ ` ..+.4XGXGXGXGXGXGXGXGXGXGXGXGXGXGXGXGXGXGXGX",
"GXGXGXGXGXGXGXGXGXGXq ^ X.5XwXjXmXNXNXnXgX6X| ~ 0 ~ ^  .+.wXsXhXmXNXZXAXZXNXhXaXqX6X+.O. .' / 9 2 2 2 5 q ~ / M u t t e e e @ + 2 5 5 4 9 q 0 / _ ` `  . . .` ` _ ( M N b y y e r p p a a &.&.-.;.;.,.<.2.3.2.4.>.B [ `  .O.5XGXGXGXGXGXGXGXGXGXGXGXGXGXGXGXGXGX",
"GXGXGXGXGXGXGXGXGX9 q / ` +.wXgXnXmXmXhXsX5X` / q 0 / ` @.0XsXhXnXNXBXZXVXnXgXwX6X@. .' / ~ q 4 5 4 q / ' X.O.o.[ B u t e O # + . 1 2 4 q ~ ^ ` X.O.+.5X5X5X5X5X+.+.O. ._ ~ q @ e e e e e t t t t r p p a &.*.;.;.>.B M ) X.+.5X.XGXGXGXGXGXGXGXGXGXGXGXGXGXGXGX",
"GXGXGXGXGXGXGXGXGX9 q ~ _  .+.0XpXsXpXwX5XX.^ q 4 4 q / ` @.6XqXsXjXnXnXhXaXwX5XO. ._ ~ q 9 4 9 q / ` @.6XwXsXaXdXrXA.[ i O # X . 2 5 9 ~ _ ` X.@.4X5X6X0XwXiXpXsXsXsXwX5X#.` ~ 6 @ + + + + @ @ @ e e e t t r p p t y 6 0 / '  .W.R.!.GXGXGXGXGXGXGXGXGXGXGXGXGX",
"GXGXGXGXGXGXGXGXGX9 9 q ~ ) ` ..+.+.+.#. .) 0 4 2 2 2 9 / '  .@.5X0XwXqXwX6X+.X.` / 0 9 4 5 4 q ~ ' ..5XwXsXjXnXmXmXdXA.[ N @ @ + + 5 9 ~ _ ` X.@.+.5X6X0XqXsXaXjXhXhXjXsX0X+. .^ q 4 2 1 1 2 2 + @ O O O O O e e @ + 3 w F ] K W.R.!.^.GXGXGXGXGXGXGXGXGXGXGXGX",
"GXGXGXGXGXGXGXGXGX5 5 4 9 q ~ / _ ' _ / ~ q 9 5 2 . . 2 4 q ~ ^ `  ...O.O.X.` _ ~ q 4 5 4 4 q 0 / ^ ` X.+.6XwXsXaXgXfXaXrXA.[ u O # + 5 9 %.^ `  .#.+.+.5X9XwXpXsXgXjXjXaXsXwX5X..' ~ 8 2 2 2 2 3 3 3 3 3 3 3 3 3 3 < 2 w H L.U.T.R.Q.Q.!.!.GXGXGXGXGXGXGXGXGXGX",
"GXGXGXGXGXGXGXGXGX1 1 1 2 5 5 8 8 8 8 4 5 5 2 1 . . . . . 2 5 9 q ~ / _ ^ / ~ q 4 2 2 5 q q q 0 0 / ^ '  .O.4X6X6XwXqXsXsXqXS.[ N b 3 2 2 8 q / ^ `  .X.O.+.5X6X0XwXpXsXsXpXwX6X5X..` ~ 9 5 2 2 2 2 2 2 5 5 5 2 2 2 w F S K P.E.T.R.R.R.Q.Q.!.~.GXGXGXGXGXGXGXGX",
"GXGXGXGXGXGXGXGXGX+ + + ; ; ; 2 ; ; ; ; ; ; + . . X     . . 2 2 5 9 q q q 9 5 2 2 . 2 9 0 / ~ q 9 q 0 / _ `  .X.O.@.+.5X6X6X6X5X#.) 9 2 . 2 5 9 q 0 / _ ` `  ...@.+.5X6X6X0X0X6X6X+.X.' ~ q 5 2 . . . . . . . . % w F H K L.P.E.E.T.T.T.T.R.Q.^.~./.GXGXGXGXGXGX",
"GXGXGXGXGXGXGXGXGXj j h L T W W W W R L L h h j > + . . 1 5 4 q 0 ~ ~ ~ q 9 5 2 2 2 2 q / ^ ~ 9 5 5 8 9 0 ! ^ ^ _ ' ` `  .X...#.X.' ~ q 5 2 2 2 5 4 q 0 / ^ _ ' ` X.O.@.+.+.+.5X+.@. .' / q 4 2 2 . . X     % % & S J L.P.P.P.P.L.L.L.L.L.P.T.Q.^.~././.GXGXGXGX",
"GXGXGXGXGXGXGXGXGX5.p.a.j.).{.}.+X+X{._.).j.a.p.v j ; 3 4 q %./ _ ' _ ^ / q 4 2 2 2 4 0 ^ _ ^ q 5 5 3 6 7 7 M M q q q 0 %.~ / / ^ ^ ^ / q 5 2 . 2 2 5 4 q q 0 / / ' `  . . . . . . .' ^ ~ q 4 2 2 . .     . * Z H K.P.T.T.E.P.L.K.J H H H J L.E.R.^././.(.GXGXGX",
"GXGXGXGXGXGXGXGXGX5.p.s.n.{.+X&X-X-X&X*X+X].k.a.p.v v h n q ~ ^ ' ` ' ) / 0 9 5 2 2 4 ~ '  .' / M n h v v L L P n 3 1 2 5 4 4 8 8 9 q q q 9 4 2 1 . . 2 2 2 5 4 q q 0 ~ / / / / / ~ 0 9 9 5 2 . .     . % C S K P.T.R.Q.Q.R.E.P.K.J S Z C C S K P.R.^././.GXGXGX",
"GXGXGXGXGXGXGXGXGX5.p.a.k.[.+X&X-X;X;X=X*X|.).j.s.a.p.v m 7 0 / _ ` ` ' ^ ~ q 9 4 5 q ^ X.@.O... .{ c.a.s.j.g.f.L g 7 7 7 7 > > > > 6 7 M / / ! 9 5 2 . . . . 2 2 2 5 4 4 4 4 4 5 5 5 5 2 % % % . X % * C S J L.E.R.^.~.~.^.R.E.L.H Z & = = & S K U.Q.~./.GXGXGX",
"GXGXGXGXGXGXGXGXGX5.p.a.g.n._.{.+X$X*X$X+X}.[.).k.d.p.v f 3 4 0 / ' ` ` ` _ / 0 9 q ~  .5XwXqXwXeX.Xm.k.k.).).).).).b.b.b.d.f.L v v k v E o.O.#.| ^ q 2     . . . . . . 2 2 1 1 . % % % % = = * * & C Z G H K L.E.R.Q.~.~.~.Q.T.L.J Z & = = * C G P.R.~./.GXGXGX",
"GXGXGXGXGXGXGXGXGXGXp.p.a.g.k.).{.}.+X+X+X}.{.].).j.a.v j > > 7 M / '  . .` _ ^ / / _ @.wXaXyXtX.XoX`.).].{.|.}.}.}.|.[._.l.j.a.5.x x v B..XrXwX5XO.` 0 5 . . . X X X X % % % % % % % * * * * * & C Z Z G J K L.P.T.Q.^.~.~.Q.R.P.K G C * * V Z H P.R.~./.(.GXGX",
"GXGXGXGXGXGXGXGXGXGXGXGXp.p.a.j.).{.|.}.+X}.{.].).j.d.p.c k j f 7 %.)  .X. .` ' _ _  .7XaXkXtXV.c.g.n.].|.$X&X&X&X&X$X}.{.).j.a.5.x l L B.yXnXhXpX6XO.` / 9 2 .   o $ $ = = * & & & V V V & * * * & C Z S G J K.P.U.T.R.Q.Q.Q.R.U.L.J S C C Z H K.U.R.!./.(.(.(.",
"GXGXGXGXGXGXGXGXGXGXGXGXGXx p.a.j.)._.{.{.{.{.].).n.j.d.p.x k j 3 8 ~ '  . . . .`  .O.0XgXlXtXv.d.j.).{.$X&X=X;X=X&X&X$X}.[.n.d.p.x l f.D.zXNXmXgXwX5XX.' / q 4 2 % = = & V C C Z Z Z Z Z C & * * * & C Z S H J K.L.U.T.R.R.R.T.U.L.J A , , A H K.U.R.!.~./.(.(.",
"GXGXGXGXGXGXGXGXGXGXGXGXz l x 5.a.g.n.).].[.[.]._.).k.j.s.p.v j ; 5 q / _ ` `  ...@.5XiXjXlXtXZ.j.k.].+X&X-X:X:X;X=X&X*X+X{.).j.a.5.x f.D.lXBXNXjXqX5X..` _ / ~ q w * * V C Z Z S G G G S Z C V & * * V C Z S H J K L.P.E.E.T.E.P.L.H f i i g J P.E.T.Q.^././.(.",
"GXGXGXGXGXGXGXGXGXGXGXGXz z l x p.a.j.k.)._.].]._.).l.j.s.p.c k j j b q ! / _  .5XpXjXbXbXkXtX`.n.).|.*X=X;X>X>X:X;X=X*X}.[.).j.a.5.x f.D.cXZXVXhXqX5XO.` _ / ~ 9 5 % % * & C Z G H H H H G S Z Z C C C Z Z Z Z S H J K.L.P.P.P.K.J A : e u R oX1X1XT.U.T.Q.~./.",
"GXGXGXGXGXGXGXGXGXGXGXGXGXz l x 5.p.a.j.k.)._._._.).k.j.d.p.5.x l k j 6 8 9 ~ ` 9XhXNXMXkXtXXX`.).[.+X&X;X:X>X>X>X:X=X$X{.).k.g.a.5.x f.XXcXZXVXjXwX5X..` ^ / q 9 2 . . % * & C Z S G H H H H G G Z Z Z Z Z Z Z Z S G H K K.L.K.J Z C - O j b.%X,X%X'.Y.I.T.R.Q.",
"GXGXGXGXGXGXGXGXGXGXGXGXGXGXGXl l x p.d.j.k.l.).).).k.k.j.d.p.5.l k y ; 2 5 q ' 6XhXMXyXZ.v.b.)._.|.$X&X;X:X>X>X:X=X&X+X{.).j.d.p.x l f.XXcXBXNXgXwX+.X.` ^ ~ q 4 2 . . . GXGX= * & C Z S G H J H H H H H H G G S G G G J K K.K H Z C = $ , b.@X=X&X%X'.'.Y.L.K.",
"GXGXGXGXGXGXGXGXGXGXGXGXGXGXGXGXz l x p.a.d.j.k.k.k.k.j.j.d.a.5.x k i > ; 3 8 ^ 4XfXlXXXv.a.h.).{.+X*X&X;X:X>X:X;X&X$X}.[.).j.a.5.l l f.D.lXVXmXaX6X+.X.` ^ ~ q 4 2 . . GXGXGXGX$ = * C Z Z S G G H H H J J J H H G G G H J K J H Z Z & = , W `.+X$X|._.'.Q G D ",
"GXGXGXGXGXGXGXGXGXGXGXGXGXGXGXGXz l l l x p.a.d.j.g.d.d.d.d.a.5.x z z k j j 6 / @.iXdXXXv.g.k.].+X$X&X&X-X:X:X;X&X$X}.[.).k.d.p.5.l l f.D.zXNXMXsX6X@. .` ^ ~ q 4 2 . . GXGXGXGXGXGXGXGXGXV & V C Z Z G H J J J J H G G G H J J H G Z V * , Q b.).).l.g.L A & & ",
"GXGXGXGXGXGXGXGXGXGXGXGXGXGXGXGXGXz z z l x 5.p.f.a.a.a.a.a.p.5.l l l l k j ; q | 6XrXXXm.n.).{.$X&X=X;X;X;X;X=X&X+X{._.k.g.a.p.x z z v D.zXCXbXpX5XO. .' / 0 9 5 2 .   GXGXGXGXGXGXGXGXGXGXGX= * C Z Z Z Z S S S S S S G G G G G G Z C V & A Q L f.f.f.L g * = ",
"GXGXGXGXGXGXGXGXGXGXGXGXGXGXGXGXGXGXGXz z l l l x 5.p.p.p.p.5.x l l l z k j ; 9 _ @..XXXm.).[.+X&X;X:X:X:X;X=X&X*X+X{.).j.a.p.x l z c c.D.zXMXhXqX5X..` _ ~ q 5 2 .     GXGXGXGXGXGXGXGXGXGXGXGXGXGXGXGX* * & V C C Z Z Z Z Z Z Z Z Z C C & * = - j v p.p.GXGXGX",
"GXGXGXGXGXGXGXGXGXGXGXGXGXGXGXGXGXGXGXz z z z z l x x x x x x l l z z z v E } @.@.@.S.oX`.[.}.&X;X:X>X>X>X:X;X=X&X$X{.n.d.p.x l v z.D.tXzXlXcXaX0X+. .' / 0 9 5 2 .   GXGXGXGXGXGXGXGXGXGXGXGXGXGXGXGXGXGXGXGXGXGX& & & & & & & & V & & * = $ $ $ - j GXGXGXGXGX",
"GXGXGXGXGXGXGXGXGXGXGXGXGXGXGXGXGXGXGXz z z z z z z z z l z z z z l c v x.D.yXsX9X@.o.B.`.{.+X=X:X>X>X>X>X>X>X;X&X+X[.k.a.x l l c.XXcXZXBXmXjXqX5X..` ^ ~ q 4 5 2 GXGXGXGXGXGXGXGXGXGXGXGXGXGXGXGXGXGXGXGXGXGXGXGXGX$ $ $ $ $ $ = = = = $ $ $ $ $ $ GXGXGXGXGXGX",
"GXGXGXGXGXGXGXGXGXGXGXGXGXGXGXGXGXGXGXGXGXz z z z z z z z z z z z v B.XXtXwXeX5X@. .` } b._.|.&X;X:X>X>X>X:X;X&X+X[.n.d.5.l z z c.XXcXDXVXhXsX6XO.` _ / 0 9 5 2 . GXGXGXGXGXGXGXGXGXGXGXGXGXGXGXGXGXGXGXGXGXGXGXGXGXGXGXGXGXGXGXGXGXGXGXGXGXGXGXGXGXGXGXGXGXGXGX",
"GXGXGXGXGXGXGXGXGXGXGXGXGXGXGXGXGXGXGXGXGXGXx.c.c.c.c.c.c.c.c.T T M..XrXiX6X@. ._ ^ ( E z.n._.|.$X&X=X=X=X&X$X}._.k.d.p.x z z z c.D.lXNXMXaX0X+. .' / ~ q 4 2 . . GXGXGXGXGXGXGXGXGXGXGXGXGXGXGXGXGXGXGXGXGXGXGXGXGXGXGXGXGXGXGXGXGXGXGXGXGXGXGXGXGXGXGXGXGXGXGX",
"GXGXGXGXGXGXGXGXGXGXGXGXGXGXGXGXGXGXGXX.O..X8XyXdXzXzXzXzXdXyXtX.XS.S.@...X.` ' ^ 0 M m L a.j.l._.[.{.|.{.[._.l.j.a.p.x l z z z f.D.dXnXjXqX5X..` ^ ~ q 9 5 2 . . GXGXGXGXGXGXGXGXGXGXGXGXGXGXGXGXGXGXGXGXGXGXGXGXGXGXGXGXGXGXGXGXGXGXGXGXGXGXGXGXGXGXGXGXGXGXGX",
"GXGXGXGXGXGXGXGXGXGXGXGXGXGXGXGXGXGX/ _ ` #.7XwXpXsXsXsXpXiX0X7X+.#. .' _ ' ` _ ~ 9 6 j v 5.p.a.j.j.k.l.k.j.h.a.p.5.x l l c v x.B.tXdXjXsX6X@. .' / 0 q 4 2 2 . GXGXGXGXGXGXGXGXGXGXGXGXGXGXGXGXGXGXGXGXGXGXGXGXGXGXGXGXGXGXGXGXGXGXGXGXGXGXGXGXGXGXGXGXGXGXGXGX",
"GXGXGXGXGXGXGXGXGXGXGXGXGXGXGXGX9 9 q 0 / ^ ' ` ` ` ' _ _ ^ / ~ 0 0 ~ / ^ ' ` ' ~ 9 3 j k c x p.a.d.d.g.d.d.a.p.x x l z l T B.tXpXaXaXpX0X+.X.` _ / q 4 2 2 GXGXGXGXGXGXGXGXGXGXGXGXGXGXGXGXGXGXGXGXGXGXGXGXGXGXGXGXGXGXGXGXGXGXGXGXGXGXGXGXGXGXGXGXGXGXGXGXGXGX",
"GXGXGXGXGXGXGXGXGXGXGXGXGXGX~ ^ `  .O.+.5X6X6X6X6X5X@. .' / q 9 4 4 9 q ~ / _ _ / 0 q n m m T z.B.Z.XXXXXXXXD.B.B.M.[ [ M.B.S.6X9X9X6X5X@.X.` _ / 0 9 5 2 . GXGXGXGXGXGXGXGXGXGXGXGXGXGXGXGXGXGXGXGXGXGXGXGXGXGXGXGXGXGXGXGXGXGXGXGXGXGXGXGXGXGXGXGXGXGXGXGXGXGX",
"GXGXGXGXGXGXGXGXGXGXGXGX9 q / ` +.wXaXnXmXNXNXmXnXhXaXwX+. ._ ~ q 9 4 8 9 q 0 ~ / / / ~ ~ ^  .S.qXfXcXmXMXcXgXpXwX7X.X.X.X+.O.X. .` ` ` ' _ / / 0 q 4 2 . . GXGXGXGXGXGXGXGXGXGXGXGXGXGXGXGXGXGXGXGXGXGXGXGXGXGXGXGXGXGXGXGXGXGXGXGXGXGXGXGXGXGXGXGXGXGXGXGXGXGX",
"GXGXGXGXGXGXGXGXGXGX2 4 q / _ ` O.5X0XqXsXsXsXpXpXpXqXwX0X6X@. .^ 0 9 5 5 5 4 9 q 0 0 0 ! ^ ` O.5X0XqXiXqX9X5X@... .| ` ` ` ` ` ' / 0 q q q 9 4 5 2 2 2 GXGXGXGXGXGXGXGXGXGXGXGXGXGXGXGXGXGXGXGXGXGXGXGXGXGXGXGXGXGXGXGXGXGXGXGXGXGXGXGXGXGXGXGXGXGXGXGXGXGXGXGX",
"GXGXGXGXGXGXGXGXGX9 q 0 ^ ` ..O.+.+.5X6X6X5X+.@.@.@.@.+.5X6X5X..` / q 4 2 2 2 2 4 q 0 / '  ...+.6X6X0X6X5X@.X.` _ / ~ q 9 q ~ / / q 4 2 2 2 1 . . . . GXGXGXGXGXGXGXGXGXGXGXGXGXGXGXGXGXGXGXGXGXGXGXGXGXGXGXGXGXGXGXGXGXGXGXGXGXGXGXGXGXGXGXGXGXGXGXGXGXGXGXGXGX",
"GXGXGXGXGXGXGX0 / _ ` ..+.0XpXaXgXjXhXjXsXwX5X@. ._ / / ^ _ ' _ _ / 0 9 5 2 2 5 9 0 _ O.0XsXhXnXmXCXmXnXhXaXwX5X..' ^ 0 9 4 4 5 5 4 4 5 2 .           GXGXGXGXGXGXGXGXGXGXGXGXGXGXGXGXGXGXGXGXGXGXGXGXGXGXGXGXGXGXGXGXGXGXGXGXGXGXGXGXGXGXGXGXGXGXGXGXGXGXGXGXGX",
"GXGXGXGXGXGXq q ~ _  .@.6XwXsXgXhXhXjXsXqX0X5XO.` ^ 0 q 9 9 q q 0 0 q 9 5 2 2 5 q / ` 5XsXnXNXBXZXAXAXZXVXmXhXsXeX@. .^ 0 9 2 ; . 2 2 2 2 .         GXGXGXGXGXGXGXGXGXGXGXGXGXGXGXGXGXGXGXGXGXGXGXGXGXGXGXGXGXGXGXGXGXGXGXGXGXGXGXGXGXGXGXGXGXGXGXGXGXGXGXGXGXGX",
"GXGXGXGXGXGX4 9 q 0 / ` X.+.5X6X6X6X+... . . . . . .` / q 4 5 5 4 4 5 5 5 2 2 4 q / ` O.6XpXgXnXmXNXNXNXNXmXnXhXaXqX7X.._ 0 9 5 2 . . . . . . . GXGXGXGXGXGXGXGXGXGXGXGXGXGXGXGXGXGXGXGXGXGXGXGXGXGXGXGXGXGXGXGXGXGXGXGXGXGXGXGXGXGXGXGXGXGXGXGXGXGXGXGXGXGXGXGX",
"GXGXGXGXGX~ ~ / _ ` ..+.5X0XwXwXwX6X+. .' ^ / / ^ _ _ / q 4 2 2 . . 2 2 2 2 2 5 9 0 _  .+.0XpXgXhXhXhXgXaXaXsXsXsXpX0X+. .' / ~ q 4 2 1 . .     GXGXGXGXGXGXGXGXGXGXGXGXGXGXGXGXGXGXGXGXGXGXGXGXGXGXGXGXGXGXGXGXGXGXGXGXGXGXGXGXGXGXGXGXGXGXGXGXGXGXGXGXGXGXGXGX",
"GXGXGX~ / ^ '  .@.6XpXgXhXhXhXjXsXqX6X+. ._ 0 9 9 q q q q 4 2 .       . . . . 2 4 0 _ X.5XwXsXgXjXaXpXwX6X5X5X5X5X6X5X2X@... .` ^ / q 9 2 .     GXGXGXGXGXGXGXGXGXGXGXGXGXGXGXGXGXGXGXGXGXGXGXGXGXGXGXGXGXGXGXGXGXGXGXGXGXGXGXGXGXGXGXGXGXGXGXGXGXGXGXGXGXGXGXGX",
"GXGXGX_ _ _ ' ` X.+.6XwXwXwX0X6X5X5X+.@...` ^ ~ q 9 4 4 4 5 2 2 .       . . 2 4 ~ ' O.6XaXnXmXNXNXmXnXhXsX6X+.O.O.....O.O... .` ' / ~ q 4 2 2 2 GXGXGXGXGXGXGXGXGXGXGXGXGXGXGXGXGXGXGXGXGXGXGXGXGXGXGXGXGXGXGXGXGXGXGXGXGXGXGXGXGXGXGXGXGXGXGXGXGXGXGXGXGXGXGXGX",
"GXGXGX' ' ' ' `  .O.+.+.+... .` ` ' `  . . .` _ ~ 9 5 2 2 2 2 2 . .     . . 5 q _ ..6XsXmXBXAXAXAXAXAXZXmXaX0X+.X.` ` ` ` ` ` ' ^ / 0 q 9 9 4 4 GXGXGXGXGXGXGXGXGXGXGXGXGXGXGXGXGXGXGXGXGXGXGXGXGXGXGXGXGXGXGXGXGXGXGXGXGXGXGXGXGXGXGXGXGXGXGXGXGXGXGXGXGXGXGXGX",
"GXGXGX0 / _  .+.0XpXsXsXqX6X+.` / q q q 0 ~ / / 0 q 4 2 . . . . . .       . 5 q ^  .+.wXjXMXNXVXBXZXZXZXVXmXjXqX5XX.' / 0 q 0 ~ ~ 0 q 9 9 9 9 9 GXGXGXGXGXGXGXGXGXGXGXGXGXGXGXGXGXGXGXGXGXGXGXGXGXGXGXGXGXGXGXGXGXGXGXGXGXGXGXGXGXGXGXGXGXGXGXGXGXGXGXGXGXGXGXGX",
"GXGXGXq 0 ^ ..6XqXaXjXjXaXrX6X#._ 0 9 2 2 2 4 9 9 9 4 2 .       . .     . 2 9 ~ ' ..5XwXgXnXmXNXNXNXNXmXmXmXnXjXwX+. ./ q 4 4 9 9 4 4 5 5 4 4 4 GXGXGXGXGXGXGXGXGXGXGXGXGXGXGXGXGXGXGXGXGXGXGXGXGXGXGXGXGXGXGXGXGXGXGXGXGXGXGXGXGXGXGXGXGXGXGXGXGXGXGXGXGXGXGXGX",
"q q q 0 / ^ ` ..@.5X5X6X0XwX0X6X+.X.) q 2 . 2 2 2 2 2 2 .             GXGX~ ^ ` @.wXaXnXNXVXBXBXNXnXgXsXsXgXjXjXsXqX5X ./ q 4 5 2 2 2 2 2 2 2 2 GXGXGXGXGXGXGXGXGXGXGXGXGXGXGXGXGXGXGXGXGXGXGXGXGXGXGXGXGXGXGXGXGXGXGXGXGXGXGXGXGXGXGXGXGXGXGXGXGXGXGXGXGXGXGXGX",
"q q q q q ~ / _ ' ` `  . .X...O... ._ 0 4 2 . . . . . .             GXGXGXGX^ ` O.6XsXhXNXBXZXZXBXmXhXaXsXpXpXqXqXwX5X..` / q 4 2 . . . . . . . GXGXGXGXGXGXGXGXGXGXGXGXGXGXGXGXGXGXGXGXGXGXGXGXGXGXGXGXGXGXGXGXGXGXGXGXGXGXGXGXGXGXGXGXGXGXGXGXGXGXGXGXGXGXGXGX",
"9 4 4 5 5 9 q / / / ~ 0 q 9 9 q 0 0 0 q q 5 .                 GXGXGXGXGXGXq q ~ _ X.5XwXgXnXNXBXZXZXVXmXhXpX6X+.+.O...X. .' / 0 4 2 .           GXGXGXGXGXGXGXGXGXGXGXGXGXGXGXGXGXGXGXGXGXGXGXGXGXGXGXGXGXGXGXGXGXGXGXGXGXGXGXGXGXGXGXGXGXGXGXGXGXGXGXGXGXGXGXGX",
"5 5 4 9 q / ` .... .` / q 2 . . 2 2 5 4 4 5 . .             GXGXGXGXGXGXGX9 q q / ' X.+.0XpXaXgXjXhXnXnXjXpX0X+...` ' ' ' _ / 0 q 5 2 .         GXGXGXGXGXGXGXGXGXGXGXGXGXGXGXGXGXGXGXGXGXGXGXGXGXGXGXGXGXGXGXGXGXGXGXGXGXGXGXGXGXGXGXGXGXGXGXGXGXGXGXGXGXGXGXGX",
"2 2 9 ~ ' O.0XsXsXwX5XX.^ q 2 .     . . 2 2 . .         GXGXGXGXGXGXGXGXGXq q ~ ^ ` X.+.6X0X0X6X6X0XwXqXqXqXwX5XX._ / ~ ~ ~ 0 q q 4 2 2 .       GXGXGXGXGXGXGXGXGXGXGXGXGXGXGXGXGXGXGXGXGXGXGXGXGXGXGXGXGXGXGXGXGXGXGXGXGXGXGXGXGXGXGXGXGXGXGXGXGXGXGXGXGXGXGXGX",
"2 4 ~ ` +.wXjXmXmXhXsX6X..^ q 2 .       . .         GXGXGXGXGXGXGXGXGXGXGX_ '  .@.6XqXgXhXnXnXhXaXqX6X+.+.+.+.O. .' / 0 q 9 4 8 4 2 2 . . . GXGXGXGXGXGXGXGXGXGXGXGXGXGXGXGXGXGXGXGXGXGXGXGXGXGXGXGXGXGXGXGXGXGXGXGXGXGXGXGXGXGXGXGXGXGXGXGXGXGXGXGXGXGXGXGXGXGX",
"5 9 /  .5XqXjXnXnXnXgXwX+.` ~ 8 2 .               GXGXGXGXGXGXGXGXGXGXGXGX . .O.6XpXhXmXBXZXZXVXmXgX0X+.X. . .` ` ' ^ 0 4 5 2 2 2 . . . . GXGXGXGXGXGXGXGXGXGXGXGXGXGXGXGXGXGXGXGXGXGXGXGXGXGXGXGXGXGXGXGXGXGXGXGXGXGXGXGXGXGXGXGXGXGXGXGXGXGXGXGXGXGXGXGXGXGXGX",
"2 5 q /  .O.5X6X0X6X5X@. ./ q 5 .                 GXGXGXGXGXGXGXGXGXGXGXGX' `  ...+.0XsXhXMXmXCXmXhXaXwX5XX.' ^ _ _ / ~ q 4 2 2 . .       GXGXGXGXGXGXGXGXGXGXGXGXGXGXGXGXGXGXGXGXGXGXGXGXGXGXGXGXGXGXGXGXGXGXGXGXGXGXGXGXGXGXGXGXGXGXGXGXGXGXGXGXGXGXGXGXGXGXGX",
". 2 5 9 0 / _ ` ` ` ` _ / q 4 2 . . 2 2 5 2 2 . . GXGXGXGXGXGXGXGXGXGXGXGX~ ~ / / _ ` ..5X0XwXpXsXsXsXpX6X..' ^ / / / ~ q 9 5 . .         GXGXGXGXGXGXGXGXGXGXGXGXGXGXGXGXGXGXGXGXGXGXGXGXGXGXGXGXGXGXGXGXGXGXGXGXGXGXGXGXGXGXGXGXGXGXGXGXGXGXGXGXGXGXGXGXGXGXGX",
". . . 1 2 2 4 4 9 9 9 4 5 5 2 5 4 q / _ ` _ / 0 q GXGXGXGXGXGXGXGXGXGXGXGX4 4 4 5 5 4 q ~ ^ `  .X.+.5X6X5XO. .' ^ 0 q q q 9 5 2 .         GXGXGXGXGXGXGXGXGXGXGXGXGXGXGXGXGXGXGXGXGXGXGXGXGXGXGXGXGXGXGXGXGXGXGXGXGXGXGXGXGXGXGXGXGXGXGXGXGXGXGXGXGXGXGXGXGXGXGX",
"1 2 2 2 2 2 2 2 2 2 . 2 2 5 9 q / _ ` X.O.#.X. . .X.GXGXGXGXGXGXGXGXGXGXGX1 2 2 2 2 9 ~ ' ` ` ' ' `  .....X. .` ^ ~ q q 9 4 2 2 . .     GXGXGXGXGXGXGXGXGXGXGXGXGXGXGXGXGXGXGXGXGXGXGXGXGXGXGXGXGXGXGXGXGXGXGXGXGXGXGXGXGXGXGXGXGXGXGXGXGXGXGXGXGXGXGXGXGXGXGXGX",
"9 9 q q 0 0 q 9 4 2 2 2 5 q ! ^ `  ...O.@.5X6X6X5X+.O. .' / / GXGXGXGXGXGXGX. 3 9 ~ ` @.0XqX6X@. .' ^ / ^ ` ` ` _ / 0 9 5 2 2 2 2 2 GXGXGXGXGXGXGXGXGXGXGXGXGXGXGXGXGXGXGXGXGXGXGXGXGXGXGXGXGXGXGXGXGXGXGXGXGXGXGXGXGXGXGXGXGXGXGXGXGXGXGXGXGXGXGXGXGXGXGXGXGXGX",
" .X.#.2X7X5X+...` ^ 0 q q q ~ ^ `  .X...O.+.6X0X6X6X5X+.#.X.| ' / GXGXGXGXGXGXq ` @.6XsXnXmXhXpX7X.._ ~ 0 / ^ ^ ^ ^ ~ q 5 2 2 2 2 2 GXGXGXGXGXGXGXGXGXGXGXGXGXGXGXGXGXGXGXGXGXGXGXGXGXGXGXGXGXGXGXGXGXGXGXGXGXGXGXGXGXGXGXGXGXGXGXGXGXGXGXGXGXGXGXGXGXGXGXGXGXGX",
"wXrXyXkXcXkXyX8XS.X.' / 0 q q ~ ^ _ ' `  .X.@.5X5X5X5X5X5X+...` / ~ U GXGXGXGXGXGXiXsXnXVXZXVXnXsX7X .~ q 9 q 0 / / / q 4 2 2 . . . GXGXGXGXGXGXGXGXGXGXGXGXGXGXGXGXGXGXGXGXGXGXGXGXGXGXGXGXGXGXGXGXGXGXGXGXGXGXGXGXGXGXGXGXGXGXGXGXGXGXGXGXGXGXGXGXGXGXGXGXGXGX",
"vXvX<X<X<X#XoXV.M.{ ' ) ~ q 4 9 q q q q q ~ / _ ` `  . .X. .` ) ~ I W `.{.GXGXGXGX9XwXgXmXNXNXnXaX6X ./ q 5 2 4 q ~ ~ q 9 5 2 . . . GXGXGXGXGXGXGXGXGXGXGXGXGXGXGXGXGXGXGXGXGXGXGXGXGXGXGXGXGXGXGXGXGXGXGXGXGXGXGXGXGXGXGXGXGXGXGXGXGXGXGXGXGXGXGXGXGXGXGXGXGXGX",
">X>X;X&X}.).j.p.L Y ] ^ 0 4 2 2 2 2 1 . 2 2 5 8 q q 0 / / / / %.q I W n.). XGXGXo.O.+.6XsXjXhXjXsX6X.._ q 4 2 2 9 q q q 4 5 2 . . . GXGXGXGXGXGXGXGXGXGXGXGXGXGXGXGXGXGXGXGXGXGXGXGXGXGXGXGXGXGXGXGXGXGXGXGXGXGXGXGXGXGXGXGXGXGXGXGXGXGXGXGXGXGXGXGXGXGXGXGXGXGX",
">X:X=X+X_.j.a.x v m M 0 8 2 . . X         . . 1 2 2 2 5 4 4 8 4 4 n Y f.d.j.k.b.W ] '  .@.5XwXqXqX6X@.` ^ q 4 5 5 4 4 5 2 2 . .     GXGXGXGXGXGXGXGXGXGXGXGXGXGXGXGXGXGXGXGXGXGXGXGXGXGXGXGXGXGXGXGXGXGXGXGXGXGXGXGXGXGXGXGXGXGXGXGXGXGXGXGXGXGXGXGXGXGXGXGXGXGX",
";X=X$X_.j.a.5.c k h M 9 4 1 .             + @ @ @ + . . 2 2 2 2 2 > h c p.s.g.g.R I ~ ^ _ ` ..@.+.+... ._ / q 9 5 2 2 2 . . . .     GXGXGXGXGXGXGXGXGXGXGXGXGXGXGXGXGXGXGXGXGXGXGXGXGXGXGXGXGXGXGXGXGXGXGXGXGXGXGXGXGXGXGXGXGXGXGXGXGXGXGXGXGXGXGXGXGXGXGXGXGXGX",
"*X+X_.j.p.l GXGXGXGXGXGXGXGXGXGXGXGXGXGXGXGXk k k GXGXGXGXGXGXGXGXGXGXGXGXp.p.L Y n q 0 0 ~ / / ^ _ ' ' _ / ~ q 4 2 . .   . . . 2 2 GXGXGXGXGXGXGXGXGXGXGXGXGXGXGXGXGXGXGXGXGXGXGXGXGXGXGXGXGXGXGXGXGXGXGXGXGXGXGXGXGXGXGXGXGXGXGXGXGXGXGXGXGXGXGXGXGXGXGXGXGXGX",
"_.).n.d.x GXGXGXGXGXGXGXGXGXGXGXGXGXGXGXGXGXGXGXGXGXGXGXGXGXGXGXGXGXGXGXGXGXGXv g 6 5 2 2 2 2 5 4 q %./ / / / 0 9 2 . . . . + 2 5 9 0 GXGXGXGXGXGXGXGXGXGXGXGXGXGXGXGXGXGXGXGXGXGXGXGXGXGXGXGXGXGXGXGXGXGXGXGXGXGXGXGXGXGXGXGXGXGXGXGXGXGXGXGXGXGXGXGXGXGXGXGXGX",
"g.d.d.GXGXGXGXGXGXGXGXGXGXGXGXGXGXGXGXGXGXGXGXGXGXGXGXGXGXGXGXGXGXGXGXGXGXGXGXGXGX. . . . . . . 2 5 9 q 0 ~ ~ 0 9 2 2 . . . 2 4 q ~ / ^ _ GXGXGXGXGXGXGXGXGXGXGXGXGXGXGXGXGXGXGXGXGXGXGXGXGXGXGXGXGXGXGXGXGXGXGXGXGXGXGXGXGXGXGXGXGXGXGXGXGXGXGXGXGXGXGXGXGXGXGX",
"GXGXGXGXGXGXGXGXGXGXGXGXGXGXGXGXGXGXGXGXGXGXGXGXGXGXGXGXGXGXGXGXGXGXGXGXGXGXGXGXGX5 4 9 ~ / ~ 0 q 9 9 4 8 9 9 4 2 2 . . . 2 5 q / '  .X.X. . .GXGXGXGXGXGXGXGXGXGXGXGXGXGXGXGXGXGXGXGXGXGXGXGXGXGXGXGXGXGXGXGXGXGXGXGXGXGXGXGXGXGXGXGXGXGXGXGXGXGXGXGXGXGXGXGXGX",
"GXGXGXGXGXGXGXGXGXGXGXGXGXGXGXGXGXGXGXGXGXGXGXGXGXGXGXGXGXGXGXGXGXGXGXGXGXGXGXGXGX^ ' X.+.5X+...` _ / q 9 4 5 2 2 . . . . 2 9 ~ _ X.+.5X+.O.X. .GXGXGXGXGXGXGXGXGXGXGXGXGXGXGXGXGXGXGXGXGXGXGXGXGXGXGXGXGXGXGXGXGXGXGXGXGXGXGXGXGXGXGXGXGXGXGXGXGXGXGXGXGXGXGXGX",
"GXGXGXGXGXGXGXGXGXGXGXGXGXGXGXGXGXGXGXGXGXGXGXGXGXGXGXGXGXGXGXGXGXGXGXGXGXGXGXGXGX6X0XsXhXbXgXpX6X+.O. .' / q 9 5 2 2 2 5 9 0 ^ ` O.5X6X5X5X+.O.X. .GXGXGXGXGXGXGXGXGXGXGXGXGXGXGXGXGXGXGXGXGXGXGXGXGXGXGXGXGXGXGXGXGXGXGXGXGXGXGXGXGXGXGXGXGXGXGXGXGXGXGXGXGXGX",
"GXGXGXGXGXGXGXGXGXGXGXGXGXGXGXGXGXGXGXGXGXGXGXGXGXGXGXGXGXGXGXGXGXGXGXGXGXGXGXGXGXzXcXcXcXcXcXhXgXsXwX7X@. .' / q 4 5 4 9 q ~ ^ ` X.@.+.+.@.O...X. .X.O.GXGXGXGXGXGXGXGXGXGXGXGXGXGXGXGXGXGXGXGXGXGXGXGXGXGXGXGXGXGXGXGXGXGXGXGXGXGXGXGXGXGXGXGXGXGXGXGXGXGXGXGX",
"GXGXGXGXGXGXGXGXGXGXGXGXGXGXGXGXGXGXGXGXGXGXGXGXGXGXGXGXGXGXGXGXGXGXGXGXGXGXGXGXGX>X,X%X@XOXXXzXlXhXfXpX0X+.X.' ~ q 4 9 q q 0 ~ / _ ` ` ` ' _ ' `  ...+.+.X._ ~ q GXGXGXGXGXGXGXGXGXGXGXGXGXGXGXGXGXGXGXGXGXGXGXGXGXGXGXGXGXGXGXGXGXGXGXGXGXGXGXGXGXGXGXGXGXGXGX",
"GXGXGXGXGXGXGXGXGXGXGXGXGXGXGXGXGXGXGXGXGXGXGXGXGXGXGXGXGXGXGXGXGXGXGXGXGXGXGXGX;X=X*X{.l.j.Z.XXpXpXqX6X5X#.` ^ q 4 2 5 5 4 9 q q 0 0 0 0 q 0 / _ `  .X.X.` I P Y R GXGXGXGXGXGXGXGXGXGXGXGXGXGXGXGXGXGXGXGXGXGXGXGXGXGXGXGXGXGXGXGXGXGXGXGXGXGXGXGXGXGXGXGXGXGX",
"GXGXGXGXGXGXGXGXGXGXGXGXGXGXGXGXGXGXGXGXGXGXGXGXGXGXGXGXGXGXGXGXGXGXGXGXGXGX:X;X&X}._.k.s.f.x.} @.O.X.` ' / 0 9 5 . . . . . 2 2 2 2 2 2 2 2 4 q / ^ ^ ^ / I L L a.g.k.k.GXGXGXGXGXGXGXGXGXGXGXGXGXGXGXGXGXGXGXGXGXGXGXGXGXGXGXGXGXGXGXGXGXGXGXGXGXGXGXGXGXGXGXGX",
"GXGXGXGXGXGXGXGXGXGXGXGXGXGXGXGXGXGXGXGXGXGXGXGXGXGXGXGXGXGXGXGXGXGXGXGXGX=X=X*X{.).g.p.5.c Y ( _ ) ~ 0 q 4 5 2 . .         . . . . . . . . 2 5 9 q 9 4 3 f k x p.a.d.g.j.k.GXGXGXGXGXGXGXGXGXGXGXGXGXGXGXGXGXGXGXGXGXGXGXGXGXGXGXGXGXGXGXGXGXGXGXGXGXGXGXGXGXGX",
"GXGXGXGXGXGXGXGXGXGXGXGXGXGXGXGXGXGXGXGXGXGXGXGXGXGXGXGXGXGXGXGXGXGXGXGXGX+X}.{.).d.p.x x l h n M q 8 5 3 + . .                           . . 2 2 2 1 . X - i k x 5.p.a.g.j.k.GXGXGXGXGXGXGXGXGXGXGXGXGXGXGXGXGXGXGXGXGXGXGXGXGXGXGXGXGXGXGXGXGXGXGXGXGXGXGXGXGX",
"GXGXGXGXGXGXGXGXGXGXGXGXGXGXGXGXGXGXGXGXGXGXGXGXGXGXGXGXGXGXGXGXGXGXGXGXGXn.n.n.j.GXGXGXGXGXk k h j f GXGXGXGXGXGXGXGXGXGXGXGXGXGXGXGXGXGXGXGXGXGXGXGXGXGXGXGXGXGXGXGXGXa.a.a.a.GXGXGXGXGXGXGXGXGXGXGXGXGXGXGXGXGXGXGXGXGXGXGXGXGXGXGXGXGXGXGXGXGXGXGXGXGXGXGXGX",
"GXGXGXGXGXGXGXGXGXGXGXGXGXGXGXGXGXGXGXGXGXGXGXGXGXGXGXGXGXGXGXGXGXGXGXGXGXd.d.d.d.GXGXGXGXGXGXl l l GXGXGXGXGXGXGXGXGXGXGXGXGXGXGXGXGXGXGXGXGXGXGXGXGXGXGXGXGXGXGXGXGXGXp.p.p.p.GXGXGXGXGXGXGXGXGXGXGXGXGXGXGXGXGXGXGXGXGXGXGXGXGXGXGXGXGXGXGXGXGXGXGXGXGXGXGXGX"
};
