/* XPM */
static const char *bos2j0[] = {
/* columns rows colors chars-per-pixel */
"128 128 256 2 ",
"   c #1D160C",
".  c #1B1509",
"X  c #141414",
"o  c #1C1C1C",
"O  c #191717",
"+  c #11120D",
"@  c #3B0706",
"#  c #231A0D",
"$  c #2B190C",
"%  c #38170B",
"&  c #271B16",
"*  c #381917",
"=  c #250B08",
"-  c #14260C",
";  c #1A3714",
":  c #182A12",
">  c #292419",
",  c #382817",
"<  c #2E2A10",
"1  c #18162C",
"2  c #1E2226",
"3  c #232323",
"4  c #2C2C2C",
"5  c #282827",
"6  c #362827",
"7  c #36332B",
"8  c #333333",
"9  c #3B3B3B",
"0  c #393736",
"q  c #2D2D33",
"w  c #2B0E2D",
"e  c #430202",
"r  c #4C0201",
"t  c #480A09",
"y  c #540101",
"u  c #5C0101",
"i  c #580B09",
"p  c #49150B",
"a  c #461817",
"s  c #571817",
"d  c #500C0F",
"f  c #630101",
"g  c #6B0101",
"h  c #660C09",
"j  c #730101",
"k  c #7C0101",
"l  c #750C0A",
"z  c #681716",
"x  c #771817",
"c  c #6D100C",
"v  c #472A18",
"b  c #48341D",
"n  c #56361B",
"m  c #522710",
"M  c #752A01",
"N  c #793605",
"B  c #6C2E12",
"V  c #4C0B27",
"C  c #462A29",
"Z  c #582726",
"A  c #493628",
"S  c #563A24",
"D  c #453A38",
"F  c #553734",
"G  c #442930",
"H  c #6F312C",
"J  c #6E132D",
"K  c #234918",
"L  c #28551D",
"P  c #37501A",
"I  c #2C5C22",
"U  c #346927",
"Y  c #39772C",
"T  c #306727",
"R  c #1E4215",
"E  c #6F4D16",
"W  c #594427",
"Q  c #47433A",
"!  c #514D2F",
"~  c #664626",
"^  c #715232",
"/  c #516F2E",
"(  c #756A30",
")  c #554F1C",
"_  c #030259",
"`  c #120751",
"'  c #2A0C4E",
"]  c #312F4B",
"[  c #030269",
"{  c #030379",
"}  c #140D6B",
"|  c #2E306D",
" . c #230A6C",
".. c #542358",
"X. c #364F4B",
"o. c #444444",
"O. c #4C4C4C",
"+. c #494746",
"@. c #564946",
"#. c #535353",
"$. c #5B5B5B",
"%. c #5A5655",
"&. c #53524D",
"*. c #6F504D",
"=. c #706B51",
"-. c #646464",
";. c #6C6C6C",
":. c #686867",
">. c #737374",
",. c #7C7C7C",
"<. c #767878",
"1. c #756D6C",
"2. c #5A5A60",
"3. c #830101",
"4. c #8B0101",
"5. c #890C07",
"6. c #930101",
"7. c #990605",
"8. c #841A18",
"9. c #91150E",
"0. c #A70403",
"q. c #B70202",
"w. c #AA1A12",
"e. c #8B2D0F",
"r. c #892828",
"t. c #933432",
"y. c #AB3431",
"u. c #AD2F16",
"i. c #C70100",
"p. c #D40303",
"a. c #E60000",
"s. c #CB3228",
"d. c #8A470A",
"f. c #995B13",
"g. c #915011",
"h. c #9B6317",
"j. c #A56A19",
"k. c #AB761D",
"l. c #B27E1C",
"z. c #8B5733",
"x. c #8F6C34",
"c. c #AB752C",
"v. c #B05519",
"b. c #C65531",
"n. c #8C504E",
"m. c #B04E4E",
"M. c #8F6E53",
"N. c #B37348",
"B. c #867C7A",
"V. c #906F6C",
"C. c #AD7270",
"Z. c #CE6E6E",
"A. c #C86651",
"S. c #8B1047",
"D. c #3D8432",
"F. c #448A36",
"G. c #46963A",
"H. c #568939",
"J. c #5A9C3B",
"K. c #52AF47",
"L. c #65A24D",
"P. c #5CC653",
"I. c #5AC652",
"U. c #63D75B",
"Y. c #68C759",
"T. c #6BEB65",
"R. c #6EDF60",
"E. c #B78726",
"W. c #B8912F",
"Q. c #9E9B39",
"!. c #C49C33",
"~. c #C4972C",
"^. c #CBA838",
"/. c #D2B33C",
"(. c #918D49",
"). c #AF954E",
"_. c #B1AB51",
"`. c #908875",
"'. c #AE8F71",
"]. c #B3A96F",
"[. c #D08656",
"{. c #D7BA43",
"}. c #CBB452",
"|. c #C7B56C",
" X c #DD9550",
".X c #99DD5E",
"XX c #DDC449",
"oX c #D4C656",
"OX c #E2CB4C",
"+X c #E9D956",
"@X c #F2DF58",
"#X c #F3E65C",
"$X c #EEE15B",
"%X c #D3CA68",
"&X c #FBF769",
"*X c #F4EF69",
"=X c #E3DD6B",
"-X c #010186",
";X c #030397",
":X c #13128F",
">X c #0404A6",
",X c #1212B1",
"<X c #312CA1",
"1X c #4D3696",
"2X c #4D4BAA",
"3X c #616094",
"4X c #2D2CCD",
"5X c #3737F7",
"6X c #1A1BCC",
"7X c #504ED2",
"8X c #4E4EF5",
"9X c #7070D6",
"0X c #443FC0",
"qX c #7F8082",
"wX c #838383",
"eX c #8C8C8C",
"rX c #888587",
"tX c #949494",
"yX c #9B9B9B",
"uX c #969799",
"iX c #918E8E",
"pX c #AA9490",
"aX c #B0A890",
"sX c #A4A4A4",
"dX c #ACACAC",
"fX c #A7A7A7",
"gX c #B3B3B3",
"hX c #BBBBBC",
"jX c #B8B6B6",
"kX c #B4B0AC",
"lX c #9898A3",
"zX c #D08B8B",
"xX c #E69090",
"cX c #C5B58D",
"vX c #C7B6B2",
"bX c #D6A2A2",
"nX c #D0C9B1",
"mX c #E3DF9F",
"MX c #A7A7D6",
"NX c #BEC0C2",
"BX c #C3C3C3",
"VX c #CBCBCB",
"CX c #C9C6C6",
"ZX c #D3D3D3",
"AX c #DBDBDC",
"SX c #D8D5D6",
"DX c #D2CECD",
"FX c #E3E3E3",
"GX c #EBEBEB",
"HX c #E5E6E9",
"JX c #F1F2F2",
"KX c #E1E0DB",
"LX c #C0BFC1",
"PX c None",
"IX c black",
"UX c #AD7F80",
/* pixels */
"PXPXPXPXPXPXPXPXPXPXPXPXPXPXPXPXPXPXPXPXPXPXPXPXPXPXPXPXPXPXPXPXPXPXPXPXPXPXPXPXPXhXBXZXZXVXBXhXgXdXfXPXPXPXPXPXPXPXPXPXPXPXPXPXPXPXPXPXPXPXPXPXPXPXPXPXPXPXPXPXPXPXPXPXPXPXPXPXPXPXPXPXPXPXPXPXPXPXPXPXPXPXPXPXPXPXPXPXPXPXPXPXPXPXPXPXPXPXPXPXPXPXPXPXPXPXPXPX",
"PXPXPXPXPXPXPXPXPXPXPXPXPXPXPXPXPXPXPXPXPXPXPXPXPXPXPXPXPXPXPXPXPXPXPXPXPXPXPXPXPXVXZXAXAXSXVXhXgXgXdXPXPXPXPXPXPXPXPXPXPXPXPXPXPXPXPXPXPXPXPXPXPXPXPXPXPXPXPXPXPXPXPXPXPXPXPXPXPXPXPXPXPXPXPXPXPXPXPXPXPXPXPXPXPXPXPXPXPXPXPXPXPXPXPXPXPXPXPXPXPXPXPXPXPXPXPXPX",
"PXPXPXPXPXPXPXPXPXPXPXPXPXPXPXPXPXPXPXPXPXPXPXPXPXPXPXPXPXPXPXPXPXPXPXPXPXPXfXhXSXAXFXFXFXFXZXBXhXhXgXsXwX-.PXPXPXPX7.0.q.i.PXPXPXPXBXZXAXFXGXFXFXAXAXSXBXsXrX<.,.rXsXLXAXGXGXGXFXFXFXAXPXPXPXPXPXPXPXPXPXPXPXPXPXPXPXPXPXPXPXPXPXPXPXPXPXPXPXPXPXPXPXPXPXPXPXPX",
"PXPXPXPXPXPXPXPXPXPXPXPXPXPXPXPXPXPXPXPXPXPXPXPXPXPXPXPXPXPXPXPXPXPXPXPXPXsXgXVXAXGXGXGXFXKXZXBXgXdXsXtX>.%.o.PXPXj 4.7.0.q.9.PXPXVXVXAXFXGXGXGXGXFXFXAXBXfXtXrXrXyXgXVXAXGXJXGXGXFXFXFXPXPXPXPXPXPXPXPXPXPXPXPXPXPXPXPXPXPXPXPXPXPXPXPXPXPXPXPXPXPXPXPXPXPXPXPX",
"PXPXPXPXPXPXPXPXPXPXPXPXPXPXPXPXPXPXPXPXPXPXPXPXPXPXPXPXPXPXPXPXPXPXPXPXtXfXBXAXFXGXGXFXFXSXBXgXsXuXrX>.%.9 9 6 t f j k 6.0.H :.gXAXFXFXHXGXGXGXGXGXFXAXVXgXyXtXsXhXZXAXAXFXFXGXGXGXGXGXGXPXPXPXPXPXPXPXPXPXPXPXPXPXPXPXPXPXPXPXPXPXPXPXPXPXPXPXPXPXPXPXPXPXPXPX",
"PXPXPXPXPXPXPXPXPXPXPXPXPXPXPXPXPXPXPXPXPXPXPXPXPXPXPXPXPXPXPXPXPXPXPXrXyXgXVXAXFXGXGXAXZXBXgXsXtXwX;.$.o.8 8 D F *.n.z l t.n.eXBXFXGXGXFXFXFXAXFXFXAXSXBXdXsXfXhXZXAXAXZXgXyXtXgXFXGXGXGXGXPXPXPXPXPXPXPXPXPXPXPXPXPXPXPXPXPXPXPXPXPXPXPXPXPXPXPXPXPXPXPXPXPXPX",
"PXPXPXPXPXPXPXPXPXPXPXPXPXPXPXPXPXPXPXPXPXPXPXPXPXPXPXPXPXPXPXPXPXPX,.rXsXhXZXAXFXFXAXZXBXgXsXtXwX:.#.o.8 8 8 O.>.yXpXH Z 1.uXhXZXFXGXAXZXBXhXhXhXBXBXBXhXsXsXhXZXAXAXAXVXeX$.O.rXAXGXGXGXGXGXPXPXPXPXPXPXPXPXPXPXPXPXPXPXPXPXPXPXPXPXPXPXPXPXPXPXPXPXPXPXPXPXPX",
"PXPXPXPXPXPXPXPXPXPXPXPXPXPXPXPXPXPXPXPXPXPXPXPXPXPXPXPXPXPXPXPXPXPX,.eXfXBXVXZXSXSXZXBXgXsXtXwX:.O.9 4 8 9 o.:.yXhXgXV.:.wXdXVXZXSXZXgXtX,.>.;.>.rXuXfXdXuXsXBXSXFXAXAXZXgXtXrXfXAXGXGXGXGXGXFXPXPXPXPXPXPXPXPXPXPXPXPXPXPXPXPXPXPXPXPXPXPXPXPXPXPXPXPXPXPXPXPX",
"PXPXPXPXPXPXPXPXPXPXPXPXPXPXPXPXPXPXPXPXPXPXPXPXPXPXPXPXPXPXPXPXPX>.,.eXfXhXBXVXVXBXhXdXyXeX,.:.#.9 4 4 8 +.$.rXhXBXgXtXeXtXgXVXBXhXdXrX$.o.9 9 o.-.wXyXsXtXsXBXAXAXSXZXSXVXVXVXZXAXFXGXGXGXGXFXAXPXPXPXPXPXPXPXPXPXPXPXPXPXPXPXPXPXPXPXPXPXPXPXPXPXPXPXPXPXPXPX",
"PXPXPXPXPXPXPXPXPXPXPXPXPXPXPXPXPXPXPXPXPXPXPXPXPXPXPXPXPXPXPXPXPX-.>.rXuXfXgXhXhXgXsXtXrX<.-.O.8 5 4 o.o.o.>.sXVXBXfXqXwXsXhXBXsXtXeX-.o.o.+.%.;.rXfXdXsXfXgXVXSXZXVXBXhXgXgXhXBXVXSXAXFXGXGXAXSXPXPXPXPXPXPXPXPXPXPXPXPXPXPXPXPXPXPXPXPXPXPXPXPXPXPXPXPXPXPXPX",
"PXPXPXPXPXPXPXPXPXPXPXPXPXPXPXPXPXPXPXPXPXPXPXPXPXPXPXPXPXPXPXPXPX$.-.<.rXtXsXfXfXuXeX<.;.$.+.8 5 4 9 #.+.#.tXhXVXhXtX:.>.fXBXhXtXrXrX-.$.:.,.eXsXgXBXhXdXhXVXVXBXhXgXsXtXeXeXyXfXhXCXZXAXFXGXAXVXPXPXPXPXPXPXPXPXPXPXPXPXPXPXPXPXPXPXPXPXPXPXPXPXPXPXPXPXPXPXPX",
"PXPXPXPXPXPXPXPXPXPXPXPXPXPXPXPXPXPXPXPXPXPXPXPXPXPXPXPXPXPXPXPXo.O.$.;.<.rXrXtXeXwX;.$.#.o.8 3 5 +.$.O.#.;.gXZXVXfXwX:.,.gXVXBXsXyXsXsXdXhXBXVXZXVXBXhXhXVXVXBXdXuXrX>.-.-.:.>.rXyXhXVXSXFXFXZXhXuXdXVXZXBXgXPXPXPXPXPXPXPXPXPXPXPXPXPXPXPXPXPXPXPXPXPXPXPXPXPX",
"PXPXPXPXPXPXPXPXPXPXPXPXPXPXPXPXPXPXPXPXPXPXPXPXPXPXPXPXPXPXPXq 8 o.O.$.-.;.>.>.>.-.#.o.8 4 4 8 o.-.-.+.-.tXVXAXBXyX>.-.rXhXVXBXgXgXhXVXAXFXGXGXFXSXVXVXVXVXhXsXrX>.$.O.o.o.+.%.-.wXsXhXVXSXAXBXfXuXgXZXSXVXhXgXPXPXPXPXPXPXPXPXPXPXPXPXPXPXPXPXPXPXPXPXPXPXPXPX",
"PXPXPXPXPXPXPXPXPXPXPXPXPXPXPXPXPXPXPXPXPXPXPXPXPXPXPXPXPXPXPX3 3 4 8 9 o.O.#.%.#.o.9 4 3 5 9 -.<.-.+.o.>.gXAXAXhXeX:.-.rXhXBXhXgXhXBXVXZXAXAXAXZXVXSXAXSXBXyX>.$.+.9 0 8 9 9 o.O.-.rXsXhXBXBXdXuXuXhXAXFXAXZXhXsXeXPXPXPXPXPXPXPXPXPXPXPXPXPXPXPXPXPXPXPXPXPXPX",
"PXPXPXPXPXPXPXPXPXPXPXPXPXPXPXPXPXPXPXPXPXPXPXPXPXPXPXPXPXPXPX4 4 5 5 4 4 8 9 9 9 9 8 8 9 +.-.<.<.O.9 #.tXVXFXAXgXwX$.-.,.sXyXtXuXyXfXdXgXLXBXCXVXZXFXFXVXsX>.O.0 6 6 * 6 4 8 0 o.#.:.rXsXdXdXtXeXuXgXSXFXFXFXVXgXuXeXPXPXPXPXPXPXPXPXPXPXPXPXPXPXPXPXPXPXPXPXPX",
"PXPXPXPXPXPXPXPXPXPXPXPXPXPXPXPXPXPXPXPXPXPXPXPXPXPXPXPXPXPX+.O.o.8 8 4 8 8 9 9 9 o.o.%.>.rXeX>.O.4 8 ;.dXAXFXSXgX<.#.%.-.<.:.$.$.-.;.>.wXuXfXgXBXAXGXSXdX>.O.0 * t e e @ 6 8 8 9 +.#.-.wXtXtX,.,.tXdXBXZXAXFXAXVXsXeXwXPXPXPXPXPXPXPXPXPXPXPXPXPXPXPXPXPXPXPXPX",
"PXPXPXPXPXPXPXPXPXPXPXPXPXPXPXPXPXPXPXPXPXPXPXPXPXPXPXPXPXPX+.-.>.>.>.>.<.,.,.,.<.,.,.qXrXrX>.#.8 5 o.rXBXFXFXZXsX>.O.O.%.$.O.D G C G F @.*.1.eXdXCXDXgXrX#.8 * @ e e e e * 8 o.#.$.+.O.:.,.wX;.1.rXyXdXhXBXVXZXBXfXiX<.PXPXPXPXPXPXPXPXPXPXPXPXPXPXPXPXPXPXPXPX",
"PXPXPXPXPXPXPXPXPXPXPXPX;XPXPXPXPXPXPXPXPXPXPXPXPXPXPXPXPXPXo.>.yXgXBXZXAXAXSXVXVXBXgXsXwX-.9 5 3 4 %.sXVXFXFXVXuX:.o.o.o.o.9 7 a t d d d d C $.rXsXsXwX$.9 6 t e e e e e 6 9 #.>.,.O.0 O.-.;.$.-.>.rXtXuXsXfXdXdXsXeX>.PXPXPXPXPXPXPXPXPXPXPXPXPXPXPXPXPXPXPXPX",
"PXPXPXPXPXPXPXPXPXPXPXPXPXPXPXPXPXPXPXPXPXPXPXPXPXPXPXPXPXPX8 %.,.sXBXAXFXFXSXVXBXhXsX,.$.9 3 X o 4 -.fXSXGXHXBXeX$.9 9 9 9 6 a F *.*.*.F t @ C %.;.>.$.o.6 @ e e e e e e 6 o.-.rXtX#.5 8 +.%.+.O.$.:.>.<.wXrXeXeXeXwX:.$.PXPXPXPXPXPXPXPXPXPXPXPXPXPXPXPXPXPXPX",
"PXPXPXPXPXPXPXPXPXPXPXPXPXPXPXPXPXPXPXPXPXPXPXPXPXPXPXPXPXPX3 8 +.:.tXgXBXhXfXyXtXrX:.o.4 o O . # 8 -.sXSXGXFXhX,.#.9 8 9 9 a Z 1.yXdXsXB.Z e t 6 9 o.D 7 p e e e e e e e 6 o.:.tXsX#.O o 8 9 8 8 +.O.#.$.:.;.;.>.>.;.-.#.o.PXPXPXPXPXPXPXPXPXPXPXPXPXPXPXPXPXPX",
"PXPXPXPXPXPXPXPXPXPXPXPXPXPXPXPXPXPXPXPXPXPXPXPXPXPXPXPXPXPX> 6 7 o.$.<.eXrX>.:.$.O.9 5 o     . # 7 $.tXBXAXDXfX;.o.8 9 o.&.@.1.sXBXZXZXhXiXH e @ * * a a t r r y u y r e 6 o.:.uXdX%.O X o 5 3 5 8 9 o.+.#.%.%.%.$.$.#.o.9 PXPXPXPXPXPXPXPXPXPXPXPXPXPXPXPXPXPX",
"PXPXPXPXPXPXPXPXPXPXPX{ -XPXPXPXPXPXPXPXPXPXPX-X-XPXPXPXPXA A n A 6 8 o.%.%.o.9 8 3 O X   # #   # 4 O.,.fXBXgXrX$.9 8 9 &.-.wXyXvXSXFXGXGXSXV.t @ e e r r y u h l j g f i Z +.-.tXgX:.7 6 6 6 6 5 5 4 8 0 9 o.o.o.o.o.] 8 8 PXPXPXPXPXPXPXPXPXPXPXPXPXPXPXPXPXPX",
"PXPXPXPXPXPXPXPXPXPXPX_ { 4XPXPXPX>XPXPXPXPX8XPXPXPXPXPXA ~ ^ ^ ~ b , 6 7 7 > > & #     # # # # # 3 9 -.rXyXrX-.o.8 4 o.%.>.tXgXVXSXFXGXJXGXB.e @ e e r y h x r.t.r.r.t.t.n.n.:.eXgXpXC.C.M.n.n.H 3 o 3 5 4 4 8 4 4 4 4 8 8 o.PXPXPXPXPXPXPXPXPXPXPXPXPXPXPXPXPX",
"PXPXPXPXPXPXPXPXPXPXPX_ [ 6X5XPXPX>XPXPXPX8X8XPXPXPXPXPXW z.N.N.^ n v , , < # # # < $ # < < < # # & 8 #.>.,.-.+.8 4 4 9 %.>.tXgXBXVXAXFXJXJXpXZ t e r r i x t.m.m.m.m.m.Z.Z.C.V.iXkXbXxXzXZ.Z.m.*.5 o 2 o 3 4 4 4 4 4 4 9 +.&.O.PXPXPXPXPXPXPXPXPXPXPXPXPXPXPXPX",
"PXPXPXPXPXPXPXPXPXPXPX_ _ :X,XPXPXPXPXPXPX,X,XPXPXPXPXPXz.N.[.N.z.W ~ ~ S , $ , , < < , , , # # # & 4 o.$.:.%.9 4 3 3 8 O.-.wXyXdXhXVXSXFXGXZXpXH @ r h x r.m.Z.Z.Z.m.A.Z.xXxXzXzXzXZ.A.m.y.t.n.@.9 8 4 4 4 8 9 o.9 9 o.2.>.>.$.9 PXPXPXPXPXPXPXPXPXPXPXPXPXPXPX",
"PXPXPXPXPXPXPXPXPXPXPXPX_ [ -XPXPXPXPXPXPX,X;XPXPXPXPXPXN.[. XN.x.z.z.z.~ A b b b , , b v , #     o 5 9 +.%.o.8 3 o o 8 o.%.;.rXuXdXhXVXSXFXJXFXV.Z y h r.t.m.Z.zXxXZ.Z.xXxXxXxXZ.A.m.t.r.x Z @.O.O.O.#.#.%.$.;.>.;.:.>.wXrX,.$.9 PXPXPXPXPXPXPXPXPXPXPXPXPXPXPX",
"PXPXPXPXPXPXPXPXPXPXPXPXPX_ :X5XPXPXPXPX8XPXPXPXPXPX^ x.[.[.[.x.x.N.N.x.~ S ~ W A , b S v < #   X O 3 4 8 9 8 5 o O 3 8 o.O.$.;.wXtXfXhXVXSXFXHXZXpXs h r.t.m.A.Z.xXxXxXxXxXzXZ.m.t.t.r.x s 6 8 o.$.;.,.rXtXsXgXhXgXfXsXyXeX;.+.4 PXPXPXPXPXPXPXPXPXPXPXPXPXPXPX",
"PXPXPXPXPXPXPXPXPXPXPXPXPXPX:X4XPXPXPXPX8XPXPXPXPXPXz.N.[.A.N.c.N.[.N.x.^ ^ z.~ A S S n , #     X O O o 3 4 3 O O O o 4 8 o.+.%.:.<.rXsXgXBXZXFXJXCXn.H r.r.y.m.Z.xXxXxXzXZ.A.m.t.8.x c d * > 3 7 +.-.>.rXuXgXBXVXBXgXsXeX>.#.8 3 PXPXPXPXPXPXPXPXPXPXPXPXPXPXPX",
"PXPXPXPXPXPXPX;XPXPXPXPXPXPXPX-XPXPXPXPX8XPXPX;XPXPXN.N.A.N.m.N.[.[.N.^ x.N.z.S b ~ ~ , $ #     X X O O O O O O O O o o 5 8 9 o.O.$.-.,.tXfXhXVXAXAXCXV.x 8.t.y.m.Z.Z.Z.A.m.t.r.8.x c i % #   # & 5 8 o.%.:.rXsXdXsXeX<.-.+.8 3 O PXPXPXPXa.PXPXPXPXPXPXPXPXPXPX",
"PXPXPXPXPXPXPX;XPXPXPXPXPXPXPX_ PXPXPXPX4XPXPX;X .PXA.A.b.y.t.A.[.N.z.H x.x.^ S S ~ n $ #     O O O O o o 3 4 4 4 5 3 O o 2 4 8 9 o.O.$.>.wXtXsXLXSXKXkXV.C.m.r.t.y.m.m.y.t.r.x H H n.H & .     # & > 7 8 o.$.>.<.>.-.#.] 8 6 > + PXPXPXPXa.PXPXPXPXPXPXPXPXPXPX",
"PXPXPXPXPXPXPXPXPXPXPXPXPXPXPX_ PXPXPXPX>XPXPX-X' q.b.A.w.9.r.N.N.z.B x z.z.S S S b , #     PXPXO o 5 4 8 9 O.$.$.o.4 3 O O 5 8 8 8 9 o.O.$.-.>.tXgXVXDXDXZXpXr.8.r.t.r.x x x c H 1.yXrX6 .     # , , , > 5 8 o.+.o.9 8 4 7 W W PXPXPXPXPXPXPXPXPXPXPXPXPXPXPXPX",
"PXPXPXPXPXPXPXPXPXPXPXPXPXPX4XPXPXPXPXPX;X6X4X' V w.s.s.7.9.z.-.2.H 9.7.e.F ' D W , #     PXPXPXO o 5 8 o.$.wXuXuX>.+.5 * h a 5 3 a x Z 9 Q o.#.;.wXsXhXDXSXvXUXC.C.H f f f g k x *.fXsX7 . # # $ , b S , > 6 W ^ W A A W ^ x.x.PXPXPXPXPXPXPXPXPXPXPXPXPXPXPXPX",
"PXPXPXPXPXPXPXPX8X8XPXPXPX5X5XPXPXPXPXPX>X6X4XV z r.i.q.l r.n.<X:XJ 0.q.H ] :X] n <     PXPXPXPXO O 3 8 O.>.fXVXVXsX;.9 s 0.z 5 3 z q.x A 7 8 9 +.%.;.rXsXgXBXDXSXvXH i h c l 3.j z pXfX7 . < < < , n ~ W A b ^ x.z.~ ~ z.N.A.N.x.PXPXq.PXPX3.4.PXPXPXPXPXPXPXPX",
"PXPXPXPXPXPXPXPXPXPXPXPX8X6X4X8XPXPXPXPXPX,X:XV h x 0.7.l H t.J ..1XJ 8...1X| 6 , #   PXPXPXPXPXPXO O 4 o.;.sXVXAXVXuX$.Z 4.3.z @.H 7.0.8.6 5 5 x r.@.-.>.B.tXdXzXZ.C.pXpXpXV.x u c pXfX8 . # , , , v W ^ ~ S ^ x.x.z.~ t.b.[.[.N.N.z.PXPXPXg k 0.PXPXPXPXPXPXPX",
"PXPXPXPXPXPXPXPXPXPXPXPX8X,X,X8XPXPXPXPXPX{ ` t h l 3.3.l 8.9.0.S.0X| ..2X2XA , $ #   PXPXPXPXPXPXX O 3 0 $.eXhXAXAXhX<.F i k 8.1.*.x q.w.F q 6 7.7.G 9 +.&.-.1.t.y.bXFXFXGXvXH u c pXfXq + # , , , , S z.^ S H z.c.x.~ 5.w.A.A.N.z.z.PXPXPXu j 7.PXPX4.4.PXPXPX",
"PXPXPXPXPXPXPXPXPX4X;X,XPX4X6X,XPXPXPXPXPX_ ` t k 7.3.g l 9.q.0.8...1X1X1X..s % $ PXPXPXPXPXPXPXPXPXO O 4 o.:.uXVXFXDXiX&.& t Z %.:.M.w.w.:.2.D 8.k & 3 5 0 @.*.H *.pXLXZXHXFXkXn.s pXkXq + # < , b v v ~ ~ p c 9.u.u.B c 5.u.y.t.B z 3.PXPXr f k PXPXPXPXPXPXq.",
"PXPXPXPXPXPXPXPX5X4X;XPXPX5X6X;X-XPXPXPXPX| ' s 5.0.k u c 7.q.6.h 6 <X7X] p r @ $ PXPXPXPXPXPXPXPXPXPXX o 8 +.,.hXAXSXiX*.a & 4 9 -.B.r.9.V.1.&.s r   X O 6 Z 8.H +.:.rXsXBXAXFXpXH pXgX8 + # # , S b v S n i l 5.0.0.8.h g 6.7.l u u 3.6.PXu f k PXPXPXPXPX0.0.",
"PXPX-X>X>X;X4X8XPXPXPXPXPXPX6X>X>X>XPXPX>.:.*.^ x 3.g y y k 6.j V } :X:XV i r @ PXPXPXPXPXPXPXPXPXPXPXPXO 5 8 -.yXDXDXm.9.0.s 5 4 9 +.s 3.u.t.+.& = o o O p l 0.z 5 9 %.-.qXyXLXjXpXjXgXPXPXPX# < S S n b Z r.r.B 5.7.7.j f j 6.0.j u k 6.0.3.4.0.PXPXPXPXPXj j ",
"PXPX-X>X>X,X4X5XPXPXPXPXPXPXPX>X>X>XPX`.<.V.M.*.H g g f r u j d ' } } ' h f r u PXPXPXPXPXPXPXPXPXPXPXPXPXO 5 +.wXhXvXm.w.w.z 4 8 9 o.F x 0.8.D &   6 4 * h 7.0.i O 5 8 9 O.:.iXdXhXdXsXPXPXPX  < b S W b Z y.t.H l 3.6.j u f 4.0.3.f j 3.6.3.4.0.6.PXPXPXPXj u ",
"PXPXPXPXPX8X4X,X4X8XPXPX8XPXPXPX>X:X3XeX>.=.^ ! Z i k k y y r ' ` w d h 4.j r g 0.p.PXPXPXPXPXPXPXPXPXPXPXO O 8 :.sXLXiX*.F G 9 O.-.<.rXV.z d v % a ! Q v 7.q.6.t O 3 4 8 8 9 $.,.uXtXeXPXPXPX  # < n ~ b z 9.r.r.x g g g f u j 4.3.j f g j g j k f e PXPXa.PXPX",
"PXPXPXPXPX8X4X,X4X4XPX4X4XPXPXPX<X2XlXsXrX1.^ W m y k 3.j u e '  ...J 3.4.l a h 7.i.p.PXPXPXPXPXPXPXPXPXPXX O 4 #.eXgXyX;.] q 8 o.*.V.B.1.s t % @ % S A s 7.0.k t 3 8 o.O.8 4 8 #.>.,.wXPXPXPXPX# # v n v s l x 8.5.k f f g g g g g c H n.n.n.n.n.z e PX0.p.PXPX",
"PXPX[ { -XPX8X8X,X:XPX:X:XPXPXPXeXlXNXBXfXiXM.! v r u j 6.k r @ ' 0X..j j s G s 3.q.p.a.PXPXPXPXPXPXPXPXPXPXX o 9 >.uXtX;.9 4 5 4 Z 8.H S d r @ = # , % r k k u * 8 $.<.,.%.4 3 8 #.PXPXPXPXPXPXPX# < v p p p d j 0.0.j g j 3.g y r H pXCXCXDXDXvX*.e r k 0.PXPX",
"PXPX[ { PXPXPX8X4X,XPXPX{ PXPXPXdXgXMXMXVXvXpXB.2...V i k l s w ' 1XJ 3.f i H H x 0.p.a.PXPXPXPXPXPXPXPXPXPXX O 4 $.,.B.*.Z z s , z 0.c p i g k u t @ @ e r t @ 6 +.>.iXeX$.4 O 5 o.PXPXPXPXPXPXPX  # $ % p p t u 6.7.k g f g H *.*.V.LXDXmXmXmXmX`.*.*.t.k 7.PX",
"PXPXPXPXPXPXPXPX8X5X,XPXPX[ | rXkXMX9XMXFXKXDXhXMX7X| v r s S  .` V 3.6.u f 7.H *.9.i.a.PXPXPXPXPXPXPXPXPXPXX O o o.-.=.^ 5.0.7.Z x q.3.y f 6.q.7.j u r @ = O O 4 @.V.`.,.O.3 O O PXPXPXPXPXPXPXPXPX# # $ p f y r h k k u r r *.fXvXvXjXcXoX+X+XoX].sXhXB.s 4.q.",
"PXPXPXPXPXPXPXPXPX4X>X;X[ _ | eXjXNXMXMXHXKXZXBXMX9X2X| C m F } ` d g j y u k Z F 5.q.p.a.PXPXPXPXPXPXPXPXPXPXX O q O.$.^ z 3.6.9.9.6.h i 3.0.0.3.k 6.g @ & o O a H t.n.=.0 O O PXPXPXPXPXPXPXPXPXPXPX  # % f y r f j j Z @.*.B.gXVXnX].}.OX#X#XOX|.cXhXsXV.r.3.",
"PXPXPXPXPX[ [ PXPXPX;X-X[ _ | tXgXNXVXZXAXDXNXdXuXrX7X2XD b D ` ` t y r u u r * C l 0.i.a.a.PXPXPXPXPXPXPXPXPXPXO 5 9 $.&.v p l 0.6.i p s 7.7.k u j q.4.t & > % h 6.5.x F 5 X PXPXPXPXPXPXPXPXPXPXPXPXPX  % t y u j j g *.,.uXsXsXhXcX}./.+X&X&X+XXX}.].fXgX*.e ",
"PXPX5XPXPXPXPXPXPXPXPXPX} ] 2.tXfXgXBXCXCXMXMXuX`.>.1X<X] ! Q 1 w t e r g j i * 6 h 6.q.p.a.PXPXPXPXPXPXPXPXPXPXX o 4 +.+.7 G F H x d t i j j f g 3.0.3.y a p t f j z Z 7 & X PXPXPXPXPXPXPXPXPXPXPXPXPXPX$ % t u 3.k u @.<.tXtXtXfXaX!./.OX#X#XOX/.^.).aXgXB.PX",
"PXPX5XPXPXPXPXPXPXPXPXPXPX#.:.eXyXfXdXgXdX9X7X3X>.#.| } ] @.! 5 = @ e r j k h C 6 h 4.0.i.i.PXPXPXPXPXPXPXPXPXPXX O 3 0 9 8 9 +.F Z h f f y r y j 3.3.g y y i y r d D 0 5 O X PXPXPXPXPXPXPXPXPXPXPXPXPXPXPX% @ u 3.j r F :.`.`.,.yXaX).^.{.OXOX{.^.~.~.).pXPXPX",
"[ :XPX>X-XPXPXPXPXPXPXPXPXO.-.wXtXtXuXyXtX2X4X9X3Xo.q ] O.$.%.5   % t y u u i C 6 i 3.0.q.q.PXPXPXPXPXPXPXPXPXPXPXX O 4 4 5 4 4 a c 6.j y e r u g g u y r p a * $ & 4 5 O O PXPXPXPXPXPXPXPXPXPXPXPXPXPXPXPXPXe r u y r B x._.`.1.eXsXaX}.{.XXXX{.^.~.E.c.N.'.kX",
"[ PXPX-X-XPXPXPXPXPXPXPXPXo.$.>.wXrXrXwX<.| :X8X2X0 8 o.-.:.%.5 & 0 C d t t z A G h k 6.7.7.PXPXPXPXPXPXPXPXPXPXPXX O o 3 > * % t j 0.3.f y y f u r @ @ @ * > O O o 3 o X PXPXPXPXPXPXPXPXPXPXPXPXPXPXPXPXPXPXPXe e @ e N j.^.).B.uXfXfXaX}.oX}.{.^.W.l.j.h.`.sX",
"PXPXPXPXPXPXPXPX;X;XPXPX8 o.#.-.:.;.>.>.:.| :X8X2X4 0 $.,.:.o.> ] 2X2.A * n j.^ D c 3.4.3.3.PXPXPXPXPXPXPXPXPXPXPX+ X O O # c 6.f u j 6.6.j u y r @ =   & # # + X O O O X PXPXPXPXPXPXPXPXPXPXPXPXPXPXPXPXPXPXPXPXPXPXPXN g.l.).fXjXhXhXkXcXnXcX^.W.E.j.f.f.M.rX",
"PXPXPXPXPXPXPXPX;X;XPXPXq 9 o.#.$.$.-.-.$.] } 4X<X| $.>.3X3X] ] 1X7X3XS b / Q.(.^ x 3.3.j g PXPXPXPXPXPXPXPXPXPXPX9 8 o.D p 4.0.g u g 4.6.g f u t @ = $ * % $ > 0 o.9 8 4 8 PXPXPXPXPXPXPXPXPXPXPXPXPXPXPXPXPXPXPXPXPXPXN.N.).cXCXVXVXBXhXjXNXvX|.W.j.f.g.f.=.;.",
"PXPXPXPXPXPXPXPXPXPXPX5 4 8 9 o.+.#.#.#.+.0 ] } <X9XlXlX9X4X:X4X7X3XH x / G.J.Q.W.9.k g f u PXPXPXPXPXPXPXPXPXPX%.:.wXfXC.9.3.j u f k j u p h k a & e g 3.u s ^ B.tXtX,.-.#.o.PXPXPXPXPXPXPXPXPXPXPXPXPXPXPXPXPXPXSXZXVXnXnXnXDXSXVXVXSXBXfXuXsXvX).f.d.d.d.^ %.",
"PXPXPXPXPXPXPXPXPXPXPX1 5 4 8 8 9 o.o.o.9 7 4 _ ,X7X9X9X8X6X:X0X3X*.x c / D.Y Q.~.9.j f u u PXPXPXPXPXPXPXPXPX%.-.rXfXbXm.7.g d s z j f d A 8.0.H 6 r j 6.6.r.M.fXBXhXsX,.$.o.PXPXPXPXPXPXPXPXPXPXPXPXPXPXPXPXPXPXBXBXBXDXAXAXAXAXSXZXZXBXsXrXeXsX'.c.g.e.N W o.",
"PXPXPX;X;XPXPXPXPXPX-X` 5 5 4 8 8 9 9 0 4 6 6 } ;X,X7X8X5X,X} X.=.8.k h P L ; ( k.9.j u PXPXPXPXPXPXPXPXPXPXO.$.>.uXpXm.9.g p C @.Z f r a -.y.p.t.W d u k i.s.'.kXVXBXsX,.$.9 8 PXPXPXPXPXPXPXPXPXPXPXPXPXPXPXPXgXgXdXdXgXhXBXVXSXAXZXLXhXdXtX<.>.tXpXz.e.M S 9 ",
"PXPXPXPX;XPXPXPXPXPX-X` 3 3 3 3 5 5 4 3 2 6 F 2.<X-X6X4X<X:X} X./ l g p < ; - n e.5.g u PXPXPXPXPXPXPXPXPXPXo.$.>.uXpXr.g a C &.<.n.k i C $.t.0.H *.*.Z g q.s.V.dXVXVXdXwX%.9 8 +.PXPXPXPXPXPXPXPXPXPXPXPXPXPXgXsXuXtXeXiXtXyXsXgXVXVXhXgXsXtX<.$.<.rX*.B M v 4 ",
"PXPXPXPXPX-X-X;X-X-XPX3 3 o o 2 3 3 3 3 3 A =.iX3X{ >X:X' ` { X.) h p < : : o p g j g u PXPXPXPXPXPXPXPXPX4 9 #.-.rXB.Z t 6 o.:.yXC.0.z 9 D Z i F :.tX*.y 4.r.1.iXdXhXsX>.+.q 8 $.tXsXfXPXPXPXPXPXPXPXPXVXVXBXfXeX,.>.>.>.>.,.wXrXdXhXgXsXtXtX<.#.O.#.O.S B v 3 ",
"PXPXPXPXPXPX;X;X{ [ [ 1 3 5 8 o.#.$.-.-.%.1.`.iX3X;X;X{ _ [ [ G B p $ : > 3 O t g k j PXPXPXPXPXPXPXPXPX-.] q 8 D *.t.s & 5 8 @.n.y.7.H #.C F *.$.:.,.@.% f z Q #.2.:.$.o.4 3 8 $.tXgXBXBXPXPXPXPXPXPXBXBXgXsXrX;.$.$.-.>.,.eXrX,.rXtXsXuXrX,.:.O.9 8 8 6 v , PX",
"PXPXPXPXPXPXPXPX_ _ [ 1 o 4 +.;.wXtXsXpX`.iXtX3X1X>X-X{ ;X-X_ c l * > : 4 4 O t j 4.6.PXPXPXPXPXPXPXPXyX<.O.4 o & z 5.a 3 3 5 C 8.7.x V.V.z *.iXrX1.W C 6 d y % & o o o o O o 8 #.wXgXVXVXCXPXPXPXPXhXhXdXtX>.$.+.9 +.-.<.tXdXsXwX:.:.rXrX<.-.%.O.8 o o o o PXPX",
"PXPXPXPXPXPX-X_ PXPXPX1 O 3 0 #.;.wXiX`.V.1.3X9X0X-X[ -X6X,X} h J 1X| P 4 & @ y k 0.q.PXPXPXPXPXPXPXVXyX;.o.9 8 4 s z 6 4 8 9 @.n.n.V.sXpXw.m.gXfXV.8.H +.a y h a 4 q 9 o.9 8 4 9 $.uXBXZXVXhXPXPXgXdXyXwX-.O.9 4 5 8 O.<.sXBXgXtX;.$.-.;.;.%.o.9 5 O O O O PXPX",
"PXPXPXPXPX>X-X_ PXPXPXPXO O 3 8 O.$.=.=.*.Q O.7X<X_ ` } 4X,X` d ..7X2X+.5 = e u 3.q.p.PXPXPXPXPXPXAXBXeX$.+.-.-.%.Q A 7 8 o.%.:.V.pXjXVXbXs.A.vXgX'.u.t.%.a y k z +.$.>.,.>.$.9 4 ] >.sXVXVXBXPXPXkXaX`.%.9 8 3 O O o 9 >.dXZXBXuX>.$.%.$.$.+.9 4 o O O X X PXPX",
"PXPXPXPX;X{ [ PXPXPXPXPXPXX O 3 q 0 F A 7 5 q | ..V d V ....V t ' ,X| 4 o = e y j q.p.a.PXPXPXPXAXBXuX$.-.L.sXdXuX:.Q 4 8 o.%.*.y.Z.VXAXSXbXZ.A.bXvXC.M.%.6 @ u i H B.sXdXfXtX-.9 q O.,.gXVXZXhXcXmX%X(.! 4 PXPXPXX O 4 >.dXZXBXuX;.$.$.#.o.o.8 3 O O X X PXPXPX",
"PXPXPX;X-X_ PXPXPXPXPXPXPX; ; > 5 6 , , > & * C s g k l m c g , q } ` 1 X = e r f 7.i.a.PXPXPXAXVXsX>.#.>.gXSXAXBXrX&.8 4 9 @.t.q.A.CXAXHXHXZ.w.zXCXpX1.O.q & a f 8.pXCXZXZXBXtX$.8 8 %.rXhXSXNXnX*XOXE.W 2 PXPXPXX X 3 ;.dXVXgXeX-.$.;.$.9 9 4 o O X X X PXPXPX",
"PXPX[ PXPXPXPXPXPXPXPXPXPXF.D.U P A S b , m z 5.g y j k h f h ) T ] } { PXPXPXr y j 7.q.PXPXFXVXsX>.$.>.sXAXGXFXBXtX-.9 4 4 H r.6.m.gXDXAXKXC.9.UXgXtX-.0 5 4 F 8.w.'.nXKXFXAXVXtX%.9 9 %.tXVXZXmX=X^.j.PXPXPXPXPXPXX 3 :.fXBXsX>.$.;.uX,.O.8 3 o O X PXPXPXPXPX",
"PXPX[ PXPXPXPXPXPXPXPXPXPXJ.H./ ) ~ W n n x 9.0.k @ u j k g i / K./ | { PXPXPXPXr u 3.0.PXPXDXdX,.$.-.sXVXGXGXAXhXtX:.o.4 5 Z H z *.yXgXVXZXpXt.B.yX,.&.4 3 8 #.t.y.'.nXKXHXGXFXBXrXO.8 9 ;.fXDXmXoXW.f.PXPXPXPXPXPXPX5 <.gXgXtX$.%.>.sXrX#.8 o O O X PXPXPXPXPX",
"PXPXPXPXPXPXPXPXPXPXPXPXK./ ! ) E E ~ B M 7.q.q.j = @ u 3.k z H.P.Y.X.1 PXPXPXPXPXPXPXPXvXVXgXwX$.$.rXVXHXGXFXCXsXwX-.o.4 5 6 C S *.wXyXgXhXsXB.rXL.-.9 3 3 q +.*.V.tXjXSXFXGXGXFXBX>.9 8 +.<.gXnX}.~.PXPXPXPXPXPXPXPXPXdXhXfX<.o.O.;.tXwX#.8 o O X PXPXPXPXPXPX",
"PXPXPXPXPXPXPXPXPXPXPXH./ ! n B e.u.e.e.e.7.q.q.k = = e g h n H.I.U.G.I PXPXPXPXPXPXPXPXNXjXaX1.O.<.gXFXGXFXVXdXeX;.#.9 4 3 2 4 D &.-.wXtXyXuXrX>.-.+.4 O o 4 9 $.>.rXfXBXAXFXGXJXKXyX:.^ ! &.eXaX|.|.PXPXPXPXPXPXPXPXPXBXhXtX$.8 O.;.rX;.+.4 o O PXPXPXPXPXPXPX",
"PXPXPXPXPXPXPXPXPXPXPX) ) b m M w.i.q.9.M 5.7.q.4.e = = r p P Y G.K.I.P.PXPXPXPXPXPXPXhXsXpX}.(.%.yXSXGXFXZXdXeX>.$.o.q 5 5 o 3 4 9 +.$.>.,.>.-.$.o.8 o O O 5 0 O.-.>.tXgXVXAXGXJXGXVXaX).( 9 $.eXnXnXjXPXPXPXPXPXPXPXdXgXsX;.o.8 $.>.>.$.9 5 O PXPXPXPXPXPXPXPX",
"PXPXPXPXPXPXPXPXPXPXPXx.x.E E B e.w.w.e.B B l 0.4.y = = @ % K L T D.K.U.PXPXPXPXPXPXPXgXpX).XX).<.hXFXFXZXgXtX>.$.9 5 o 7 ^ ~ b 5 5 8 o.#.$.$.O.o.8 3 O X O 3 4 9 #.-.,.yXhXVXFXGXGXFXnX!.E.(.&.:.fXLXCXPXPXPXPXPXPX].sXuX,.O.8 0 -.>.$.o.4 o O PXPXPXPXPXPXPXPX",
"PXPXPXPXPXPXPXPXPXPXPXPX^.E.h.W ~ ~ ^ ~ W S B 5.6.g @ = @ % - ; R L F.K.PXPXPXPXPXPXPXfX].^.OX|.yXDXFXVXgXtX>.$.P q > > ^ !.E.E , o 5 8 9 o.o.9 4 3 o o o O o 5 8 o.%.:.rXsXLXSXFXGXGXnX).{.=X=.O.<.dXZXPXPXPXPXPX{.|.tX>.&.8 8 o.-.-.o.8 5 O X PXPXPXPXPXPXPXPX",
"PXPXPXPXPXPXPXPXPXPXPXPXPXPXg.W ! / / / / ! W 8.7.6.y @ u r PXPX: ; L F.Q.PXPXPXPXPXlXtX|.OXOX|.kXZXSXgXeX>.$.] 5 ! x.(._.{.~.h.E , o 3 4 8 4 5 o & a m v > o 3 4 9 +.$.;.eXdXVXAXHXGXKXcX%X+X_.(.$.rXgXdXPXPXPXOX/.).;.O.8 q 9 #.%.O.8 5 o O PXPXPXPXPXPXPXPXPX",
"PXPXPXPXPXPXPXPXPXPXPXPXPXPXPXW / G.F.F.Y ! ~ e.7.0.k f k k PXPXPX: K / Q.OXPXPXPXsXtX`.%X*XXX|.gXCXhXtX;.%.o.8 7 (.+X*X$X{.W.k.f.n O O o 3 3 O X $ M e.N , o o 3 4 9 +.$.>.tXhXDXAXGXGXAXcX{.#X%X=.-.rXyXfXPXPXOX^.x.O.0 7 Q &.%.o.8 5 O O PXPXPXPXPXPXPXPXPXPX",
"PXPXPXPXPXPXPXPXPXPXPXPXPXPXL.=.=./ / / ) B 8.7.9.8.5.4.6.6.6.PXPXE x.Q.^.PXPXPXPXsXpX_.=X#X/.].sXfXtX>.#.9 4 ! (.oX&X&X+X^.W.k.f.n X X O O O O X $ N d.g.B v O O 2 4 0 +.$.<.yXhXVXFXHXFXcX!.$X*X_.=.-.rXyXPXPXPXPXPXPX( x.x.^ o.q 3 O O X PXPXPXPXPXPXPXPXPXPX",
"PXPXPXPXPXPXPXPXPXPXPXPXPXP.L.(.=.=.=.( ^ e.7.0.e.W 8.7.6.4.3.PXPXj.~.{.PXPXPXPXPXyXaX}.*X*X}.].yXeX>.%.O.Q Q =.*X&X*X+X{.~.E.j.d.m # X X X X X + % N g.f.g.B , > > > 5 8 o.$.<.uXhXDXAXAXcXW.+X&X$X).$.<.rXPXPXPXPXPXPX!.W.E.( D 6 & X X X PXPXPXPXPXPXPXPXPXPX",
"PXPXPXPXPXPXPXPXPXPXPXPXU.U.Y.Y.Y.Y.Y.Y.L.( e.9.B ! n B B c j k 5.e.v.PXPXPXPXPX;.uXkXnXmXmXnXnXkXqX#.9 =._._.%X&X*XOX{.^.E.k.f.e.M m % PXPXPXPXPXm M d.f.j.j.x.x.E > X 2 5 9 %.>.uXgXVXZXvXaX%X#X&XoX(.=.:.wXPXPXPXPXPXPXPXPXh.z.E m O + PXPXPXPXPXPXPXPXPXPXPX",
"PXPXPXPXPXPXPXPXPXPXPXP.U.U.U.U.R.T.T.T.T.L.^ e.B I ! W n m h j 3.3.3.PXPXPXPX+.$.`.sXhXVXAXAXSXBXeX$.! (.#X&X&X*XOX/.!.E.k.h.d.N M M PXPXPXPXPXPXPXM d.f.k.E.^.~.E.^ Q Q ! Q 9 #.>.tXgXhXhXdX}.OX&X#X{.=.2.<.PXPXPXPXPXPXPXPXPXk.f.B # PXPXPXPXPXPXPXPXPXPXPXPX",
"PXPXPXPXPXPXPXPXPXPXPXP.P.U.R.U.U.U.U.T.T.R.(.u.c K T / ! S n PXPXj k 4.PXPX9 9 Q #.>.eXsXgXBXVXVXdX`.).oX&X&X*XOX/.!.E.l.j.d.N M M PXPXPXPXPXPXPXPXPXd.g.j.W./.XXXXoX_._.).x.7 q &.1.rXyXyXiX).^.*X&X=X`.-.>.PXPXPXPXPXPXPXPXPXPXPXPXPXPXPXPXPXPXPXPXPXPXPXPXPX",
"PXPXPXPXPXPXPXPXPXPXPXK.K.P.U.U.U.P.I.U.T.T..Xu.5.v P U ! / / PXPXf j 3.PXPX8 4 4 8 +.-.>.rXtXfXgXdXaX%X=X&X&X+X/.^.W.l.j.g.N M M PXPXPXPXPXPXPXPXPXPXPXd.h.E./.XX+X&X&X#X$X}.( D 0 O.:.,.eXiX'.|.mXmXmXaXwXwXPXPXPXPXPXPXPXPXPXPXPXPXPXPXPXPXPXPXPXPXPXPXPXPXPX",
"PXPXPXPXPXPXPXPXPXPXPXG.G.K.P.U.I.K.K.K.R.T..Xv.w.5.v K Y H.J./ &.PXg g PXPX3 o 2 5 9 #.$.-.-.>.wXtXdXnXmX&X+X{.^.W.l.j.g.N M PXPXPXPXPXPXPXPXPXPXPXPXPXPXd.j.!./.XX+X*X&X&X*XoXx.4 8 O.-.eXgXnXKXKXGXKXCXgXfXPXPXPXPXPXPXPXPXPXPXPXPXPXPXPXPXPXPXPXPXPXPXPXPXPX",
"PXPXPXPXPXPXPXPXPXPXPXD.F.K.K.P.K.F.U Y K.T..Xc.v.v.g./ Y G.K.J.H.PXPXf PXPX& 3 8 o.$.>.,.,.>.;.;.<.eXdXnX=XOX/.W.k.f.g.e.M PXPXPXPXPXPXPXPXPXPXPXPXPXPXPXN g.k.!./.XX+X&X&X&X&X(.4 4 +.>.sXCXSXAXFXAXZXBXgXfXuXPXPXPXPXPXPXPXPXPXPXPXPXPXPXPXPXPXPXPXPXPXPXPXPX",
"PXPXPXPXPXPXPXPXPXPXPXY Y F.K.I.G.L : ; T I.R.(.).{.{.Q./ Y G.K.P.PXPXPXPXPX, 7 #.>.uXhXBXhXdXtX>.-.-.wXyXaX}.^.E.g.N N M PXPXPXPXPXPXPXPXPXPXPXPXPXPXPXPXM N g.k.^.{.OX+X&X&X&X).7 q #.iXgXBXhXhXBXhXfXyXtXeXwX>.PXPXPXPXPXPXPXPXPXPXPXPXPXPXPXPXPXPXPXPXPXPXPX",
"PXPXPXPXPXPXPXPXPXPXPXT T Y G.K.D.K - + ; G.Y.Y.|.*X#X_.U I F.K.I.PXPXPXPXPXp D -.eXhXAXFXFXZXgXtX;.$.-.>.`.'.).k.d.M M PXPXPXPXPXPXPXPXPXPXPXPXPXPXPXPXPXPXM N f.E.!.^.XX+X*X&X_.Q O.;.eXuXeXwX,.wX,.>.:.-.:.:.;.PXPXPXPXPXPXPXPXPXPXPXPXPXPXPXPXPXPXPXPXPXPXPX",
"PXPXPXPXPXPXPXPXPXPXPXL L I Y G.D.L - + : U K.U..X&X#X_.P L Y G.K.PXPXPXPXPXd F -.tXBXFXGXGXFXZXgXrX-.O.+.#.:.M.f.d.M PXPXPXPXPXPXPXPXPXPXPXPXPXPXPXPXPXPXPXPXM d.j.k.E.!./.OX&X_.%.:.,.<.-.O.o.o.o.o.o.9 9 o.#.$.PXPXPXPXPXPXPXPXPXPXPXPXPXPXPXPXPXPXPXPXPXPXPX",
"PXPXPXPXPXPXPXPXPXPXPXR R K T Y D.Y ; - - L G.U..X#X Xc.x./ U D.G.PXPXPXPXPXa A %.rXgXSXFXFXAXZXhXtX;.O.9 8 o.@.~ B PXPXPXPXPXPXPXPXPXPXPXPXPXPXPXPXPXPXPXPXPXPXN d.g.j.E.W.^.+X_.-.:.-.O.9 4 8 o.+.#.O.8 4 4 9 +.+.PXPXPXPXPXPXPXPXPXPXPXPXPXPXPXPXPXPXPXPXPXPX",
"PXPXPXPXPXPXPXPXPXPXPXPX; ; K T D.F.I ; - K D.U..XOXv.u.!.H.L U D.PXPXPXPXPX4 7 ! 1.tXhXVXVXVXhXfXtX>.#.8 5 5 8 9 +.PXPXPXPXPXPXPXPXPXPXPXPXPXPXPXPXPXPXPXPXPXPXM M e.f.k.l.E.^.).-.#.o.4 4 8 O.-.>.,.<.%.9 4 8 9 o.o.PXPXPXPXPXPXPXPXPXPXPXPXPXPXPXPXPXPXPXPXPX",
"PXPXPXPXPXPXPXPXPXPXPXPXPX: ; K U D.D.T L T G.U..X^.u.e.E.( R I U PXPXPXPXPXq 0 Q %.1.tXsXfXfXyXrX<.-.+.8 3 5 8 +.<.PXPXPXPXPXPXPXPXPXPXPXPXPXPXPXPXPXPXPXPXPXPXPXPXPXg.f.h.j.l.x.O.9 8 8 #.<.uXdXgXhXhXsX,.%.9 4 8 8 PXPXPXPXPXPXPXPXPXPXPXPXPXPXPXPXPXPXPXPXPX",
"PXPXPXPXPXPXPXPXPXPXPXPXPX- - : L Y G.G.Y F.K.U..XW.g.e.h.E ; L T PXPXPXPXPX4 9 o.Q %.1.,.rXwX<.-.$.+.9 4 4 9 O.:.eXsXPXPXPXPXPXPXPXPXPXPXPXPXPXPXPXPXPXPXPXPXPXPXPXPXPXd.g.g.g.~ 0 q 9 $.rXgXZXFXFXGXGXAXhXrX#.8 4 5 PXPXPXPXPXPXPXPXPXPXPXPXPXPXPXPXPXPXPXPXPX",
"PXPXPXPXPXPXPXPXPXPXPXPXPXPX- : ; I D.G.K.K.U.R.R..XQ.v.e.N E P K PXPXPXPXPX4 q 9 Q O.$.-.:.-.%.o.9 4 4 8 o.%.>.yXuXrX-.PXPXPXPXPXPXPXPXPXPXPXPXPXPXPXPXPXPXPXPXPXPXPXPXPXe.N n 6 4 o.-.eXgXVXFXGXGXJXJXGXAXgXrX%.8 5 PXPXPXPXPXPXPXPXPXPXPXPXPXPXPXPXPXPXPXPXPX",
"PXPXPXPXPXPXPXPXPXPXPXPXPXPXPX- : K T F.K.I.U.U.R.R.Q.j.l M d.P ; PXPXPXPXPX3 5 4 9 9 o.O.O.o.9 8 4 4 8 #.;.,.tXfXrX-.-.>.PXPXPXPXPXPXPXPXPXPXPXPXPXPXPXPXPXPXPXPXPXPXPXPXPXm > 3 4 #.,.fXBXDXAXFXGXGXGXGXAXVXsX>.o.8 PXPXPXPXPXPXPXPXPXPXPXPXPXPXPXPXPXPXPXPXPX",
"PXPXPXPXPXPXPXPXPXPXPXPXPXPXPXPX- ; L Y G.G.K.P.P.Y.Q.g.i h N < - PXPXPXPXPXO o 3 5 4 8 8 8 4 4 5 4 9 -.tXgXgXyX<.#.o.>.sXVXPXPXPXPXPXPXPXPXPXPXPXPXPXPXPXPXPXPXPXPXPXPXPXPXPX3 5 8 %.>.tXdXhXZXAXFXFXFXAXVXhXsX,.$.+.PXPXPXPXPXPXPXPXPXPXPXPXPXPXPXPXPXPXPXPXPX",
"PXPXPXPXPXPXPXPXPXPXPXPXPXPXPXPX- : ; T D.F.G.G.K.K.x.e.i i M < - PXPXPXPXPXX O O O o 3 5 4 5 4 8 +.:.tXhXBXdXwX#.9 O.tXhXhXPXPXPXPXPXPXPXPXPXPXPXPXPXPXPXPXPXPXPXPXPXPXPXPXPX3 5 8 O.:.rXuXdXhXBXVXVXVXhXgXsXeX>.$.O.PXPXPXPXPXPXPXPXPXPXPXPXPXPXPXPXPXPXPXPXPX",
"PXPXPXPXPXPXPXPXPXPXPXPXPXPXPXPX- - ; K T Y Y T T / E d.PXPXPXPXPXPXPXPXPXPXPXO O O O o 3 5 4 o.$.wXsXBXBXfX<.O.8 o.<.gXgXeXPXPXPXPXPXPXPXPXPXPXPXPXPXPXPXPXPXPXPXPXPXPXPXPX3 o o 4 9 $.>.rXuXsXfXfXfXsXyXtXwX:.%.o.9 PXPXPXPXPXPXPXPXPXPXPXPXPXPXPXPXPXPXPXPXPX",
"PXPXPXPXPXPXPXPXPXPXPXPXPXPXPXPXPX- : ; K I I K L U E PXPXPXPXPXPXPXPXPXPXPXPXPXX O O 3 4 9 %.;.rXdXBXVXdXwX#.8 4 -.sXhXyX:.rXPXPXPXPXPXPXPXPXPXPXPXPXPXPXPXPXPXPXPXPXPXPX8 q 3 O 3 4 o.-.>.wXeXeXeXeXrX,.>.-.#.9 8 4 PXPXPXPXPXPXPXPXPXPXPXPXPXPXPXPXPXPXPXPXPX",
"PXPXPXPXPXPXPXPXPXPXPXPXPXPXPXPXPXPX- - : ; R K L T PXPXPXPXPXPXPXPXPXPXPXPXPXPXPXO o 5 o.-.,.yXgXBXhXfX,.#.8 4 9 rXBXfX<.%.yXFXPXPXPXPXPXPXPXPXPXPXPXPXPXPXPXPXPXPXPXPXPXO.o.4 o o 5 8 +.$.:.>.>.>.>.;.-.$.+.9 4 3 o PXPXPXPXPXPXPXPXPXPXPXPXPXPXPXPXPXPXPXPXPX",
"PXPXPXPXPXPXPXPXPXPXPXPXPXPXPXPXPXPXPX- - - ; K L T PXPXPXPXPXPXPXPXPXPXPXPXPXPXPXPXo 3 9 %.>.tXfXdXsX,.$.8 3 4 $.yXgXwX-.:.sXSXPXPXPXPXPXPXPXPXPXPXPXPXPXPXPXPXPXPXPXPXPX%.#.+.9 4 5 5 4 9 +.#.#.#.#.O.o.9 8 4 3 o O PXPXPXPXPXPXPXPXPXPXPXPXPXPXPXPXPXPXPXPXPX",
"PXPXPXPXPXPXPXPXPXPXPXPXPXPXPXPXPXPXPXPXPXPXPXPXPXPXPXPXPXPXPXPXPXPXPXPXPXPXPXPXPXPXPXo 4 9 O.-.,.wX>.%.9 5 o 9 ,.yXtX%.%.eXdXhXPXPXPXPXPXPXPXPXPXPXPXPXPXPXPXPXPXPXPXPXPX#.$.;.-.+.8 5 3 5 4 8 8 8 8 8 4 5 3 o o o o PXPXPXPXPXPXPXPXPXPXPXPXPXPXPXPXPXPXPXPXPX",
"PXPXPXPXPXPXPXPXPXPXPXPXPXPXPXPXPXPXPXPXPXPXPXPXPXPXPXPXPXPXPXPXPXPXPXPXPXPXPXPXPXPXPXPXo 3 4 9 O.#.o.8 3 2 4 #.rXtX<.9 $.fXfXsXhXPXPXPXPXPXPXPXPXPXPXPXPXPXPXPXPXPXPXPX8 9 %.<.rXwX-.O.9 4 5 3 o 3 3 o o o 5 4 4 5 5 PXPXPXPXPXPXPXPXPXPXPXPXPXPXPXPXPXPXPXPXPX",
"PXPXPXPXPXPXPXPXPXPXPXPXPXPXPXPXPXPXPXPXPXPXPXPXPXPXPXPXPXPXPXPXPXPXPXPXPXPXPXPXPXPXPXPXO O O 3 5 5 5 o O 3 9 -.eXwX-.8 $.gXtXwXgXVXPXPXPXPXPXPXPXPXPXPXPXPXPXPXPXPXPXPXo.9 O.<.uXdXuX,.-.O.9 4 5 5 3 3 3 4 9 9 9 8 4 PXPXPXPXPXPXPXPXPXPXPXPXPXPXPXPXPXPXPXPXPX",
"PXPXPXPXPXPXPXPXPXPXPXPXPXPXPXPXPXPXPXPXPXPXPXPXPXPXPXPXPXPXPXPXPXPXPXPXPXPXPXPXPXPXPXPXPXX O O O O O O O 3 8 $.wX>.%.8 -.kX,.-.fXBXPXPXPXPXPXPXPXPXPXPXPXPXPXPXPXPXPXPXrX:.%.$.qXsXgXgXsXtX,.:.$.#.O.O.#.$.$.#.9 4 5 PXPXPXPXPXPXPXPXPXPXPXPXPXPXPXPXPXPXPXPXPX",
"PXPXPXPXPXPXPXPXPXPXPXPXPXPXPXPXPXPXPXPXPXPXPXPXPXPXPXPXPXPXPXPXPXPXPXPXPXPXPXPXPXPXPXPXPXPXX X X X O O o 5 4 +.;.;.%.8 $.yX-.O.yXhXPXPXPXPXPXPXPXPXPXPXPXPXPXPXPXPXPXPXhXtX:.#.-.rXdXBXVXBXgXsXtXrX<.>.>.>.;.%.9 5 o PXPXPXPXPXPXPXPXPXPXPXPXPXPXPXPXPXPXPXPXPX",
"PXPXPXPXPXPXPXPXPXPXPXPXPXPXPXPXPXPXPXPXPXPXPXPXPXPXPXPXPXPXPXPXPXPXPXPXPXPXPXPXPXPXPXPXPXPXPXX X X O 5 5 5 3 8 O.-.$.8 +.rX%.+.tXgXPXPXPXPXPXPXPXPXPXPXPXPXPXPXPXPXPXPXVXgXtX-.%.-.wXsXLXVXSXZXCXhXsXeXwX;.%.] 4 o O PXPXPXPXPXPXPXPXPXPXPXPXPXPXPXPXPXPXPXPXPX",
"PXPXPXPXPXPXPXPXPXPXPXPXPXPXPXPXPXPXPXPXPXPXPXPXPXPXPXPXPXPXPXPXPXPXPXPXPXPXPXPXPXPXPXPXPXPXPXPXX X O 5 4 4 3 3 8 $.-.4 9 :.+.o.eXdXPXPXPXPXPXPXPXPXPXPXPXPXPXPXPXPXPXPXVXBXgXwX$.o.#.>.tXdXhXBXBXgXuXwX;.%.9 4 o O PXPXPXPXPXPXPXPXPXPXPXPXPXPXPXPXPXPXPXPXPXPX",
"PXPXPXPXPXPXPXPXPXPXPXPXPXPXPXPXPXPXPXPXPXPXPXPXPXPXPXPXPXPXPXPXPXPXPXPXPXPXPXPXPXPXPXPXPXPXPXPXPXPXPXO 4 9 8 5 5 O.-.4 4 #.o.o.wXuXPXPXPXPXPXPXPXPXPXPXPXPXPXPXPXPXPXPXdXBXBXfX:.4 8 o.%.-.>.<.<.>.$.O.9 8 5 O O PXPXPXPXPXPXPXPXPXPXPXPXPXPXPXPXPXPXPXPXPXPXPX",
"PXPXPXPXPXPXPXPXPXPXPXPXPXPXPXPXPXPXPXPXPXPXPXPXPXPXPXPXPXPXPXPXPXPXPXPXPXPXPXPXPXPXPXPXPXPXPXPXPXPXPXX 5 9 9 4 o o.%.q 4 9 9 +.>.rXPXPXPXPXPXPXPXPXPXPXPXPXPXPXPXPXPXgXsXhXVXBX,.4 o 5 4 8 9 9 o.9 8 4 o O O O X PXPXPXPXPXPXPXPXPXPXPXPXPXPXPXPXPXPXPXPXPXPXPX",
"PXPXPXPXPXPXPXPXPXPXPXPXPXPXPXPXPXPXPXPXPXPXPXPXPXPXPXPXPXPXPXPXPXPXPXPXPXPXPXPXPXPXPXPXPXPXPXPXPXPXPXPXO 3 9 9 3 4 9 8 4 4 9 O.-.wXyXPXPXPXPXPXPXPXPXPXPXPXPXPXPXPXFXBXsXgXVXVXeX8 3 o o 3 3 o o 3 o O O O O O PXPXPXPXPXPXPXPXPXPXPXPXPXPXPXPXPXPXPXPXPXPXPXPX",
"PXPXPXPXPXPXPXPXPXPXPXPXPXPXPXPXPXPXPXPXPXPXPXPXPXPXPXPXPXPXPXPXPXPXPXPXPXPXPXPXPXPXPXPXPXPXPXPXPXPXPXPXPXO 8 8 5 4 8 9 8 5 8 o.#.-.,.PXPXPXPXPXPXPXPXPXPXPXPXPXPXPXSXBXsXsXgXVXyX#.4 o O O 3 9 9 8 5 O O O X PXPXPXPXPXPXPXPXPXPXPXPXPXPXPXPXPXPXPXPXPXPXPXPXPX",
"PXPXPXPXPXPXPXPXPXPXPXPXPXPXPXPXPXPXPXPXPXPXPXPXPXPXPXPXPXPXPXPXPXPXPXPXPXPXPXPXPXPXPXPXPXPXPXPXPXPXPXPXPXPXO o 4 5 4 9 8 3 4 9 9 o.O.PXPXPXPXPXPXPXPXPXPXPXPXPXPXPXBXhXfXrXtXBXdX;.9 3 o 3 9 ;.<.%.9 4 o O PXPXPXPXPXPXPXPXPXPXPXPXPXPXPXPXPXPXPXPXPXPXPXPXPXPX",
"PXPXPXPXPXPXPXPXPXPXPXPXPXPXPXPXPXPXPXPXPXPXPXPXPXPXPXPXPXPXPXPXPXPXPXPXPXPXPXPXPXPXPXPXPXPXPXPXPXPXPXPXPXPXO O 3 o o 4 5 O 3 4 8 9 o.-.PXPXPXPXPXPXPXPXPXPXPXPXPXPXsXsXyX>.>.gXgX<.o.5 4 o.-.<.>.O.8 5 o PXPXPXPXPXPXPXPXPXPXPXPXPXPXPXPXPXPXPXPXPXPXPXPXPXPXPX",
"PXPXPXPXPXPXPXPXPXPXPXPXPXPXPXPXPXPXPXPXPXPXPXPXPXPXPXPXPXPXPXPXPXPXPXPXPXPXPXPXPXPXPXPXPXPXPXPXPXPXPXPXPX8 2 O O O O O O O O 5 9 o.#.>.rXPXPXPXPXPXPXPXPXPXPXPXPXPX,.rXrX$.$.yXyX>.o.4 9 -.wX:.+.8 5 o PXPXPXPXPXPXPXPXPXPXPXPXPXPXPXPXPXPXPXPXPXPXPXPXPXPXPXPX",
"PXPXPXPXPXPXPXPXPXPXPXPXPXPXPXPXPXPXPXPXPXPXPXPXPXPXPXPXPXPXPXPXPXPXPXPXPXPXPXPXPXPXPXPXPXPXPXPXPXPX>.eX>.%.9 5 O X X X O 5 8 +.:.<.<.>.<.sXPXPXPXPXPXPXPXPXPXPXPXPX%.$.%.9 9 ;.>.#.8 4 o.$.$.o.4 5 o PXPXPXPXPXPXPXPXPXPXPXPXPXPXPXPXPXPXPXPXPXPXPXPXPXPXPXPXPX",
"PXPXPXPXPXPXPXPXPXPXPXPXPXPXPXPXPXPXPXPXPXPXPXPXPXPXPXPXPXPXPXPXPXPXPXPXPXPXPXPXPXPXPXPXPXPXPXPXPX<.wXtXrX;.#.8 O X O o 4 o.$.>.uXsXtX-.-.yXkXPXPXPXPXPXPXPXPXPXPXPX9 8 4 3 5 o.o.8 4 8 o.o.4 3 o o PXPXPXPXPXPXPXPXPXPXPXPXPXPXPXPXPXPXPXPXPXPXPXPXPXPXPXPXPXPX",
"PXPXPXPXPXPXPXPXPXPXPXPXPXPXPXPXPXPXPXPXPXPXPXPXPXPXPXPXPXPXPXPXPXPXPXPXPXPXPXPXPXPXPXPXPXPXPXPXBXgXdXdXeX-.o.4 O O 5 9 %.>.iXsXgXdXtX$.O.,.].+XPXPXPXPXPXPXPXPXPX#.8 5 5 o 3 8 4 3 4 8 8 4 3 O PXPXPXPXPXPXPXPXPXPXPXPXPXPXPXPXPXPXPXPXPXPXPXPXPXPXPXPXPXPXPXPX",
"PXPXPXPXPXPXPXPXPXPXPXPXPXPXPXPXPXPXPXPXPXPXPXPXPXPXPXPXPXPXPXPXPXPXPXPXPXPXPXPXPXPXPXPXPXPXPXsXgXhXhXdX,.O.q o O 3 9 #.>.tXfXgXdXuX<.o.8 $.).XXPXPXPXPXPXPXPXPX>.-.9 4 3 o o 4 5 o 5 4 5 3 o PXPXPXPXPXPXPXPXPXPXPXPXPXPXPXPXPXPXPXPXPXPXPXPXPXPXPXPXPXPXPXPXPX",
"PXPXPXPXPXPXPXPXPXPXPXPXPXPXPXPXPXPXPXPXPXPXPXPXPXPXPXPXPXPXPXPXPXPXPXPXPXPXPXPXPXPXPXPXPXPX;.>.<.wXrX<.%.4 o O O 8 O.-.<.rXtXtXrX>.#.4 3 8 ( !.PXPXPXPXPXPXPXPXeXwX$.9 5 O O o o O o o O O 3 o.PXPXPXPXPXPXPXPXPXPXPXPXPXPXPXPXPXPXPXPXPXPXPXPXPXPXPXPXPXPXPXPX",
"PXPXPXPXPXPXPXPXPXPXPXPXPXPXPXPXPXPXPXPXPXPXPXPXPXPXPXPXPXPXPXPXPXPXPXPXPXPXPXPXPXPXPXPXPXPX`.V.=.%.#.&.8 O X O 5 O.>.rXeXrX,.>.-.+.4 o O 3 ~ j.PXPXPXPXPXPXPXPXdXsXrX-.9 5 O O O X O O O 5 o.-.wXPXPXPXPXPXPXPXPXPXPXPXPXPXPXPXPXPXPXPXPXPXPXPXPXPXPXPXPXPXPXPX",
"PXPXPXPXPXPXPXPXPXPXPXPXPXPXPXPXPXPXPXPXPXPXPXPXPXPXPXPXPXPXPXPXPXPXPXPXPXPXPXPXPXPXPXPXPXPXoX}.).! 4 8 4 O X 3 o.>.sXhXgXtX;.+.9 4 O O PXPXE g.PXPXPXPXPXPXPXdXhXBXhXuX;.o.4 O X X O 3 4 #.,.sXhXVXPXPXPXPXPXPXPXPXPXPXPXPXPXPXPXPXPXPXPXPXPXPXPXPXPXPXPXPXPXPX",
"PXPXPXPXPXPXPXPXPXPXPXPXPXPXPXPXPXPXPXPXPXPXPXPXPXPXPXPXPXPXPXPXPXPXPXPXPXPXPXPXPXPXPXPXPXPX+XOXW.S O 3 3 O X 3 o.;.eXsXuX<.#.8 3 O X PXPXPXPXd.PXPXPXPXPXPXsXgXBXVXBXdXwX%.8 o O O 5 8 O.>.sXjXhXhXgXPXPXPXPXPXPXPXPXPXPXPXPXPXPXPXPXPXPXPXPXPXPXPXPXPXPXPXPXPX",
"PXPXPXPXPXPXPXPXPXPXPXPXPXPXPXPXPXPXPXPXPXPXPXPXPXPXPXPXPXPXPXPXPXPXPXPXPXPXPXPXPXPXPXPX+X+XXX!.h.v X O O PXPXPX8 9 O.#.O.o.8 5 O O PXPXPXPXPXPXPXPXPXPXPXtXsXhXBXBXgXyX<.%.9 5 o o 4 O.;.tXdXfXsXsXyXyXPXPXPXPXPXPXPXPXPXPXPXPXPXPXPXPXPXPXPXPXPXPXPXPXPXPXPXPX",
"PXPXPXPXPXPXPXPXPXPXPXPXPXPXPXPXPXPXPXPXPXPXPXPXPXPXPXPXPXPXPXPXPXPXPXPXPXPXPXPXPXPXPXPX+XXX!.l.g., + X PXPXPXPX=.=.( ( ! 5 3 o O PXPXPXPXPXPXPXPXPXPXPXPXsXgXVXZXBXfXrX-.+.8 5 o o 4 O.;.tXfXfXfXdXgXgXhXPXPXPXPXPXPXPXPXPXPXPXPXPXPXPXPXPXPXPXPXPXPXPXPXPXPXPX",
"PXPXPXPXPXPXPXPXPXPXPXPXPXPXPXPXPXPXPXPXPXPXPXPXPXPXPXPXPXPXPXPXPXPXPXPXPXPXPXPXPXPXPXPXXX^.k.f.PXPXPXPXPXPXPXPX$X+XoX{.x.> PXPXPXPXPXPXPXPXPXPXPXPXPXPXPXdXhXSXSXBXyX>.+.9 4 o O O 5 9 $.>.iXsXgXBXVXVXhXgXPXPXPXPXPXPXPXPXPXPXPXPXPXPXPXPXPXPXPXPXPXPXPXPXPXPX",
"PXPXPXPXPXPXPXPXPXPXPXPXPXPXPXPXPXPXPXPXPXPXPXPXPXPXPXPXPXPXPXPXPXPXPXPXPXPXPXPXPXPXPXPXW.E.j.PXPXPXPXPXPXPXPX$X#XOX/.!.x.> PXPXPXPXPXPXPXPXPXPXPXPXPXPX,.wXrXtXeXwX<.$.9 4 3 O O O o 4 9 +.#.-.>.wXsXhXdXsXPXPXPXPXPXPXPXPXPXPXPXPXPXPXPXPXPXPXPXPXPXPXPXPXPXPX",
"PXPXPXPXPXPXPXPXPXPXPXPXPXPXPXPXPXPXPXPXPXPXPXPXPXPXPXPXPXPXPXPXPXPXPXPXPXPXPXPXPXPXPXPXh.h.PXPXPXPXPXPXPXPX+X+XXX!.l.j.f.PXPXPXPXPXPXPXPXPXPXPXPXPXPXPX;.$.&.O.Q Q #.+.8 3 O O X X O o 5 5 4 4 7 D :.rXrXrXPXPXPXPXPXPXPXPXPXPXPXPXPXPXPXPXPXPXPXPXPXPXPXPXPXPX",
"PXPXPXPXPXPXPXPXPXPXPXPXPXPXPXPXPXPXPXPXPXPXPXPXPXPXPXPXPXPXPXPXPXPXPXPXPXPXPXPXPXPXPXPXPXPXPXPXPXPXPXPXPXPXPXOXPXPXPXPXPXPXPXPXPXPXPXPXPXPXPXPXPXPXPX] &.(._.(.x.^ Q q 5 O O X X X O X X ! (.(.x.x.=.%.$.$.PXPXPXPXPXPXPXPXPXPXPXPXPXPXPXPXPXPXPXPXPXPXPXPXPXPX",
"PXPXPXPXPXPXPXPXPXPXPXPXPXPXPXPXPXPXPXPXPXPXPXPXPXPXPXPXPXPXPXPXPXPXPXPXPXPXPXPXPXPXPXPXPXPXPXPXPXPXPXPXPXPXPXPXPXPXPXPXPXPXPXPXPXPXPXPXPXPXPXPXPXPXPX8 ! oX&XOX/.c.7 O O O X X X X X O > (.*X$XOX{.( 4 8 8 PXPXPXPXPXPXPXPXPXPXPXPXPXPXPXPXPXPXPXPXPXPXPXPXPXPX",
"PXPXPXPXPXPXPXPXPXPXPXPXPXPXPXPXPXPXPXPXPXPXPXPXPXPXPXPXPXPXPXPXPXPXPXPXPXPXPXPXPXPXPXPXPXPXPXPXPXPXPXPXPXPXPXPXPXPXPXPXPXPXPXPXPXPXPXPXPXPXPXPXPXPXPX_._.$X$X{.~.h., X O X PXPXPXPXPX! ).oX*X@XXX!.^ o 3 3 PXPXPXPXPXPXPXPXPXPXPXPXPXPXPXPXPXPXPXPXPXPXPXPXPXPX",
"PXPXPXPXPXPXPXPXPXPXPXPXPXPXPXPXPXPXPXPXPXPXPXPXPXPXPXPXPXPXPXPXPXPXPXPXPXPXPXPXPXPXPXPXPXPXPXPXPXPXPXPXPXPXPXPXPXPXPXPXPXPXPXPXPXPXPXPXPXPXPXPXPXPXPX&X&X+X{.W.j.d.< + X PXPXPXPXPXPXPX&X#XXX{.!.k.W o O O PXPXPXPXPXPXPXPXPXPXPXPXPXPXPXPXPXPXPXPXPXPXPXPXPXPX",
"PXPXPXPXPXPXPXPXPXPXPXPXPXPXPXPXPXPXPXPXPXPXPXPXPXPXPXPXPXPXPXPXPXPXPXPXPXPXPXPXPXPXPXPXPXPXPXPXPXPXPXPXPXPXPXPXPXPXPXPXPXPXPXPXPXPXPXPXPXPXPXPXPXPX&X&X$X/.E.h.d.N PXPXPXPXPXPXPXPXPX#X#XXXW.l.j.g.m O PXPXPXPXPXPXPXPXPXPXPXPXPXPXPXPXPXPXPXPXPXPXPXPXPXPXPXPX",
"PXPXPXPXPXPXPXPXPXPXPXPXPXPXPXPXPXPXPXPXPXPXPXPXPXPXPXPXPXPXPXPXPXPXPXPXPXPXPXPXPXPXPXPXPXPXPXPXPXPXPXPXPXPXPXPXPXPXPXPXPXPXPXPXPXPXPXPXPXPXPXPXPXPX&X*XOXW.h.d.N M PXPXPXPXPXPXPXPX+X+X+X/.l.h.g.d.v o PXPXPXPXPXPXPXPXPXPXPXPXPXPXPXPXPXPXPXPXPXPXPXPXPXPXPXPX"
};
