/* XPM */
static const char *bos2c5[] = {
/* columns rows colors chars-per-pixel */
"128 128 253 2 ",
"   c #0C0C0C",
".  c #141414",
"X  c #161819",
"o  c #1C1C1C",
"O  c #1A1615",
"+  c #0E1212",
"@  c #3A0B0B",
"#  c #231D1B",
"$  c #271A15",
"%  c #381918",
"&  c #2E150D",
"*  c #2A221A",
"=  c #362314",
"-  c #392514",
";  c #3C2A1A",
":  c #392819",
">  c #3D200F",
",  c #1D1F20",
"<  c #1E2223",
"1  c #1B2525",
"2  c #0C2222",
"3  c #242424",
"4  c #2A2423",
"5  c #2B2B2B",
"6  c #272828",
"7  c #372A28",
"8  c #37322B",
"9  c #2C3131",
"0  c #333333",
"q  c #3B3B3B",
"w  c #383838",
"e  c #2E2F30",
"r  c #460909",
"t  c #580505",
"y  c #481616",
"u  c #581816",
"i  c #4C1B0D",
"p  c #630101",
"a  c #6A0505",
"s  c #740101",
"d  c #7B0101",
"f  c #770C0A",
"g  c #671716",
"h  c #781717",
"j  c #6B130A",
"k  c #47230D",
"l  c #572609",
"z  c #422D1A",
"x  c #442B15",
"c  c #562B14",
"v  c #46311B",
"b  c #4B351D",
"n  c #4D391E",
"m  c #4A3417",
"M  c #55381B",
"N  c #5A310D",
"B  c #682A04",
"V  c #742C01",
"C  c #782F01",
"Z  c #6A350C",
"A  c #7B3402",
"S  c #783809",
"D  c #6B3617",
"F  c #592929",
"G  c #473625",
"H  c #573D23",
"J  c #483936",
"K  c #573838",
"L  c #462A29",
"P  c #7C2525",
"I  c #69322D",
"U  c #734412",
"Y  c #5A4225",
"T  c #4A423B",
"R  c #564738",
"E  c #5F5738",
"W  c #634324",
"Q  c #6A4827",
"!  c #734C2B",
"~  c #774B28",
"^  c #7C522E",
"/  c #745820",
"(  c #664A35",
")  c #7A4D31",
"_  c #7A5536",
"`  c #685434",
"'  c #695225",
"]  c #393A41",
"[  c #383867",
"{  c #3C4242",
"}  c #354040",
"|  c #434344",
" . c #45494A",
".. c #4B4B4B",
"X. c #494544",
"o. c #564A47",
"O. c #59514B",
"+. c #4D5252",
"@. c #535454",
"#. c #56595A",
"$. c #5C5C5C",
"%. c #595655",
"&. c #4D4E51",
"*. c #684948",
"=. c #665546",
"-. c #755C47",
";. c #645C58",
":. c #75504E",
">. c #766656",
",. c #6F6651",
"<. c #5A5B62",
"1. c #5D6263",
"2. c #646464",
"3. c #6C6C6C",
"4. c #686867",
"5. c #746B69",
"6. c #78726A",
"7. c #6E7273",
"8. c #747474",
"9. c #7C7C7C",
"0. c #777877",
"q. c #6D6F70",
"w. c #605F60",
"e. c #3E403F",
"r. c #840201",
"t. c #8A0606",
"y. c #940000",
"u. c #9A0505",
"i. c #861A1A",
"p. c #981515",
"a. c #9D100C",
"s. c #A40101",
"d. c #AB0101",
"f. c #A70B0B",
"g. c #B40101",
"h. c #BB0101",
"j. c #BA0C0C",
"k. c #B21717",
"l. c #823B04",
"z. c #813A04",
"x. c #892D2D",
"c. c #AA3232",
"v. c #C30000",
"b. c #CC0101",
"n. c #C50C0C",
"m. c #D40101",
"M. c #DC0101",
"N. c #DC0D0D",
"B. c #CB1717",
"V. c #E40000",
"C. c #EB0101",
"Z. c #F40000",
"A. c #FD0000",
"S. c #E51717",
"D. c #CE2929",
"F. c #E22121",
"G. c #864207",
"H. c #8D4B0B",
"J. c #884509",
"K. c #914D0B",
"L. c #95530D",
"P. c #9B590F",
"I. c #854B14",
"U. c #9A5B13",
"Y. c #955713",
"T. c #8A5918",
"R. c #9D6217",
"E. c #89631D",
"W. c #A26516",
"Q. c #A56B19",
"!. c #A46918",
"~. c #AB741C",
"^. c #AD781E",
"/. c #B17C1E",
"(. c #865833",
"). c #8D5A32",
"_. c #97653A",
"`. c #906B2E",
"'. c #B17E21",
"]. c #A57231",
"[. c #A05F10",
"{. c #954E4F",
"}. c #B04E4E",
"|. c #8B6D4E",
" X c #AE7244",
".X c #847B79",
"XX c #8E756B",
"oX c #B37373",
"OX c #C37D4F",
"+X c #C55555",
"@X c #B48323",
"#X c #BB8E29",
"$X c #B88A27",
"%X c #BD922B",
"&X c #B08E35",
"*X c #9F8939",
"=X c #C39A2E",
"-X c #C2972D",
";X c #C49D31",
":X c #CBA737",
">X c #D3B33D",
",X c #D0AF3C",
"<X c #B8A549",
"1X c #89837B",
"2X c #98866F",
"3X c #AC9372",
"4X c #A18949",
"5X c #D7BB43",
"6X c #CAB24C",
"7X c #C88951",
"8X c #DCC347",
"9X c #D6C458",
"0X c #E2CB4C",
"qX c #E8D754",
"wX c #E9D34D",
"eX c #EFE35A",
"rX c #EDE563",
"tX c #29299C",
"yX c #747585",
"uX c #62629D",
"iX c #1F1FCB",
"pX c #7C8585",
"aX c #848484",
"sX c #8B8B8B",
"dX c #878888",
"fX c #939393",
"gX c #9B9B9B",
"hX c #989797",
"jX c #918E8D",
"kX c #A6948D",
"lX c #AEA799",
"zX c #A3A3A3",
"xX c #ABABAC",
"cX c #A8A8A7",
"vX c #B3B3B3",
"bX c #BBBBBB",
"nX c #B8B9B7",
"mX c #B3B0AC",
"MX c #9DA2A3",
"NX c #D0C3AF",
"BX c #BDC1C1",
"VX c #C3C3C3",
"CX c #CBCBCB",
"ZX c #C6C8C9",
"AX c #D3D3D3",
"SX c #DBDBDB",
"DX c #CECFD1",
"FX c #E4E4E4",
"GX c #ECECEC",
"HX c #F0F0F0",
"JX c #C8BCA7",
"KX c None",
"LX c black",
/* pixels */
"KXKXKXKXKXKXKXKXKXKXKXKXKXKXKXKXKXKXKXKXKXKXKXKXKXKXKXKXKXKXKXKXKXKXKXKXKXKXKXKXKXKXKXKXKXA.A.C.m.h.u.r.a F X...@.#.2.4.3.9.aXaXsXfXfXfXfXfXfXfXfXfXfXfXfXsXsXsXsXfXfXsXaXaX9.7.4.;.I f r.y.s.h.m.V.C.KXKXKXKXKXKXKXKXKXKXKXKXKXKXKXKXKXKXKXKXKXKXKXKXKXKXKXKXKX",
"KXKXKXKXKXKXKXKXKXKXKXKXKXKXKXKXKXKXKXKXKXKXKXKXKXKXKXKXKXKXKXKXKXKXKXKXKXKXKXKXKXKXKXKXKXA.Z.V.v.d.t.h F K o.#.$.4.3.3.0.aXsXfXgXzXzXzXzXzXzXzXzXzXzXzXgXgXgXgXgXgXgXfXsXsXaX9.8.4.:.P h t.y.s.h.b.m.KXKXKXKXKXKXKXKXKXKXKXKXKXKXKXKXKXKXKXKXKXKXKXKXKXKXKXKXKX",
"KXKXKXKXKXKXKXKXKXKXKXKXKXKXKXKXKXKXKXKXKXKXKXKXKXKXKXKXKXKXKXKXKXKXKXKXKXKXKXKXKXKXKXA.A.Z.V.b.d.t.g K o.$.2.3.3.8.0.9.aXfXgXxXnXbXVXbXbXbXbXbXbXbXbXnXnXnXnXnXnXnXxXzXgXfXfXsXaX9.8.5.:.I a s r.u.g.m.C.Z.A.A.KXKXKXKXKXKXKXKXKXKXKXKXKXKXKXKXKXKXKXKXKXKXKXKX",
"KXKXKXKXKXKXKXKXKXKXKXKXKXKXKXKXKXKXKXKXKXKXKXKXKXKXKXKXKXKXKXKXKXKXKXKXKXKXKXKXKXKXB.C.Z.V.b.d.t.g K o.#.2.3.8.0.9.9.aXsXgXzXnXVXCXCXCXAXAXAXAXAXAXAXCXCXCXCXCXCXVXbXvXxXzXgXfXsXaXaX9.5.*.I F I h p.g.b.V.Z.A.A.KXKXKXKXKXKXKXKXKXKXKXKXKXKXKXKXKXKXKXKXKXKXKX",
"KXKXKXKXKXKXKXKXKXKXKXKXKXKXKXKXKXKXKXKXKXKXKXKXKXKXKXKXKXKXKXKX4.4.3.3.8.8.8.3.4.>.c.N.V.m.g.t.F J | @.$.2.3.3.8.9.9.aXfXgXxXnXbXVXCXAXSXSXSXSXSXSXSXSXSXSXSXAXAXCXVXnXvXxXgXfXfXsXaXaX9.8.4.;.%.*.I f u.v.V.A.A.A.A.KXKXKXKXKXKXKXKXKXKXKXKXKXKXKXKXKXKXKXKXKX",
"KXKXKXKXKXKXKXKXKXKXKXKXKXKXKXKXKXKXKXKXKXKXKXKXKXKXKXKXKXKXKXaXaXaXsXfXfXfXfXsXpX.X}.B.M.v.u.h F J  .#.2.4.3.8.0.9.aXsXgXzXxXnXbXVXCXSXFXFXFXGXFXFXFXFXFXFXFXSXSXAXCXVXnXvXxXzXgXfXsXsXaX9.8.3.1.@.o.F h f.b.V.Z.A.A.KXKXKXKXKXKXKXKXKXKXKXKXKXKXKXKXKXKXKXKXKX",
"KXKXKXKXKXKXKXKXKXKXKXKXKXKXKXKXKXKXKXKXKXKXKXKXKXKXKX4.3.0.aXsXgXzXxXnXnXbXnXxXgXkX}.B.m.g.y.h F X.+.$.4.3.3.0.9.aXsXgXzXxXvXnXbXVXCXSXFXGXGXGXGXGXGXGXFXFXFXFXSXAXCXCXVXbXvXxXgXfXfXsXaX9.8.3.$.#.+...K i.d.b.C.A.A.KXKXKXKXKXKXKXKXKXKXKXKXKXKXKXKXKXKXKXKXKX",
"KXKXKXKXKXKXKXKXKXKXKXKXKXKXKXKXKXKXKXKXKXKXKX$.2.4.3.3.8.9.aXfXgXxXvXnXbXbXvXkXoX+XD.N.b.d.y.j F X.@.2.3.3.8.9.aXsXfXzXxXvXnXbXVXVXCXSXFXGXGXHXHXGXGXGXGXGXFXSXAXCXCXCXVXVXnXxXzXfXfXsXaX9.0.3.4.2.$.@.o.P u.h.M.Z.A.A.N.x.K { { KXKXKXKXKXKXKXKXKXKXKXKXKXKXKX",
"KXKXKXKXKXKXKXKXKXKXKXKXKXKXKXKXKXKXKXKXKX#.#.$.$.2.3.8.0.yXaXsXfXgXzXxXxXMXhXoXD.C.C.M.v.s.r.g K ..#.2.3.8.0.9.aXsXfXzXxXnXbXVXVXCXAXSXFXGXGXGXGXGXGXGXGXFXFXSXAXCXCXCXCXVXbXvXzXgXfXsXaX9.9.8.3.3.1.#.o.I t.s.b.C.A.A.N.x.o. . .....KXKXKXKXKXKXKXKXKXKXKXKXKX",
"KXKXKXKXKXKXKXKXKXKXKXKXKXKXKXKXKXKXKX#.#.#.#.%.@.@.#.2.4.3.0.9.9.aXaXaXpX0.3.{.B.C.C.M.h.i.F J X...#.2.3.8.0.9.aXaXsXgXzXvXbXVXVXCXAXAXSXFXGXGXGXGXGXGXGXFXFXSXAXCXCXAXCXCXVXnXzXgXfXsXaX9.9.0.8.3.1.@.X.J u h j.V.A.A.N.c.*.$.1.1.$.@.@.KXKXKXKXKXKXKXKXKXKXKX",
"KXKXKXKXKXKXKXKXKXKXKXKXKXKXKXKXKXKX..@.@.@.@.@.@.#.$.4.3.0.9.aXaXaX9.9.7.1.$.x.B.C.C.M.j.P J {  .@.#.$.4.3.8.9.9.aXaXfXgXxXnXVXVXCXCXAXAXSXFXFXGXGXGXFXFXFXSXSXAXCXCXAXCXVXbXnXxXgXfXsXaX9.0.8.3.4.#...q 9 6 u f.M.A.A.S.c.5.7.9.yX0.3.2.w.KXKXKXKXKXKXKXKXKXKX",
"KXKXKXKXKXKXKXKXKXKXKXKXKXKXKXKXKX| | | | | ..#.4.0.aXjXgXcXmXvXvXvXcXgXfXdX9.{.D.C.C.M.j.x.J  .&.@.#.2.4.3.3.8.9.aXaXsXfXzXxXnXVXCXCXCXAXSXSXFXFXFXFXFXFXSXSXSXAXAXCXCXCXVXnXvXxXzXgXsXaX9.9.8.4.$.@.| 0 6 3 u u.M.Z.A.S.}..XfXMXcXzXfXaX8.$.KXKXKXKXKXKXKXKXKX",
"KXKXKXKXKXKXKXKXKXKXKXKXKXKXKXKX| | | | ..@.#.;.4.6..XsXhXlXlXmXmXcXgXjXsXsXaX}.D.C.C.M.j.P J  .+.#.$.2.4.4.3.3.9.aXaXsXfXgXzXvXnXVXVXVXCXAXAXAXAXAXAXSXSXAXAXAXCXCXCXVXbXnXmXxXzXzXfXsXaX9.0.3.2.@...q 9 < # u u.M.Z.A.S.+XkXcXbXVXVXnXzXsX8.4.KXKXKXKXKXKXKXKX",
"KXKXKXKXKXKXKXKXKXKXKXKXKXKXKXKX....@.$.3.8.0.4.=.R R E ` -.-.-.-.-.` R O.2.6.{.D.V.V.M.j.P J { +.#.2.4.3.4.4.3.0.aXaXsXsXfXzXxXvXnXbXVXVXVXCXCXVXVXCXCXCXCXVXVXVXbXnXvXxXxXzXzXgXfXsXaX9.0.8.3.2.@.| q 5 6 4 u f.M.Z.Z.S.}.kXxXBXCXAXAXVXvXgX9.$.| KXKXKXKXKXKX",
"KXKXKXKXKXKXKXKXKXKXKXKXKXKXKXKXT T O.;.>.5.5.,.` W M M M Q ~ ~ Q W M x G T =.(.k.m.V.M.j.h J { ..#.$.2.4.4.4.3.0.9.aXsXsXfXgXzXxXmXnXnXbXVXVXVXVXVXVXVXVXbXbXnXnXnXvXxXzXgXgXfXsXsXaX0.8.3.3.4.$.@.| 0 5 < 4 u f.M.C.V.B.}.jXMXnXCXAXSXAXVXmXsX4...| KXKXKXKXKX",
"KXKXKXKXKXKXKXKXKXKXKXKXKXKXKXKXG G H ( ` ( ( ! (.).^ Q ! )._._.(.! Y M v G G g a.v.M.M.n.i.J {  .@.@.#.$.4.3.3.8.9.aXsXsXfXgXzXzXxXxXvXnXnXVXVXVXVXVXbXnXnXnXnXnXvXxXzXgXfXsXsXaX9.0.3.3.3.4.$.@...q 5 3 < 4 u f.M.V.m.B.}..XfXcXnXVXAXCXVXvXfX0.2.#.KXKXKXKXKX",
"KXKXKXKXKXKXKXKXKXKXKXKXKXKXKXb H W W W W ! ^ (.)._.).(.). X X X).! Q W H b x g t.g.m.M.n.i.J {  ...@.@.#.2.3.3.8.0.9.aXsXfXgXzXzXzXxXxXvXnXnXbXVXbXnXnXvXvXxXxXxXzXzXgXfXsXsXaX9.8.3.3.4.2.$.@...| 0 5 3 < 4 u f.M.M.b.k.{.6.aXfXzXvXbXbXvXzXfX9.3.#...KXKXKXKX",
"KXKXKXKXKXKXKXKXKXKXKXKXKX; z H ! (.! Y Q (. X_._.).)._. X XOX X).! ! ^ Q H b l t.d.b.M.n.i.J {  .......@.2.3.3.3.8.0.9.sXfXgXgXgXzXzXxXxXvXnXnXnXvXvXxXxXzXzXgXgXgXfXsXsXaXaX9.0.3.3.4.2.#.@...| q 0 5 3 < 3 u f.M.M.h.a.x.;.7.aXjXgXzXMXgXsXaX9.3.@.| 0 KXKXKX",
"KXKXKXKXKXKXKXKXKXKXKXKXz n H Q ^ ^ ! Q ! _. X_.).(._. XOXOXOX X(.Q ! (.^ Y b u f u.h.m.j.P J q {  .....@.2.3.8.8.0.0.9.aXsXgXgXgXgXzXzXzXxXxXxXzXzXzXzXzXgXgXfXsXsXsXaXaXaX9.0.8.3.4.$.#.@...| q q 0 5 3 1 o u f.m.m.g.p.I %.1.7.9.aXsXsXaX9.0.3.2.@.| q KXKXKX",
"KXKXKXKXKXKXKXKXKXKXKX- z H ! ^ ! Q Q ! ^ )._.).^ ^ _.OX7XOX X_.(.! ^ (.^ W b l f y.g.b.j.i.K w q J ..@.2.3.0.9.aXaX9.9.9.sXfXgXgXgXgXgXgXgXgXgXhXfXfXfXfXfXfXsXaXaX9.9.9.9.9.0.8.3.3.2.#.@...| | q 0 5 3 < $ u s.b.v.d.t.I o.@.2.3.8.0.0.8.3.3.2.#...| | KXKXKX",
"KXKXKXKXKXKXKXKXKXKXKXx b W ^ ! W H W ^ (.(.^ ^ ! ^ _.OX7X X_.).(.^ ^ ^ ! W H c j r.s.h.h.j.p.P K ..1.8.aXjXhXMXzXzXfXaX9.aXsXsXfXfXfXfXfXfXfXfXjXsXsXfXfXfXsXsXaX9.9.0.0.0.9.aXsXfXsXaX9.8.4.#. .q 9 9 7 u f u.g.h.g.u.f F X...@.#.2.2.2.2.2.$.@.@...| q KXKXKX",
"KXKXKXKXKXKXKXKXKXKXKXm M W Q W n b H ! ^ Q W W ! (._. X X_.^ ^ ^ (.^ Q W W W D j s r.s.h.m.V.B.x.*.4.9.sXfXgXzXxXxXzXfXaXaX9.aXaXaXsXsXsXsXsXsXsXsXsXsXsXsXsXaXaX9.0.8.8.9.aXfXzXzXgXjXaX9.3.;.o.J L L F i.g.v.h.d.y.r.j F J  ...&.@.@.#.#.@.@.@...| | q KXKXKX",
"KXKXKXKXKXKXKXKXKX- ; x x x x x x x b M M M b H ! (._._._.^ Q Q ^ ^ ! Y H W W H c u j t.s.v.M.M.B.k.x.o.&.+.+.1.0.sXgXzXgXsX9.8.0.0.9.9.9.aXaXaXaXaXaXaXaXaX9.9.9.0.8.3.0.sXgXzXgXsX8.@. .{ | K P p.p.p.a.f.g.d.u.r.a u y 8 w | | ..@.@.@.#.@.@.@.@...| | q 0 5 ",
"KXKXKXKXKXKXKXKXJ J R R R R R R R R R Y Y G G H Q ! ^ ^ ! W Y Y Q ! W M M Y W Y n x u a r.s.v.M.V.m.f.g % % % 7 J #.9.gXzXsX0.3.3.3.3.8.0.9.9.9.9.9.9.9.9.0.8.8.3.3.4.3.0.fXxXgXaX2.X.7 $ $ % g u.h.v.v.g.s.y.r.f j y 4 5 5 0 q q | ....@.@.@.@.@.@...| q 0 5 5 ",
"KXKXKXKXKXKX$.2.3.9.sXhXzXxXxXcXgXjX1X6.2.;.O.R H G b b b b n M W W Y M n H W H b z i t p d y.d.h.v.h.f.u.t.d j % 0 @.9.sXaX8.3.2.2.4.3.8.8.8.8.8.8.8.8.8.3.4.2.$.$.$.$.3.sXfXaX@.8 y t a a f t.y.u.u.y.r.d s j u L 8 e 5 6 5 5 5 0 0 q | | | | | ] q q 0 5 5 3 ",
"KXKXKXKXKX,.>.XX2XlXlXJXNXNXNXJXlXlXkXjXaX9.3.;.o.J R o.R H b b M H M n n M H M v ; % r r t s r.y.s.d.h.h.g.s.s @ o { 4.9.0.3.4.$.#.$.4.3.3.3.3.3.3.3.3.4.$.#.@.@.@.@.@.$.0.aX3.q $ @ p d r.r.r.r.d a a t t t y 7 q q q q 0 5 5 5 5 5 5 0 0 w q 0 0 0 5 5 3 * o ",
"KXKXKXKXKX*X&X<X6X9X9X6X<X&X X].]. X2XkXgXfXaX0.4.4.1XhXjX,.G ; z v b n M M n m x - $ $ & r t p s d r.y.y.y.r.p @ o q 4.0.3.2.#.@.@.@.#.$.2.4.4.4.4.2.2.$.@.&.....| | | ..2.3.$.q # @ t t p p p t t r % % % % - 7 0  .@.@.&.| q 0 5 5 5 5 0 0 0 0 0 0 5 3 o X . ",
"KXKXKXKXKX:X>X8XqXeXwX>X:X#X^.!.P.U.].3XkXkXhXsX0.8.sXxXcX1X;.R G ; v n M n m z ; = * o # & @ r y u u g g h h F L 0  .$.4.1.@.@.......@.@.#.$.$.$.$.#.#.@.....| | q q 0 q ..@...q e 7 y y y y r r @ % 4 3 * = - * 8 T @.$.$.#.@...| | | | ..@.@.@...| q 0 3 o X ",
"KXKXKX=X:X5X0XeXrXrXrXqX0X8X,X%X~.R.!.].4X3XcXgX9.3.8.aXfXgXfX6.R ; x n M b z ; - = $ # o # # 4 7 8 J J K o.;.;.%.@.@.@.......X.| |  .....@.@.@.@.@.@.@.....| | q q 0 0 0 0 0 q q | w 0 8 7 7 7 4 4 4 3 3 * = = = : 8 T ..#.4.4.4.4.3.3.0.9.aXaX9.8.4.@.| 0 5 3 ",
"KXKXKX#X=X,X8XwXeXeXeXqXwX0X8X:X$X^.Q.Q.].3XmXzX9.2.$.2.8.aXfX9.%.J G b b z ; - * $ $ O X o < 3 6 5 9 0 q  ...+.+...| q q q | | | | | | ....@.............| q q 0 5 5 5 5 5 3 5 5 0 5 5 6 6 3 3 3 3 3 3 * * = = = - ; 8 J X.@.#.$.1.4.8.9.9.aXaX9.8.2.@.| 0 5 3 ",
"KXKXKX'.@X#X;X:X5X5X5X5X5X5X5X,X:X%X^.W.].3XnXxXyX$.....@.2.3.3.$.O.T G ; : - $ $ O . . X o 3 3 6 5 5 0 q q | | q q 0 0 0 q q q q q | | | | | | | | | | | | q q 0 0 q q q 0 5 5 3 3 3 3 3 < 3 3 3 3 3 o # $ = = = = = - ; 7 0 q | X.&.#.;.2.4.2.$.@...T 0 5 3 3 ",
"KXKXKX_ `.`.~./.@X$X$X#X#X-X;X:X:X=X/.W.].3XnXxXdX3.$.@.@.@.@.#.$.@.X.8 * = = $ O X o 3 5 q ..#.2.3.8.0.9.aXaXaX9.8.4.#...q 0 0 q q q q | | | | | | | | | ..@.$.3.9.aXsXsXaX9.8.3.4.$.#.@.....| q 0 5 3 # * = = = = = = - ; 8 8 8 J J T R R R T T J J 8 7 4 3 3 ",
"KXKXKX&.=._ R.W.W.R.R.R.R.Q.^.@X%X%X/.W.].3XmXxXjX0.8.3.4.@.....@.@.| 5 3 KXKXKXX o 3 0 | $.9.sXzXxXnXbXVXCXAXCXCXbXxXsX8.@.q 0 0 q q q q q q q q | | | ..2.9.fXnXCXSXSXSXAXCXVXnXxXzXfXsX9.8.2.@.| 0 5 3 * = = = = = - ; v n n v z v b b v z z z z ; - - KXKXKX",
"KXKXKX4.5.XX2X2X2X2X|.|.(.`.!.Q.~.^.!.[.].3XmXxXjX9.9.aX9.2...|  .| q 5 3 KXKXKX3 3 5 q ..2.0.sXgXxXnXVXCXAXAXSXSXAXAXCXvXfX3.@.q 0 0 0 0 0 0 0 0 0 q ..2.sXxXVXSXFXFXFXSXAXCXVXnXxXzXfXsX9.3.2.@...q 0 4 * - = = - - ; z b G n v z v n m x - ; z z ; - = KXKXKX",
"KXKXKXaXsXgXxXvXvXxXhXaX6.|.E.Y.Y.Y.Y.Y.].3XmXxXjX9.sXgXsX3...| q w 5 3 3 KXKXKX3 5 0 q ..#.4.0.aXfXzXnXbXVXVXCXAXSXFXFXSXnXfX3.| 5 3 5 5 5 5 5 3 5 q ..8.zXAXFXGXFXSXCXVXbXnXxXgXfXsXaX0.3.#.@...| q 0 5 * - = = - ; z b G G G v z b n n v - ; v v x - = KXKXKX",
"KXKXKXgXzXnXZXDXDXZXnXMXsX6.-.` ( ( ` -.XXkXcXzXfXaXfXgXfX8...q 0 5 3 3 o KXKXKX3 3 5 w | @.$.3.9.sXfXzXxXnXnXbXVXCXCXAXVXxXfX3.q o X o 3 3 3 o o 3 0 ..0.xXAXFXSXAXCXVXnXxXzXfXsX9.8.3.2.@...| | q 0 5 6 = = = = - z M H G v v G G n n b v ; : ; ; - - = KXKXKX",
"KXKXKXzXvXVXAXSXSXAXVXvXgX9.2.@. . .@.3.9.sXgXgXfXsXfXfXsX3...q 5 3 3 o X KXKXKX3 3 5 0 q | @.2.3.9.sXfXgXzXxXxXxXxXxXzXgXsX9.2...0 q q | | | | q | ..@.3.fXvXbXVXVXbXvXxXgXfXaX9.3.4.$.@...| q q 0 5 6 * * = - - ; b H H b z z G G n m v v z ; - = = = = KXKXKX",
"KXKXKXxXvXVXAXSXAXCXBXxXgXaX3.#.....4.dXfXsXyXaXsXjXsXaX0.$.| 0 3 o o KXKXKXKXKXo o 3 5 0 q | ..#.3.0.aXfXgXgXgXsXaX0.3.2.$.$.4.0.aXfXgXcXxXxXzXgXsX9.3.2.$.2.9.gXxXxXzXgXfXsX9.0.3.2.$.@...| q 0 e 7 * = = = - x v n H H b z z b b v ; - x v x ; = = KXKXKXKXKX",
"KXKXKXzXxXnXCXCXVXbXxXgXsX9.3.$.@.@.3.sXfX9.3.3.aXsXaX8.2...0 5 3 o KXKXKXKXKXKXX o o 3 3 5 0 | ..@.4.8.9.aXaX9.3.#...| | ..#.8.fXxXnXVXCXAXAXCXBXvXgXaX3.@.| @.8.aXsXsXaX9.0.8.3.4.$.@.....| q 0 5 * - = = - ; v m b b G G G T R E R R T R Y G 7 : : KXKXKXKXKX",
"KXKXKXfXgXxXnXnXvXzXfXaX8.4.$.$.$.4.3.0.8.$.@.$.0.aX0.$...0 3 o KXKXKXKXKXKXKXKXKXKXX o 3 6 0 q | ..@.$.2.4.4.#.| 0 0 q ..2.0.aXjXgXzXzXzXxXxXcXcXzXzXMXsX8.@...| ..#.4.3.3.2.2.$.#.@...| T q 0 3 * * = - - ; z v m v z G J o.$.5.9.1X.X0.4.;.o.J 0 e KXKXKXKXKX",
"KXKXKXsXfXgXxXzXfXsX0.3.$.@.@.$.3.3.4.#.@.....#.3.8.2...q 5 o X KXKXKXKXKXKXKXKXKXKXKXX X 3 6 5 0 q | ........q 5 5 0 | @.4.0.yXuXuXuXdXsXdXdX.XoXoXoXkXsX9.4.@.q 0 q ..@.@.@.@.@.....| q 0 0 5 o X $ * : 7 G G J R R R R I I {.{.XXXX.X0.3.w.O.K I i.KXKXKXKXKX",
"KXKXKXsXsXfXgXsX9.3.$.@.....@.$.3.3.#.q 0 q ..@.2.2.@.q 5 3 o X KXKXKXKXKXKXKXKXKXKXKX. . X o 3 3 5 0 q q q 0 5 5 5 w ..#.;.w.uXiXiXtXuX8.8.6.{.D.F.c.XX8.0.8.$.| 0 5 0 q | ......| | q 0 5 3 < X . o 3 5 0 J X.&.#.2.4.>.c.k.j.k.p.P *.@.+.@.I i.f.b.V.Z.KXKXKX",
"KXKXKX0.9.sXsXaX3.#.......#.4.3.3.2. .e 6 0 |  ... .q 5 3 o o KXKXKXKXKXKXKXKXKXKXKXKXKX. . . X o 3 5 5 5 5 3 5 5 0 | ........[ tXtXtX+.#.#.%.x.k.b.k.*.@.$.$.@.| 0 5 3 5 0 q w q 0 0 5 5 3 3 o X o 3 5 0 q | ..&.@.@.@.*.k.m.M.b.g.x.:.1.1.$.*.p.h.m.V.C.Z.KXKX",
"KXKXKX$.3.9.aX9.2.......#.0.aX9.4...q e 5 8 w w w 0 5 3 # KXKXKXKXKXKXKXKXKXKXKXKXKXKXKXKX. . . X o 3 3 3 o o 5 q | | q q q q w ] ] ] ] q e.J F i.u.h L q q q q q 0 5 3 o 3 5 5 3 3 3 o o o o o 3 6 5 0 q | | | ..| w 5 y a.M.C.M.n.c.XXdXpX3.:.i.s.h.m.C.Z.A.A.",
"KXKXKX@.$.3.8.3.@.| ..#.4.9.dX0.#.| R W Q Q Q W M M M c c KXKXKXKXKXKXKXKXKXKXKXKXKXKXKXKXKXKX. X X o o o o o 3 0 0 0 5 5 5 5 5 5 5 5 5 5 9 e 7 u u y 7 5 5 5 5 5 5 3 o o o o o X X . . . . O o 3 5 0 | ..@.@.#.#.@.} 6 % t.m.V.b.j.}.kXgXsX0.;.I g t.g.m.V.C.Z.",
"KXKXKX@.#.$.2.@.| | @.4.8.9.9.5.%.O._ `.~.Q.U.L.J.G.G.G.G.KXKXKXKXKXKXKXKXKXKXKXKXKXKXKXKXKXKXKXo o o o 3 3 5 5 5 5 5 5 5 5 e 0 0 q q q q q q 0 0 e e 5 5 5 5 5 3 3 3 3 3 3 3 o X X . . . . . o 3 0 w ..@.$.4.3.3.2...8 u a.b.m.h.f.}.kXgXdX3.#.q 7 g t.g.b.M.V.",
"KXKXKX#.#.@.@.| q q #.0.1XXX|._.|.*X&X;X-X'.W.P.H.G.l.z.A KXKXKXKXKXKXKXKXKXKXKXKXKXKXKX| @.@.| 5 3 3 5 0 q | | ....@.@.#.$.2.3.8.9..XaXaX9.0.3.1.#.+...| q 0 0 0 q q | | | q q 0 5 5 5 3 o X o 3 5 q | @.#.1.1.1.;.*.i.f.h.b.v.s.t.x.5.7.2.@.{ 9 4 u t.d.h.b.m.",
"KXKXKX#.@...| q q | 1.9.1X|.Q.'.:X5X8X5X:X@XR.K.H.G.A C V KXKXKXKXKXKXKXKXKXKXKXKXKXKX| ..@.$.@.q 5 0 q | @.$.4.3.8.0.9.aXsXfXgXxXnXbXVXVXbXmXzXfXaX9.q.2.@.| | ..#.2.3.3.3.3.2.#.@...| 0 5 o o 3 5 0 q ....@.#.%.*.c.n.M.m.h.s.r.f F K  .{ 0 5 < $ t t.s.g.h.h.",
"KXKXKX@...| w q ..$.2.3.6.|.@X=X5X0X8X,X-X~.L.J.J.G.z.KXKXKXKXKXKXKXKXKXKXKXKXKXKXKXKX&.#.3.9.3.@.q | ..@.2.3.0.9.aXsXfXgXzXxXvXnXVXCXSXSXAXCXVXvXzXgXfXaX0.3.3.8.9.fXzXmXxXxXgXsX9.3.$...q 6 3 3 6 9 w { {  .K x.k.n.b.v.d.y.f u y 7 7 5 5 3 < 2 KXt.d.g.d.d.d.",
"KXKXKX&...e.w  .$.3.2.;.-.].%X>X0X0X5X:X@XR.H.G.G.G.KXKXKXKXKXKXKXKXKXKXKXKXKXKXKXKX..@.2.9.sX9.#.| | @.#.4.3.0.9.aXsXfXgXzXzXxXxXnXbXCXCXCXVXnXvXzXgXgXsX9.8.0.9.sXzXbXCXCXVXvXgXaX0.4.@.q 5 3 # % 7 L L J F P j.m.b.g.u.r.a y % 5 6 3 o o o $ KXKXKXh.g.s.y.y.",
"KXKXKXKXKX@.@.#.w.w.-.(.`.&X,X5X8X8X,X%X^.U.H.G.KXKXKXKXKXKXKXKXKXKXKXKXKXKXKXKX0 q | ..#.3.9.3.@.q q | ..@.#.2.4.3.8.9.9.aXaXaXsXsXfXfXfXfXfXsXaXaX9.0.3.$.#.$.3.9.fXzXxXxXgXsX9.3.#...| 0 5 % y t f t.a.a.a.f.d.d.s.y.s t % $ o X X . . 2 KXKXm.V.b.g.u.r.d s ",
"KXKXKXKXKX$.2.;.=.=.^ Y.Q.$X:X,X,X:X%X^.R.H.G.z.KXKXKXKXKXKXKXKXKXKXKXKXKXKXKXKX0 0 q q X.@.$.@.J 0 5 0 q q | ......@.@.#.#.#.#.$.$.;.$.$.$.$.$.#.@.@.....| q | @.$.3.9.aX9.8.4.#...| q 0 5 6 % r t s y.s.d.d.s.y.r.s a r & o X . . O & @ t KXKXM.b.g.y.r.s p p ",
"KXKXKX| ..@.#.=.W D J.L.W.^.@X#X#X@X~.U.J.A A V KXKXKXKXKXKXKXKXKXKXKXKXKXKX0 0 5 5 5 5 5 0 0 0 3 3 3 3 5 e 0 0 0 0 0 0 0 0 0 0 0 0 0 0 0 0 0 0 0 0 5 5 5 5 5 5 0 q | ....@.....| q 0 5 5 3 3 # $ & r p s d d s s p r @ $ O . . + O r a y.d.v.v.h.s.r.s p p KXKX",
"KXKXKX| ..+.#.( D V z.H.P.R.W.W.R.U.K.G.A C V V KXKXKXKXKXKXKXKXKXKXKXKXKX0 0 5 3 3 o o o o o o X X o 3 3 5 0 0 0 0 q q | | ..........| | q q 0 0 5 5 5 5 3 3 3 3 3 5 5 5 0 0 0 0 0 0 0 0 0 5 6 < X & @ r r r r r @ & O . . . . O @ t r.u.s.s.u.y.d s p t KXKXKX",
"KXKXKX..@.#.%.*.D V A G.H.H.H.J.z.A C V V V V V KXKXKXKXKXKXKXKXKXKXKXKXKX0 5 5 o . X X o o o o o o o 3 3 5 q | ..@.2.3.9.aXsXfXfXfXsXaX9.8.4.#...| q q 0 5 3 3 o o o o 3 3 5 0 0 q | ..@...| q 5 3 # # $ $ O O O O O . . +   O @ t p d r.d s s p t t KXKXKXKXKX",
"KXKX3.3.3.8.8.5.-._ ) ! ! ~ Q D M c c c c c c c KXKXKXKXKXKXKXKXKXKXKXKX| q q 5 3 X o 3 5 q | | | q 0 3 3 5 q ..#.3.9.sXgXxXnXVXVXVXbXvXzXgXsX9.3.2.@.| q 5 3 3 3 3 5 0 q ..@.#.4.3.0.9.9.0.3.#.| 0 6 3 o X . + + + + . .     & r p s d d s p t t r KXKXKXKXKXKX",
"3.3.0.aXsXfXgXfXjX1X0.4.;.%.o.X.T J T X.T w 8 8 KXKXKXKXKXKXKXKXKXKXKX....| | 0 3 o 3 0 | $.8.9.0.3.@.0 3 5 q ..2.0.sXgXxXbXCXAXSXSXSXCXVXxXgXfXaX0.$.| 0 5 3 3 5 0 ..;.8.aXsXgXzXxXxXxXzXfXaX3...q 5 5 3 o . .       KXKXKXKXKXKXKXKXKXKXKXKXKXKXKXKXKXKXKXKXKX",
"2.4.0.aXfXzXxXxXzXhXsX9.7.3.2.2.2.4.q.8.q.$... .KXKXKXKXKXKXKXKXKXKXKX2.#...q 5 o X < 5 | $.9.sXgXfX0...0 5 0 q @.4.9.sXgXxXnXVXCXCXCXbXvXzXsX9.3.$...q 5 5 5 0 | @.3.sXgXxXnXbXbXnXxXzXfXaX3.#.{ 9 6 3 < o o O + KXKXKXKXKXKXKXKXKXKXKXKXKXKXKXKXKXKXKXKXKXKXKX",
"@.#.3.9.sXzXxXxXzXhXsXaX9.0.0.0.9.sXfXzXhX9.4.$.KXKXKXKXKXKXKXKXKXKXKX8.4.X.5 o . . X 3 0 @.3.sXxXxXfX4...0 5 5 q ..$.3.9.aXfXgXzXzXzXhXsX9.3.$...q 5 5 3 5 0 | 2.9.fXxXbXVXCXVXnXcXfX9.3.#.| w 5 4 # # # 3 5 5 KXKXKXKXKXKXKXKXKXKXKXKXKXKXKXKXKXKXKXKXKXKXKXKX",
"| | @.$.3.0.9.aX9.9.0.q.3.4.4.3.0.aXfXgXfX9.4.#.....KXKXKXKXKXKXKX..#.2.@.q 3 X . . . o 6 { #.0.fXgXfX9.4.| 5 3 5 0 | ..#.2.3.8.0.0.8.3.2.#...| 0 3 3 3 5 0 | $.9.gXvXVXCXVXnXzXsX9.4.@.| 0 5 4 x k l k x G J  ...&.KXKXKXKXKXKXKXKXKXKXKXKXKXKXKXKXKXKXKXKXKXKX",
"| | | ....@.@.@.@.@.@.@.......@.$.3.0.9.9.4.@.....| | KXKXKXKXKX........| 5 o O O $ $ $ 4 8 | @.3.aXsXaX0.@.0 3 3 3 5 0 q | ..........| | q 0 5 3 o o 3 0 | #.0.fXxXbXVXVXxXgX9.2...q 0 5 4 * x B C C V Z H R o.&.@.@.KXKXKXKXKXKXKXKXKXKXKXKXKXKXKXKXKXKXKXKXKX",
"$.#.#.@...| 0 0 0 0 0 0 0 5 5 0 q | ..@...| q w | | | KXKXKXKXKX$.%...q 5 < X $ k N Z Z N ; 5 0  .@.4.3.3.@.| 0 3 o o 3 3 5 5 0 0 0 0 0 5 5 3 3 o o 3 5 q @.8.sXzXvXvXzXfXaX3.#.{ e < o * v U U I.H.J.l.A Z D ( O.$.<.KXKXKXKXKXKXKXKXKXKXKXKXKXKXKXKXKXKXKXKXKX",
"8.3.3.2.@.q 5 3 3 3 3 3 3 o X o 3 5 5 0 5 5 3 0 q ....KXKXKXKXKX2.#.| e 3 o $ k Z J.K.H.U N : 4 5 0 | @.@.&.| q 5 o X X X o o 3 3 3 3 3 3 o X X X o 3 0 ..4.aXfXzXzXfXaX3.#...w 8 : * * x U Y.!.W.U.L.H.G.z.A Q -.4.2.KXKXKXKXKXKXKXKXKXKXKXKXKXKXKXKXKXKXKXKXKX",
"0.8.3.4.@.q 3 o o 3 5 0 0 3 o X X o o 3 3 o 3 0 | @.@.KXKXKXKXKX....w 3 $ > l Z J.L.U.P.L.I.U M : o 3 5 0 q q 0 5 3 o . . . . . . O X X . . . . X o 5 | @.0.sXfXsX9.3.@.| 0 5 ; M Z S U I.R.~.^.^.~.W.U.K.J.G.~ >.3.2.@...KXKXKXKXKXKXKXKXKXKXKXKXKXKXKXKXKXKXKX",
"9.9.9.0.4.| 5 5 5 q | @.@.q 3 3 5 5 5 3 3 5 q | @.#.$.KXKXKXKXKXq q 5 3 $ k B l.K.U.R.W.W.Q.Q.T.M ; * o < 6 5 5 5 3 o X . . . . O . . . . . . . O 3 0 | #.8.aX9.3.#. .w 5 4 - c S H.P.W.Q.~.^.@X@X@X^.Q.U.K.H.(.>.8.4.@...KXKXKXKXKXKXKXKXKXKXKXKXKXKXKXKXKXKXKX",
"dXsXfXfXaX#.q q ..2.8.aX9.@.q q @.$...0 0 ..4.3.4.2.2.KXKXKX| q q 0 6 o $ k B z.K.U.Q.~.^.@X#X@X~.E.M * . X , 3 3 3 3 o X X X X . . . KXKX. . . O * 0 | @.$.2.$.@.| 9 3 * c Z G.H.U.W.~.^.^.^.@X#X%X$X'.!.L.J.(.>.8.4.$.@.KXKXKXKXKXKXKXKXKXKXKXKXKXKXKXKXKXKXKX",
"9.aXfXzXgX8.@.@.3.aXsXaX9.2...#.8.9.4.....4.9.0.4.@.@.KXKX| | q 0 5 < o $ k V G.K.U.Q.^.@X%X=X=X-X@XE.W ; * X X < 3 3 o X X X . . . . KXKX. . . X o 5 q | ....| q e 7 : c Z G.K.L.U.Q.~.'.@X@X#X-X=X%X@X~.P.L.(.|.8.3.$.@.KXKXKXKXKXKXKXKXKXKXKXKXKXKXKXKXKXKXKX",
"$.3.aXzXzXaX3.0.fXgXsX3.2.2.4.8.9.aX0.4.4.0.9.3.@.q q KXKXq q 0 5 3 o . $ l S H.L.U.Q.^.@X#X=X=X=X%X$X~.T.m $ . X o o X X . . . O . . KXKXX X X X o 3 5 0 0 0 e 5 4 v Z S G.G.H.L.U.Q.^.@X#X%X=X=X=X#X@X~.W.U.`.XX0.3.$.@.KXKXKXKXKXKXKXKXKXKXKXKXKXKXKXKXKXKXKX",
"| ..2.9.sXfXfXfXgXfX9.#.@.3.9.aX9.9.9.9.9.9.0.2.| 0 5 KXKXq 0 e 3 # $ = k Z G.K.L.U.Q.^.'.@X#X#X%X#X$X/.R.U k & O O . X . . . . . . KXKXKXKXX X X X o 3 3 3 3 < o # k Z l.J.K.L.R.Q.^.@X#X%X=X;X=X=X#X@X~.!.R._.XXaX0.4.$.@.KXKXKXKXKXKXKXKXKXKXKXKXKXKXKXKXKXKX",
"5 5 q ..4.sXzXzXfX9.2.....8.fXsX0.3.9.fXfX9.3.@.q 0 5 KXKX0 5 5 < # > l V A G.H.L.U.Q.^.'.'.'.'.'.^.~.W.L.G.B l & O . . . . . . KXKXKXKXKXKXKXKX. . . X o o o X . $ > B A J.L.W.Q.^.$X%X=X=X=X=X=X=X#X@X~.W.U._.2XjXdX8.4.#.....KXKXKXKXKXKXKXKXKXKXKXKXKXKXKXKX",
"KX3 5 5 q $.0.8.2.@...| @.0.sXaX4.$.3.aXaX3.@.| q KXKXKXKX5 5 3 , # k B A z.G.H.L.U.Q.^.'.'.^.^.~.!.U.L.H.l.V l & O . . . . . . KXKXKXKXKXKXKXKXKXO . . . X X $ = k l B A J.U.W.~.'.$X-X=X=X=X=X=X=X#X@X~.U.L._.2XhXjX9.3.#...| KXKXKXKXKXKXKXKXKXKXKXKXKXKXKXKX",
"KXKXKXo 3 5 q 0 5 5 0 | @.3.8.3.@...#.3.3.@.q 0 KXKXKXKXKX3 3 < o # k B V z.G.H.L.U.Q.~.^.^.^.~.W.U.K.J.z.A V l = o X . . . . . KXKXKXKXKXKXKXKXKXKXKX. . X o = l B V V A J.Y.W.~.@X#X=X;X;X=X=X=X=X%X@X~.P.H.).2XgXhXdX8.#...| KXKXKXKXKXKXKXKXKXKXKXKXKXKXKXKX",
"KXKXKXKXX o o o X X 3 0 q q | q q 0 q | | 0 5 3 KXKXKXKXKX3 3 , o # k B C z.G.H.L.U.W.W.Q.Q.Q.R.L.H.G.A A C V l ; 3 o . . . KXKXKXKXKXKXKXKXKXKXKXKXKXKXX < 6 ; l V V V A J.U.Q.'.%X;X:X:X:X;X=X;X=X#X@XQ.L.J.).2XzXMXsX9.#.| q KXKXKXKXKXKXKXKXKXKXKXKXKXKXKXKX",
"KXKXKXKXKXKX. . . . X o 3 o X o 3 3 3 3 3 3 o X KXKXKXKXKX5 5 3 , # k B C z.G.H.L.Y.U.U.U.U.U.L.H.z.A V V V B c : 3 o . . KXKXKXKXKXKXKXKXKXKXKXKXKXKXKXKX5 5 L c Z V V A J.U.Q.@X=X:X>X5X,X:X;X;X=X#X@XQ.L.H._.3XcXzXfX9.$.| q KXKXKXKXKXKXKXKXKXKXKXKXKXKXKXKX",
"KXKXKXKXKXKXKXKXKXKX. . . . . . . X X X X X KXKXKXKXKX3 5 0 q 0 6 * k B A z.G.J.H.H.H.H.H.H.H.J.A A C V B c x = # X X KXKXKXKXKXKXKXKXKXKXKXKXKXKXKXKXKXKX3 5 8 J ( D Z A J.U.Q.^.$X;X,X5X5X,X:X:X=X#X@X~.L.H._.kXxXcXfX9.$.| q KXKXKXKXKXKXKXKXKXKXKXKXKXKXKXKX",
"KXKXKXKXKXKXKXKXKXKXKX. . . . . . . . . . KXKXKXKXKXKX5 0 q | | ] w b B V A z.G.G.G.G.G.G.J.G.z.A V B B l ; 4 , X . . KXKXKXKXKXKXKXKXKXKXKXKXKXKXKXKXKXKX3 3 0  .o.( Z A G.L.R.Q.@X;X>X8X8X8X5X,X;X#X'.!.K.J._.kXvXxXhX9.2...q KXKXKXKXKXKXKXKXKXKXKXKXKXKXKXKX",
"KXKXKXKXKXKXKXKXKXKXKXKXKXKXKXKXKXKXKXKXKXKXKXKXKXKXKX0 0 q | &.w.2.` D V V A A z.G.G.G.G.J.G.l.A B l - $ # o X . . . KXKXKXKXKXKXKXKXKXKXKXKXKXKXKXKXKXKX3 3 9 { o.H Z C z.H.U.!.@X:X8XqXqXwX0X5X,X%X~.U.l.A ).kXbXnXgXaX4...q 0 5 KXKXKXKXKXKXKXKXKXKXKXKXKXKX",
"KXKXKXKXKXKXKXKXKXKXKXKXKXKXKXKXKXKXKXKXKXKXKXKXKXKXKX5 0 e 0 ..4.6.>.! D Z V V A z.z.z.z.z.z.S Z N x * o o X . . . KXKXKXKXKXKXKXKXKXKXKXKXKXKXKXKXKXKXKXKX3 9 ] X.R I D S J.L.W.@X:X0XqXeXqXqX0X5X#X!.H.S ~ |.lXVXbXzXaX3...q 5 5 3 KXKXKXKXKXKXKXKXKXKXKXKXKX",
"KXKXKXKXKXKXKXKXKXKXKXKXKXKXKXKXKXKXKXKXKXKXKXKXKXKXKX< 3 3 5 q ..;.4.4.-.~ V V V V V V V C V Z H J 8 6 o X . . KXKXKXKXKXKXKXKXKXKXKXKXKXKXKXKXKXKXKXKXKXKXKXKXq | o.;.-.^ J.L.W.@X:X0XqXeXqXqX0X,X$XU.I.! ,.1XmXVXnXzXsX3.@.q 0 5 3 KXKXKXKXKXKXKXKXKXKXKXKXKX",
"KXKXKXKXKXKXKXKXKXKXKXKXKXKXKXKXKXKXKXKXKXKXKXKXKXKXKXo o o 3 5 0 | +.$.;.-.) ) ) (.(.) ) ) ~ ( o.| w 5 3 X . KXKXKXKXKXKXKXKXKXKXKXKXKXKXKXKXKXKXKXKXKXKXKXKXKX0 q ..w.;.! S J.U.^.;X5X0XwXwX8X5X;X^.L.I._ 5.sXvXBXnXgXaX3.@.q 5 3 3 KXKXKXKXKXKXKXKXKXKXKXKXKX",
"KXKXKXKXKXKXKXKXKXKXKXKXKXKXKXKXKXKXKXKXKXKXKXKXKXKXKX3 3 3 3 3 3 3 0 | @.w.6..X1XdXdX1X.X.X6.4.$...q 5 3 o KXKXKXKXKXKXKXKXKXKXKXKXKXKXKXKXKXKXKXKXKXKXKXKXKXKX5 0 | @.O.W S z.K.W.'.%X:X>X5X,X-X'.R.H.I.-.6.jXxXnXxXhX9.4...q 5 3 3 KXKXKXKXKXKXKXKXKXKXKXKXKX",
"KXKXKXKXKXKXKXKXKXKXKXKXKXKXKXKXKXKXKXKXKXKXKXKXKXKXKX3 5 0 0 0 3 3 3 5 w ..#.4.7.8.7.3.4.2.1.@.| q 5 3 o KXKXKXKXKXKXKXKXKXKXKXKXKXKXKXKXKXKXKXKXKXKXKXKXKXKXKX5 5 q ..o.( Q ~ I.J.L.W.^.@X#X@X~.R.T.^ _ >..XfXxXnXzXsX0.$.| 0 5 3 o KXKXKXKXKXKXKXKXKXKXKXKXKX",
"KXKXKXKXKXKXKXKXKXKXKXKXKXKXKXKXKXKXKXKXKXKXKXKXKXKXKX3 5 q | | q 5 3 3 3 5 0 | ......X.| | | q 0 5 3 3 o KXKXKXKXKXKXKXKXKXKXKXKXKXKXKXKXKXKXKXKXKXKXKXKXKXKXKX3 3 0 | ..$.2.-.~ S z.J.L.Y.U.Y.H.I.! =.4.0.aXgXxXxXgXaX3.@.| 0 3 o X KXKXKXKXKXKXKXKXKXKXKXKXKX",
"KXKXKXKXKXKXKXKXKXKXKXKXKXKXKXKXKXKXKXKXKXKXKXKXKXKXKX3 5 0 q q q q 0 0 q | @.$.3.8.0.0.8.8.3.3.4.$.@.| q 0 5 KXKXKXKXKXKXKXKXKXKXKXKXKXKXKXKXKXKXKXKXKXKXKXKXKXo 3 5 q ..#.2.4.>.-.|.|.|.|._ ! W H R %.4.0.aXfXgXgXsX8.$...q 5 o X . KXKXKXKXKXKXKXKXKXKXKXKXKX",
"KXKXKXKXKXKXKXKXKXKXKXKXKXKXKXKXKXKXKXKXKXKXKXKXKXKXKX3 3 3 6 5 q | | ..@.$.3.9.sXfXgXgXgXfXfXfXfXsX9.4.@.| 0 0 KXKXKXKXKXKXKXKXKXKXKXKXKXKXKXKXKXKXKXKXKXKXKXKXX o 5 q ..@.2.8..XsXfXgXhXaX3.$.&.X...@.$.3.9.aXaXaX8.$...q 0 3 X . . KXKXKXKXKXKXKXKXKXKXKXKXKX",
"KXKXKXKXKXKXKXKXKXKXKXKXKXKXKXKXKXKXKXKXKXKXKXKXKXKXKXKX3 o o 3 5 0 q q | ..@.#.2.3.4.4.2.$.$.4.8.0.0.3.2.@.| q KXKXKXKXKXKXKXKXKXKXKXKXKXKXKXKXKXKXKXKXKXKXKXKXKXKXq ..@.2.3.9.dXfXzXmXvXxXzXfXaX0.4.#.@.@.#.$.2.2.#...| 0 5 3 X . . KXKXKXKXKXKXKXKXKXKXKXKXKX",
"KXKXKXKXKXKXKXKXKXKXKXKXKXKXKXKXKXKXKXKXKXKXKXKXKXKXKXKXKXo 3 3 3 5 0 q q q q | | ............#.4.8.9.9.0.4.@...KXKXKXKXKXKXKXKXKXKXKXKXKXKXKXKXKXKXKXKXKXKXKXKXKXKXKX#.$.3.0.9.aXfXgXzXxXnXnXvXxXgXaX3.$.@...| ..| | q 0 5 3 o O O KXKXKXKXKXKXKXKXKXKXKXKXKXKX",
"KXKXKXKXKXKXKXKXKXKXKXKXKXKXKXKXKXKXKXKXKXKXKXKXKXKXKXKXKX5 5 0 q | ..@.@.@.@.@.#.$.3.aXjXgXzXzXxXxXzXgXsX9.4.@.0 o KXKXKXKXKXKXKXKXKXKXKXKXKXKXKXKXKXKXKXKXKXKXKXKXKX$.2.3.8.0.0.9.9.9.aXaXsXfXgXgXfXsX9.3.$...| 0 0 0 5 3 3 o X KXKXKXKXKXKXKXKXKXKXKXKXKXKXKX",
"KXKXKXKXKXKXKXKXKXKXKXKXKXKXKXKXKXKXKXKXKXKXKXKXKXKXKXKXKX0 0 0 | ..@.$.3.8.0.9.0.9.sXgXxXnXbXbXnXvXzXfXsX9.4...0 o X KXKXKXKXKXKXKXKXKXKXKXKXKXKXKXKXKXKXKXKXKXKXKX4.3.8.9.aXaXaX9.0.3.4.2.4.3.0.aXdXsXsXaX8.$.| 0 5 5 3 3 X X KXKXKXKXKXKXKXKXKXKXKXKXKXKXKXKX",
"KXKXKXKXKXKXKXKXKXKXKXKXKXKXKXKXKXKXKXKXKXKXKXKXKXKXKXKXKX3 3 5 0 | ..$.8.aXfXgXgXfXsXaX9.9.9.9.0.8.3.3.2.#.@.| 0 3 3 KXKXKXKXKXKXKXKXKXKXKXKXKXKXKXKXKXKXKXKXKX| ..4.aXfXzXvXnXnXxXgXaXq.$.......@.#.4.8.9.9.3.#.| 0 3 X . . . KXKXKXKXKXKXKXKXKXKXKXKXKXKXKXKX",
"KXKXKXKXKXKXKXKXKXKXKXKXKXKXKXKXKXKXKXKXKXKXKXKXKXKXKXKXKXKXX 3 5 0 q ..#.8.aXsXaX9.3.2.$.3.8.8.8.3.3.3.2.@.| q 5 3 3 KXKXKXKXKXKXKXKXKXKXKXKXKXKXKXKXKXKXKXKX| | ..4.aXgXnXVXAXAXCXnXzXsX8.#...q q q | @.2.3.4.@.| 5 o . . . . KXKXKXKXKXKXKXKXKXKXKXKXKXKXKXKX",
"KXKXKXKXKXKXKXKXKXKXKXKXKXKXKXKXKXKXKXKXKXKXKXKXKXKXKXKXKXKXKXKXo 3 3 3 5 q ....| q q | @.0.fXzXzXzXgXsX9.4...0 3 o X KXKXKXKXKXKXKXKXKXKXKXKXKXKXKXKXKXKXKX......@.2.9.fXxXbXCXAXAXCXbXxXfXaX3.@.| 0 5 0 q | | q 0 5 o X . . . KXKXKXKXKXKXKXKXKXKXKXKXKXKXKXKX",
"KXKXKXKXKXKXKXKXKXKXKXKXKXKXKXKXKXKXKXKXKXKXKXKXKXKXKXKXKXKXKXKXO . . . X o 3 5 0 q | ..2.9.sXfXsXaXaX9.0.3.2...0 5 3 KXKXKXKXKXKXKXKXKXKXKXKXKXKXKXKXKXKX@.@.#.2.3.0.aXfXgXxXxXvXvXxXzXgXfXaX9.3.$...w 0 5 5 5 3 3 o X . . . KXKXKXKXKXKXKXKXKXKXKXKXKXKXKXKXKX",
"KXKXKXKXKXKXKXKXKXKXKXKXKXKXKXKXKXKXKXKXKXKXKXKXKXKXKXKXKXKXKXKX. . . . . X 3 5 | @.4.8.0.8.3.$...| | ..#.3.0.4...q 0 KXKXKXKXKXKXKXKXKXKXKXKXKXKXKXKX....@.2.3.9.sXgXgXzXgXfXsXaXaX9.8.3.3.8.0.9.0.3.#.| 0 3 X O . . . . KXKXKXKXKXKXKXKXKXKXKXKXKXKXKXKXKXKXKX",
"KXKXKXKXKXKXKXKXKXKXKXKXKXKXKXKXKXKXKXKXKXKXKXKXKXKXKXKXKXKXKXKXKX. X 3 3 5 0 | @.$.$.$.@...| q 5 5 5 5 q ..@.@.| q q KXKXKXKXKXKXKXKXKXKXKXKXKXKXKXKX| | @.2.0.fXzXnXnXnXvXzXgXfXaX0.4.$.@.@.#.2.4.2.#...w 3 X . . . . KXKXKXKXKXKXKXKXKXKXKXKXKXKXKXKXKXKXKXKX",
"KXKXKXKXKXKXKXKXKXKXKXKXKXKXKXKXKXKXKXKXKXKXKXKXKXKXKXKXKXKXKXKXKXKXKX0 w  .@.#.#.@.| 0 5 5 5 5 0 0 5 5 3 3 3 5 0 0 0 KXKXKXKXKXKXKXKXKXKXKXKXKXKXKXKXq | ..2.9.gXvXVXCXCXVXnXxXzXfXaX3.$...| q q | | ..| q 5 o X . . KXKXKXKXKXKXKXKXKXKXKXKXKXKXKXKXKXKXKXKXKX",
"KXKXKXKXKXKXKXKXKXKXKXKXKXKXKXKXKXKXKXKXKXKXKXKXKXKXKXKXKXKXKXKXKXKXKX0 q ..#.@...q 5 3 5 ..2.3.2.$.@...q 5 X X 3 5 5 KXKXKXKXKXKXKXKXKXKXKXKXKXKXKXKX| ..$.8.aXgXzXxXxXzXgXhXfXsXaXaX9.0.4.@.| 0 5 5 5 5 5 3 3 o KXKXKXKXKXKXKXKXKXKXKXKXKXKXKXKXKXKXKXKXKXKXKX",
"KXKXKXKXKXKXKXKXKXKXKXKXKXKXKXKXKXKXKXKXKXKXKXKXKXKXKXKXKXKXKXKXKXKXKXq | ..@...0 5 3 5 | 3.fXfXaX9.8.3.@.q 3 o X o X KXKXKXKXKXKXKXKXKXKXKXKXKXKXKXKX#.4.0.sXfXgXgXfXsXaX9.0.8.3.3.0.9.9.9.3.#.q 5 o X . o 3 3 KXKXKXKXKXKXKXKXKXKXKXKXKXKXKXKXKXKXKXKXKXKXKXKX",
"KXKXKXKXKXKXKXKXKXKXKXKXKXKXKXKXKXKXKXKXKXKXKXKXKXKXKXKXKXKXKXKXKXKXKX......| q 6 3 0 @.3.9..X0.$.......| | q 5 3 . . KXKXKXKXKXKXKXKXKXKXKXKXKXKX| @.3.aXgXvXbXVXVXnXxXzXfXaX8.$.@...@.#.2.4.#...0 3 X . . X X KXKXKXKXKXKXKXKXKXKXKXKXKXKXKXKXKXKXKXKXKXKXKXKX",
"KXKXKXKXKXKXKXKXKXKXKXKXKXKXKXKXKXKXKXKXKXKXKXKXKXKXKXKXKXKXKXKXKXKXKX@...| 0 5 3 5 ..8.9.3.#...q 5 5 5 0 | | q 3 . . KXKXKXKXKXKXKXKXKXKXKXKXKX0 q ..3.aXzXnXVXCXCXVXbXvXzXfX9.4...q 0 q | @.@...q 5 o . . . . KXKXKXKXKXKXKXKXKXKXKXKXKXKXKXKXKXKXKXKXKXKXKXKX",
"KXKXKXKXKXKXKXKXKXKXKXKXKXKXKXKXKXKXKXKXKXKXKXKXKXKXKXKXKXKXKXKXKXKXKX..| q 5 5 5 0 @.8.8.@.0 0 0 0 0 5 5 0 q 0 3 X . KXKXKXKXKXKXKXKXKXKXKXKXKX5 5 q ..$.0.sXgXgXzXzXzXzXgXfXfXaX9.2...q 0 0 0 0 0 5 o X . KXKXKXKXKXKXKXKXKXKXKXKXKXKXKXKXKXKXKXKXKXKXKXKXKXKX",
"KXKXKXKXKXKXKXKXKXKXKXKXKXKXKXKXKXKXKXKXKXKXKXKXKXKXKXKXKXKXKXKXKXKXKX| q 0 5 5 0 | @.2.#.q 3 5 | @.| 0 5 5 5 3 3 o KXKXKXKXKXKXKXKXKXKXKXKXKXKX3 5 5 q ..4.9.aXaXaXaXaXaXaXaXsXsXaX0.$...0 3 3 3 6 3 o o KXKXKXKXKXKXKXKXKXKXKXKXKXKXKXKXKXKXKXKXKXKXKXKXKXKXKX",
"KXKXKXKXKXKXKXKXKXKXKXKXKXKXKXKXKXKXKXKXKXKXKXKXKXKXKXKXKXKXKXKXKXKXKXq 0 5 5 0 ..@.@.| q 5 5 q 2.8.4...q 5 3 o KXKXKXKXKXKXKXKXKXKXKXKXKXKXKXKX5 5 q | $.9.fXgXfXsX9.8.3.2.2.2.4.3.3.3.#.q 3 X X X X X o KXKXKXKXKXKXKXKXKXKXKXKXKXKXKXKXKXKXKXKXKXKXKXKXKXKXKX",
"KXKXKXKXKXKXKXKXKXKXKXKXKXKXKXKXKXKXKXKXKXKXKXKXKXKXKXKXKXKXKXKXKXKXKXq q 5 3 0 ..#...0 3 3 5 ..8.aX9.;.X.0 3 X KXKXKXKXKXKXKXKXKXKXKXKXKXKXKXKX0 q ..$.0.fXxXmXxXgXsX9.3.2.@.@.....#.$.@.q 3 X . . . X o KXKXKXKXKXKXKXKXKXKXKXKXKXKXKXKXKXKXKXKXKXKXKXKXKXKXKX",
"KXKXKXKXKXKXKXKXKXKXKXKXKXKXKXKXKXKXKXKXKXKXKXKXKXKXKXKXKXKXKXKXKXKXKX| q 5 3 0 | ..q 5 o 3 5 ..8.aX9.3.@.0 3 X KXKXKXKXKXKXKXKXKXKXKXKXKXKXKXKXq | #.0.sXzXnXbXnXnXxXgXsX9.3.#...| | | J 0 6 o O . . KXKXKXKXKXKXKXKXKXKXKXKXKXKXKXKXKXKXKXKXKXKXKXKXKXKXKXKXKX",
"KXKXKXKXKXKXKXKXKXKXKXKXKXKXKXKXKXKXKXKXKXKXKXKXKXKXKXKXKXKXKXKXKXKXKX| q 0 5 5 q | 0 3 X 3 0 ..4.0.8.4.@.0 3 X KXKXKXKXKXKXKXKXKXKXKXKXKXKXKXKXq | ..2.0.sXgXzXzXgXfXsXaXaX9.3.#...| q 0 5 3 o X . . KXKXKXKXKXKXKXKXKXKXKXKXKXKXKXKXKXKXKXKXKXKXKXKXKXKXKXKXKX",
"KXKXKXKXKXKXKXKXKXKXKXKXKXKXKXKXKXKXKXKXKXKXKXKXKXKXKXKXKXKXKXKXKXKXKXq 0 5 5 5 0 0 5 X X 3 0 | @.$.$.@.| 0 3 X KXKXKXKXKXKXKXKXKXKXKXKXKXKXKXKX0 0 0 q ..2.8.0.8.3.4.2.4.0.aX9.8.2...q 5 3 o X X X X KXKXKXKXKXKXKXKXKXKXKXKXKXKXKXKXKXKXKXKXKXKXKXKXKXKXKXKXKX",
"KXKXKXKXKXKXKXKXKXKXKXKXKXKXKXKXKXKXKXKXKXKXKXKXKXKXKXKXKXKXKXKXKXKXKX5 5 3 3 3 5 5 3 X X 3 0 q q q q q 0 3 X . KXKXKXKXKXKXKXKXKXKXKXKXKXKXKXKXq q q | @.8.aXaX0.4.@.| | #.3.8.8.3.#.| e 3 o X X o X KXKXKXKXKXKXKXKXKXKXKXKXKXKXKXKXKXKXKXKXKXKXKXKXKXKXKXKXKX",
"KXKXKXKXKXKXKXKXKXKXKXKXKXKXKXKXKXKXKXKXKXKXKXKXKXKXKXKXKXKXKXKXKXKXKX5 3 3 o o 3 3 3 3 3 0 q q 0 5 3 3 o o o o KXKXKXKXKXKXKXKXKXKXKXKXKXKXKXKX| | ..#.8.fXxXxXfX8.@.q 0 q ..#.4.4.#.| 0 3 o X X X X KXKXKXKXKXKXKXKXKXKXKXKXKXKXKXKXKXKXKXKXKXKXKXKXKXKXKXKXKX",
"KXKXKXKXKXKXKXKXKXKXKXKXKXKXKXKXKXKXKXKXKXKXKXKXKXKXKXKXKXKXKXKXKX3.@.| q 0 5 3 3 3 0 | @.3.0.8.4.@.q 5 3 5 q q q KXKXKXKXKXKXKXKXKXKXKXKXKXKXKXq q | @.8.fXnXnXxXsX4.q 5 5 0 q ......q 0 5 o X X KXKXKXKXKXKXKXKXKXKXKXKXKXKXKXKXKXKXKXKXKXKXKXKXKXKXKXKXKXKXKX",
"KXKXKXKXKXKXKXKXKXKXKXKXKXKXKXKXKXKXKXKXKXKXKXKXKXKXKXKXKXKXKXKX0.0.3.4.#...q 0 5 5 | 4.aXgXxXzXfX9.@.0 0 | @.@.| q q KXKXKXKXKXKXKXKXKXKXKXKXKX5 0 q ..4.sXzXvXnXzX9...5 3 3 5 0 0 0 0 0 3 o X KXKXKXKXKXKXKXKXKXKXKXKXKXKXKXKXKXKXKXKXKXKXKXKXKXKXKXKXKXKXKXKX",
"KXKXKXKXKXKXKXKXKXKXKXKXKXKXKXKXKXKXKXKXKXKXKXKXKXKXKXKXKXKX;X4XXX8.9.aX9.3.@.| 0 0 ..3.aXfXhXfXaX8.@.0 0 ..3.4.@...@.3.KXKXKXKXKXKXKXKXKXKXKXKX5 5 0 | @.3.aXfXzXzX9.@.0 3 3 o 3 3 6 3 3 o O . KXKXKXKXKXKXKXKXKXKXKXKXKXKXKXKXKXKXKXKXKXKXKXKXKXKXKXKXKXKXKXKX",
"KXKXKXKXKXKXKXKXKXKXKXKXKXKXKXKXKXKXKXKXKXKXKXKXKXKXKXKXKX=X%X*X>.4.0.aXaX8.$...w 0 ..3.9.9.0.8.3.$. .5 9 ..4.4.@.&.$.8.9.1XKXKXKXKXKXKXKXKXKXKX3 5 0 q | @.2.0.sXsX8.@.q 5 o o 3 3 3 3 o X . . KXKXKXKXKXKXKXKXKXKXKXKXKXKXKXKXKXKXKXKXKXKXKXKXKXKXKXKXKXKXKXKX",
"KXKXKXKXKXKXKXKXKXKXKXKXKXKXKXKXKXKXKXKXKXKXKXKXKXKXKX5X:X#X~.E.` ..#.4.3.2.@.| 0 0 | $.2.<.@.&...| 0 3 6 q &.@.....w.8.1X3X6XKXKXKXKXKXKXKXKXKXKXKX5 5 0 | ..@.$.$.@.| 0 5 3 3 0 0 0 5 3 o . . o 3 KXKXKXKXKXKXKXKXKXKXKXKXKXKXKXKXKXKXKXKXKXKXKXKXKXKXKXKXKXKX",
"KXKXKXKXKXKXKXKXKXKXKXKXKXKXKXKXKXKXKXKXKXKXKXKXKXKXKX,X;X'.U.U G 0 q | ....| q 5 5 J O.,.,.,.=.E R 8 3 < 5 0 w 0 q @.3.1X<X6X,XKXKXKXKXKXKXKXKXKXKXKX3 5 | @.2.3.3.4.$.@.| 0 0 | ....| | q 0 0 0 0 0 KXKXKXKXKXKXKXKXKXKXKXKXKXKXKXKXKXKXKXKXKXKXKXKXKXKXKXKXKX",
"KXKXKXKXKXKXKXKXKXKXKXKXKXKXKXKXKXKXKXKXKXKXKXKXKXKXKX#X@X!.H.Z ; 3 6 5 0 0 0 e 6 5 Y `.*X<X6X<X&X].' : X X o o X 3 ] $.6.4X$X#XKXKXKXKXKXKXKXKXKXKXKX3 0 $.sXzXnXVXnXxXfX0.#.@.#.$.2.4.3.0.0.3.$.@.....| KXKXKXKXKXKXKXKXKXKXKXKXKXKXKXKXKXKXKXKXKXKXKXKXKXKXKX",
"KXKXKXKXKXKXKXKXKXKXKXKXKXKXKXKXKXKXKXKXKXKXKXKXKXKXKX!.R.P.J.Z - o o o 3 3 3 3 < 4 M T.'.:X8X5X:X@X/ ; X . . . . X 0 @.,.`.R.!.KXKXKXKXKXKXKXKXKXKXKX5 e.4.hXnXAXSXAXVXxXsX3.2.$.4.3.9.sXgXzXgXsX0.2.@...@.KXKXKXKXKXKXKXKXKXKXKXKXKXKXKXKXKXKXKXKXKXKXKXKXKXKX",
"KXKXKXKXKXKXKXKXKXKXKXKXKXKXKXKXKXKXKXKXKXKXKXKXKXKXKXH.H.H.KXKXKXKX. . . X o o o * m U U.@X;X=X'.R.W : X X X X KXKXKXKXKXI.H.H.KXKXKXKXKXKXKXKXKXKXKX0  .2.aXgXvXbXnXvXgXaX3.$.#.$.3.9.fXxXnXnXzXfX8.#...#.3.3.KXKXKXKXKXKXKXKXKXKXKXKXKXKXKXKXKXKXKXKXKXKXKXKX",
"KXKXKXKXKXKXKXKXKXKXKXKXKXKXKXKXKXKXKXKXKXKXKXKXKXKXKXG.G.KXKXKXKXKXKX. . . X X X # k S L.W.~.~.!.Y.D = X X o KXKXKXKXKXKXKXG.KXKXKXKXKXKXKXKXKXKXKXKX9 q &.2.0.dXfXgXgXsX9.3.#.....$.0.sXzXvXvXzXfX8.@...@.$.4.8.KXKXKXKXKXKXKXKXKXKXKXKXKXKXKXKXKXKXKXKXKXKXKX",
"KXKXKXKXKXKXKXKXKXKXKXKXKXKXKXKXKXKXKXKXKXKXKXKXKXKXKXKXKXKXKXKXKXKXKXKXKXKXKXKXKXKXKXKXKXH.H.H.KXKXKXKXKXKXKXKXKXKXKXKXKXKXKXKXKXKXKXKXKXKXKXKXKXKXKX5 e q  .@.$.4.8.9.9.8.4.@.q q ..2.0.sXfXfXsX9.4...q q | @.3.9.aXKXKXKXKXKXKXKXKXKXKXKXKXKXKXKXKXKXKXKXKXKX",
"KXKXKXKXKXKXKXKXKXKXKXKXKXKXKXKXKXKXKXKXKXKXKXKXKXKXKXKXKXKXKXKXKXKXKXKXKXKXKXKXKXKXKXKXKXKXKXKXKXKXKXKXKXKXKXKXKXKXKXKXKXKXKXKXKXKXKXKXKXKXKXKXKXKXKX' _ `.4X>.;.@.$.3.3.2.@.| 0 5 q ..2.8.9.aX9.0.$.| 0 0 0 | @.4.4.4.KXKXKXKXKXKXKXKXKXKXKXKXKXKXKXKXKXKXKXKX",
"KXKXKXKXKXKXKXKXKXKXKXKXKXKXKXKXKXKXKXKXKXKXKXKXKXKXKXKXKXKXKXKXKXKXKXKXKXKXKXKXKXKXKXKXKXKXKXKXKXKXKXKXKXKXKXKXKXKXKXKXKXKXKXKXKXKXKXKXKXKXKXKXKXKXKX%X:X5X9X<X,.....@.@...| 0 3 3 5 q ..#.4.3.3.3.@.| 0 3 3 5 0 | +.$.>.4X%X=XKXKXKXKXKXKXKXKXKXKXKXKXKXKXKXKX",
"KXKXKXKXKXKXKXKXKXKXKXKXKXKXKXKXKXKXKXKXKXKXKXKXKXKXKXKXKXKXKXKXKXKXKXKXKXKXKXKXKXKXKXKXKXKXKXKXKXKXKXKXKXKXKXKXKXKXKXKXKXKXKXKXKXKXKXKXKXKXKXKXKX@X:X5X0XwX0X<X-.q w q q 0 0 3 X . X 3 0 q ....@.@.| 0 5 o X o 3 0 q  .=.`.^.$X:X5XKXKXKXKXKXKXKXKXKXKXKXKXKXKX",
"KXKXKXKXKXKXKXKXKXKXKXKXKXKXKXKXKXKXKXKXKXKXKXKXKXKXKXKXKXKXKXKXKXKXKXKXKXKXKXKXKXKXKXKXKXKXKXKXKXKXKXKXKXKXKXKXKXKXKXKXKXKXKXKXKXKXKXKXKXKXKXKX^.@X:X8X0X0X5X*XE e 3 3 3 3 3 X .   . . o 3 5 0 0 0 0 5 3 X . . o 3 6 0 J Q Y.^.;X,X5XKXKXKXKXKXKXKXKXKXKXKXKXKX",
"KXKXKXKXKXKXKXKXKXKXKXKXKXKXKXKXKXKXKXKXKXKXKXKXKXKXKXKXKXKXKXKXKXKXKXKXKXKXKXKXKXKXKXKXKXKXKXKXKXKXKXKXKXKXKXKXKXKXKXKXKXKXKXKXKXKXKXKXKXKXKXKX#X%X-X;X;X%X'.E.n # . . . . . .         . . . X o o o o X .   . . X o 3 : N I.W.@X%X;XKXKXKXKXKXKXKXKXKXKXKXKXKX",
"KXKXKXKXKXKXKXKXKXKXKXKXKXKXKXKXKXKXKXKXKXKXKXKXKXKXKXKXKXKXKXKXKXKXKXKXKXKXKXKXKXKXKXKXKXKXKXKXKXKXKXKXKXKXKXKXKXKXKXKXKXKXKXKXKXKXKXKXKXKXKXKX;X=X%X@X^.Q.U.U - O                             . . . . .       . . . X * N U L.W.~.~.KXKXKXKXKXKXKXKXKXKXKXKXKX",
"KXKXKXKXKXKXKXKXKXKXKXKXKXKXKXKXKXKXKXKXKXKXKXKXKXKXKXKXKXKXKXKXKXKXKXKXKXKXKXKXKXKXKXKXKXKXKXKXKXKXKXKXKXKXKXKXKXKXKXKXKXKXKXKXKXKXKXKXKXKXKXKX;X=X-XKXKXKXKXKXKXKXKXKXKXKXKXKXKXKXKXKXKXKXKXKXKXKXKXKXKXKXKXKXKXKXKXKXKXKXKXH.L.L.L.KXKXKXKXKXKXKXKXKXKXKXKXKX",
"KXKXKXKXKXKXKXKXKXKXKXKXKXKXKXKXKXKXKXKXKXKXKXKXKXKXKXKXKXKXKXKXKXKXKXKXKXKXKXKXKXKXKXKXKXKXKXKXKXKXKXKXKXKXKXKXKXKXKXKXKXKXKXKXKXKXKXKXKXKXKXKX=X=X=XKXKXKXKXKXKXKXKXKXKXKXKXKXKXKXKXKXKXKXKXKXKXKXKXKXKXKXKXKXKXKXKXKXKXKXKXKXG.G.G.KXKXKXKXKXKXKXKXKXKXKXKXKX"
};
