/* XPM */
static const char *bos2g5[] = {
/* columns rows colors chars-per-pixel */
"128 128 248 2 ",
"   c #0D0D0D",
".  c #030304",
"X  c #1C150C",
"o  c #16160C",
"O  c #141414",
"+  c #1B1513",
"@  c #1B1C1C",
"#  c #171917",
"$  c #10120D",
"%  c #380909",
"&  c #241A0C",
"*  c #2B1B0B",
"=  c #24170A",
"-  c #251B16",
";  c #381615",
":  c #2C120C",
">  c #14270C",
",  c #1B3813",
"<  c #172C12",
"1  c #2B210E",
"2  c #2C2212",
"3  c #28231C",
"4  c #332413",
"5  c #3C2B1A",
"6  c #382817",
"7  c #362813",
"8  c #1D1E20",
"9  c #1E2021",
"0  c #232324",
"q  c #2B2B2C",
"w  c #282727",
"e  c #362A25",
"r  c #39342B",
"t  c #2E3132",
"y  c #333333",
"u  c #3B3B3B",
"i  c #383838",
"p  c #2C312E",
"a  c #480505",
"s  c #580303",
"d  c #461515",
"f  c #591919",
"g  c #6C0202",
"h  c #650505",
"j  c #740202",
"k  c #7B0101",
"l  c #780B0B",
"z  c #681A1A",
"x  c #781616",
"c  c #442C18",
"v  c #4B341C",
"b  c #47351B",
"n  c #55371B",
"m  c #51280E",
"M  c #692A06",
"N  c #742B01",
"B  c #742A02",
"V  c #6A350C",
"C  c #7A3302",
"Z  c #793707",
"A  c #663716",
"S  c #723B1A",
"D  c #483727",
"F  c #573C24",
"G  c #453936",
"H  c #573636",
"J  c #4E2A2A",
"K  c #652929",
"L  c #663535",
"P  c #74312C",
"I  c #401E20",
"U  c #244C19",
"Y  c #28531F",
"T  c #744B19",
"R  c #5B4427",
"E  c #49433A",
"W  c #554638",
"Q  c #4D4526",
"!  c #684727",
"~  c #764B28",
"^  c #7B522D",
"/  c #6C5432",
"(  c #786634",
")  c #5E421C",
"_  c #3C3E41",
"`  c #3E4242",
"'  c #434343",
"]  c #4B4C4C",
"[  c #494846",
"{  c #554947",
"}  c #57524A",
"|  c #4E5253",
" . c #545454",
".. c #5B5C5C",
"X. c #575859",
"o. c #4D4E51",
"O. c #665A57",
"+. c #6D4F4A",
"@. c #716759",
"#. c #5E5F61",
"$. c #5D6262",
"%. c #636464",
"&. c #6C6C6C",
"*. c #676868",
"=. c #6E7171",
"-. c #747474",
";. c #7B7C7C",
":. c #777777",
">. c #756E6B",
",. c #840101",
"<. c #8B0101",
"1. c #870C0C",
"2. c #930101",
"3. c #9A0404",
"4. c #8E1414",
"5. c #A70202",
"6. c #B70303",
"7. c #AF1919",
"8. c #823C05",
"9. c #813A05",
"0. c #913333",
"q. c #AC3333",
"w. c #C80202",
"e. c #D90101",
"r. c #D51313",
"t. c #E90101",
"y. c #F10D0D",
"u. c #DC2828",
"i. c #864107",
"p. c #894609",
"a. c #8D4A0B",
"s. c #864409",
"d. c #914E0C",
"f. c #94520D",
"g. c #99570D",
"h. c #875417",
"j. c #9A5B12",
"k. c #955813",
"l. c #894F11",
"z. c #9D6217",
"x. c #84601F",
"c. c #A56B19",
"v. c #A36616",
"b. c #AA731C",
"n. c #AC771E",
"m. c #B17B1F",
"M. c #885934",
"N. c #8A572C",
"B. c #98633A",
"V. c #91722C",
"C. c #A97A23",
"Z. c #B07D21",
"A. c #A2693E",
"S. c #8E5051",
"D. c #906F4E",
"F. c #A76D42",
"G. c #AD7145",
"H. c #B7764A",
"J. c #877B77",
"K. c #8C726B",
"L. c #B05959",
"P. c #C37D4F",
"I. c #D16E6E",
"U. c #DB4A4A",
"Y. c #B78726",
"T. c #BE922B",
"R. c #B59738",
"E. c #AA8A33",
"W. c #B1993B",
"Q. c #C2972D",
"!. c #C49D31",
"~. c #C49A31",
"^. c #CEAC3A",
"/. c #C8A436",
"(. c #D3B23D",
"). c #D0AE39",
"_. c #90867B",
"`. c #AA8B71",
"'. c #AA9750",
"]. c #C98355",
"[. c #D38858",
"{. c #D6BA42",
"}. c #D9BD44",
"|. c #D4B641",
" X c #C9B449",
".X c #CAB175",
"XX c #DBC146",
"oX c #DDC549",
"OX c #DFC84B",
"+X c #DACB52",
"@X c #E2CC4D",
"#X c #E5D251",
"$X c #EADA56",
"%X c #ECDD58",
"&X c #E8D755",
"*X c #E6D24F",
"=X c #EFE15A",
"-X c #F2E75D",
";X c #F5ED61",
":X c #FBF868",
">X c #FFFF72",
",X c #F4F27E",
"<X c #EFE776",
"1X c #D8C968",
"2X c #787985",
"3X c #5656B4",
"4X c #5858D9",
"5X c #2A2ABC",
"6X c #7D8181",
"7X c #838383",
"8X c #8B8C8C",
"9X c #878A8A",
"0X c #948C89",
"qX c #949494",
"wX c #9C9C9C",
"eX c #979898",
"rX c #93928E",
"tX c #A8948E",
"yX c #AEA693",
"uX c #9DA1A2",
"iX c #A3A3A3",
"pX c #ACACAC",
"aX c #A7A9AA",
"sX c #B6ABA9",
"dX c #B4B4B4",
"fX c #BBBBBB",
"gX c #B8B7B5",
"hX c #B2B0AD",
"jX c #999AAA",
"kX c #C8B3B2",
"lX c #CE9797",
"zX c #CFCEB8",
"xX c #B4B4CF",
"cX c #BCC2C2",
"vX c #C3C3C3",
"bX c #CBCBCB",
"nX c #C7C6C7",
"mX c #D3D3D3",
"MX c #DBDBDB",
"NX c #D7D8D7",
"BX c #CDCFCE",
"VX c #E3E4E4",
"CX c #EEEEEE",
"ZX c #ECECEC",
"AX c #F0F0F0",
"SX c #D8D9E2",
"DX c None",
"FX c black",
/* pixels */
"DXDXDXDXDXDXDXDXDXDXDXDXDXDXDXDXDXDXDXDXDXDXDXDXDXDXDXDXDXDXDXDXDXDXDXDXDXDXDXDXDXDXDXDXDXDXDXDXDXDXDXDXDXDXDXDXDXDXDXDXDXDXDXDXDXDXDXDXDXDXDXDXDXDXDXDXDXDXDXDXDXDX,.,.,.<.2.3.5.6.w.e.t.t.t.DXDXDXDXDXDXDXDXDXDXDXDXDXDXDXDXDXDXDXDXDXDXDXDXDXDXDXDXDXDXDXDXDX",
"DXDXDXDXDXDXDXDXDXDXDXDXDXDXDXDXDXDXDXDXDXDXDXDXDXDXDXDXDXDXDXDXDXDXDXDXDXDXDXDXDXDXDXDXDXDXDXDXDXDXDXDXDXDXDXDXDXDXDXDXDXDXDXDXDXDXDXDXDXDXDXDXDXDXDXDXDXDXDXDXDXj j j k k ,.<.2.5.5.6.w.e.e.e.DXDXDXDXDXDXDXDXDXDXDXDXDXDXDXDXDXDXDXDXDXDXDXDXDXDXDXDXDXDXDXDX",
"DXDXDXDXDXDXDXDXDXDXDXDXDXDXDXDXDXDXDXDXDXDXDXDXDXDXDXDXDXDXDXDXDXDXDXDXDXDXDXDXDXDXDXDXDXDXDXDXDXDXDXDXDXDXDXDXDXDXDXDXDXDXDXDXDXDXDXDXDXDXDXDXDXDXDXDXh s h h h h h g h g g j k ,.<.2.2.3.5.6.e.e.t.y.U.tXhXcXbXNXMXMXMXMXVXVXVXVXMXNXmXDXDXDXDXDXDXDXDXDXDXDX",
"DXDXDXDXDXDXDXDXDXDXDXDXDXDXDXDXDXDXDXDXDXDXDXDXDXDXDXDXDXDXDXDXDXDXDXDXDXDXDXDXDXDXDXDXDXDXDXDXDXDXDXDXDXDXDXDXDXDXDXDXDXDXDXDXDXDXDXDXDXDXDXDXDXDXDXsXJ.K.S.S.S.S.S.S.S.S.+.+.L L P P x j ,.2.5.6.e.e.u.U.I.lXkXBXNXNXMXVXVXVXZXZXVXMXNXvXDXDXDXDXDXDXDXDXDXDX",
"DXDXDXDXDXDXDXDXDXDXDXDXDXDXDXDXDXDXDXDXDXDXDXDXDXDXDXDXDXDXDXDXDXDXDXDXDXDXDXDXDXDXDXt.t.t.t.e.w.6.5.3.1.1.4.DXDXDXDXDXDXDXDXDXDXDXDXDXZXZXZXZXVXVXMXMXmXnXvXvXfXgXgXhXpXiXeX9X;.:.-.%.L z h h l <.5.w.e.t.y.U.lXkXnXmXMXVXVXZXCXCXCXVXNXvXdXaXDXDXDXDXDXDXDXDX",
"DXDXDXDXDXDXDXDXDXDXDXDXDXDXDXDXDXDXDXDXDXDXDXDXDXDXDXDXDXDXDXDXDXDXDXDXDXDXDXDXDXDXt.t.t.e.w.5.2.,.j x S.K.0XsXvXmXMXVXVXZXZXCXCXCXCXCXCXCXCXCXZXZXVXVXVXVXMXNXmXmXmXbXnXcXgXpXiXeXqX7X>.@.+.{ L K 1.3.w.e.t.u.U.I.lXnXNXMXVXZXCXCXCXZXMXnXgXaXqX7XDXDXDXDXDXDX",
"DXDXDXDXDXDXDXDXDXDXDXDXDXDXDXDXDXDXDXDXDXDXDXDXDXDXDXDXDXDXDXDXDXDXDXDXDXDXDXDXDXt.t.e.w.6.3.4.x z L +.0XpXgXvXnXmXMXMXVXVXZXCXCXCXCXCXCXCXCXCXCXZXZXVXVXVXVXMXMXMXMXMXNXbXnXvXgXhXiXeXqX9X;.=.%.{ K l 3.w.e.t.t.u.I.kXBXmXMXVXZXZXZXVXMXbXfXaX8X7X:.DXDXDXDXDX",
"DXDXDXDXDXDXDXDXDXDXDXDXDXDXDXDXDXDXDXDXDXDXDXDXDXDXDXDX7X7X9X7X6X:.*... .P 7.t.t.t.e.6.5.4.P +.>.J.0XiXgXvXbXmXNXMXMXMXMXVXVXCXCXCXCXCXCXCXCXCXCXZXZXVXVXVXMXMXMXMXMXMXmXbXnXvXfXgXpXiXeXqX9X6X-.%.{ H x 5.w.e.t.u.I.sXcXnXbXNXMXVXVXMXNXnXgXiX8XJ.:.DXDXDXDXDX",
"DXDXDXDXDXDXDXDXDXDXDXDXDXDXDXDXDXDXDXDXDXDXDXDXDXDXDXwXeXeXeXeX9X;.=.$. .L 7.e.t.w.6.4.x P +.:.8XuXdXvXnXmXNXMXMXMXMXMXMXVXVXZXCXCXCXCXCXCXCXCXCXCXZXVXVXVXMXMXMXMXMXMXmXbXvXvXfXgXpXaXuXeX8X7X:.*.| [ K 4.6.w.e.u.L.tXaXdXfXvXbXmXNXmXnXfXdXwX8X7X;.DXDXDXDXDX",
"DXDXDXDXDXDXDXDXDXDXDXDXDXDXDXDXDXDXDXDXDXDXgXgXgXfXvXvXvXfXgXpXwX9X:.&.O.+.7.w.w.5.1.P +.O.&.;.qXaXgXvXbXmXNXNXNXMXMXMXMXMXVXVXZXCXCXCXCXCXCXCXCXCXCXZXVXVXMXMXMXMXMXMXmXnXvXfXgXdXpXpXiXeX8X7X-.%. .[ K 1.5.w.e.u.L.0XeXuXpXgXfXvXvXvXgXdXaXeX8X7X7X7XJ.DXDXDX",
"DXDXDXDXDXDXDXDXDXDXDXDXDXDXDXDXDXDXDXDXvXvXvXvXnXBXNXMXMXmXvXgXaXeXJ.S.0.7.7.6.5.<.l L O.&.-.;.8XiXdXfXnXbXmXmXNXNXNXMXMXVXVXVXZXZXCXCXCXCXCXCXCXCXAXCXVXVXMXMXMXMXMXNXbXvXfXgXdXpXpXaXiXeX8X;.=.$. .[ K l 2.6.w.7.S.>.6X9XqXeXiXaXpXpXaXwXeX8X7X7X7X7X7XDXDXDX",
"DXDXDXDXDXDXDXDXDXDXDXDXDXDXDXDXeXiXpXgXnXbXmXNXMXVXVXZXVXMXnXgXpXwXJ.q.r.e.w.5.2.j f L O.&.-.:.7XeXpXgXvXvXbXmXmXmXNXNXMXVXVXVXZXZXCXCXCXCXCXCXCXCXCXZXVXVXMXMXMXNXNXBXnXvXgXdXpXpXpXaXwXeX9X;.&.$. .{ K x <.5.6.7.0.O.*.=.:.;.7X9X8XqX8X7X;.;.J.7X7X9X8XDXDXDX",
"DXDXDXDXDXDXDXDXDXDXDXDXDXDX:.7XeXaXgXvXNXMXVXVXZXZXZXVXVXNXnXgXaXqXK.q.r.w.6.3.l K H { O.*.=.:.7XeXpXdXgXfXvXvXnXbXmXNXMXVXVXVXZXCXCXAXAXCXAXCXCXCXZXZXVXMXMXMXNXmXmXnXvXgXdXpXaXiXiXiXeXqX9X:.&.%.X.{ K z k 2.5.4.P { | X...%.&.-.:.:.:.-.&.:.7X9X8X8X0X`.].[.",
"DXDXDXDXDXDXDXDXDXDXDXDXDX-.:.7XqXaXgXnXMXVXZXZXZXVXVXVXMXmXvXdXuX8XK.q.6.6.5.,.z H  .X...%.&.:.7XeXiXpXdXgXgXfXvXnXmXNXMXMXVXVXVXZXZXCXCXCXCXCXZXZXVXVXMXMXNXmXmXbXnXvXfXgXpXaXwXwXwXeXqX9X7X:.&.%.X.{ H z k <.2.1.K G ` [ ]  .X...%.%.%.#.%.:.9XqXqX9X_.`.].].",
"DXDXDXDXDXDXDXDXDXDXDX%.%.&.:.;.8XwXpXfXbXNXMXVXVXMXMXMXmXvXgXaXqX6XK.0.6.5.2.l z W  .X.X.#.*.:.7XqXeXiXpXpXdXgXgXvXnXbXmXNXNXNXMXMXVXVXVXZXVXVXVXVXMXMXmXbXnXnXnXvXvXfXgXpXaXwXeXqXqX8X7X;.:.-.&.%...} H z j ,.<.l f r i i u ' ] ] ] ] ]  ...-.8XeX8X;.K.D.H.H.",
"DXDXDXDXDXDXDXDXDXDX] X...%.&.:.7XqXiXpXgXvXvXnXbXbXnXvXgXdXaXeX7X=.+.0.5.3.<.j z H  .X.X...*.-.;.9XqXeXwXiXaXpXdXfXvXnXbXbXbXmXmXNXMXMXMXMXMXMXNXNXmXbXnXvXvXvXfXfXgXgXpXiXeXeX8X9X7X7X;.:.-.&.*.%...{ L x k ,.,.l d q q t y i i i i u ' ] ..:.qXeX7X&.@.D.F.G.",
"DXDXDXDXDXDXDXDXi u ' ]  .X.%.*.:.7X8XeXiXaXpXpXpXpXpXaXwXeX8X7X=.X.{ x 3.2.,.j z H ] |  ...%.&.:.;.7X8XeXeXwXwXpXdXfXvXvXnXnXnXbXmXmXmXmXbXbXbXbXnXvXvXvXfXfXgXgXdXpXpXiXeXqX9X7X7X;.:.:.-.&.*.%... .{ L x ,.,.k h d 0 0 0 q q t y q y u  .*.;.8X8X-. .} +.F.A.",
"DXDXDXDXDXDXDXDXi i i ' ' ]  ...&.:.;.7X9X9X8X8X8X8X9X7X;.:.-.*...] G z ,.<.<.,.z H ' [ ]  .X...%.&.:.;.7X9X8XqXeXaXpXdXgXgXgXfXvXvXnXnXvXvXvXvXvXvXfXfXfXgXgXdXpXpXpXaXwXeX8X9X7X7X9X9X7X6X:.&.%.$.X. .L 4.<.,.g s ; - @ @ 0 0 0 0 0 q ' ..:.;.;.-.X.u G / M.B.",
"DXDXDXDXDXDXDXDXq q y i i ' '  ...*.&.&.&.&.&.&.&.*.*.%.%.%... .[ u J f j <.2.2.x J u ` ' ' ] o. ...%.&.-.:.;.7X9XqXwXiXaXpXpXdXgXgXfXfXcXfXfXgXgXgXfXfXgXgXdXpXaXaXaXiXwXeXqXqXqXeXaXaXwXqX7X-.%.O.O.+.P 4.<.k h a : + O # @ @ @ 0 0 y ] %.:.:.%. .u p r ! ^ M.",
"DXDXDXDXDXDXi q 0 0 0 q q y i u ]  . .X.X.X.X.X. . . . . . . .] ' i e d h k <.2.x J u u u ' ' ]  .X.%.*.-.:.-.-.:.7XqXeXeXwXiXpXpXgXgXgXgXgXgXgXgXgXgXgXdXpXpXiXwXwXwXwXeXeXeXaXdXfXvXvXpXeX7X=.%.+.0.4.4.2.,.j s a : O O # @ @ 8 q i '  ...%. .' u G F R ! ~ ~ ",
"DXDXDXDXDXi i i y q q q w q q q i u ' ' ' ' ' ' ' ' ' ] ] ' ' u i t e d s g ,.<.1.K H G u ` ' o.X.%.-.:.;.;.:.-.-.;.7X8XqXeXwXiXpXpXdXgXgXgXdXdXhXhXpXpXpXiXwXeXeXqXqXqXrXqXiXgXnXbXvXgXeX;.*.X.o.L 4.6.5.<.j s a % : # # @ @ 0 q y ' ]  .] ' i q w D ! ~ ~ ! ! ",
"DXDXDXDXDXi i '  ... .i q 0 0 0 q q q q y y i i i i i i i i y q w 0 - % a s g k 2.5.4.P H [ | ..-.7XeXwXiXwX8X;.:.:.;.7X9XqXeXwXiXaXpXpXpXpXpXaXaXaXaXiXwXeXeXqX8X9X7X7X7X8XiXvXmXgXqX-. .u q 9 @ d 1.5.2.j s a : - # @ @ 9 0 q y i u u i i q 0 @ - 5 R ! ! ! ! ",
"DXDXDXDXDXy i ' %.:.:.*.X.] u y q 0 0 0 0 0 0 q 0 0 q q 0 0 0 0 @ @ + : % a s g <.5.6.4.P L H [ | %.=.:.;.7XrXeXqX7X:.:.7X9X8XeXeXwXwXiXaXaXiXwXeXeXeXeXeXqX8X9X7X;.:.:.;.7XeXdXgXeX$.u e ; % % % s j ,.k h a % - @ @ @ @ 0 0 q t y y q q 0 @ @ @ 2 6 v F R R R ",
"DXDXDXDXDX0 q u ..:.qXwXwX9X*. .' i q q 0 0 3 @ @ @ @ @ @ @ @ @ @ # # O + : % s h k <.5.6.3.f - # @ - 0 q ] 6XpXdXqX:.-.:.7X7X9X8XqXeXeXeXeXeXeXqXqX8X8X8X9X7X;.:.-.&.&.-.:.7X8X9X*.y - % h ,.<.,.k j h s s a : - @ @ @ @ 0 0 0 0 @ @ @ @ # # - 4 5 b c v n R ! ",
"DXDXDXDXDX0 0 y ' %.;.eXaXaXwXqX9X;.-.%. .' q @ @ @ @ @ @ # # # O O O O O + : ; a s g <.2.2.g a a a a % X q &.pXdXqX-.&.:.;.7X7X7X9X9X8X8X8X8X8X8X9X7X7X7X7X;.:.-.=.&.&.&.&.-.:.&.] 0   % h j k k j s a a ; ; - @ @ # # @ @ @ @ # # # # + + + 2 6 5 c c b v R ! ",
"DXDXDXDXDXDX0 q y u  .-.9XiXdXfXvXvXgXaXqX-.] i y q q 0 0 @ @ # # # O O O # 9 0 ; d s s h g j k <.2.,.s : 0 ..8XeX7X&.*.-.:.:.;.;.7X7X7X7X7X7X7X7X7X;.;.:.:.:.-.&.&.*.*.%.%..... .u 0 + : a s s s a a a ; e q 0 @ @ # + + + + + + + O + + & 1 4 4 6 6 c b DXDXDX",
"DXDXDXDXDXDXDX0 0 q i '  .*.;.rXiXpXgXgXgXaXqX7X;.:.*...] ' i q 0 8 @ # # # @ 0 w e ; d a s s h g j g a X @ ' *.-.*.....%.%.*.&.&.-.:.:.:.:.:.:.:.-.&.&.&.*.*.%.%.#.X. . .] ] ' ' i y p r J J J I e e ; e w 0 9 @ # + & & X o X & & X o & * * * 1 4 c v n DXDXDX",
"DXDXDXDXDXDXDXDX0 0 0 0 q i '  .*.;.8XwXaXaXaXiXwXeX9X;.&...] u y q 8 @ # # @ 0 0 q q ; % % a a a a d ; - 0 i ]  . .]  . .X.....%.%.%.*.*.*.*.*.*.%.%.O.......X. .] ] ' u i i i i i i u ' ' u i i y q q w 0 8 @ # + & * * & = = * * = = = * * * * 7 b R / DXDXDX",
"DXDXDXDXDXDXDXDXDXDXDX@ @ 9 0 q y u [  .X...%.%.*.*.&.*.%.%. .] i q 0 @ # # @ @ 0 0 0 0 0 - e e e G G G u u u ' ' ] ] ] ]  . .X.X.X.......%.%.....X. . . . .] ] ' u i i y y q q q q q q q w 0 9 @ @ @ 9 9 @ @ # # + & * * = = = * * = = = = * * * 7 E O.*.DXDXDX",
"DXDXDXDXDXDXDXDXDXDXF D D e e 5 e e e r r r r i u u ' [ ] ] ' u y 0 @ # # O # @ @ @ @ @ 9 0 0 w q y i i i i i y i u ' ' ' ' ] ]  . . . . . . . . .] ] ] ] ' ' i y q q y i ' ] ] ] ] ' u i q 0 0 0 @ @ # # # # # # + & * * = = = * * = = 2 r G G r r [ X.O.S.DXDX",
"DXDXDXDXDXDXDXDX! ! ^ M.M.M.~ ! ! ! R F v b 5 6 3 - @ 0 0 0 0 0 @ # # O O O O O # # # # # # @ @ 9 0 0 0 0 q q q q i i i i i u ' ' ' ' ' ] ] ] ] ] ' u u u i i q q q i ' X.&.;.7X7X7X:.*...] ' ' u y 0 # O O # @ - - - * * & & & * * = & r  .=.&...o.[ ' L 7.e.t.",
"DXDXDXDXDXDXDXDX~ ^ B.G.H.F.M.M.M.B.M.~ ! ! ! F v 4 - - - - - + + + $ o o $ $   O # @ 0 0 q i u ' ' ] ]  . . . .' i 0 0 q q y i i i i i u u u u i i i y y q q q i ] &.9XwXpXgXgXgXpXwX8X;.=.%... .' y w d h l l f f c 6 e e e i G E E E { +.S.S.0.0.L G J 4.w.t.",
"DXDXDXDXDXDXDXDXM.B.G.].[.G.M.M.G.P.H.B.^ M.B.B.^ F c 6 6 4 4 1 & & X X X X $   # 0 q i '  ...*.:.7X8XqXeXeXeX8X:.o.t 0 0 0 q q q q y y i i i y y y q q q q t u  .7XdXmXMXMXMXNXnXfXpXwX8X7X:.*.$.| ` G x 6.w.6.3.l f r i u '  .O.*.=.=.+.P 1.6.w.w.4.J J l 6.w.",
"DXDXDXDXDXDXDXDXF.G.H.[.[.H.B.B.H.[.].F.M.B.H.H.B.! n n n v 6 4 1 * & & X X $ O 8 y ' X.&.:.9XeXiXdXfXvXnXbXmXbXfXiX7X..i 0 @ 0 q q q q q y y q q q q 0 0 q ' *.8XdXmXVXVXVXNXnXgXaXeX9X;.&.%. .] ` u G x 6.w.6.2.l d w q t i ' ] X...X.{ z k 5.w.w.4.I e z <.3.",
"DXDXDXDXDXDXDXDXG.H.P.[.].H.F.F.H.[.].G.B.G.].].B.~ ! ! ! F c 4 4 4 2 & & X + @ q u  .%.:.9XeXiXpXfXnXmXMXVXVXZXZXVXnXwX%.i q 0 0 0 0 q q q q q q q w q q u %.eXfXbXNXNXmXvXgXaXeX7X:.&.%. .] ' i t p e z 3.5.5.,.h ; - 8 0 q i G ' ] ] G f h <.5.6.l d ; s j k ",
"DXDXDXDXDXDXR ^ G.].P.G.F.G.H.P.H.H.G.G.G.H.].P.B.~ ! ^ M.! v 4 4 6 6 2 & X @ 0 q i '  .%.&.:.7XrXeXaXdXfXnXmXMXVXZXVXnXwX:. .y 0 0 0 0 0 q q q q 0 0 i ] -.eXgXmXmXvXgXpXeX8X;.-.%... .] ' i y q w w 0 f 1.2.<.j s ; - 9 w p i ' ]  . .{ f s j <.2.,.j h s s s ",
"DXDXDXDXDXv R ^ G.].H.B.M.G.].[.G.B.B.G.P.].P.H.B.~ ! ^ M.! v 4 4 5 5 4 & X @ - 0 q y u [  .X.%.-.;.7XqXwXpXdXfXnXNXMXNXvXpX-.i @ @ @ @ @ 8 8 8 @ # @ y %.qXpXvXbXvXdXiX8X;.-.%.X. .] ' i y q q 0 9 9 - d g k g s % : @ @ 0 q y u ' [ [ G I a s g j j j g s s a ",
"DXDXDXDXDXn R ^ F.P.G.M.^ F.].].F.M.B.H.[.].H.A.M.~ ! ^ ^ ! v 6 6 5 6 2 & o + # # @ 0 q y i ' ]  .%.-.:.7X9XqXeXaXpXgXnXNXvX7Xu @ @ @ @ @ @ @ 8 @ O O q %.eXdXgXgXpXeX7X:.-.%.X.] ' i y q q 0 0 @ @ @ - d h g a : + O # # @ @ 0 0 q q q w 3 - ; a s s s s DXDXDX",
"DXDXDXDXDXv F ! M.F.B.^ ~ B.H.H.B.M.B.H.[.H.B.M.^ ^ ~ ~ ! R v c 6 6 4 * & X o O O # @ @ 0 q q i ' ] X.%.*.-.:.;.7XqXwXpXfXgX7X .' ] %.*.&.-.=.=.*.%...%.:.9X8XqX8X7X:.-.*... .] u i q q 0 0 @ @ @ # # # : s s 4 3 < > o o O O O # # < < , , U 5 ; a a a DXDXDXDX",
"DXDXDXDXDX5 c F ! M.^ ~ ~ M.F.F.B.M.B.H.P.F.M.! ~ ^ ^ ! F D v v 5 4 1 & & X DXDXDXO # # @ @ 0 0 y i ' ]  .....%.*.:.7X9XqXqX7X:.:.eXdXvXbXmXmXBXnXvXgXpX8X:.*.%.%.%.%... .] ' i y q 0 0 @ @ @ # # O O O O DXDXDXU U , > o $ $ $ $ > < , Y Y Y Y DXDXDXDXDXDXDXDX",
"DXDXDXDXDX* 4 6 v R ! ! ~ M.B.A.B.B.A.G.G.B.~ R ! ~ ! F c b v v 5 2 & & DXDXDXDXDX    O # # @ @ 0 q y i ' [ ]  .X...%.*.&.:.7XeXpXvXNXVXZXCXZXVXMXMXmXcXaX8X:...] ] ] ' ' i i q w 0 0 @ @ @ @ # O O O DXDXDXDXDXU , , > > o > > > < , U Y Y DXDXDXDXDXDXDXDXDXDX",
"DXDXDXDXDX} W W D v n R ! ^ M.A.F.G.G.G.F.M.! F F ! F c 6 6 b v 6 * X DXDXDXDXDXDX      O # # @ @ @ 0 0 q i u ' ' ' ]  .%.-.8XpXcXxXxXBXSXVXVXMXmXnXkXkXsXwX7X%.] ' i y y q q 0 0 @ @ @ @ @ @ # O O DXDXDXDXDXDX, , < > > > > > < , U U Y DXDXDXDXDXDXDXDXDXDXDX",
"DXDXDXgXgXfXgXrXO.b c v ! ^ M.A.H.P.P.H.G.M.! v v n v 5 4 4 5 c 4 & X DXDXDXDXDXDXDXDXO O O # # # # # @ @ 0 0 q q y i  .-.9XwXiXjX4X4X4XxXnXBXnXkXI.U.U.I.rX8X:.%.] i q 0 0 0 - @ @ # # # # # # O O DXDXDXDXDXDXDXDX, < > > > , , , U DXDXDXDXDXDXDXDXDXDXDXDXDX",
"DXDX9XiXgXmXMXgX@.5 1 5 n ! M.B.G.H.H.H.A.M.R v b c 5 7 1 2 4 4 2 & X DXDXDXDXDXDXDXDXDX# # # @ @ @ @ 0 0 0 0 0 0 q i  .&.7X8X8X2X3X5X5X2XaXpXaXtXU.r.r.L.J.;.=.%.] i q 0 0 0 0 0 0 @ @ @ @ @ # O O DXDXDXDXDXDXDXDXDX, < > > , , U DXDXDXDXDXDXDXDXDXDXDXDXDXDX",
"[  .&.9XiXkXbXpX@.5 * 4 c n ! ^ B.A.A.B.M.! F 5 7 4 2 1 1 1 1 * * & X DXDXDXDXDXDXDXDXDX@ @ @ 0 q y i u ' ' i y y i ' ] X.%.*.*.&.*.&.2X2X7X9X9XK.S.7.4.P O... .] u i q 0 @ 0 y u u i y y q 0 @ # O DXDXDXDXDXDXDXDXDXDXDXDXDXDXDXDXDXDXDXDXDXDXDXDXDXDXDXDXDXDX",
"( D.D.D.`.yXdXpXrX>.} e * * c n ! ^ ^ ! F v 5 4 2 & & 1 1 * * = = & DXDXDXDXDXDXDXDXDXDX0 0 q i ] ..-.;.9X9X;.*.X.' i i u ' ' ' ] ] } X.........} L z f J G u i i q q q q y ' %.:.:.=.%... .' y 0 @ DXDXDXDXDXDXDXDXDXDXDXDXDXDXDXDXDXDXDXDXDXDXDXDXDXDXDXDXDXDX",
"T.T.T.Y.E.`.tXpXfXgX0X{ 4 4 5 D D D v c 6 4 2 1 & & & 2 2 2 & & X DXDXDXDXDXDXDXDXDXDXDX0 q i ] %.7XiXgXnXnXfXaX7X .q 0 0 q y i i u ' ' ] ] ] ] [ [ ' G u i i y q 0 0 q i ' %.qXpXdXiXqX7X&.X.' y q DXDXDXDXDXDXDXDXDXDXDXDXDXDXDXDXDXDXDXDXDXDXDXDXDXDXDXDXDXDX",
"(.(.}.oXoX X'.`.tXwXqX7XJ.0XeX_.O.5 4 4 6 4 = X o $ 3 i { { r DXDXDXDXDXDXDXDXDXDXDXDXDX0 q i ' X.:.8XaXgXgXdXwX;. .i q y i '  ...*.:.7X8XeXwXiXiXuXeX8X;.&.$. .] u i i u ] %.9XaXiXqX7X&...] i q 0 DXDXDXDXDXDXDXDXDXDXDXDXDXDXDXDXDXDXDXDXDXDXDXDXDXDXDXDXDXDX",
"^.{.#X-X;X*X(.R.'.K.J.qXpXnXMXvX_.{ D W W G r 3 3 0 y ] %.%.DXDXDXDXDXDXDXDXDXDXDXDXDX0 0 0 q i '  .%.:.9X8X7X:.%.] i i u ' X.&.;.qXiXdXvXmXMXZXZXVXNXvXpXeX7X-...] ' i i '  .&.;.:.*...] ' i q 0 0 DXDXDXDXDXDXDXDXDXDXDXDXDXDXDXDXDXDXDXDXDXDXDXDXDXDXDXDXDXDX",
"Y.T.(.#X-X=X@X|.E.B.( O.=.qXdXgXpXwXqXrX0X_.-.&.%.X. . .o.' q @ DXDXDXDXDXDXDXDXDXi y 0 @ @ @ 0 y i '  .X.X. .] ' i q y i '  .*.;.qXiXdXfXnXMXVXVXMXbXfXpXqX7X&.X.' i q q y i ' ] ] u i q q 0 - @ @ DXDXDXDXDXDXDXDXDXDXDXDXDXDXDXDXDXDXDXDXDXDXDXDXDXDXDXDXDXDX",
"v.b.Y.^.oX@X@X(.Y.j.T F ' ..:.8XeXeXwXwXwXeXqX9X;.&...] u q 0 @ # DXDXDXDXDXDXDXDXi i q q 0 q q y y i i i i y q q 0 0 w q i '  .%.-.7X8XeXwXpXgXgXdXaXeX7X:.%.X.] i q 0 @ 0 0 q q q 0 @ @ @ @ @ @ @ DXDXDXDXDXDXDXDXDXDXDXDXDXDXDXDXDXDXDXDXDXDXDXDXDXDXDXDXDXDX",
"p.f.z.Z.Y.~.!.Q.m.j.T D i _ ]  .]  ...&.;.7X9X7X:.%. .' i 0 @ # O DXDXDXDXDXDXDXDXi u ' ] ]  . .] ' i i q q 0 0 @ @ @ @ @ 0 q y u ' ]  .X...%.&.-.&.%... .' G i y q 0 @ # # @ @ @ @ @ @ @ @ @ 8 0 0 DXDXDXDXDXDXDXDXDXDXDXDXDXDXDXDXDXDXDXDXDXDXDXDXDXDXDXDXDXDX",
"^ ^ N.k.v.b.m.n.c.j.^ W ] X.%.%... .%.:.8XeXiXwX8X:.%. .' y 0 @ @ DXDXDXDXDXDXDXu u ' X.-.7X9X9X7X;.-.*...] u q 0 @ # # # # @ 0 0 q q y i i u ' ' ' u i y q 0 0 0 @ @ @ # O # @ @ q y u ]  . .X.X.X.X.DXDXDXDXDXDXDXDXDXDXDXDXDXDXDXDXDXDXDXDXDXDXDXDXDXDXDXDXDX",
":.>.D.N.l.f.k.j.j.k.M.@.:.9XwXwX8X7X9XwXdXfXvXcXdXwX9X-...] i y q DXDXDXDXDXu i i u ] *.9XiXdXfXvXfXgXpXwX9X&. .i 0 @ O # # @ @ 0 0 q y i i u ' ' ' u i y q q 0 0 @ @ @ # # @ 0 q ' X.-.9XwXiXiXeX7X&.X. .DXDXDXDXDXDXDXDXDXDXDXDXDXDXDXDXDXDXDXDXDXDXDXDXDXDXDX",
"uXeX_.K.( ~ s.9.9.s.M._.wXpXgXdXiXeXuXgXnXNXMXMXbXfXpXrX:...] u y DXDXDX9X&.] i y y i ] %.;.eXpXvXbXNXNXbXfXpX8X&.] q 0 0 0 q i [  .%.&.:.7X8XqXqX9X7X;.:.&.%. .] u q 0 @ @ 0 i ] &.8XpXcXbXbXvXpX8X&. .] ] DXDXDXDXDXDXDXDXDXDXDXDXDXDXDXDXDXDXDXDXDXDXDXDXDXDX",
"fXgXiX8X>./ A M M S D.tXgXcXgXpXwXqXwXgXnXNXMXMXmXvXpXqX:.%.] ' ' DXDXeX7X-.] y 0 0 0 q i ] *.7XwXgXnXmXNXNXbXgXeX*.' y q y u  .%.:.qXaXgXnXmXNXNXmXnXfXdXaXqX;.%.] i q 0 q i X.:.eXgXbXMXMXmXgXwX;...] ' ]  ...DXDXDXDXDXDXDXDXDXDXDXDXDXDXDXDXDXDXDXDXDXDXDXDX",
"BXnXgXwXJ.O.G D D W K.pXvXgXwX9X:.-.;.eXpXgXgXgXpXeX7X&.X.' y i ..eXpXeX:.#.' q 8 @ @ 8 0 q u ] #.-.9XiXgXvXvXfXaX;. .' i i u ] %.:.eXpXnXMXVXZXZXZXVXMXnXdXeX:.X.' q q q u X.;.iXgXnXmXnXfXaX9X*. .u i '  .&.8XpXvXDXDXDXDXDXDXDXDXDXDXDXDXDXDXDXDXDXDXDXDXDXDX",
"NXbXgXiX7X..` i ' X.7XdXvXaX:.#.o.]  .&.;.9XqX8X7X-.%.] i q @ q ..qXiX8X*.] t 0 3 5 b b 5 5 c D G E  .*.7XeXiXpXwX7X%. .u y i u ] %.;.eXdXvXmXNXMXMXmXvXdXwX;...' y w q u  .:.eXdXfXfXgXaX8X:...' y q q ' ..:.eXpXfXvXDXDXDXDXDXDXDXDXDXDXDXDXDXDXDXDXDXDXDXDXDX",
"bXvXdXeX:. .i i ' ..7XhXgX8X .y w w t '  ...%.%.X.] ' y 0 @ O 0  .7X8X:. .i 0 - b T z.z.h.l.s.T A D p y '  .%.:.7X;.-...' y q q i '  .*.;.qXwXaXpXaXwX8X:.%.o.i q 0 0 i  .-.9XwXpXiXqX7X&...] i q 0 q y ' ..:.8XiXdXfXvXnXDXDXDXDXDXDXDXDXDXDXDXDXDXDXDXDXDXDXDX",
"pXaXeX;.%.] i i  .*.9XaXiX_./ v 2 @ @ w i u ' ' u i q 0 @ O   @  .&.&. .i r Q / V.R.(.(.^.!.Q.Y.V.T n 6 0 w y [  ..... .' y q 0 0 q u ] X.%.-.:.:.-.*...] ' y 0 0 0 q ' %.;.9X8X7X:.*. .' i p 5 c 5 e q i ] $.:.9XiXdXfXvXDXDXDXDXDXDXDXDXDXDXDXDXDXDXDXDXDXDXDX",
"7X7X:.%. .u i ' ..:.8XqX0XK.V.h.n 6 3 0 0 q q q q 0 0 @ # O DXDXDXX.] i w Q V. X#X-X:X:X:X;X-X#X|.Y.k.A 7 @ @ @ 0 y i i i y q 0 @ 0 q i u ' ] ] ] ] ' i q 0 8 @ @ q i ] %.:.:.*.X.] ' i q w 5 A T T v r t i ' X.-.9XiXdXgXDXDXDXDXDXDXDXDXDXDXDXDXDXDXDXDXDXDXDX",
"*.%...] ' q q i %.7X7X;.>.D.C.c.V.V./ r @ # # @ @ @ # $ O q  .:.X.u r D ! V./.@X-X:X>X>X>X>X>X:X%XoX/.E.x.) 7 + O # 9 0 q q 0 @ @ @ @ 0 0 q y i i q q 0 @ @ # # 8 q ' ] X.X. .' y w 8 3 b ! x.C.Y.E.V.( R r y ' X.-.9XiXdXfXnXDXDXDXDXDXDXDXDXDXDXDXDXDXDXDXDXDX",
" . .] u y 0 0 i %.;.:.%.O.( C.T.(.{.W.( r 3 2 - + + # @ q ' %.&. .r b T C.!.}.$X;X:X>X>X>X>X>X>X:X-X&X{.~.C.T 6 - - - - - @ @ @ @ # # # # @ @ 0 0 @ @ # # # # @ 0 y ' ' ` i y e e 3 3 b ( R.(.}.XX}.(.!.V./ E E ] ..:.8XaXgXvXbXDXDXDXDXDXDXDXDXDXDXDXDXDXDXDXDX",
"] ' u y q 0 q u ..-.%.o.[ ( R.{.$X-X&X XE.V.h.A 7 - q | -.-.*.../ ! h.C./.{.@X$X;X:X>X>X>X>X>X>X:X-X$X@X{.!.C.h.T V V m * # O # # O O O O # # # # # # + O # # @ 0 q y q 0 @ 4 n T x.V.W. X&X-X-X-X-X$XOX XW.E.( [ ] $.:.eXpXfXvXDXDXDXDXDXDXDXDXDXDXDXDXDXDXDXDX",
"' u y 0 0 q i '  ...X.W / V. X#X-X;X-X*X(.Q.b.l.m * i =.8X;.X.E ! z.Z.!.}.*X$X-X;X:X>X>X>X>X:X:X;X-X$X#XoX(.T.b.j.f.s.V 4 # O O O O O O O O O O O O O O O O # @ 0 9 9 - - * m T c.Q.(.@X=X;X:X:X:X;X;X-X=X*X XV.E u ] %.;.eXpXgXDXDXDXDXDXDXDXDXDXDXDXDXDXDXDXDX",
"i i q 0 0 y ' [ [ ] / x.C./.oX$X=X%X#X{.!.Z.j.p.Z DXDX-.-..._ r ! C.!.{.#X=X;X:X:X>X>X>X>X:X;X=X%X%X$X#XoX(.~.Z.c.g.s.A 5 3 # # O O DXDXDXDXDXDXDXDXDXDXO O # @ @ # # - m V l.b.T.^.oX$X%X=X=X=X=X-X;X:X;X=X XV.E t i ] *.7XwXdXfXnXDXDXDXDXDXDXDXDXDXDXDXDXDXDX",
"q q 0 0 q i ' ' i i / V.T.).oX#X@XXX^.T.n.k.s.Z ~ DX:.*...{ Q R x.R.(.@X$X-X:X>X>X:X;X;X;X;X-X%X&X#X@XXX|./.Q.Y.c.g.s.A c w 8 @ # DXDXDXDXDXDXDXDXDXDXDXO O O # + - 4 m V a.v.m.T.^.XX#X#X@X#X#X$X=X;X;X;X-X+XW.V./ E E  .&.9XiXgXvXDXDXDXDXDXDXDXDXDXDXDXDXDXDX",
"@ @ 0 q y u ' u y r ! V.~.).|.|.^.!.Y.z.p.C C Z / >.&.X.] W ~ z.Y./.XX@X$X-X:X:X;X-X%X%X%X%X%X$X#XoX{.^./.Q.Y.Z.c.k.s.A D q 0 @ @ DXDXDXDXDXDXDXDXDXDXDXO O O O + c V s.d.k.z.c.Z.T.^.{.}.{.XX@X&X$X%X%X%X%X&X@X|.W./ u _ X.-.8XaXgXDXDXDXDXDXDXDXDXDXDXDXDXDXDX",
"  O 8 q i i i i D A T C.Y.Q.Q.Y.Z.c.k.s.C N N V / O.$.o.' R x.n.Q.^.XX@X$X=X-X-X-X%X$X$X$X$X#X@XXX(./.!.T.Y.m.c.z.^ ! D r q 9 @ # DXDXDXDXDXDXDXDXDXDXDXO O O O + c Z p.d.d.g.j.c.Z.Y.Q.!./.^.{.oX*X&X$X%X%X$X*XXXR./ y t ' #.:.eXaXdXgXDXDXDXDXDXDXDXDXDXDXDXDX",
".   @ q i y r v A i.f.v.b.n.b.v.g.s.C C N B N V ! } | ` i R x.Y.Q.).XX@X$X%X%X$X$X$X&X&X&X#XoX{.^./.Q.Y.Z.b.v.j.h./ ] _ t 0 @ # O DXDXDXDXDXDXDXDXDXDXDXO O O O + c V 8.i.i.p.d.j.z.c.m.Y.T./.^.{.oX@X&X$X$X&X*X}.R.( D r u o.*.7XeXpXgXvXDXDXDXDXDXDXDXDXDXDXDX",
"DXDX# @ 3 6 m M N C 9.p.f.f.f.p.8.C N B N B DXDX{ o.[ y q R V.T./.(.XX@X$X%X%X$X#X@XoXoXoX}.(./.Q.Y.Y.n.c.j.d.8.S R ' u q 0 @ DXDXDXDXDXDXDXDXDXDXDXDXDXDXDXO O + 4 M C C C C i.a.f.j.c.Z.T./.).{.}.XXoX@X&X$X*XXX/.E.x./ W ' X.-.8XiXgXfXDXDXDXDXDXDXDXDXDXDXDX",
"DXDX] ' E / M.M.N.~ ~ N.N.N.N.N.~ ~ S S S S DXDXDX] ' G D ~ C.!.).(.}.@X#X#X#X#X@XXX{.|.(.^./.T.Y.Z.b.v.j.d.8.N V F G y q 0 @ DXDXDXDXDXDXDXDXDXDXDXDXDXDXDXDXO + * m M M B C C i.a.g.z.n.Y.Q./.(.|.{.}.oX@X@XoX{./.Q.Z.x.R u ] %.:.qXaXdXDXDXDXDXDXDXDXDXDXDXDX",
"*.=.:.7XrXiXsXsXtX_.J.J.J._._._.J.>.@.O.O.O.DXDXDX' W ! h.z.Y.!.^.(.}.}.XXXXXXXX}.}.{.^./.Q.Y.Y.n.c.j.k.a.i.9.N V D i t 0 @ @ DXDXDXDXDXDXDXDXDXDXDXDXDXDXDXDXO # @ 3 6 m M C 9.i.a.g.j.c.m.Y.T.!./.(.{.}.XX{.(./.Q.Y.Z.x.F t u  .*.7XqXeXDXDXDXDXDXDXDXDXDXDXDX",
"X...*.;.8XeXuXwX9X-.&.%.%.&.=.-.&.%...X.X.%.;.DXX.' W ~ j.b.Y.!.^.(.}.}.{.|.(.^.^.^.^./.T.Y.Z.b.v.j.f.p.8.Z S A F G y q 0 @ @ DXDXDXDXDXDXDXDXDXDXDXDXDXDXDXDXO # # 8 3 m M C C Z s.a.g.j.c.n.Y.Y.T.!./././.!.Q.T.Y.Y.n.^ b w t ' X.*.:.7XDXDXDXDXDXDXDXDXDXDXDX",
"i u ]  .X.%.%...] ' i i i i u u u u i i u ..;.7X%.' D T k.b.Y.!.^.(.{.{.{.(./.!.Q.!.Q.Y.Y.n.c.j.g.a.i.9.C V F { [ u y w 0 @ @ DXDXDXDXDXDXDXDXDXDXDXDXDXDXDXDXO # # 8 3 m M B N N C 8.p.d.j.z.c.m.Z.Z.Z.Z.Z.Z.Z.m.Z.Z.n.^ b 3 w u ] X.%.%.DXDXDXDXDXDXDXDXDXDXDX",
"0 0 q y i u ' i q 0 0 - 0 0 0 0 0 0 0 @ q ] &.:...u D T k.b.Y.!././.^.^.^./.T.Y.Y.Y.Y.Z.c.z.j.d.p.8.C C N V F { ' i q 0 0 DXDXDXDXDXDXDXDXDXDXDXDXDXDXDXDXDXDXDXDX# @ - 6 v n M B C 8.s.p.a.f.j.v.c.c.c.v.v.c.c.c.c.b.z.T 5 @ 0 y u ' ]  .DXDXDXDXDXDXDXDXDXDXDX",
"0 0 q q y y y q q q 0 0 0 0 q q 0 @ @ 0 q ' X...] i D T k.b.Y.Q.Q.Q.Q.Q.Q.Y.Y.m.n.n.b.c.j.g.a.p.9.C N N N M F E u y w 0 DXDXDXDXDXDXDXDXDXDXDXDXDXDXDXDXDXDXDXDXDXDXO @ 0 y D n V Z Z i.i.8.p.d.k.j.j.j.j.j.j.j.j.j.j.f.T D q t u ' ] ] ] DXDXDXDXDXDXDXDXDXDXDX",
"' ]  .X.X.] i '  ... .u i ] ..X.' y i ] .. .] u y y D T k.c.m.Y.Y.Y.Y.Y.Y.Z.b.v.v.v.z.k.d.p.p.i.8.C B N N M F E u q 0 @ DXDXDXDXDXDXDXDXDXDXDXDXDXDXDXDXDXDXDXDXDXDXO # @ w p G F F V C C C C 8.p.a.a.a.a.a.a.a.a.p.p.p.~ +...%.*.*.%.%.%.DXDXDXDXDXDXDXDXDXDXDX",
" ...&.;.:.%.]  .:.9X:. .] %.7X7X%.]  .-.2X%.' q w q D T k.v.c.b.b.b.b.b.b.c.j.k.g.g.f.a.p.i.8.8.C C N M V A F G i q @ DXDXDXDXDXDXDXDXDXDXDXDXDXDXDXDXDXDXDXDXDXDXDXO # @ @ w t u F V B N B N C 9.8.8.8.8.8.8.9.9.s.N.B.D.J.7X7X7X;.:.&.*.DXDXDXDXDXDXDXDXDXDXDX",
"] X.-.9X8X-. .%.7XwX9X%.X.:.eXeX:...%.7X9X&._ 0 0 q D A s.f.j.j.z.z.z.z.z.j.f.p.p.p.p.p.s.8.C C N N B A W { G i y DXDXDXDXDXDXDXDXDXDXDXDXDXDXDXDXDXDXDXDXDXDXDXDXDXDXDX# # @ 0 q c V B N B N N N N N N N N N B N N.`.sXgXiXqX7X;.:.*...X.DXDXDXDXDXDXDXDXDXDXDX",
"i '  .-.:.%.] X.:.7X:. .] ..:.;.%. .X.-.:...i 0 0 q D A Z i.a.f.f.f.d.a.p.s.8.9.8.i.i.8.9.C C B B N B A W [ i q 0 DXDXDXDXDXDXDXDXDXDXDXDXDXDXDXDXDXDXDXDXDXDXDXDXDXDXDX    O @ 3 4 c m M M B B M M M B M B Z N.D.`.sXvXdXqX:.*.%. .] ' ' DXDXDXDXDXDXDXDXDXDXDX",
"@ 0 y ' ] ' i '  .X.] i q i ] ] ' i u ]  .' q @ 0 q e m M C 8.i.p.i.8.Z C N N N C 8.8.Z C N B B B B M F W ' t 0 @ DXDXDXDXDXDXDXDXDXDXDXDXDXDXDXDXDXDXDXDXDXDXDXDXDXDXDX      # @ @ 0 3 c V Z Z Z Z Z Z B B h.K.sXzXgXiX9X%.] u i y q 0 0 DXDXDXDXDXDXDXDXDXDXDX",
"O @ 0 q y q q q y i y 0 0 q i i q 0 q i i y @ @ @ 0 w e v A V C C C C N B B B B N C C C N N N N V A F W G i q @ # DXDXDXDXDXDXDXDXDXDXDXDXDXDXDXDXDXDXDXDXDXDXDXDXDXDXDXDXDXO # @ 9 w i } K.`.`.`.`.`.`.K.D.K.J.rX9X:.%.] u y q 0 @ @ @ @ DXDXDXDXDXDXDXDXDXDXDX",
"O # @ 0 0 @ @ @ @ 0 @ @ @ 0 q q 0 @ @ 0 q 0 # O # @ 9 w y D V N N N B B N N B B B B B N B B N M A W [ ' i q 0 # O DXDXDXDXDXDXDXDXDXDXDXDXDXDXDXDXDXDXDXDXDXDXDXDXDXDXDXDXDXDX@ @ 0 t ] =.wXgXBXMXMXbXfXpXeXJ.&.X.' i q 0 q q 0 0 0 @ @ @ DXDXDXDXDXDXDXDXDXDXDX",
"DXDX# # @ # # # # # # # # @ @ @ # # # @ @ #     $ O # 8 0 6 m B N B B B B B B B B B N N N M m c r u u i q 0 @ # O DXDXDXDXDXDXDXDXDXDXDXDXDXDXDXDXDXDXDXDXDXDXDXDXDXDXDXDXDXDX@ @ 0 y [ %.7XwXdXvXvXgXaX8X&. .' y q 0 0 q i u ' ' u y 0 0 DXDXDXDXDXDXDXDXDXDXDX",
"DXDXDXO O O O O O O O O O O O O O O O O O O       O # @ 0 e n S S ~ ~ S S S S S S S A A V m 5 w q y y q @ @ # O O DXDXDXDXDXDXDXDXDXDXDXDXDXDXDXDXDXDXDXDXDXDXDXDXDXDXDXDXDXDX0 0 y ' X.=.7XeXhXfXfXgXiX9X&.X.] ' _ u ' ]  .X.X.X.] i q 0 DXDXDXDXDXDXDXDXDXDXDX",
"DXDXDXDXDXDXDXDXDXDXDXDXDXDXDXDXDXDXDXO O O O O O # - q i [ } @.>.>.>.>.@.@.O.O.O.O.} W G r q q 0 w 0 @ @ # O DXDXDXDXDXDXDXDXDXDXDXDXDXDXDXDXDXDXDXDXDXDXDXDXDXDXDXDXDXDXDXDXi '  .&.7XwXdXvXmXMXNXnXgXpXwXeX8X7X7X;.:.:.:.-.%. .' i q 0 DXDXDXDXDXDXDXDXDXDXDX",
"DXDXDXDXDXDXDXDXDXDXDXDXDXDXDXDXDXDXDXO O # @ 0 q y i u ' ]  ...%.*.*.%.$...X. .| ] [ ' ` u i y q 0 @ @ # O DXDXDXDXDXDXDXDXDXDXDXDXDXDXDXDXDXDXDXDXDXDXDXDXDXDXDXDXDXDXDXDX:.-.:.9XuXdXvXbXmXmXbXfXaXqX9X7X7X7X7X7X7X7X:.-.%. .' i 0 @ @ DXDXDXDXDXDXDXDXDXDXDX",
"DXDXDXDXDXDXDXDXDXDXDXDXDXDXDXDXDXDXDXO # @ 0 y ' ] ] ] ] ] ] ] ] ] ] ] ] ] ] ] ' i i u ' ' ' u i w @ # # O DXDXDXDXDXDXDXDXDXDXDXDXDXDXDXDXDXDXDXDXDXDXDXDXDXDXDXDXDXDXDX:.7XqXiXgXnXNXNXmXnXfXpXeX:... .] ]  . ...%.%.X.] ' i q 0 #     DXDXDXDXDXDXDXDXDXDXDX",
"DXDXDXDXDXDXDXDXDXDXDXDXDXDXDXDXDXDXDX@ @ 0 q y i u ' ] X.%.-.;.7X7X7X7X7X7X;.:.%. .] ' u i i i y q 0 @ # O DXDXDXDXDXDXDXDXDXDXDXDXDXDXDXDXDXDXDXDXDXDXDXDXDXDXDXDXDXDX%.*.-.;.8XwXpXdXdXpXpXpXpXpXwX8X;.*. .' i y i i y q q 0 @ @ O   DXDXDXDXDXDXDXDXDXDXDXDX",
"DXDXDXDXDXDXDXDXDXDXDXDXDXDXDXDXDXDXDX0 0 q q q q q i  .*.7XeXiXpXpXpXpXpXpXiXeX7X-.%. .' i y q q q q 0 @ # DXDXDXDXDXDXDXDXDXDXDXDXDXDXDXDXDXDXDXDXDXDXDXDXDXDXDXDXDXDX..%.*.:.7X8XeXeXeX8XqXiXpXgXgXpXwX7X*.] q @ # # # # @ # # O DXDXDXDXDXDXDXDXDXDXDXDXDXDX",
"DXDXDXDXDXDXDXDXDXDXDXDXDXDXDXDXDXDXDX@ @ 0 q y i '  .*.:.7X7X7X9X9X8XqXqXqX8X7X;.:.-.-.&...' q 0 0 0 @ @ @ @ DXDXDXDXDXDXDXDXDXDXDXDXDXDXDXDXDXDXDXDXDXDXDXDXDXDXDXDXDX:.:.7XeXpXfXvXvXfXgXpXpXiX8X:.*.&.:.-.%.] i 0 #       O O O DXDXDXDXDXDXDXDXDXDXDXDXDXDX",
"DXDXDXDXDXDXDXDXDXDXDXDXDXDXDXDXDXDXDX# @ 0 q i u ]  ...%.%.%.%.%.&.-.-.:.-.&.*.*.*.*.&.-.%.] i q 0 @ @ @ @ DXDXDXDXDXDXDXDXDXDXDXDXDXDXDXDXDXDXDXDXDXDXDXDXDXDXDXDXDXDX-.:.7XeXpXgXgXgXpXaXiXiXwX7X%.]  ...%... .' q @ O       O O DXDXDXDXDXDXDXDXDXDXDXDXDXDX",
"DXDXDXDXDXDXDXDXDXDXDXDXDXDXDXDXDXDXDX0 0 q i i i y y y y i ' ] X.%.%.*.%.%.X.} ] ' ' ] ] ] ] ' i q 0 0 DXDXDXDXDXDXDXDXDXDXDXDXDXDXDXDXDXDXDXDXDXDXDXDXDXDXDXDXDXDXDXDX .X.%.&.:.:.&.%.X.X.*.9XiXwX9X-. .' i i u i y 0 @ O     O O DXDXDXDXDXDXDXDXDXDXDXDXDXDX",
"DXDXDXDXDXDXDXDXDXDXDXDXDXDXDXDXDXDXDX@ 0 0 0 q q i i ' ] X.&.;.9XqXeXeXqX9X:.%.X.] ' u i i i i y q q q DXDXDXDXDXDXDXDXDXDXDXDXDXDXDXDXDXDXDXDXDXDXDXDXDXDXDXDXDXDXDXDX .X.%.:.9X8X7X:...' ' X.-.;.6X:.X.i q 0 q q 0 0 @ O     O O DXDXDXDXDXDXDXDXDXDXDXDXDXDX",
"DXDXDXDXDXDXDXDXDXDXDXDXDXDXDXDXDXDXDX# # # # 0 y ' X.*.;.qXpXgXnXmXMXNXbXfXaX9X:.%.o.u q 0 0 0 0 q q q DXDXDXDXDXDXDXDXDXDXDXDXDXDXDXDXDXDXDXDXDXDXDXDXDXDXDXDXDXDXDXDX%.*.;.iXfXbXmXfX8X .i q y ' X.%. .u q 0 @ # @ @ @ # O O DXDXDXDXDXDXDXDXDXDXDXDXDXDXDXDX",
"DXDXDXDXDXDXDXDXDXDXDXDXDXDXDXDXDXDXDX# @ 0 i ` ' ' ]  .X.*.:.8XeXaXpXpXiXeX7X&...] ' ` u i q 0 0 0 8 @ DXDXDXDXDXDXDXDXDXDXDXDXDXDXDXDXDXDXDXDXDXDXDXDXDXDXDXDXDXDXDXDX..%.:.eXgXnXBXvXuX-.} i 0 q i ' ' i y 0 # O O # # # DXDXDXDXDXDXDXDXDXDXDXDXDXDXDXDXDXDX",
"DXDXDXDXDXDXDXDXDXDXDXDXDXDXDXDXDXDXDX@ 0 i ]  .] u i i u ] X.*.:.;.7X7X:.-.%. .] G u u ' ` i q 0 @ # O DXDXDXDXDXDXDXDXDXDXDXDXDXDXDXDXDXDXDXDXDXDXDXDXDXDXDXDXDXDXDXDX]  .%.;.qXwXaXiXeX9X&.] q 0 0 0 q i y 0 @ O O O O DXDXDXDXDXDXDXDXDXDXDXDXDXDXDXDXDXDXDX",
"DXDXDXDXDXDXDXDXDXDXDXDXDXDXDXDXDXDXDX0 0 q q y q 0 y ] *.9XiXgXgXgXgXpXiXeX9X;.%. .' y q 0 0 q 0 @ @ # DXDXDXDXDXDXDXDXDXDXDXDXDXDXDXDXDXDXDXDXDXDXDXDXDXDXDXDXDXDXDXDXu ' ]  .%.%.X.%.:.9X2X..i w @ @ 0 q q 0 # O O O O DXDXDXDXDXDXDXDXDXDXDXDXDXDXDXDXDXDXDX",
"DXDXDXDXDXDXDXDXDXDXDXDXDXDXDXDXDXDXDX0 0 @ @ @ @ q u X.:.qXpXgXfXgXdXpXiXeX8X7X-.%.] i w @ 0 0 @ @ @ @ DXDXDXDXDXDXDXDXDXDXDXDXDXDXDXDXDXDXDXDXDXDXDXDXDXDXDXDXDXDXDXDXu ' '  .X.] i i  .-.:.%.' y 0 # @ @ @ @ # O O O O DXDXDXDXDXDXDXDXDXDXDXDXDXDXDXDXDXDXDX",
"DXDXDXDXDXDXDXDXDXDXDXDXDXDXDXDXDXDXDXDXDXDX@ 0 i ]  . . . .%.%.&.&.-.&.*.%.X. .X.%.%. .' i w @ # # # # DXDXDXDXDXDXDXDXDXDXDXDXDXDXDXDXDXDXDXDXDXDXDXDXDXDXDXDXDXDXDXDX . .%.:.;.%.' y i ' ]  . .' q @ # # # # O O O O O DXDXDXDXDXDXDXDXDXDXDXDXDXDXDXDXDXDXDX",
"DXDXDXDXDXDXDXDXDXDXDXDXDXDXDXDXDXDXDXDXDXDX@ 0 y ' ] ] ]  .%.-.:.7X7X7X7X-...] ] ] ] ] ' u q @ O O O DXDXDXDXDXDXDXDXDXDXDXDXDXDXDXDXDXDXDXDXDXDXDXDXDXDXDXDXDXDXDXDXDXDX..:.8XeX8X:.%.] i i u ' u y 0 @ # O O O O O O DXDXDXDXDXDXDXDXDXDXDXDXDXDXDXDXDXDXDXDX",
"DXDXDXDXDXDXDXDXDXDXDXDXDXDXDXDXDXDXDXDXDXDX@ @ @ 0 q ' X.:.eXpXgXvXvXvXgXaX7X%.' q @ 0 y y 0 @ @ DXDXDXDXDXDXDXDXDXDXDXDXDXDXDXDXDXDXDXDXDXDXDXDXDXDXDXDXDXDXDXDXDXDXDXDXDXDXeXwXaXhXiX:.' 0 0 q q q q 0 @ O O O O DXDXDXDXDXDXDXDXDXDXDXDXDXDXDXDXDXDXDXDXDXDX",
"DXDXDXDXDXDXDXDXDXDXDXDXDXDXDXDXDXDXDXDXDXDX# @ @ 0 G %.7XqXeXeXiXpXpXaXwXqX7X:. .y @ @ 0 0 @ @ # DXDXDXDXDXDXDXDXDXDXDXDXDXDXDXDXDXDXDXDXDXDXDXDXDXDXDXDXDXDXDXDXDXDXDXDXDXDX:.:.rXpXaX;.] q - @ 0 q q 0 @ O O O O DXDXDXDXDXDXDXDXDXDXDXDXDXDXDXDXDXDXDXDXDXDX",
"DXDXDXDXDXDXDXDXDXDXDXDXDXDXDXDXDXDXDXDXDXDXO @ 0 y ] :.qXqX7X:.;.7X7X:.&.&.:.-...' q @ # O O O O DXDXDXDXDXDXDXDXDXDXDXDXDXDXDXDXDXDXDXDXDXDXDXDXDXDXDXDXDXDXDXDXDXDXDXDXDXDX' ] %.7X9X&.] q @ # @ 0 q 0 @ O O O O DXDXDXDXDXDXDXDXDXDXDXDXDXDXDXDXDXDXDXDXDXDX",
"DXDXDXDXDXDXDXDXDXDXDXDXDXDXDXDXDXDXDXDXDXDXO # 0 q u ]  ...%.*.:.;.;.*.X.] ] ' ] ] ' y @ O O O O DXDXDXDXDXDXDXDXDXDXDXDXDXDXDXDXDXDXDXDXDXDXDXDXDXDXDXDXDXDXDXDXDXDXDXDXDXDXq q i ]  .' q 0 @ # # @ @ @ # O O DXDXDXDXDXDXDXDXDXDXDXDXDXDXDXDXDXDXDXDXDXDXDXDX",
"DXDXDXDXDXDXDXDXDXDXDXDXDXDXDXDXDXDXDXDXDXDXO # @ q q q i ' ..:.9XeXeX7X%. .i q i ' ' i @ # O O O DXDXDXDXDXDXDXDXDXDXDXDXDXDXDXDXDXDXDXDXDXDXDXDXDXDXDXDXDXDXDXDXDXDXDXDXDXDX# # @ 0 q 0 @ @ # O O # # @ @ @ 0 DXDXDXDXDXDXDXDXDXDXDXDXDXDXDXDXDXDXDXDXDXDXDXDX",
"DXDXDXDXDXDXDXDXDXDXDXDXDXDXDXDXDXDXDXDXDXDXDXDX@ @ 0 y ' %.7XwXgXvXvXdXeX:.] y w 0 0 0 @ @ # DXDXDXDXDXDXDXDXDXDXDXDXDXDXDXDXDXDXDXDXDXDXDXDXDXDXDXDXDXDXDXDXDXDXDXDXDXDXDXDXO O O # @ @ @ # O     $ # @ q y ' ]  .DXDXDXDXDXDXDXDXDXDXDXDXDXDXDXDXDXDXDXDXDXDX",
"DXDXDXDXDXDXDXDXDXDXDXDXDXDXDXDXDXDXDXDXDXDXDXDXDX+ 0 y ] *.8XpXnXMXMXvXpX7XX.i 0 @ O O # # DXDXDXDXDXDXDXDXDXDXDXDXDXDXDXDXDXDXDXDXDXDXDXDXDXDXDXDXDXDXDXDXDXDXDXDXDXDXDXDXDX..X.] i q 0 9 @ @ @ @ 0 y ' X.*.:.:.7XwXDXDXDXDXDXDXDXDXDXDXDXDXDXDXDXDXDXDXDXDXDX",
"DXDXDXDXDXDXDXDXDXDXDXDXDXDXDXDXDXDXDXDXDXDXDXDXDX# @ q ' %.9XpXvXNXNXvXiX;. .y @ O         DXDXDXDXDXDXDXDXDXDXDXDXDXDXDXDXDXDXDXDXDXDXDXDXDXDXDXDXDXDXDXDXDXDXDXDXDXDXDXDXDXkXdXeX:. .u q 0 0 q i ' X.-.8XiXpXdXgXvXnXmXMXMXMXDXDXDXDXDXDXDXDXDXDXDXDXDXDXDXDX",
"DXDXDXDXDXDXDXDXDXDXDXDXDXDXDXDXDXDXDXDXDXDXDXDXDXO @ 0 i  .-.8XpXgXfXpX8X&.] q @ O       DXDXDXDXDXDXDXDXDXDXDXDXDXDXDXDXDXDXDXDXDXDXDXDXDXDXDXDXDXDXDXDXDXDXDXDXDXDXDXDXDX1X.X.XyXyXrX&.] i y y i '  .*.7XqXeXaXpXpXgXfXvXnXvXgXgXvXbXDXDXDXDXDXDXDXDXDXDXDXDX",
"DXDXDXDXDXDXDXDXDXDXDXDXDXDXDXDXDXDXDXDXDXDXDXDXDXO @ 0 q ' X.&.7XeXeX7X&. .u 0 @ O     DXDXDXDXDXDXDXDXDXDXDXDXDXDXDXDXDXDXDXDXDXDXDXDXDXDXDXDXDXDXDXDXDXDXDXDXDXDXDXDX$X#X{.Q.Z.'.yXpX7X .u y q y i ' ]  .%.*.:.;.7X9XeXiXaXiXwXiXdXfXzXDXDXDXDXDXDXDXDXDXDXDX",
"DXDXDXDXDXDXDXDXDXDXDXDXDXDXDXDXDXDXDXDXDXDXDXDXDXO # @ 0 y '  .%.&.&.%.] u q @ # O O   DXDXDXDXDXDXDXDXDXDXDXDXDXDXDXDXDXDXDXDXDXDXDXDXDXDXDXDXDXDXDXDXDXDXDXDXDXDX%X#XOX|.~.b.k.M.@.&. .i 0 0 @ @ 0 0 0 q q y i G ' ]  ...%.%.*.-.2X8XyX.X%XDXDXDXDXDXDXDXDXDX",
"DXDXDXDXDXDXDXDXDXDXDXDXDXDXDXDXDXDXDXDXDXDXDXDXDXO O # @ 0 q i ' ] ] u y 0 @ # O # @ 0 DXDXDXDXDXDXDXDXDXDXDXDXDXDXDXDXDXDXDXDXDXDXDXDXDXDXDXDXDXDXDXDXDXDXDXDXDXDX&X@X^.Y.b.g.i.A D i q @ # # O O O O O O O # # @ @ 8 0 q q y i u '  .@.'.|.XXDXDXDXDXDXDXDXDX",
"DXDXDXDXDXDXDXDXDXDXDXDXDXDXDXDXDXDXDXDXDXDXDXDXDXO O O # @ 0 q y y y q 0 @ # # # @ q ' %.:.DXDXDXDXDXDXDXDXDXDXDXDXDXDXDXDXDXDXDXDXDXDXDXDXDXDXDXDXDXDXDXDXDXDXDXDXoX(.Y.z.p.9.N m 6 0 @ # # + O O O O O O O O O # # # # O O # # # O @ b T C.Y.T.!.DXDXDXDXDXDX",
"DXDXDXDXDXDXDXDXDXDXDXDXDXDXDXDXDXDXDXDXDXDXDXDX' 0 9 0 0 i '  ..... .' i q 0 @ @ 0 i  .*.;.eXDXDXDXDXDXDXDXDXDXDXDXDXDXDXDXDXDXDXDXDXDXDXDXDXDXDXDXDXDXDXDXDXDXDXDXQ.Y.n.a.C C N m * @ O O O O O O O O O O O O O + * * * X     . . . . = V f.c.n.Z.Z.DXDXDXDXDX",
"DXDXDXDXDXDXDXDXDXDXDXDXDXDXDXDXDXDXDXDXDXDXeX9X%.' y i ' .._.eXaXaXeX:.X.' i q q y u  .*.7XiXgXvXDXDXDXDXDXDXDXDXDXDXDXDXDXDXDXDXDXDXDXDXDXDXDXDXDXDXDXDXDXDXDXDXDXv.v.z.DXDXDXDXDXDXDXDXDXDXDXDXDXDXDXDXDXDXDXDXDXM M M DXDXDXDXDXDXDXDXDXDXDXa.a.a.DXDXDXDXDX",
"DXDXDXDXDXDXDXDXDXDXDXDXDXDXDXDXDXDXDXDXvXpXeX7X%.' i i E  .-.9XqXqX9X-.X.] ' u i i u ] %.:.qXaXaXeXDXDXDXDXDXDXDXDXDXDXDXDXDXDXDXDXDXDXDXDXDXDXDXDXDXDXDXDXDXDXDXDXDXDXDXDXDXDXDXDXDXDXDXDXDXDXDXDXDXDXDXDXDXDXDXDXDXDXDXDXDXDXDXDXDXDXDXDXDXDXDXDXDXDXDXDXDXDX",
"DXDXDXDXDXDXDXDXDXDXDXDXDXDXDXDXDXDXDXvXgXaX8X-.X.' i u ] X.*.:.:.:.&...] ' ' u i i i '  .%.:.9X7X;.:.-.DXDXDXDXDXDXDXDXDXDXDXDXDXDXDXDXDXDXDXDXDXDXDXDXDXDXDXDXDXDXDXDXDXDXDXDXDXDXDXDXDXDXDXDXDXDXDXDXDXDXDXDXDXDXDXDXDXDXDXDXDXDXDXDXDXDXDXDXDXDXDXDXDXDXDXDX",
"DXDXDXDXDXDXDXDXDXDXDXDXDXDXDXDXDXhXaXwX8X:.%.] u i ' #.2XeXaXhXaXeX2X%.' i q q q q y i '  .%.*.*.%...&.7XeXDXDXDXDXDXDXDXDXDXDXDXDXDXDXDXDXDXDXDXDXDXDXDXDXDXDXDXDXDXDXDXDXDXDXDXDXDXDXDXDXDXDXDXDXDXDXDXDXDXDXDXDXDXDXDXDXDXDXDXDXDXDXDXDXDXDXDXDXDXDXDXDXDXDX",
"DXDXDXDXDXDXDXDXDXDXDXDXDXDXDXDXyXqX9X-...] i y t i } J.yXzXzXzXzXsX_.>.[ t 0 @ @ 0 0 q i ' ] ] ] ' ] #.:.8XrXDXDXDXDXDXDXDXDXDXDXDXDXDXDXDXDXDXDXDXDXDXDXDXDXDXDXDXDXDXDXDXDXDXDXDXDXDXDXDXDXDXDXDXDXDXDXDXDXDXDXDXDXDXDXDXDXDXDXDXDXDXDXDXDXDXDXDXDXDXDXDXDXDX",
"DXDXDXDXDXDXDXDXDXDXDXDXDXDX}. X'.O.o._ y 0 @ 0 t ] @.'. X1X<X,X<X1X'.D.} i 0 @ # @ @ 0 0 q y i i q y [ #.>.'. XXXDXDXDXDXDXDXDXDXDXDXDXDXDXDXDXDXDXDXDXDXDXDXDXDXDXDXDXDXDXDXDXDXDXDXDXDXDXDXDXDXDXDXDXDXDXDXDXDXDXDXDXDXDXDXDXDXDXDXDXDXDXDXDXDXDXDXDXDXDXDXDX",
"DXDXDXDXDXDXDXDXDXDXDXDXDXDX!.E.( i w 8 @ O   # 0 i } V./.XX$X=X@X).E.( E t 8 O O # @ @ @ @ 0 0 0 0 0 t ' } D.R.!.DXDXDXDXDXDXDXDXDXDXDXDXDXDXDXDXDXDXDXDXDXDXDXDXDXDXDXDXDXDXDXDXDXDXDXDXDXDXDXDXDXDXDXDXDXDXDXDXDXDXDXDXDXDXDXDXDXDXDXDXDXDXDXDXDXDXDXDXDXDXDX",
"DXDXDXDXDXDXDXDXDXDXDXDXDXDXv.h.n - O           O @ D ^ C.Q.(.|.!.C.h.) e 8 O     O O # # # # # # @ @ 9 w r ! k.v.DXDXDXDXDXDXDXDXDXDXDXDXDXDXDXDXDXDXDXDXDXDXDXDXDXDXDXDXDXDXDXDXDXDXDXDXDXDXDXDXDXDXDXDXDXDXDXDXDXDXDXDXDXDXDXDXDXDXDXDXDXDXDXDXDXDXDXDXDXDXDX",
"DXDXDXDXDXDXDXDXDXDXDXDXDXDX8.Z m & DXDXDXDXDXDXDXDXc S a.z.Z.Y.c.d.Z n 6 DXDXDXDXDXDXDXDXDXDXDXDXDXDXDXDX5 A Z 8.DXDXDXDXDXDXDXDXDXDXDXDXDXDXDXDXDXDXDXDXDXDXDXDXDXDXDXDXDXDXDXDXDXDXDXDXDXDXDXDXDXDXDXDXDXDXDXDXDXDXDXDXDXDXDXDXDXDXDXDXDXDXDXDXDXDXDXDXDXDXDX",
"DXDXDXDXDXDXDXDXDXDXDXDXDXDXN N DXDXDXDXDXDXDXDXDXDXDXB N 8.f.k.a.C N DXDXDXDXDXDXDXDXDXDXDXDXDXDXDXDXDXDXDXN N N DXDXDXDXDXDXDXDXDXDXDXDXDXDXDXDXDXDXDXDXDXDXDXDXDXDXDXDXDXDXDXDXDXDXDXDXDXDXDXDXDXDXDXDXDXDXDXDXDXDXDXDXDXDXDXDXDXDXDXDXDXDXDXDXDXDXDXDXDXDXDX",
"DXDXDXDXDXDXDXDXDXDXDXDXDXDXDXDXDXDXDXDXDXDXDXDXDXDXDXDXDX9.p.p.s.DXDXDXDXDXDXDXDXDXDXDXDXDXDXDXDXDXDXDXDXDXDXDXDXDXDXDXDXDXDXDXDXDXDXDXDXDXDXDXDXDXDXDXDXDXDXDXDXDXDXDXDXDXDXDXDXDXDXDXDXDXDXDXDXDXDXDXDXDXDXDXDXDXDXDXDXDXDXDXDXDXDXDXDXDXDXDXDXDXDXDXDXDXDXDX",
"DXDXDXDXDXDXDXDXDXDXDXDXDXDXDXDXDXDXDXDXDXDXDXDXDXDXDXDXDXDXi.i.s.DXDXDXDXDXDXDXDXDXDXDXDXDXDXDXDXDXDXDXDXDXDXDXDXDXDXDXDXDXDXDXDXDXDXDXDXDXDXDXDXDXDXDXDXDXDXDXDXDXDXDXDXDXDXDXDXDXDXDXDXDXDXDXDXDXDXDXDXDXDXDXDXDXDXDXDXDXDXDXDXDXDXDXDXDXDXDXDXDXDXDXDXDXDXDX"
};
