/* XPM */
static const char *bos2h1[] = {
/* columns rows colors chars-per-pixel */
"128 128 256 2 ",
"   c #0C1907",
".  c #1C170A",
"X  c #141415",
"o  c #1C1C1C",
"O  c #191817",
"+  c #0F0F13",
"@  c #231B0C",
"#  c #281A0C",
"$  c #231C14",
"%  c #3B0F0D",
"&  c #14280C",
"*  c #193712",
"=  c #142B0E",
"-  c #2A220E",
";  c #2C2413",
":  c #28241B",
">  c #332513",
",  c #3A2A18",
"<  c #343414",
"1  c #1D1E21",
"2  c #1F2123",
"3  c #242424",
"4  c #2B2B2C",
"5  c #2A2926",
"6  c #342D26",
"7  c #383329",
"8  c #2E3031",
"9  c #333333",
"0  c #3C3C3C",
"q  c #383736",
"w  c #2D3030",
"e  c #440101",
"r  c #4A0706",
"t  c #530303",
"y  c #570707",
"u  c #461515",
"i  c #56150F",
"p  c #660606",
"a  c #780404",
"s  c #6A1615",
"d  c #781919",
"f  c #6E150C",
"g  c #442D19",
"h  c #48341C",
"j  c #54381B",
"k  c #50290C",
"l  c #742B01",
"z  c #782706",
"x  c #793606",
"c  c #6D3011",
"v  c #483826",
"b  c #583C23",
"n  c #463B3A",
"m  c #542C2C",
"M  c #6F302D",
"N  c #7D1F20",
"B  c #1E4316",
"V  c #254617",
"C  c #28551D",
"Z  c #364F1A",
"A  c #32542B",
"S  c #326926",
"D  c #37762C",
"F  c #336A2A",
"G  c #51481A",
"H  c #744717",
"J  c #5A4427",
"K  c #4B4337",
"L  c #544639",
"P  c #4B4627",
"I  c #674628",
"U  c #744C2C",
"Y  c #775429",
"T  c #795332",
"R  c #6A5231",
"E  c #4B6F2B",
"W  c #746C2B",
"Q  c #64621D",
"!  c #3E3E40",
"~  c #3F4243",
"^  c #444444",
"/  c #4B4B4B",
"(  c #494746",
")  c #554A46",
"_  c #575249",
"`  c #545454",
"'  c #5B5B5B",
"]  c #575757",
"[  c #4D4F51",
"{  c #665B59",
"}  c #6E504A",
"|  c #537250",
" . c #6E6655",
".. c #636464",
"X. c #6C6C6C",
"o. c #686867",
"O. c #737373",
"+. c #7B7B7B",
"@. c #777778",
"#. c #756F6B",
"$. c #5E6163",
"%. c #403D40",
"&. c #870202",
"*. c #980303",
"=. c #871A15",
"-. c #A80303",
";. c #B70000",
":. c #A7150C",
">. c #833D06",
",. c #873013",
"<. c #892627",
"1. c #993536",
"2. c #912F2F",
"3. c #A33C3C",
"4. c #BA2E2E",
"5. c #C70101",
"6. c #D80101",
"7. c #C81616",
"8. c #E70101",
"9. c #F70202",
"0. c #E21F1F",
"q. c #CA2F2F",
"w. c #88460A",
"e. c #985A13",
"r. c #8D5313",
"t. c #9B6418",
"y. c #86681F",
"u. c #A16718",
"i. c #AB741C",
"p. c #B07D1F",
"a. c #875934",
"s. c #915831",
"d. c #95623B",
"f. c #9A653C",
"g. c #8D732D",
"h. c #A97A25",
"j. c #A87133",
"k. c #AA532B",
"l. c #8F5555",
"z. c #A94646",
"x. c #BA5657",
"c. c #B44F4E",
"v. c #91764C",
"b. c #A86D43",
"n. c #B7774A",
"m. c #B07449",
"M. c #907674",
"N. c #AE6F6D",
"B. c #C65B5B",
"V. c #CF4B4B",
"C. c #C37D4E",
"Z. c #C37950",
"A. c #D26766",
"S. c #E66868",
"D. c #3D8433",
"F. c #438936",
"G. c #47973B",
"H. c #519038",
"J. c #6F8933",
"K. c #55A23F",
"L. c #508D49",
"P. c #4DA543",
"I. c #53AB46",
"U. c #55B74B",
"Y. c #57B94F",
"T. c #65B052",
"R. c #708D6D",
"E. c #75AD71",
"W. c #63935E",
"Q. c #5CC753",
"!. c #5AC752",
"~. c #63C958",
"^. c #65D75B",
"/. c #6FD568",
"(. c #6AE763",
"). c #70F469",
"_. c #66E25E",
"`. c #8F8E35",
"'. c #B68727",
"]. c #B29033",
"[. c #A8A136",
"{. c #C2962D",
"}. c #C39A35",
"|. c #C78C3D",
" X c #CAA838",
".X c #D4B23B",
"XX c #B49650",
"oX c #B4AB4F",
"OX c #8C8876",
"+X c #AF9770",
"@X c #B0A671",
"#X c #90A450",
"$X c #CC8557",
"%X c #CE8B52",
"&X c #D6BB45",
"*X c #C8B149",
"=X c #C5B36C",
"-X c #DB9365",
";X c #A0D154",
":X c #D9C850",
">X c #E9D856",
",X c #E5CF4C",
"<X c #F3E55C",
"1X c #F4EA5C",
"2X c #D7CC6E",
"3X c #F9F467",
"4X c #F1EB67",
"5X c #E8DC6B",
"6X c #7D7D81",
"7X c #7F8281",
"8X c #848484",
"9X c #8C8C8C",
"0X c #888786",
"qX c #939393",
"wX c #9C9C9C",
"eX c #989997",
"rX c #958F89",
"tX c #AB9493",
"yX c #8FAF8D",
"uX c #B0A993",
"iX c #9FA0A1",
"pX c #A4A4A4",
"aX c #ABABAB",
"sX c #A9A8A6",
"dX c #B5AAA7",
"fX c #B4B4B4",
"gX c #BCBCBC",
"hX c #B7B8B7",
"jX c #B1B1AF",
"kX c #9F9DA1",
"lX c #CC9192",
"zX c #C9B489",
"xX c #C4BBB9",
"cX c #C8ACA7",
"vX c #ADC8AB",
"bX c #D3C98D",
"nX c #CDC8B7",
"mX c #E6E3BA",
"MX c #BDBEC1",
"NX c #BFC1C1",
"BX c #C3C3C4",
"VX c #CBCBCB",
"CX c #C7C8C9",
"ZX c #D5CCCA",
"AX c #D3D3D3",
"SX c #DBDBDB",
"DX c #D8D7D6",
"FX c #D4D2CC",
"GX c #E1DEDE",
"HX c #E3E3E3",
"JX c #EBEBEB",
"KX c #E4EAEA",
"LX c #F1F1F1",
"PX c #E4E6D4",
"IX c None",
"UX c black",
/* pixels */
"IXIXIXIXIXIXIXIXIXIXIXIXIXIXIXIXIXIXIXIXIXIXIXIXIXIXIXIXIXIXIXIXIXIXIXIXIXIXIXIXIXIXIXIXIXIX&.*.-.;.6.8.9.9.9.IXIXIXIXIXIXIXIXIXIXIXIXIXIXIXIXIXIX&.&.*.;.5.6.8.IXIXIXIXIXIXIXIXIXIXIXIXIXIXIXIXIXIX+.8X9XpXhXCXDXSXSXDXAXgXpXwXIXIXIXIXIXIXIXIXIXIXIXIXIXIXIXIX",
"IXIXIXIXIXIXIXIXIXIXIXIXIXIXIXIXIXIXIXIXIXIXIXIXIXIXIXIXIXIXIXIXIXIXIXIXIXIXIXIXIXIXIXIXIXa a &.*.-.5.6.8.9.9.IXIXIXIXIXIXIXIXIXIXIXIXIXIXIXIXIXIXN.z.c.V.V.V.V.0.IXIXIXIXIXIXIXIXIXIXIXIXIXIXIXIXIX+.0XeXaXBXAXSXHXKXHXSXVXhXjXpXIXIXIXIXIXIXIXIXIXIXIXIXIXIXIX",
"IXIXIXIXIXIXIXIXIXIXIXIXIXIXIXIXIXIXIXIXIXIXIXsXaXhXBXBXBXBXhXpXqX+.o.` ( 0 0 0 0 IXIXIXp p p a a &.-.5.6.8.8.8.7.l.M.9XqXwXsXfXhXgXBXBXVXAXDXHXGXDXZXZXZXZXZXlXq.6.6.8.IXIXIXIXIXIXIXIXIXIXo.o.X.O.+.9XpXgXAXKXJXJXJXJXJXKXDXBXsX9X@...IXIXIXIXIXIXIXIXIXIXIXIX",
"IXIXIXIXIXIXIXIXIXIXIXIXIXIXIXIXIXIXIXIXIXsXhXBXBXVXDXDXDXAXBXhXpX9X+...` ^ 0 9 9 0 n m m m M M M s a *.;.5.7.4.z.M.9XqXwXwXwXpXpXsXaXhXgXBXAXSXHXHXHXKXKXKXKXZXlXA.A.B.N.rXIXIXIXIXIXIXIX' ..o.X.+.0XeXsXgXAXHXJXLXLXJXJXHXDXCXhXwX9X+.X.o.IXIXIXIXIXIXIXIXIXIX",
"IXIXIXIXIXIXIXIXIXIXIXIXIXIXIXIXIXIXX.+.qXaXBXDXHXJXJXLXJXKXDXBXhXpX9X@.' ( 0 9 9 0 ( / [ ' o.o.' ) m f &.*.2. .+.9XeXpXsXpXpXwXwXpXpXpXsXhXBXAXDXDXDXHXKXKXHXGXGXDXVXxXjXwXwXIXIXIXIX/ / ` ` ..X.+.0XqXwXaXBXAXSXKXKXHXDXDXVXBXhXsXwX0X@...$.IXIXIXIXIXIXIXIXIX",
"IXIXIXIXIXIXIXIXIXIXIXIXIXIXIXIXIX` O.9XpXgXAXHXJXJXLXLXLXJXSXFXgXaXwX8X../ 0 0 0 ^ / ' o.@.0X0X@.o.{ } M M } O.0XeXpXhXBXBXBXBXBXBXhXfXaXaXhXgXBXVXAXDXHXHXKXKXJXJXKXSXCXaXpXwX8X' ( ^ ( ( ( ` ' ..X.@.0XeXpXfXhXBXBXBXgXgXhXfXpXwX9X+.O...' / ^ IXIXIXIXIXIXIX",
"IXIXIXIXIXIXIXIXIXIXIXIXIXIXIXIX( ' @.wXfXBXDXJXLXLXJXJXJXKXDXVXgXaXwX8X../ ^ 0 ^ ( ` o.+.qXpXpXqX0X+.O...' o.8XeXpXfXgXCXDXDXSXSXSXAXCXgXhXhXhXhXBXCXVXDXDXHXJXJXLXJXKXAXhXsXwX8X' ^ ^ ( ( ( ( / ` ` ' ..O.+.9XqXeXwXwXpXpXwXwXqX9X+.O.o...` ( ( IXIXIXIXIXIXIX",
"IXIXIXIXIXIXIXIXIXIXIXIXIXIXIXIX' ..8XwXfXBXDXJXLXLXJXJXHXDXAXBXhXpX9X@.' ( 0 ( / ` ' O.9XpXhXgXfXpXeX9X+.O.+.9XwXsXhXhXhXgXBXVXDXDXSXSXDXDXCXhXfXhXgXBXBXVXDXGXJXJXKXDXCXgXaXwX+.` 0 ( ` ` ( ( 0 0 0 0 ( / ` ' ..o.O.+.8X8X8X8X+.+.O.o...' ` / ( IXIXIXIXIXIXIX",
"IXIXIXIXIXIXIXIXIXIXIXIXIXIXIX( ' o.8XwXaXgXVXSXKXKXHXDXVXBXgXfXpXeX8XX.` ^ ^ ` ` ' ..+.wXhXVXAXCXhXwX8X+.8X9XwXsXhXhXpX9X0X8X9XwXaXBXDXHXHXDXVXBXhXhXfXhXhXBXVXHXKXHXDXBXfXpXwX0XX.' ' ' ' ' ' ' ' ` ` ` ` / / / ` ` ' ........o.o...' ' ` ` ( ( IXIXIXIXIXIXIX",
"IXIXIXIXIXIXIXIXIXIXIXIXIXIX4 0 / ..+.9XpXfXBXVXAXVXCXBXhXaXpXwXeX9X+.o.` ( / ' ....o.0XpXgXDXSXDXgX9Xo.X.0XwXfXBXCXgXeX..^ 4 4 0 $.9XjXVXGXKXHXDXBXhXsXpXpXsXhXVXSXSXDXgXpXeXeXeXwXqXO.` ' X.+.qXeX9X8X+.@.X...' ` / ( ( ( ( ( ` ` ` ` ` / ( ^ 0 IXIXIXIXIXIXIX",
"IXIXIXIXIXIXIXIXIXIXIXIXIXIX9 0 ( ' X.+.qXpXaXhXhXhXaXsXpXwXqX9X9X+.X.' / ( ` ..o.....0XsXBXDXHXDXBX9Xo.O.9XpXgXVXDXAXfX0X` 4 X O 4 / @.wXBXDXHXSXVXgXfXsXpXpXsXhXgXBXBXhXpXpXpXaXhXaX@.( ( ..+.qXwXpXpXsXaXaXpXwXrX8XO...` ^ 0 0 0 ^ ( ( ( 0 9 4 5 IXIXIXIXIXIX",
"IXIXIXIXIXIXIXIXIXIXIXIXIXIX9 0 ( ` ..X.+.9XeXwXwXeXeXqXqX9X8X8X+.O.' / / ` ..O.O.' ..0XaXCXDXSXDXBXeX@.+.9XpXgXVXSXHXDXgXqX' 9 o O 3 0 o.wXhXAXDXAXCXgXhXaXpXpXpXpXfXhXhXhXhXgXBXVXhX+.( 0 ` ..O.8XqXpXhXVXDXSXDXAXBXaXqX@.' ( 0 0 0 0 0 0 9 4 5 o O IXIXIXIXIX",
"IXIXIXIXIXIXIXIXIXIXIXIXIXIX4 9 0 ( ` ..X.@.+.+.+.+.+.+.+.+.@.X...' / ( ` o.@.+.@.' ' 8XfXCXDXSXDXgXeX@.O.+.9XpXgXAXHXKXSXBXpX+.` 9 O O 9 ' 9XhXVXVXCXBXBXhXaXpXwXpXfXBXCXVXAXDXDXSXVXpXO.` 0 9 ! / ' X.0XpXhXVXDXSXDXAXBXhXpX9X+...` ( 9 4 5 3 o O O IXIXIXIXIX",
"IXIXIXIXIXIXIXIXIXIXIXIXIXIX5 4 9 0 ( ` ' ..o.o.o.o.o.........' / ( ( [ o.0X9X0XO.` ` 8XfXVXDXDXAXhXqXX.....O.9XpXhXAXHXKXHXDXhXqXo.( 9 ^ { 9XhXVXAXAXAXAXCXgXhXsXaXhXCXDXSXKXJXJXKXDXgXwX..w O $ 5 w 0 [ ..+.eXsXhXBXCXVXCXBXhXpXqX@.' ( 0 4 5 3 3 o o IXIXIXIX",
"IXIXIXIXIXIXIXIXIXIXIXIXIXIX5 5 4 9 0 ^ / ` ' ' ' ' ' ` / ( ( 0 9 9 ( ..9XpXwX7X../ ` 8XhXVXDXDXVXfX9X..` ( ` ..+.eXaXBXDXHXHXDXVXgXsXpXpXfXBXAXSXHXHXHXHXSXDXVXBXgXBXAXDXSXKXJXJXJXSXCXpXX.7 @ - ; ; > 5 w 0 ( ` o.@.0XqXwXiXpXsXpXwX9X+...` ( 0 9 4 3 o IXIXIX",
"IXIXIXIXIXIXIXIXIXIXIXIXIX3 3 5 4 4 9 9 0 ( ( / / ( ( ^ 0 9 4 4 9 ( o.9XwXpX9Xo.` ^ ( +.fXVXAXVXBXsX9Xo.` ( n n ) o.8XiXhXCXDXSXHXHXSXDXDXDXDXSXHXKXKXJXJXKXSXCXsXwXfXBXAXDXHXJXJXJXHXVXsX#.v - - > , g > : : 5 7 K ) _ ` { o.@.8X9X9X0X+.o.' ` ( q 4 3 O X IXIX",
"IXIXIXIXIXIXIXIXIXIXIXIX3 3 3 3 5 5 4 9 9 0 0 0 0 9 9 4 4 5 3 9 ` O.eXsXpX9XX./ 9 4 ^ @.aXBXCXBXaXwX9X+.O...) u u n ' O.9XwXfXBXDXSXSXDXAXCXCXAXDXDXSXHXKXHXDXfX+...8XpXhXCXDXHXJXJXHXCXsX#.K > - > b I I v v v b J J v , 6 w 0 ( [ ` ` ` ` / ( 0 9 5 o X X IXIX",
"IXIXIXIXIXIXIXIXIXIXIX4 4 4 5 5 3 3 3 5 5 5 5 4 5 5 5 4 9 ^ ` X.9XwXsXpX9XX./ 9 5 3 0 O.pXgXBXhXiXqXeXwXwXeXM.} m m m m ) #.9XiXaXhXhXhXhXaXaXaXfXhXBXVXDXSXDXhX8X....X.8XpXgXDXKXJXDXjX+._ v > > g J U T T U I I a.s.U j g , 7 v v 7 4 8 9 9 w 4 3 o O X IXIXIX",
"IXIXIXIXIXIXIXIXIXIXIX0 9 9 9 9 4 4 4 4 4 9 9 9 9 9 0 ( ' +.wXaXhXhXpX9XX./ 9 3 o o 0 X.pXhXhXaXqX9XwXhXBXCXgXpXM.M u r r m { O.+.0X9XqXqX9X0X8X0X9XwXaXxXVXVXNXpX8X' / ' 8XsXCXHXJXDXwX..n , > , h b I a.b.d.T a.b.C.f.a.I I I I J , o o : : : o O X IXIXIXIXIX",
"IXIXIXIXIXIXIXIXIXIXIX0 ^ / ' ....o.X.@.+.0X9XeXwXwXpXsXfXhXhXhXsXwX8Xo./ 9 3 O $ 5 ^ O.wXsXsXwX9X0XwXhXAXHXSXVXjX0X{ m r u g n ` ..X.O.O.X.o.......X.7XqXpXhXhXhXpX9X8X9XpXhXAXGXKXGXBXiXo.7 > j I I I d.n.n.d.d.n.$XC.m.f.a.a.f.d.R v v J J v , : IXIXIXIXIXIX",
"IXIXIXIXIXIXIXIXIXIXIX0 ^ ` X.+.0XqXwXaXgXVXDXHXKXJXJXKXGXVXhXpX0XX.] ( 9 3 O . $ 9 / O.9XwXwX9X+.@.9XsXCXHXJXKXDXBXwX} r e e u m n ) ) ) ) ( ( n n ( ] X.8XeXpXfXhXaXsXfXgXCXDXSXHXKXHXVX0Xv > j U I I d.C.C.b.f.m.C.$X$Xn.f.b.C.C.f.R T a.a.U I IXIXIXIXIXIXIX",
"IXIXIXIXIXIXIXIXIXIXIX4 9 ^ ' X.+.9XpXhXVXGXJXJXLXLXJXDXBXaX9XO.` 0 9 4 : $ . . : q ` X.0X9X9X+...' o.8XpXCXSXJXJXGXxXl.r e e e r u u u u u u u u u u v / ' X.8XwXsXsXaXhXgXCXAXDXSXHXHXVX0X7 # j I J J a.b.n.n.b.f.b.C.-X$Xn.n.$X$Xm.d.a.T T a.Y j > IXIXIXIXIX",
"IXIXIXIXIXIXIXIXIXIXIXIX5 9 0 / ' X.8XqXpXhXNXBXBXBXhXsXqX+.' ( w 3 : : $ @ @ @ : q ( ..O.@.@.../ ( / ..0XsXBXDXHXKXFXtX} m r e e e e e e e e e e e e u m n n { +.qXwXsXfXhXBXVXAXDXSXSXCXqX_ 7 v j b J U a.b.n.n.d.d.n.-X%X$XC.C.C.n.b.a.I I a.T j > IXIXIXIXIX",
"IXIXIXIXIXIXIXIXIXIXIXIXIXIX3 5 9 0 ( ` ' ..X.@.+.@.X...` ( 9 5 $ $ $ ; ; - - - ; 9 ^ ` ' ..$.` 0 9 0 ( ..8XwXhXCXDXDXAXxXM.m e e e e r t t t t t r r r i r r m { +.qXwXsXfXgXBXAXDXDXDXBXsX8X{ v g j I I I a.b.m.d.a.b.$X$XC.n.b.b.b.b.a.b b U U b g IXIXIXIXIX",
"IXIXIXIXIXIXIXIXIXIXIXIXIXIX. $ : 6 6 7 n K L K L L L n 7 7 7 , ; @ > , , > > ; ; 6 0 ( ` ` ` / 0 9 9 0 / ..+.qXpXhXCXDXDXhXM.} i e t y p s s s p y t y p p s M #.0X0X9XwXaXhXBXAXDXDXAXBXaX9Xo.7 > h J b j I d.b.f.d.f.b.n.C.m.d.a.d.f.a.I b I I b j g IXIXIXIX",
"IXIXIXIXIXIXIXIXIXIXIXIXIXIX@ ; , h , > h I b g h I I j , h J J , > h b v g > ; ; 5 9 ! / / / ( 0 0 9 9 ^ ` ..X.+.qXsXgXVXDXAXdX} i y s d <.<.<.d s y s s =.<.l.rXeX8XO.0XpXhXBXVXDXDXAXgXpX0X{ 7 @ , v h g b U s.f.b.a.U a.m.b.T I T a.a.I b h h b b g @ . IXIX",
"IXIXIXIXIXIXIXIXIXIXIXIXIXIX> h I U b h U b.d.I I b.m.a.b U f.a.J h J U I v , ; ; 5 9 q 0 ^ ^ 0 9 9 4 4 9 0 ^ ( ` X.8XeXaXBXDXVXdXM.2.d =.1.3.z.z.<.d d =.2.z.N.tXpX@.' O.eXaXgXVXDXDXCXhXwX+.` 6 @ # > , h v b I a.a.U J I T Y J v j j b I j g > g g > # @ IXIX",
"IXIXIXIXIXIXIXIXIXIXIXIXIX, g b a.d.T U b.$Xm.a.a.$X-Xm.T f.C.m.T J T d.T b , ; ; 5 9 q 0 0 0 0 9 9 9 9 9 9 9 9 0 / ' O.0XiXgXAXGXxXl.s d 1.z.x.x.z.1.<.<.1.B.lXcXsXO./ ' +.qXpXhXCXVXBXaX9Xo.( 6 $ . @ > h h g h b I b v J R R } _ L ) }  .} L L L n v 7 7 IXIX",
"IXIXIXIXIXIXIXIXIXIXIXIX; , j I Y a.f.b.n.n.b.d.b.$X-Xn.d.b.$Xn.a.U d.b.a.J , > ; 6 0 ( / / ( ( ^ 0 0 0 0 9 9 9 0 0 ( ( ' O.qXhXDXxXl.r t s <.c.B.B.c.1.<.1.x.lXxXfX+./ ^ / ' @.qXfXgXfXeXO./ 0 9 6 : @ # > , , g g g , g ) #.rXeXpXaXfXxXxXhXaXwXqX0XO.o.{ IXIX",
"IXIXIXIXIXIXIXIXIXIXIX- ; g J I I T f.n.n.b.b.b.n.$X$Xm.f.m.$Xn.a.U d.b.a.J , > > 7 ( ` ............' ` ( 0 0 ^ ( / / ( ( ` O.qXhXhXrX} m y s 2.z.x.x.z.<.1.c.A.lXdXrXO.' ( ( ` X.qXpXqX@.' 0 9 9 w : @ @ @ ; > 6 v K ) { #.0XwXaXgXnXmXmXmXmXnXbXuXuXrX0X+.IXIX",
"IXIXIXIXIXIXIXIXIXIXIX- ; h I I J I d.n.b.f.b.$X$Xn.b.d.d.b.C.m.T R a.d.T b , > , q / $.O.+.9XqXwXeX9X@.' ^ ^ [ ' X.O.' ( / ' O.qXaXBXxXM.i t s <.z.x.z.2.2.3.z.x.N.cXfX9X' / ( ` O.+.X.` ^ 9 4 4 3 $ . . @ # > v { OXeXpXqX8X0XeXuX2X5X3X3X4X:X&X*XXX+XrX+...] ",
"IXIXIXIXIXIXIXIXIXIXIX- ; h I I v b a.f.a.U a.n.n.d.T a.b.b.b.d.I J U a.I h , ; 5 q ( ' O.0XwXsXhXhXaXwX+.' ` / ` o.O.X...] ` ` o.0XfXVXdXM.} i p <.3.3.1.2.2.2.3.x.cXVXpXO.' ' ' ....` ( 0 4 5 o O O . . @ > j Y v.+XbXbXuXOXOX@X2X2X>X1X3X1X>X:X X}.XXv. .{ ] ",
"IXIXIXIXIXIXIXIXIXIXIX- ; , b b , g I T I h I d.d.I b T b.f.a.U b h I I b , ; : 5 4 0 ` X.0XwXfXBXCXBXhXwX+...( ^ ` ..O.@.o.` ( ( ' 8XpXBXFXtXM i s <.1.3.2.=.=.2.c.cXFXjX8X+.7X+...` / ( 0 4 o X X IXIXIX@ k H t.'. X,X4X2XOXOX=X>X>X>X1X3X3X>X,X X].i.t.T } ` ",
"IXIXIXIXIXIXIXIXIXIX@ . @ - > > # # g g > # , b b , > b T Y I b g , h b h > $ O o 2 8 ( ..+.wXfXBXVXAXCXfXqXX.( 0 0 ( ' ....' ( 0 0 / ..9XsXjXtXM.M p d 2.<.d d <.z.cXSXNXqX9XeXqX+...` ( 9 5 O X IXIXIXIXIXc w.e.i.'..X,X=XrXrXuX=X:X:X,X,X,X&X.X{.'.i.e.r.H b ",
"IXIXIXIXIXIXIXIXIX. @ $ : , 6 7 6 6 v v v 7 n ) _ L K b j h g , , , , , > - # # # $ 6 n ` O.9XsXgXCXAXAXgXpX+./ 9 9 0 ( ` ..o.../ ^ 0 ( ` O.eXhXdX .M M z.1.d d d z.cXGXCXiXeXpXwX0XO.' ^ 4 o O IXIXIXIXIXIXIX>.w.e.i.{..X=XuXaXjXjXzX2X:X&X*X}.'.p.u.t.r.w.x l ",
"IXIXIXIXIXIXIXIXIX. @ 7 / ' ..X.#.@.0XrXeXwXsXfXnXBXdX .> @ - > , , > > - @ r p a a s m ^ $.+.eXaXBXAXDXVXfX9X' 0 9 9 ( ' X.8X9X9X8XX.' / ( ` o.@.0XtXcXxXN.N p f 2.tXDXCXpXwXwXqX+.o.` 0 4 O X IXIXIXIXIXIXIXl >.r.u.'.}.=XxXCXAXDXFXnXnXcX@X].i.e.r.w.x x l l ",
"IXIXIXIXIXIXIXIXIX6 q ` O.@.O.+.9XeXwXwXsXhXBXAXDXDXBXrX{ _ _ L v > # @ : ; i *.;.*.a i q / o.0XwXhXVXDXAXNXwXo.( 9 9 0 ` o.0XwXaXfXpX9X+.o.' ` ..+.wXBXDXcXN.2.s M tXAXCXpXeX9X8XO...( 9 5 O X IXIXIXIXIXIXJ b U f.XXXX=XzXxXCXDXDXSXDXAXBXdX+Xj.s.H x l l l l ",
"IXIXIXIXIXIXIXIXIX..X.0XwX8X....8X9X+.X.+.9XwXpXpXwXwXaXgXgXjXOXL ; @ $ 5 n M :.;.-.&.i 7 ! ] X.0XpXgXAXDXCXpX@.` 0 9 9 ^ ' @.eXfXBXBXBXBXhXpX0XX.` ] +.sXCXZXtXM M rXFXNXwX9X6XO...` 0 4 3 IXIXIXIXIXIXIX` [ )  .tXnXZXnXnXfXfXhXnXBXCXCXBXgXdXrX#.} b l l l l ",
"IXIXIXIXIXIXIXIX9XwXpXhXhXwX@.@.eXwX8XO.+.9XpXhXhXsXpXaXhXaXwX7X$./ K A A 0 M :.5.-.a i 6 q ( ' O.9XsXBXAXVXfX9X..^ w 4 9 ^ ' @.qXpXfXhXBXgXaXeX@.` ( ` O.pXAXBXtXM.dXxXaX9X+.O...` ( 9 3 o IXIXIXIXIXIX+.] ( ^ ] 0XaXNXCXCXBXgXgXhXhXaXsXsXpXpXqX@.' L j k k u ",
"IXIXIXIXIXIXIX9XpXxXDXSXDXhXwXqXpXpXwXqX9XeXfXDXGXVXfXwXM.#.{ { #.M.#.{ ) n s -.;.*.a u 5 8 0 / ' @.eXfXBXCXhXeXX.( w 5 4 9 ^ ` ..@.0XqXwXpXwXqX+.o.` ^ ( o.wXgXAXAXgXpX9X+.X...' ( 9 5 o O IXIXIXIXDXBXqX` q 9 0 ' @.qXsXgXCXVXCXBXaXwXqX9X9X9X8X#.' ( 9 3 O X ",
"IXIXIXIXIX+.eXfXBXSXJXJXHXFXhXwX8X8XpXhXpX9XwXgXBXfXwXN.q.q.4.4.q.q.4.4.<.=.*.-.-.&.p r IXw 9 ^ ` o.8XeXaXhXaXqXO./ 9 4 4 9 0 ^ ( ` ' ..O.+.8X0X+.O.../ ^ ( ' 7XfXgXeXO.o...' ` ( 0 4 5 IXIXIXIXIXHXVXfX+.^ 5 5 4 ^ ` o.+.qXpXhXBXCXBXhXaXwX9X+.o.' ( 0 4 3 o O ",
"IXIXIXIXIX+.eXBXHXJXJXJXHXDXBXwXX.o.pXAXaX+.+.qXeXrXN.q.9.9.9.9.8.8.6.5.5.;.-.*.&.p t IXIXIX4 9 ( ' o.+.qXwXwX9XO./ 0 9 9 9 0 ^ ( ` ' ..O.+.9XqX9X0X+.X.' ( 0 ` +.9XX.[ / ` ` ( 0 4 5 IXIXIXIXIXKXDXhXeX' 9 5 9 0 / ' ' ' ..@.9XpXhXBXCXBXfXwX+.' ( 9 4 5 o O O ",
"IXIXIXIXIX+.qXgXDXKXJXGXAXCXgXwX@.+.hXDXsXo.' o.l.4.0.9.9.8.8.6.5.;.-.-.*.&.a a p t t IXIXIX1 4 q ( ` ..+.0X9X8XX./ 0 9 9 9 ^ ` ..+.qXpXhXBXBXBXBXhXsXwX9X@.' ` ` ` / ( ( ( ^ 9 4 o O IXIXIXLXKXDXgXeXo.( 4 0 ' @.8X0X@...` ( / ' @.qXaXgXBXfXqXX.( 4 o O X X X ",
"IXIXIXIXIX+.9XfXCXDXDXVXgXfXsXeX+.8XfXVXwX' [ $.l.7.9.9.6.5.;.-.*.&.&.a a p p t t t t IXIXIXO 3 4 9 0 / ' ..o.o.' ( 9 4 4 9 0 / ..+.eXaXgXVXAXVXBXhXpXeX0XO.' ( 9 w 9 0 0 0 9 5 o X X IXIXIXJXDXgXwXo.( 0 ^ ..qXaXfXpX0X..( 9 9 ^ ` @.qXpXpXwX9XX.( 4 o X X X X ",
"IXIXIXIXIX@.9XpXfXhXhXfXpXwXqX0X+.8XpXfX8X/ ] +.N.q.6.5.;.-.&.a p p t t t t t t t IXIXIXIXIXIXIXo 3 5 4 0 ^ ( ( ( 0 4 4 5 4 4 0 ( ' o.+.qXpXpXiXeX0XO...` ( 0 9 4 5 5 5 4 4 3 O X IXIXIXIXIXSXBXwXO.( 9 ( X.eXBXAXCXfX9X..^ 4 9 / ..O.+.+.O.o...' ( 9 5 o X X X ",
"IXIXIXIX..O.+.qXwXiXiXyXyXOXE.E.E.E.yXyXR.[ o.wXtX4.;.-.*.&.a t r % % % u u u % % IXIXIXIXIXIXIXO o o 3 5 4 9 9 9 4 4 4 4 4 9 9 9 0 ( ` ..@.+.O...' / ^ 0 0 0 9 w 4 3 o O O X + IXIXIXIXIXIXBXpX@.` / ` +.pXgXCXBXsX9Xo.( 0 0 ` +.qXwXqX@.' ( ^ 0 9 4 5 o O X X ",
"IXIX` ` ' o.O.+.8X8XR.E./._.^.^.^.^.^.~.L.| @.aXcXc.:.*.&.a p u > 4 9 0 n n 9 4 3 IXIXIXIXIXIXIX4 4 4 9 9 0 9 9 4 5 5 4 9 0 0 0 9 9 0 ( ' o.o...` / ( ^ 0 ^ ( ( 0 9 4 3 3 5 4 IXIXIXIXIXIXIXpX0X' ( ..9XfXCXCXfXeXO.` ^ 0 ^ ' +.sXgXgXsX+.` 9 5 o o o O O O IXIX",
"IXIX/ ` ` ....o.X.W.T.~.^.^.Q.!.Y.U.Y.Y.I.L.R.iXdXlXlXtXN.l.M n / ] X.@.O.o.` 0 4 IXIXIXIXIX/ / ( / ..O.8X0X+.o.` 0 4 4 9 0 ( ' ..@.9XwXsXfXfXaXpXeX0X+.o...' / n 0 0 ( ..+.qXaXpX@.' IXIXIX9X+.o.X.eXhXBXNXsX8X..( 0 0 / o.qXsXhXhXpX0X..( 9 3 O X X X X X IXIX",
"IXIX^ ( / ` ` ` | L.I.Q.^.Q.I.G.D.D.F.G.P.I.W.R.eXhXCXNXaX9XX.o.+.9XpXpXwX8X..( 9 IXIXIXIXIX/ ` ..@.eXfXBXVXBXpX8X' 0 4 9 0 ` o.0XpXBXDXKXJXJXKXDXCXhXpX9XO.' / 0 0 ` X.wXBXAXBXpX+...IXIXIXX.O.8XeXhXBXhXwX+.` ^ 0 0 ` O.eXhXgXaXeX@.' ( ^ 0 9 4 3 O X X X IXIX",
"IXIX0 0 ! ^ %.0 A L.I.!.Q.I.D.S V * B C D G.G.L.L.W.E.R.X.o.X.8XaXBXBXhXwX+.' ( 0 IXIXIXIXIX( ` O.qXhXAXHXKXSXCXpXX.( 9 4 9 ( ' +.eXhXVXDXSXDXDXCXhXpXqX+...` ^ 9 0 ' 0XhXSXHXAXhXeX8XIXIXIX( ..qXfXhXjXqXX.` 0 0 ( ..9XsXhXhXpX+.' ( 0 0 ( ` ' ` ^ 4 3 O X IXIX",
"IXIX9 9 9 9 q A F L.U.Y.I.F.C *       = C D D.D D D.D.E | | R.yXNXAXCXaX9XX.` ^ 9 IXIXIXIXq 0 ` X.9XfXVXSXHXSXVXsXO.( 9 4 4 0 / ..+.wXhXBXBXBXgXfXpX9X+...` ^ 9 4 0 ..9XhXDXDXCXfXwX0XO.IX^ [ ..9XwXwX9XX.` ( ( ` @.eXaXgXfXqXO./ 0 9 0 ` ..@.+.O.` 9 4 o IXIXIX",
"IXIX4 4 5 4 A F.I.Y.!.U.G.S *         & V F D S S S D.P.~.~.~./.vXBXaXqX@.' ( 9 9 IXIXIX4 4 9 ^ ` O.9XpXgXCXBXfX9X..0 4 5 4 9 ^ ` o.0XwXpXaXaXsXwXqX+.../ 0 9 4 4 9 ` +.wXhXhXsXwX9X@.` ^ ` @.+.+.O.o...` ( ` X.9XaXBXgXsX0X' ^ 9 9 ^ ' +.eXwX9XX.( 9 4 IXIXIXIX",
"IXIX1 3 w A F.U.Q.~.!.I.F.C =       * C F D E G G Z D.U.^.(._./.yXyX9X@.' ( 9 4 5 IXIX4 4 4 4 9 ^ ` X.0XwXpXwX9XX.( 9 5 5 4 0 ` o.0XiXhXBXCXCXBXgXaXwX+...( 9 4 5 4 ( ' +.9XqX9X8XX.' ( 0 / +.9XO...` / ( ( ..qXjXgXhXwX@.` 0 9 ^ ` X.0XqXqX0XX.` 0 5 IXIXIXIXIX",
"IXIXO : A F.U.~.^.Q.U.P.F.S V = & * D P.P.H.Q z f G D I.^.(.(.(.^.T.W.$./ 9 4 3 o IXIX3 3 5 5 4 9 0 ` ..O.+.O.../ 9 5 3 4 0 / X.9XsXBXAXSXHXHXSXDXCXhXwX8X' 0 4 5 5 9 0 ` ..X.o...` ^ 9 9 9 IXIXIXIXIXIX` ' +.sXhXpX9X..( 0 0 ( ..+.wXpXqX@.' ( 9 5 o IXIXIXIXIX",
"IXIX* C D G.U.Q.Q.U.P.G.F.D D D D D.U.~.T.`.r.:.&.f G H.^.).).)._.Y.L.[ 0 4 3 o IXIXIXo o O O o 3 4 9 9 0 0 0 9 4 3 3 4 9 ( ' @.qXwXwXwXpXsXsXpXeX9X+.+.+.../ 0 8 4 4 w 0 ( ( ^ 0 9 4 5 3 o IXIXIXIXIX9XqXqXwXwX9XX.` ( ( ` o.+.9XqX9X8Xo.` 0 9 4 3 IXIXIXIXIXIX",
"IXIXS S D F.P.I.U.I.P.P.G.P.P.I.Y.Q.^.^.#X'.e.:.*.a c J.^.).).).(.~.| A 4 3 o IXIXIXIX5 3 o O O O O o o o o o o o O o 5 9 ( ' X.+.0X+.+.8X9X9X8XO...` ' ..' ` ^ 9 4 4 4 4 9 9 4 3 o o o 3 5 IXIXIXIX8X9XpXhXsX9X..( 0 ( ..+.9XeXeX9XX.` ( 0 9 4 5 IXIXIXIXIXIXIX",
"D F S C C S D G.P.U.!.!.Y.!.Q.^.^.Q.!.Y.#X].u.=.&.,.t.J.^.(.).).(.Q.E 5 o O X IXIXIX0 q 9 9 4 5 o O o 3 4 4 4 5 3 o o o 3 9 ^ / ` o.9XpXhXgXgXhXpX9X+.o.' ( 0 9 4 5 5 5 4 9 9 4 4 5 4 9 q ^ ` ` ` ' IXIXIXIXIXIXIX^ ( o.9XqXqX0XX.' ( 0 9 IXIXIXIXIXIXIXIXIXIXIX",
"S S C V V V S D.P.!.^.^.^._.(.^.Q.Y.P.K.#X}.h.,.z e.].#X^.(.(.(.(.Y.F o + X IXIXIX( ( / ` ` ( 0 4 4 4 9 ^ ( ( 9 4 3 o o 5 9 ( ` ..+.pXCXSXHXHXDXVXgXsX9X@.../ 0 9 4 4 9 ( ` ` ( ^ 0 0 ^ ( ` ' ..o.X.O.IXIXIXIXIXIXIX` +.wXwX9X+.' ^ 9 4 IXIXIXIXIXIXIXIXIXIXIXIX",
"C C V * * * C D.I.^.(.(.(.(.(.^.U.P.D.F.`. Xh.z z u.].;X^.(.(._.^.U.A O + IXIXIXIX' ..O.+.+.X.' ( ^ ( ` ..O.../ q 4 5 4 9 / o.0XwXhXVXHXJXJXJXKXHXDXVXBXfXwX+...( ^ ( ` X.8X0X+.O...' ` ` ' X.+.9XeXqX9X@.....IXIXIXIXIXIXIXIXIXIXIXIXIXIXIXIXIXIXIXIXIXIXIXIXIX",
"V B * * * * S G.Y.^.(.!.P.U.Q.U.G.F.J.`.`.g.H i c i. X;X^.^.^.~.Q.I.D o IXIXIXIXO.+.0XeXpXwX9XO.' ` ' O.0X9X8X..( 9 4 4 0 / o.9XsXBXDXHXKXJXJXKXHXDXVXBXfXwX8X..` ( ' O.9XpXaXpXwX9X+.o.' ' o.8XwXaXfXaXwX9X+.o.IXIXIXIXIXIXIXIXIXIXIXIXIXIXIXIXIXIXIXIXIXIXIXIX",
"* * * * * C D P.Q.^.Q.D.C S G.G.D.E [.*Xj.i e e c h.*X;X~.Q.!.Y.I.I.IXIXIXIXIXO.+.eXsXhXBXhXwX8X....+.qXpXsXwX+.' ( 9 4 9 0 ` O.qXaXBXAXDXSXSXSXDXCXhXsXeX8Xo.' ( / ..0XiXhXBXBXBXfXwX+...' ..@.wXhXVXDXAXgXwX@.' IXIXIXIXIXIXIXIXIXIXIXIXIXIXIXIXIXIXIXIXIXIXIX",
"& & = * V C D P.Y.Q.Y.G.D S F H.#XoX].y.c r % e c ].:X;X~.!.U.P.G.F.IXIXIXIXIX9XeXfXCXDXAXBXpX0XO.@.qXaXgXBXfXwX+.` 0 4 5 4 ^ ` X.9XpXgXCXAXAXCXBXhXpXqX+.o.` ( ( ` O.qXsXBXVXDXAXCXhXeX+.....X.9XsXBXDXSXDXhXeX8XIXIXIXIXIXIXIXIXIXIXIXIXIXIXIXIXIXIXIXIXIXIXIX",
"& & & * B C D G.P.P.P.G.G.D E J.*X*Xs.i y y t r c ].>X;X~.U.P.F.D D IXIXIXIXIXpXfXCXSXHXDXgXwX0X+.8XpXgXVXAXBXaX9X..( 4 3 3 4 0 ` o.9XpXhXgXgXhXsXwX9X+...` ^ 0 ( ' +.eXaXNXVXDXDXDXBXfXeX+.....@.9XsXgXAXDXCXhXsXIXIXIXIXIXIXIXIXIXIXIXIXIXIXIXIXIXIXIXIXIXIXIX",
"IXIX& & = = V D D.D D S S J.oX[.g.U N d N N s y c *X4X;XY.P.F.D IXIXIXIXIX..0XaXBXDXHXSXFXfXqX7X+.9XsXBXDXDXAXhXwX@.` 0 5 3 3 4 0 ` X.0XwXsXpXwXqX8XO...` ^ 0 0 / ..+.qXpXhXBXDXDXDXDXCXhXeXO.....X.8XeXaXgXBXBXfX0X..IXIXIXIXIXIXIXIXIXIXIXIXIXIXIXIXIXIXIXIXIX",
"IXIX        * C S C C Z E `.[.j.c p <.3.3.1.<.s M *X4X;XI.D.D S IXIXIXIXIX..0XhXDXHXKXDXBXpX8X@.+.9XaXVXDXSXDXBXpX8X..( 4 3 o 3 8 ^ ` ..+.0X9X+.@...' ( 0 9 9 0 ( ' O.0XeXsXgXAXDXSXSXDXVXfX9XO.' ` ' O.0XiXhXBXhXqX+.IXIXIXIXIXIXIXIXIXIXIXIXIXIXIXIXIXIXIXIXIX",
"IXIX    & = * V B * V W [.h.c s d <.3.c.c.z.2.d r.*X>X;XP.D S C IXIXIXIXIXX.9XgXSXKXHXAXhXqXX.o.+.eXhXAXSXHXDXCXaX9Xo./ q 4 o o 3 4 0 ( ` ....' ` ( ^ 0 9 4 3 4 0 / ..@.9XwXhXCXDXHXKXKXHXVXfX9X] 0 ^ ` ..+.eXaXhXsXpXIXIXIXIXIXIXIXIXIXIXIXIXIXIXIXIXIXIXIXIXIX",
"IXIXIX    & = = * G Q y.g.H i p <.z.B.A.A.x.3.<.s.|.:X#XH.F C B IXIXIXIXIX+.wXCXKXKXSXCXaX0X....+.eXhXAXHXJXHXVXfX9XX.` 0 4 3 o o 3 4 9 0 ( ( ^ 0 0 9 4 4 3 O o 4 0 / ..@.9XpXBXAXSXKXJXJXHXVXpX..^ 0 A ( ' +.eXpXaXaXeXIXIXIXIXIXIXIXIXIXIXIXIXIXIXIXIXIXIXIXIX",
"IXIXIXIXIX      < y.'.r.i r t s 1.B.S.S.S.A.c.1.k.|.*X`.F.C B * IXIXIXIXIXqXaXAXKXHXDXgXwX+.' ' @.eXhXAXHXJXHXAXhXqX#.` 0 4 5 o o o 5 4 9 9 9 9 9 w 4 4 3 o X O 3 4 0 / ..+.eXjXBXDXSXJXJXJXSXhX+.` 0 9 0 ( ' @.9XpXpX0X..` IXIXIXIXIXIXIXIXIXIXIXIXIXIXIXIXIXIX",
"IXIXIXIXIXIX    < y.h.w.r % r d z.B.B.B.A.S.A.x.x.|.}.J.S B * & IXIXIXIXIXwXfXAXSXDXBXsX0X../ ` O.qXaXBXDXHXSXCXaX0X..( q 4 3 o O O o 3 3 3 3 3 3 3 3 o O X X X O 5 9 ^ ` ..+.qXsXgXAXSXKXJXKXBXqX..0 3 5 q ( ' O.9XqX+.o...IXIXIXIXIXIXIXIXIXIXIXIXIXIXIXIXIXIX",
"IXIXIXIXIXIXIX  < Y u.x y r i N s.c.z.z.B.S.S.A.Z.].`.Q V = & & IXIXIXIXeXpXhXVXAXBXjX9XX.` 0 ( ..8XwXhXCXDXAXgXwX@.` 0 w 3 o O O $ O O O O O O O o O X X . $ $ O o 4 9 ^ / ' O.9XpXhXVXDXHXHXVXpXO.) 6 5 4 9 ^ ` X.+.@.X...IXIXIXIXIXIXIXIXIXIXIXIXIXIXIXIXIXIX",
"IXIXIXIXIXIXIXIXIXIXIX>.x x >.,.<.2.1.z.c.c.B.%X].W E V = & IXIXIXIXIXo.0XpXhXCXBXaXqXO.` 0 9 0 ` O.9XpXhXBXgXsX9X..^ 9 5 o X # u k k IXIXIXIXIXIXIXIXIXIXk c k # O 1 4 9 0 ( ` o.0XwXfXBXFXDXBXiXOXv.g.J 5 3 9 ^ ` ' ..$.` 0 4 IXIXIXIXIXIXIXIXIXIXIXIXIXIXIXIX",
"IXIXIXIXIXIXIXIXIXIXIXIXw.e.u.r.z s N 1.z.k.j.h.W G B = & IXIXIXIXIX' ..+.wXfXhXfXeX@.] 0 4 5 4 ^ ' +.qXpXaXpXqX@.[ 9 5 3 : > k l l IXIXIXIXIXIXIXIXIXIXIXIX>.x j , : o 1 5 9 0 ` o.8XwXsXgXCXgXwXOXXX}.g.J 7 5 4 0 ( ` ` ( 9 9 IXIXIXIXIXIXIXIXIXIXIXIXIXIXIXIX",
"IXIXIXIXIXIXIXIXIXIXIXIXIXIXi.e.f t r s s.}.].Q V * = & IXIXIXIXIXIX' ..@.qXwXpXeX+.' ^ 4 3 o 5 9 ( ..@.0XqX9X@.' 0 4 o O g H w.x l IXIXIXIXIXIXIXIXIXIXIXIXl w.e.y.h O O o 5 4 0 ` X.8XeXaXgXfXqXOXoX&X.X}.g.7 1 4 9 ^ ( ^ 0 9 IXIXIXIXIXIXIXIXIXIXIXIXIXIXIXIX",
"IXIXIXIXIXIXIXIXIXIXIXIXIXIXIXt.H x x H y.g.Q V =   & IXIXIXIXIXIXIX/ ` o.+.9X9X+...( 8 3 , h v 7 0 / ..O.+.@.../ 9 1 + X h e.e.>.l IXIXIXIXIXIXIXIXIXIXIXIXl >.t.u.y.G , O O o 4 ^ ` X.8XwXsXpX9XOXoX:X>X>X*Xg.J 7 5 8 0 0 9 9 IXIXIXIXIXIXIXIXIXIXIXIXIXIXIXIX",
"IXIXIXIXIXIXIXIXIXIXIXIXIXIXIXIXi.i.'.'.W Z =     IXIXIXIXIXIXIXIXIX^ ( ` o.O.O.../ 0 4 : J y.y.v 4 q / ' o...` ^ 4 O X $ G t.u.w.l IXIXIXIXIXIXIXIXIXIXIXIXl x r.u.'.'.Y > X X o 4 ^ ` X.8XqXqX6XOXoX>X4X3X<X:X].J : 3 4 9 4 4 IXIXIXIXIXIXIXIXIXIXIXIXIXIXIXIX",
"IXIXIXIXIXIXIXIXIXIXIXIXIXIXIXIXIXIXIXIXIXIXIXIXIXIXIXIXIXIXIXIXIXIX9 0 ( ' ....` ^ q v H h. X].P 1 4 0 / ' ` ( q 3 $ h Y y.h.i.r.IXIXIXIXIXIXIXIXIXIXIXIXIXl x w.e.i.'.].g.J : + o 4 0 ( ' X.O.X.#.XX&X>X4X<X:X].y.j , 5 5 4 4 IXIXIXIXIXIXIXIXIXIXIXIXIXIXIXIX",
"IXIXIXIXIXIXIXIXIXIXIXIXIXIXIXIXIXIXIXIXIXIXIXIXIXIXIXIXIXIXIXIXIXIX4 9 ^ ` ' ` ( q 7 Y '..X,XoXW 7 5 4 0 ( ( 0 8 o : Y ].'.p.i.IXIXIXIXIXIXIXIXIXIXIXIXIXIXl l x w.e.i.{. X`.J : o o 3 4 0 / ] ] { g.]. X&X&X}.h.e.x k : 1 3 3 IXIXIXIXIXIXIXIXIXIXIXIXIXIXIXIX",
"IXIXIXIXIXIXIXIXIXIXIXIXIXIXIXIXIXIXIXIXIXIXIXIXIXIXIXIXIXIXIXIXIXIX5 4 0 / ` / 0 4 7 g.&X<X3X4X:X`.J 5 4 0 0 9 4 O : W  X{.t.r.IXIXIXIXIXIXIXIXIXIXIXIXIXIXIXIXl x r.u.p.'.].oX`.P X X 1 4 9 0 ^ L Y e.u.u.t.e.r.>.l k $ O O O IXIXIXIXIXIXIXIXIXIXIXIXIXIXIXIX",
"IXIXIXIXIXIXIXIXIXIXIXIXIXIXIXIXIXIXIXIXIXIXIXIXIXIXIXIXIXIXIXIXIXIX3 5 9 ^ ( A 9 1 : W &X<X3X3X<X*XR : 1 4 w 4 5 O : W  X'.e.>.IXIXIXIXIXIXIXIXIXIXIXIXIXIXIXIXl x w.e.t.i.{.&X*Xg.P : o 1 4 8 q K R a.s.s.d.d.d.s.T L q w 4 4 IXIXIXIXIXIXIXIXIXIXIXIXIXIXIXIX",
"IXIXIXIXIXIXIXIXIXIXIXIXIXIXIXIXIXIXIXIXIXIXIXIXIXIXIXIXIXIXIXIXIXIX3 5 4 9 9 4 5 O : I '.&X>X>X&X].J O X o 3 5 1 X : W ].p.r.>.IXIXIXIXIXIXIXIXIXIXIXIXIXIXIXIXl l >.w.r.e.h.{. X&XoXW : o 5 4 0 [ #.OXtXuXdXdXdXdXtX0XO...` / IXIXIXIXIXIXIXIXIXIXIXIXIXIXIXIX",
"IXIXIXIXIXIXIXIXIXIXIXIXIXIXIXIXIXIXIXIXIXIXIXIXIXIXIXIXIXIXIXIXIXIX3 3 5 5 3 1 O + $ j t.'. X X'.t.c % # O o o o X $ I t.t.w.x IXIXIXIXIXIXIXIXIXIXIXIXIXIXIXIXIXl x x >.w.e.i.'..X XW 5 1 w n ` o.0XiXhXCXDXSXSXAXBXaXeX8X@.O.X.IXIXIXIXIXIXIXIXIXIXIXIXIXIXIX",
"IXIXIXIXIXIXIXIXIXIXIXIXIXIXIXIXIXIXIXIXIXIXIXIXIXIXIXIXIXIXIXIXIXIX3 3 3 o O X X X : j e.h.'.h.t.r.x c g $ o o O X $ k w.>.x l IXIXIXIXIXIXIXIXIXIXIXIXIXIXIXIXIXIXl l l l >.r.u.i.h.I 6 w ( ' X.8XeXpXhXCXDXSXSXDXCXfXwXqX9X+.@.X.IXIXIXIXIXIXIXIXIXIXIXIXIXIX",
"IXIXIXIXIXIXIXIXIXIXIXIXIXIXIXIXIXIXIXIXIXIXIXIXIXIXIXIXIXIXIXIXIXIXIXIXO X X X o 9 _ M.+XzXzXzXuX+XN.v._ q 3 O X + O k l x l IXIXIXIXIXIXIXIXIXIXIXIXIXIXIXIXIXIXIXIXIXl l x >.H H J K ^ [ ..O.+.8X8X9XqXwXpXaXfXsXwX9X+.+.+.+.@.@.IXIXIXIXIXIXIXIXIXIXIXIXIXIX",
"IXIXIXIXIXIXIXIXIXIXIXIXIXIXIXIXIXIXIXIXIXIXIXIXIXIXIXIXIXIXIXIXIXIXIXIXIXX O o 9 ' 8XsXCXDXSXGXSXFXhXwX+.` 0 3 X X O k l l IXIXIXIXIXIXIXIXIXIXIXIXIXIXIXIXIXIXIXIXIXIXIXl l l k , w ^ ` ..O.@.O.O.X.X.@.+.0XqXqX9X8XX...' ....X.X.IXIXIXIXIXIXIXIXIXIXIXIXIXIX",
"IXIXIXIXIXIXIXIXIXIXIXIXIXIXIXIXIXIXIXIXIXIXIXIXIXIXIXIXIXIXIXIXIXIXIXIXIXo 4 0 ' +.eXaXgXCXCXCXBXgXfXsXeX8X..( 4 3 $ > IXIXIXIXIXIXIXIXIXIXIXIXIXIXIXIXIXIXIXIXIXIXIXIXIXIXk g 7 9 q ( ` ' ' ] ` ' ..O.0XwXsXfXfXaXwX+.../ ( ^ ( / ` ` IXIXIXIXIXIXIXIXIXIXIXIX",
"IXIXIXIXIXIXIXIXIXIXIXIXIXIXIXIXIXIXIXIXIXIXIXIXIXIXIXIXIXIXIXIXIXIXIXIXIX4 0 [ ..+.9XeXwXwXwXwXqX9X9X9XqX9X+...( 9 4 IXIXIXIXIXIXIXIXIXIXIXIXIXIXIXIXIXIXIXIXIXIXIXIXIXIXIXIX4 4 9 q ^ ( ( ^ ( / ' O.9XpXNXVXDXAXVXhXwX@.` 0 4 4 9 0 ( ( IXIXIXIXIXIXIXIXIXIXIX",
"IXIXIXIXIXIXIXIXIXIXIXIXIXIXIXIXIXIXIXIXIXIXIXIXIXIXIXIXIXIXIXIXIXIXIXIXIX^ ( / ` ' ....o.o.....' ` ` ' o.+.+.@...( 0 IXIXIXIXIXIXIXIXIXIXIXIXIXIXIXIXIXIXIXIXIXIXIXIXIXIXIXIX5 5 5 5 4 4 9 0 ( ..+.wXfXCXDXKXJXKXHXAXfXqXo.( 4 5 3 5 4 4 IXIXIXIXIXIXIXIXIXIXIX",
"IXIXIXIXIXIXIXIXIXIXIXIXIXIXIXIXIXIXIXIXIXIXIXIXIXIXIXIXIXIXIXIXIXIXIXIX9 0 0 0 ^ ( / ` ' ' $.' ` [ ( ( ` ' ....' ( 0 9 IXIXIXIXIXIXIXIXIXIXIXIXIXIXIXIXIXIXIXIXIXIXIXIXIXIXIXo o 1 3 5 4 9 ( ' O.0XwXhXVXSXJXJXJXKXDXhXeXO./ 9 5 o o o o IXIXIXIXIXIXIXIXIXIXIX",
"IXIXIXIXIXIXIXIXIXIXIXIXIXIXIXIXIXIXIXIXIXIXIXIXIXIXIXIXIXIXIXIXIXIX3 3 3 5 5 4 9 0 ( ' ..O.+.+.+.O...` ( ^ 0 0 0 0 9 4 3 3 IXIXIXIXIXIXIXIXIXIXIXIXIXIXIXIXIXIXIXIXIXIXIXIXIXX X o 5 4 9 ( $.X.+.0XqXpXhXVXDXHXHXDXCXaX9XX.` 0 4 5 o o O IXIXIXIXIXIXIXIXIXIXIX",
"IXIXIXIXIXIXIXIXIXIXIXIXIXIXIXIXIXIXIXIXIXIXIXIXIXIXIXIXIXIXIXIXIXIXO O O O o 5 9 ( ..+.9XwXaXfXaXpXqX+.../ 0 9 4 5 5 o O O IXIXIXIXIXIXIXIXIXIXIXIXIXIXIXIXIXIXIXIXIXIXIXIXO O o 3 4 9 0 ` ..X.@.+.0XqXpXhXBXCXCXBXfXwX+...` ^ 0 9 5 3 3 IXIXIXIXIXIXIXIXIXIXIX",
"IXIXIXIXIXIXIXIXIXIXIXIXIXIXIXIXIXIXIXIXIXIXIXIXIXIXIXIXIXIXIXIXIXIXX X X X o 4 ^ ..8XwXhXCXDXSXDXAXBXaX9Xo./ 9 5 3 o O X X IXIXIXIXIXIXIXIXIXIXIXIXIXIXIXIXIXIXIXIXIXIXIXO o 3 3 3 5 9 0 ( ' ..o.X.@.+.9XwXpXsXsXpXeX8XX.' / ^ 0 9 4 5 5 IXIXIXIXIXIXIXIXIXIXIX",
"IXIXIXIXIXIXIXIXIXIXIXIXIXIXIXIXIXIXIXIXIXIXIXIXIXIXIXIXIXIXIXIXIXIXX X O 5 9 ^ ' +.eXfXCXSXJXJXJXHXDXBXaX9XO.` ^ 9 4 5 o o IXIXIXIXIXIXIXIXIXIXIXIXIXIXIXIXIXIXIXIXIXIXIXO O o o o o 3 4 9 ^ / ' ..o.O.+.9X9X9X9X0X+.X...` ^ 0 9 9 4 5 5 IXIXIXIXIXIXIXIXIXIXIX",
"IXIXIXIXIXIXIXIXIXIXIXIXIXIXIXIXIXIXIXIXIXIXIXIXIXIXIXIXIXIXIXIXIXIXX X o 4 0 / ..+.qXaXBXDXSXHXSXDXFXBXaXeX+...` ^ 9 4 4 5 IXIXIXIXIXIXIXIXIXIXIXIXIXIXIXIXIXIXIXIXIXIXIXo 3 5 5 3 3 o o 5 9 0 ( ` ' ..X.O.@.@.O.o...' / ^ 9 4 4 4 5 3 3 IXIXIXIXIXIXIXIXIXIXIX",
"IXIXIXIXIXIXIXIXIXIXIXIXIXIXIXIXIXIXIXIXIXIXIXIXIXIXIXIXIXIXIXIXIXIXO O 1 4 9 ^ ` ..+.9XpXfXgXBXBXhXsXwX9X+.X.' ` ( 0 9 4 4 IXIXIXIXIXIXIXIXIXIXIXIXIXIXIXIXIXIXIXIXIXIXIX5 4 0 0 9 9 4 3 5 4 9 0 ^ ( ` ` ' ' ' ' ` ( ! 9 4 4 3 3 o o o o IXIXIXIXIXIXIXIXIXIXIX",
"IXIXIXIXIXIXIXIXIXIXIXIXIXIXIXIXIXIXIXIXIXIXIXIXIXIXIXIXIXIXIXIXIXIXO o o 3 4 9 0 ( ` ..O.+.9X9X9X0X@.o...` / ( 0 9 9 4 4 4 IXIXIXIXIXIXIXIXIXIXIXIXIXIXIXIXIXIXIXIXIXIXIX3 4 0 ( ( ( ! 9 9 4 4 4 4 9 9 0 ^ ^ ^ ^ 0 9 9 4 5 3 3 o o o o o IXIXIXIXIXIXIXIXIXIXIX",
"IXIXIXIXIXIXIXIXIXIXIXIXIXIXIXIXIXIXIXIXIXIXIXIXIXIXIXIXIXIXIXIXIXIXO o o 3 5 5 4 4 9 0 ( / ` ` ` / ( ^ 0 9 9 4 4 4 5 5 4 4 IXIXIXIXIXIXIXIXIXIXIXIXIXIXIXIXIXIXIXIXIXIXIXo 5 9 ^ ` ' ' ` ( 9 5 3 o o 3 5 4 4 4 4 4 4 4 5 5 5 5 5 5 5 3 3 IXIXIXIXIXIXIXIXIXIXIX",
"IXIXIXIXIXIXIXIXIXIXIXIXIXIXIXIXIXIXIXIXIXIXIXIXIXIXIXIXIXIXIXIXIXIX3 3 4 4 9 9 9 9 9 0 0 ^ ^ 0 0 0 9 4 5 5 4 w 9 9 9 9 9 4 IXIXIXIXIXIXIXIXIXIXIXIXIXIXIXIXIXIXIXIXIXIXIXO o 4 9 ( ' X.@.X.' / 0 4 5 3 o 3 3 o o 3 3 5 4 4 9 9 4 5 5 IXIXIXIXIXIXIXIXIXIXIXIXIX",
"IXIXIXIXIXIXIXIXIXIXIXIXIXIXIXIXIXIXIXIXIXIXIXIXIXIXIXIXIXIXIXIXIXIX5 4 4 0 0 ^ ( ( ( ` ` ' ' ' ` ` ( 0 9 9 0 ^ ( ( ( 0 9 9 IXIXIXIXIXIXIXIXIXIXIXIXIXIXIXIXIXIXIXIXIXIXIXo o 5 4 0 ` X.0X9X9X+.o.` ( ^ 0 0 9 9 9 4 4 9 9 0 0 0 4 3 IXIXIXIXIXIXIXIXIXIXIXIXIXIX",
"IXIXIXIXIXIXIXIXIXIXIXIXIXIXIXIXIXIXIXIXIXIXIXIXIXIXIXIXIXIXIXIXIXIXIXIX4 9 0 / ..O.0XqXwXpXaXfXfXsXwX9X+.@.X...' ` ( 0 4 4 IXIXIXIXIXIXIXIXIXIXIXIXIXIXIXIXIXIXIXIXIXIXIX3 4 9 0 0 ^ ` X.0XwXpXpXwXqX9X9X9X0X+.O.o...' / ( 0 9 5 o IXIXIXIXIXIXIXIXIXIXIXIXIXIX",
"IXIXIXIXIXIXIXIXIXIXIXIXIXIXIXIXIXIXIXIXIXIXIXIXIXIXIXIXIXIXIXIXIXIXIXIXIX4 9 ( ' +.eXpXhXCXDXSXSXDXBXhXpXqX+.o.' ( 0 4 5 3 IXIXIXIXIXIXIXIXIXIXIXIXIXIXIXIXIXIXIXIXIXIXIX5 9 ^ ( ( ( ( ` O.qXpXhXgXgXBXCXCXBXhXpXqX+...` ^ 9 4 3 O IXIXIXIXIXIXIXIXIXIXIXIXIXIX",
"IXIXIXIXIXIXIXIXIXIXIXIXIXIXIXIXIXIXIXIXIXIXIXIXIXIXIXIXIXIXIXIXIXIXIXIXIXo 3 4 0 ` o.0XwXfXBXCXCXBXhXpX9X+.../ 0 9 4 3 o o IXIXIXIXIXIXIXIXIXIXIXIXIXIXIXIXIXIXIXIXIXIXIX5 9 ( ' ' ' ` ` ' O.0XwXaXgXCXDXGXSXAXhXqXX.` 0 4 3 o IXIXIXIXIXIXIXIXIXIXIXIXIXIXIXIX",
"IXIXIXIXIXIXIXIXIXIXIXIXIXIXIXIXIXIXIXIXIXIXIXIXIXIXIXIXIXIXIXIXIXIXIXIXIXO 3 4 9 0 ( ' O.0XeXwXpXwXqX8XX.' ( 0 9 4 4 3 o IXIXIXIXIXIXIXIXIXIXIXIXIXIXIXIXIXIXIXIXIXIXIXIX3 4 ^ ] o.O.X...' ' ' X.+.qXpXhXgXgXfXwX@.` 0 5 o O IXIXIXIXIXIXIXIXIXIXIXIXIXIXIXIXIX",
"IXIXIXIXIXIXIXIXIXIXIXIXIXIXIXIXIXIXIXIXIXIXIXIXIXIXIXIXIXIXIXIXIXIXIXIXIXIXIX9 9 9 9 0 ( ` ..X.O.X...' / ^ 0 9 9 8 4 4 IXIXIXIXIXIXIXIXIXIXIXIXIXIXIXIXIXIXIXIXIXIXIXIXIXo 5 9 ( ..+.9X9X@.` ( ^ ( ' o.@.+.+.O.' ( 9 3 O X IXIXIXIXIXIXIXIXIXIXIXIXIXIXIXIXIXIX",
"IXIXIXIXIXIXIXIXIXIXIXIXIXIXIXIXIXIXIXIXIXIXIXIXIXIXIXIXIXIXIXIXIXIXIXIXIXIXIX9 0 ( ` ` / ( ( ^ ( ( ( ( ` ' ..' ` 0 9 IXIXIXIXIXIXIXIXIXIXIXIXIXIXIXIXIXIXIXIXIXIXIXIXIXIXIX3 4 0 ' +.eXsXwX+...( 0 q 0 ^ ( / / ( 9 4 o IXIXIXIXIXIXIXIXIXIXIXIXIXIXIXIXIXIXIXIX",
"IXIXIXIXIXIXIXIXIXIXIXIXIXIXIXIXIXIXIXIXIXIXIXIXIXIXIXIXIXIXIXIXIXIXIXIXIXIXIX9 ^ ' o.X.o.` ^ 9 4 4 0 ` X.9X9X0XX.( 4 IXIXIXIXIXIXIXIXIXIXIXIXIXIXIXIXIXIXIXIXIXIXIXIXIXIXIXIX5 9 ( ..qXfXhXaXqXo.( 4 3 5 9 0 ( ^ 9 4 IXIXIXIXIXIXIXIXIXIXIXIXIXIXIXIXIXIXIXIXIX",
"IXIXIXIXIXIXIXIXIXIXIXIXIXIXIXIXIXIXIXIXIXIXIXIXIXIXIXIXIXIXIXIXIXIXIXIXIXIXIXIXIX' o.+.9X8XX.` 0 0 / X.qXsXpX9X..^ 4 IXIXIXIXIXIXIXIXIXIXIXIXIXIXIXIXIXIXIXIXIXIXIXIXIXIXIXIX5 4 9 / @.wXfXhXsX9Xo.^ 4 9 ( ] o...^ 4 IXIXIXIXIXIXIXIXIXIXIXIXIXIXIXIXIXIXIXIXIX",
"IXIXIXIXIXIXIXIXIXIXIXIXIXIXIXIXIXIXIXIXIXIXIXIXIXIXIXIXIXIXIXIXIXIXIXIXIXIXIXIXIX( ` +.wXwX9XO.` ( ..9XpXfXwX@.` 9 5 IXIXIXIXIXIXIXIXIXIXIXIXIXIXIXIXIXIXIXIXIXIXIXIXIXIXIXIX4 4 4 0 ` @.qXpXpXeX+./ 9 ^ ' o.@.X./ 9 IXIXIXIXIXIXIXIXIXIXIXIXIXIXIXIXIXIXIXIXIX",
"IXIXIXIXIXIXIXIXIXIXIXIXIXIXIXIXIXIXIXIXIXIXIXIXIXIXIXIXIXIXIXIXIXIXIXIXIXIXIXIXIX4 9 ' 0XeXwX0X..' +.eXpXwX+.` 9 4 3 IXIXIXIXIXIXIXIXIXIXIXIXIXIXIXIXIXIXIXIXIXIXIXIXIXIX..( 9 5 4 9 0 ( ..+.8X+.o.( 9 ( ..o.....IXIXIXIXIXIXIXIXIXIXIXIXIXIXIXIXIXIXIXIXIXIXIX",
"IXIXIXIXIXIXIXIXIXIXIXIXIXIXIXIXIXIXIXIXIXIXIXIXIXIXIXIXIXIXIXIXIXIXIXIXIXIXIXIXIXo 4 ( ..+.9X8X..' @.9X9X+.' 9 3 3 3 IXIXIXIXIXIXIXIXIXIXIXIXIXIXIXIXIXIXIXIXIXIXIXIXIX0X../ 4 3 5 4 4 9 ( ' ....` 0 9 ^ ` ` ( ^ IXIXIXIXIXIXIXIXIXIXIXIXIXIXIXIXIXIXIXIXIXIXIX",
"IXIXIXIXIXIXIXIXIXIXIXIXIXIXIXIXIXIXIXIXIXIXIXIXIXIXIXIXIXIXIXIXIXIXIXIXIXIXIXIXIX3 5 9 ( ' O.X.` / ..X...` 0 5 o 1 3 IXIXIXIXIXIXIXIXIXIXIXIXIXIXIXIXIXIXIXIXIXIXIXCXgXwXX.( 4 o 3 5 5 4 9 ^ ( ( ^ 9 5 4 q 9 5 3 IXIXIXIXIXIXIXIXIXIXIXIXIXIXIXIXIXIXIXIXIXIXIX",
"IXIXIXIXIXIXIXIXIXIXIXIXIXIXIXIXIXIXIXIXIXIXIXIXIXIXIXIXIXIXIXIXIXIXIXIXIXIXIXIXIXIXIX4 9 ^ ` ` ^ 0 ( / ( 9 5 O X O IXIXIXIXIXIXIXIXIXIXIXIXIXIXIXIXIXIXIXIXIXIXIXIXhXaXqXX./ 9 3 1 3 3 3 5 4 9 9 9 5 1 3 5 3 O O 5 IXIXIXIXIXIXIXIXIXIXIXIXIXIXIXIXIXIXIXIXIXIX",
"IXIXIXIXIXIXIXIXIXIXIXIXIXIXIXIXIXIXIXIXIXIXIXIXIXIXIXIXIXIXIXIXIXIXIXIXIXIXIXIXIXIXIX9 4 9 0 0 4 4 9 9 4 5 o O O IXIXIXIXIXIXIXIXIXIXIXIXIXIXIXIXIXIXIXIXIXIXIXIXIXeX9X+.../ 0 4 4 4 4 4 4 4 4 5 5 1 o O o o o 5 9 ^ ` IXIXIXIXIXIXIXIXIXIXIXIXIXIXIXIXIXIXIXIX",
"IXIXIXIXIXIXIXIXIXIXIXIXIXIXIXIXIXIXIXIXIXIXIXIXIXIXIXIXIXIXIXIXIXIXIXIXIXIXIXIXIXIXOX' n 0 q 9 4 5 5 4 5 3 1 3 4 ^ ` IXIXIXIXIXIXIXIXIXIXIXIXIXIXIXIXIXIXIXIXIXIX*XOXX.' ( ^ 0 ^ ( ` ` ` / ^ 9 4 3 o O O o 5 9 ^ ' O.qXaXwX+.IXIXIXIXIXIXIXIXIXIXIXIXIXIXIXIXIX",
"IXIXIXIXIXIXIXIXIXIXIXIXIXIXIXIXIXIXIXIXIXIXIXIXIXIXIXIXIXIXIXIXIXIXIXIXIXIXIXIXIXwX9X+...` ( ! 9 9 4 4 4 9 0 ^ ` ..O.+.IXIXIXIXIXIXIXIXIXIXIXIXIXIXIXIXIXIXIXIX.X[.v._ ! 9 9 0 / ..O.@.@.X.' / 9 5 1 o 3 4 9 ( ..+.wXaXhXpX9X+.IXIXIXIXIXIXIXIXIXIXIXIXIXIXIXIX",
"IXIXIXIXIXIXIXIXIXIXIXIXIXIXIXIXIXIXIXIXIXIXIXIXIXIXIXIXIXIXIXIXIXIXIXIXIXwXpXfXfXaXpXwXqX8X@...` / ( ^ ( ` ..+.qXpXsXpXwXwXwXwXIXIXIXIXIXIXIXIXIXIXIXIXIXIXIXIX'.h.R 9 4 4 9 0 ` o.+.8X0X8X+...( 9 5 5 4 0 / o.8XeXsXhXBXhXpX0X' ^ IXIXIXIXIXIXIXIXIXIXIXIXIXIX",
"IXIXIXIXIXIXIXIXIXIXIXIXIXIXIXIXIXIXIXIXIXIXIXIXIXIXIXIXIXIXIXIXIXIXIXIXpXaXfXhXhXpXqX9X9X9X0X+...` ( ^ / ..+.wXaXhXhXaXpXaXhXNXCXIXIXIXIXIXIXIXIXIXIXIXIXIXIXIXu.e.I 5 2 5 9 ( $.+.9XqXqX0X@.$.^ 4 4 4 9 ( ' O.9XwXpXaXaXpXqX+...' X.IXIXIXIXIXIXIXIXIXIXIXIXIX",
"IXIXIXIXIXIXIXIXIXIXIXIXIXIXIXIXIXIXIXIXIXIXIXIXIXIXIXIXIXIXIXIXIXIXqXwXsXhXnXxXaX9XO.....O.8X+.' ( 0 9 ^ ` @.wXsXpXpXaXgXCXDXSXDXFXIXIXIXIXIXIXIXIXIXIXIXIXIXIXw.w.IXIXIX9 ^ ' +.qXpXpXwX0Xo./ 9 5 5 w 0 ( ' X.+.9XqX9X8XO.....O.8XqXwXwXIXIXIXIXIXIXIXIXIXIXIX",
"IXIXIXIXIXIXIXIXIXIXIXIXIXIXIXIXIXIXIXIXIXIXIXIXIXIXIXIXIXIXIXIXIXIX9XrXuXbXbX=X@XOX@...` ' ..' ( 9 4 5 9 ^ ' +.9X9XwXfXCXnXbXbXbXbXIXIXIXIXIXIXIXIXIXIXIXIXIXIXIXIXIXIXIX/ ..0XpXhXBXBXhXiX8X' 0 5 3 5 4 9 ( ` ..X.X...' ' ..@.eXpXiXqX@.[ IXIXIXIXIXIXIXIXIXIX",
"IXIXIXIXIXIXIXIXIXIXIXIXIXIXIXIXIXIXIXIXIXIXIXIXIXIXIXIXIXIXIXIXIXIX@.OX@X>X,X.XXXOX+.$.( ^ ( 0 9 5 o o 3 4 0 ` ..O.0XaXnXzX*X.X,X>XIXIXIXIXIXIXIXIXIXIXIXIXIXIXIXIXIXIXIXO.0XdXnXFXFXZXnXjXeXO.^ 5 o o o 3 4 0 ^ ( ( 0 0 ` O.qXfXhXsXrX#._ ) IXIXIXIXIXIXIXIXIX",
"IXIXIXIXIXIXIXIXIXIXIXIXIXIXIXIXIXIXIXIXIXIXIXIXIXIXIXIXIXIXIXIXIXIX[ { +X5X<X:XoXOXo.[ 0 9 4 4 o O X X O o 5 9 0 / ..8XiX@X*X.X>X3XIXIXIXIXIXIXIXIXIXIXIXIXIXIXIXIXIXIXIXqXuXbX2X2X2X=XXX+XrX@.( 5 o O O o 3 4 4 4 9 9 0 ' 0XwXsXsX@XoXoXoXoXIXIXIXIXIXIXIXIXIX",
"IXIXIXIXIXIXIXIXIXIXIXIXIXIXIXIXIXIXIXIXIXIXIXIXIXIXIXIXIXIXIXIXIXIX8 K #X5X<X&X]. .( ! 9 4 5 o X X X X X O o o 4 9 / $.#.v.]. X>X3XIXIXIXIXIXIXIXIXIXIXIXIXIXIXIXIXIXIXIXeXuX2X<X,X&X{.'.v.M.o.! 5 o O O O o 3 3 3 3 4 0 ' 8XqX8XOXXX&X,X<X<XIXIXIXIXIXIXIXIXIX",
"IXIXIXIXIXIXIXIXIXIXIXIXIXIXIXIXIXIXIXIXIXIXIXIXIXIXIXIXIXIXIXIXIXIXO 6 g.:X,X'.y.b 4 3 IXIXIXIXIXIXIXIXIXIXIXIXIXIXIX0 0 J r.i. X,XIXIXIXIXIXIXIXIXIXIXIXIXIXIXIXIXIXIXIX+.@X5X3X1X,X X'.g. ./ 9 3 o IXIXIXIXIXIXo o 5 9 ( ' $.[ _ g. X,X3X3X<X>XIXIXIXIXIXIXIX",
"IXIXIXIXIXIXIXIXIXIXIXIXIXIXIXIXIXIXIXIXIXIXIXIXIXIXIXIXIXIXIXIXIXIXIX: g.].}.i.H , O IXIXIXIXIXIXIXIXIXIXIXIXIXIXIXIXIX3 g x t.'.{.IXIXIXIXIXIXIXIXIXIXIXIXIXIXIXIXIXIXIX' OX2X3X>X&X].u.Y K q 4 3 IXIXIXIXIXIXIXIXo 5 4 0 0 q 4 7 Y '.&X1X3X4X1XIXIXIXIXIXIXIX",
"IXIXIXIXIXIXIXIXIXIXIXIXIXIXIXIXIXIXIXIXIXIXIXIXIXIXIXIXIXIXIXIXIXIXIXIXt.u.u.IXIXIXIXIXIXIXIXIXIXIXIXIXIXIXIXIXIXIXIXIXIXIXIXIXu.u.IXIXIXIXIXIXIXIXIXIXIXIXIXIXIXIXIXIXIX0  .*X>X.X].i.r.j 6 4 IXIXIXIXIXIXIXIXIXIXIXIXIXIX3 o O ; c t.}.,X4X3X3XIXIXIXIXIXIXIX",
"IXIXIXIXIXIXIXIXIXIXIXIXIXIXIXIXIXIXIXIXIXIXIXIXIXIXIXIXIXIXIXIXIXIXIXIXIXIXIXIXIXIXIXIXIXIXIXIXIXIXIXIXIXIXIXIXIXIXIXIXIXIXIXIXIXIXIXIXIXIXIXIXIXIXIXIXIXIXIXIXIXIXIXIXIXIXg.*X.X'.u.e.w.IXIXIXIXIXIXIXIXIXIXIXIXIXIXIXIXIXIXIXIXIXIXe.'. X:X<X3XIXIXIXIXIXIXIX",
"IXIXIXIXIXIXIXIXIXIXIXIXIXIXIXIXIXIXIXIXIXIXIXIXIXIXIXIXIXIXIXIXIXIXIXIXIXIXIXIXIXIXIXIXIXIXIXIXIXIXIXIXIXIXIXIXIXIXIXIXIXIXIXIXIXIXIXIXIXIXIXIXIXIXIXIXIXIXIXIXIXIXIXIXIXIXIX{.'.t.w.IXIXIXIXIXIXIXIXIXIXIXIXIXIXIXIXIXIXIXIXIXIXIXIXIXIXp.}.&X,XIXIXIXIXIXIXIX",
"IXIXIXIXIXIXIXIXIXIXIXIXIXIXIXIXIXIXIXIXIXIXIXIXIXIXIXIXIXIXIXIXIXIXIXIXIXIXIXIXIXIXIXIXIXIXIXIXIXIXIXIXIXIXIXIXIXIXIXIXIXIXIXIXIXIXIXIXIXIXIXIXIXIXIXIXIXIXIXIXIXIXIXIXIXIXIXi.u.e.IXIXIXIXIXIXIXIXIXIXIXIXIXIXIXIXIXIXIXIXIXIXIXIXIXIXIXIXp.'.'.IXIXIXIXIXIXIX",
"IXIXIXIXIXIXIXIXIXIXIXIXIXIXIXIXIXIXIXIXIXIXIXIXIXIXIXIXIXIXIXIXIXIXIXIXIXIXIXIXIXIXIXIXIXIXIXIXIXIXIXIXIXIXIXIXIXIXIXIXIXIXIXIXIXIXIXIXIXIXIXIXIXIXIXIXIXIXIXIXIXIXIXIXIXIXIXe.e.IXIXIXIXIXIXIXIXIXIXIXIXIXIXIXIXIXIXIXIXIXIXIXIXIXIXIXIXIXIXe.e.IXIXIXIXIXIXIX"
};
