/* XPM */
static const char *bos2h5[] = {
/* columns rows colors chars-per-pixel */
"128 128 252 2 ",
"   c #141414",
".  c #1B1B1C",
"X  c #191716",
"o  c #12110F",
"O  c #3A0A0A",
"+  c #281A0D",
"@  c #241D1B",
"#  c #281B16",
"$  c #351816",
"%  c #2D110D",
"&  c #29221A",
"*  c #332413",
"=  c #3D2A16",
"-  c #392818",
";  c #352411",
":  c #1D1F20",
">  c #1E2323",
",  c #192424",
"<  c #232323",
"1  c #2A2423",
"2  c #262929",
"3  c #2B2C2C",
"4  c #262728",
"5  c #372A26",
"6  c #39332C",
"7  c #2D2E30",
"8  c #2D3132",
"9  c #333333",
"0  c #3C3C3C",
"q  c #373838",
"w  c #241F21",
"e  c #490909",
"r  c #590706",
"t  c #521716",
"y  c #680404",
"u  c #780303",
"i  c #681818",
"p  c #781515",
"a  c #47230D",
"s  c #56270B",
"d  c #432D18",
"f  c #453219",
"g  c #4B351C",
"h  c #4C371B",
"j  c #533B1E",
"k  c #57371A",
"l  c #572C14",
"z  c #682A05",
"x  c #752C00",
"c  c #782F02",
"v  c #7C3402",
"b  c #783608",
"n  c #6B3711",
"m  c #492A29",
"M  c #592A2A",
"N  c #463626",
"B  c #573D22",
"V  c #463935",
"C  c #573836",
"Z  c #662727",
"A  c #772323",
"S  c #663737",
"D  c #693B2D",
"F  c #764816",
"G  c #5C4225",
"H  c #49433A",
"J  c #55493A",
"K  c #5C543B",
"L  c #644425",
"P  c #6D4A29",
"I  c #694727",
"U  c #734D2B",
"Y  c #784728",
"T  c #7B522E",
"R  c #76532C",
"E  c #7C5435",
"W  c #6E5035",
"Q  c #6A5C31",
"!  c #3C3E41",
"~  c #3D4243",
"^  c #434444",
"/  c #4B4B4B",
"(  c #484948",
")  c #554A46",
"_  c #595248",
"`  c #4D5252",
"'  c #535353",
"]  c #5B5C5C",
"[  c #575857",
"{  c #4D4E51",
"}  c #664846",
"|  c #675C59",
" . c #70534C",
".. c #66625C",
"X. c #746558",
"o. c #73684D",
"O. c #575869",
"+. c #5D6162",
"@. c #646464",
"#. c #6B6C6C",
"$. c #676766",
"%. c #766C69",
"&. c #737373",
"*. c #7B7B7B",
"=. c #777878",
"-. c #72726F",
";. c #880303",
":. c #930101",
">. c #9C0101",
",. c #9A0C0C",
"<. c #991717",
"1. c #8A1717",
"2. c #A30101",
"3. c #AB0101",
"4. c #A70A0A",
"5. c #B30101",
"6. c #BB0101",
"7. c #B70D0D",
"8. c #B11313",
"9. c #823B04",
"0. c #813A05",
"q. c #8C2D2D",
"w. c #AD2C2C",
"e. c #C40101",
"r. c #CB0202",
"t. c #C60A0A",
"y. c #D40101",
"u. c #DB0101",
"i. c #DD0808",
"p. c #C91414",
"a. c #E30101",
"s. c #EB0000",
"d. c #E70C0C",
"f. c #FC0000",
"g. c #F40202",
"h. c #EE1919",
"j. c #D22E2E",
"k. c #F52727",
"l. c #864106",
"z. c #894609",
"x. c #8D4A0B",
"c. c #884408",
"v. c #914E0C",
"b. c #94520E",
"n. c #99570C",
"m. c #9B5C13",
"M. c #955712",
"N. c #864E15",
"B. c #9D6317",
"V. c #986213",
"C. c #A26516",
"Z. c #A56B19",
"A. c #A56B17",
"S. c #AB731C",
"D. c #AF7A1E",
"F. c #A87019",
"G. c #B27D1D",
"H. c #835532",
"J. c #8C5B35",
"K. c #865837",
"L. c #915E38",
"P. c #88512A",
"I. c #9B653C",
"U. c #976339",
"Y. c #916B2C",
"T. c #A77826",
"R. c #B17D21",
"E. c #A36D38",
"W. c #915050",
"Q. c #8F7150",
"!. c #A86C41",
"~. c #AB7544",
"^. c #B67548",
"/. c #847C78",
"(. c #8C736A",
"). c #AF6E6E",
"_. c #AF5353",
"`. c #D74D4D",
"'. c #C37D4E",
"]. c #E47373",
"[. c #B48423",
"{. c #B98B27",
"}. c #BD922C",
"|. c #B28C35",
" X c #9C893C",
".X c #C2982D",
"XX c #C59D31",
"oX c #CBA838",
"OX c #D2B23D",
"+X c #CFAB37",
"@X c #98864A",
"#X c #AC9250",
"$X c #B8AB5A",
"%X c #8E8576",
"&X c #AA9272",
"*X c #B8AF6C",
"=X c #CE8454",
"-X c #D6B943",
";X c #C7B047",
":X c #DDC348",
">X c #E2CC4D",
",X c #E9D855",
"<X c #E7D24E",
"1X c #F1E65D",
"2X c #EEE159",
"3X c #F4EB61",
"4X c #FAF769",
"5X c #F8F473",
"6X c #D8CD6E",
"7X c #61619B",
"8X c #3F3FC2",
"9X c #7D8283",
"0X c #838384",
"qX c #8C8C8C",
"wX c #898787",
"eX c #949494",
"rX c #9B9C9C",
"tX c #969797",
"yX c #92908E",
"uX c #A59B97",
"iX c #AF9588",
"pX c #AFA594",
"aX c #A4A4A4",
"sX c #ABABAB",
"dX c #A7A8A7",
"fX c #B3B3B3",
"gX c #BBBBBB",
"hX c #B7B7B8",
"jX c #B1ADAC",
"kX c #9C9EA5",
"lX c #C3AF90",
"zX c #CABAB4",
"xX c #C89393",
"cX c #D0CBB8",
"vX c #F4F282",
"bX c #BCC0C0",
"nX c #C3C3C3",
"mX c #CBCBCB",
"MX c #C7C9C8",
"NX c #D3D4D4",
"BX c #DBDBDB",
"VX c #D5D7DA",
"CX c #CFCECE",
"ZX c #DDE2E4",
"AX c #E3E3E3",
"SX c #ECECEC",
"DX c #E6EBEC",
"FX c #EEEEF4",
"GX c #EEC7C7",
"HX c #BDBDC1",
"JX c None",
"KX c black",
/* pixels */
"JXJXJXJXJXJXJXJXJXJXJXJXJXJXJXJXJXJXJXJXJXJXJXJXJXJXJXJXJXJXJXJXJXJXJXJXJXJXJXJXJXJXa.u.r.5.>.:.;.u ;.u u y r Z | #.=.9XqXyXeXeXeXeXeXeXeXeXeXeXeXeXqXqXqXqXeXeXeXyX/.} i y y u ;.;.;.:.>.5.e.u.a.JXJXJXJXJXJXJXJXJXJXJXJXJXJXJXJXJXJXJXJXJXJXJXJXJXJXJXJXJXJXJX",
"JXJXJXJXJXJXJXJXJXJXJXJXJXJXJXJXJXJXJXJXJXJXJXJXJXJXJXJXJXJXJXJXJXJXJXJXJXJXJXJXJXg.s.u.e.2.:.p p i i i i i M } | &.*.0XyXtXrXaXaXrXrXrXrXrXaXrXrXtXtXeXeXeXtXrXtXtX/.X.S Z Z A A A A 1.;.:.2.6.r.y.JXJXJXJXJXJXJXJXJXJXJXJXJXJXJXJXJXJXJXJXJXJXJXJXJXJXJXJXJXJX",
"JXJXJXJXJXJXJXJXJXJXJXJXJXJXJXJXJXJXJXJXJXJXJXJXJXJXJXJXJXJXJXJXJXJXJXJXJXJXJXf.f.g.s.y.5.:.p Z ) ) ( ^ ) _ [ @.-.*.0XeXrXdXsXfXfXfXfXfXfXfXfXfXsXdXdXdXdXdXdXdXaXrXeX0X&.%.| | | $.| } i y u ;.2.6.y.s.g.f.f.JXJXJXJXJXJXJXJXJXJXJXJXJXJXJXJXJXJXJXJXJXJXJXJXJX",
"JXJXJXJXJXJXJXJXJXJXJXJXJXJXJXJXJXJXJXJXJXJXJXJXJXJXJXJXJXJXJXJXJXJXJXJXJX%.w.d.g.s.y.6.,.i M C { [ [ [ +.@.#.&.=.0XyXrXdXhXgXnXnXMXMXMXmXmXmXMXMXnXgXgXgXgXgXgXfXdXaXeXqX0X*.=.=.=.=.$.} S S Z A ,.3.r.a.g.f.f.JXJXJXJXJXJXJXJXJXJXJXJXJXJXJXJXJXJXJXJXJXJXJXJX",
"JXJXJXJXJXJXJXJXJXJXJXJXJXJXJXJXJXJXJXJXJXJXJXJXJX( / ] #.=.qXeXrXtXeXqX9X&.W.j.a.u.6.,.i m 0 ( ' ] @.#.#.&.=.=.0XqXeXdXfXgXmXmXNXNXNXBXBXBXBXBXNXNXNXNXNXNXmXmXnXgXsXaXtXyXqX0X0X0X*.=.&.#.@.] ) Z p >.e.a.g.f.f.g.JXJXJXJXJXJXJXJXJXJXJXJXJXJXJXJXJXJXJXJXJXJX",
"JXJXJXJXJXJXJXJXJXJXJXJXJXJXJXJXJXJXJXJX0 ^ / ] #.&.=.0XeXaXfXgXnXgXhXsXkXyX).j.i.r.3.;.i V ~ ` ] @.$.#.&.=.=.*.0XqXtXdXfXgXmXmXNXBXBXBXBXBXBXBXBXBXBXBXBXNXNXmXMXgXfXdXrXeXyXqXqXqX0X9X=.#.@.] ' ) C A ,.e.a.g.g.j._.9XeXaXfXgXmXJXJXJXJXJXJXJXJXJXJXJXJXJXJXJX",
"JXJXJXJXJXJXJXJXJXJXJXJXJXJXJXJXJXJXJX^ ^ / ] #.*.qXaXfXgXmXNXBXBXBXNXMXbXsX).j.i.e.>.u i V ^ ' | @.#.#.&.=.=.0XqXeXrXdXfXgXMXmXNXBXBXAXAXAXAXAXAXAXAXBXBXBXNXNXmXHXhXsXdXrXeXqXqXqXqX0X=.#.@.] ' ` / S 1.4.r.s.g.j._.(.uXsXgXMXmXmXJXJXJXJXJXJXJXJXJXJXJXJXJXJX",
"JXJXJXJXJXJXJXJXJXJXJXJXJXJXJXJXJX^ ( ' | #.=.0XeXdXgXmXNXAXAXSXSXAXBXNXMXfX).j.y.6.:.u M V / [ @.@.#.#.=.=.0XqXeXrXdXsXhXgXnXmXNXBXAXSXSXSXSXSXSXAXAXAXAXBXBXNXmXMXnXgXfXdXrXeXeXqXqX0X=.&.#.@.] [ ' S A :.5.u.d.d.h.j.].zXVXVXmXnXsXaXJXJXJXJXJXJXJXJXJXJXJXJX",
"JXJXJXJXJXJXJXJXJXJXJXJXJXJXJXJX0 ^ ' ] &.*.qXtXdXhXnXNXAXSXFXFXSXAXBXMXxX].`.j.r.5.;.y M V / [ @.#.#.&.=.0XqXeXrXdXsXhXgXgXnXmXNXAXAXSXFXFXFXSXSXSXSXAXAXBXNXNXmXmXMXnXgXfXdXtXeXqXqX0X*.=.&.#.@.] [ ) M i ,.e.s.f.f.k.].GXSXZXNXMXhXdXrXqXJXJXJXJXJXJXJXJXJXJX",
"JXJXJXJXJXJXJXJXJXJXJXJXJXJX3 9 0 / ] #.=.0XeXtXdXfXgXmXBXAXSXSXDXZXmXxX`.h.d.a.r.2.u r m V / ] @.#.&.=.*.0XqXtXaXsXhXgXnXnXMXmXNXBXAXSXSXFXFXFXFXSXSXAXBXBXNXmXmXmXmXMXgXhXdXtXeXqXqX0X*.=.&.-.#.] ' ^ 9 5 i 4.a.g.f.k.].GXSXDXBXNXnXfXrX0X=.&.JXJXJXJXJXJXJXJX",
"JXJXJXJXJXJXJXJXJXJXJXJXJX3 9 0 ^ / ] @.&.=.0XeXtXuXdXhXnXmXNXNXNXmXzXxX`.d.s.a.r.,.i m V ( ` ] @.#.&.=.*.0XqXeXrXdXfXgXnXMXmXmXNXBXAXAXSXSXFXFXSXSXSXAXBXNXmXmXmXmXmXmXnXhXdXrXeXqX0X0X=.=.=.&.@.] ( 0 3 1 t 4.u.g.f.k.].GXSXDXAXNXmXgXrX0X&.@./ JXJXJXJXJXJXJX",
"JXJXJXJXJXJXJXJXJXJXJX< 4 3 0 ^ ^ ( ' ' ] @.&.=.0X0XqXeXrXdXsXfXhXhXfXxX`.d.s.a.r.<.S ^ ( / ' ] @.#.#.=.=.*.0XqXeXrXdXgXnXMXmXmXNXNXBXAXAXSXSXSXSXAXAXAXBXBXNXmXmXNXmXmXnXhXsXaXeXqX0X*.=.=.&.#.@.' ^ 9 < @ t >.y.s.f.k.].GXAXAXBXmXnXfXtX0X#.' ^ 0 JXJXJXJXJXJX",
"JXJXJXJXJXJXJXJXJXJXJX2 3 9 9 0 0 0 0 ^ ^ ( ' ] @.#.&.=.*.0XqXeXrXdXdX).`.d.s.a.r.<.S ( { ' ' ] @.@.#.&.=.=.0X0XqXeXaXsXgXnXmXmXmXmXNXBXAXAXAXAXAXAXAXAXBXBXNXNXmXmXmXnXgXhXsXdXrXeXqX0X*.=.#.@.] ( 0 8 > @ t >.y.s.f.h.].zXNXNXMXhXdXeX0X=.@.' ^ 0 JXJXJXJXJXJX",
"JXJXJXJXJXJXJXJXJXJXJX2 3 9 9 0 0 0 ^ ^ ^ ^ ^ ( / ' ] @.@.#.=.*.0XqXeX).j.d.s.a.r.<.S ^ { ' ] +.@.@.@.#.&.=.0X0XqXeXtXdXsXgXnXMXMXmXmXNXNXNXNXNXBXBXBXVXNXNXNXmXmXMXgXgXfXsXdXaXtXeXqX0X=.&.#.] ' ^ 0 3 > @ t 4.y.s.g.h.`.xXgXhXdXtXqX*.&.#.] ' ^ 0 9 JXJXJXJXJX",
"JXJXJXJXJXJXJXJXJX. . < 2 3 9 ^ / ] @.@.@.] ' ( ( ( / ' ] ] @.#.#.-.-.W.w.i.s.a.r.<.M 0 { ' ] @.#.#.@.@.#.=.0X0XqXqXeXrXdXsXhXgXgXnXMXmXmXmXMXMXmXmXmXmXMXnXnXgXgXhXsXdXdXaXrXtXeX0X*.=.=.#.@.] ' ^ 9 3 < 1 i 4.u.g.g.h.`.iXtXtXqX0X=.#.#.@.] ' ^ 0 9 2 4 JXJXJX",
"JXJXJXJXJXJXJXJXX . < 2 9 ^ ' @.=.qXeXeXeXqX=.#.] ' / / / ' ' ' [ [ [ } w.r.a.a.r.<.M 0 ( ' ] @.@.@.@.@.#.=.*.0XqXqXeXrXaXdXsXfXhXgXgXnXnXnXnXnXnXnXnXgXgXgXgXhXsXdXdXrXtXeXeXqX0X=.&.&.#.#.@.' / 0 9 2 < 1 i 4.u.s.s.p.w.(.=.&.#.@.@.] ] ' ' ( ^ 0 9 2 2 JXJXJX",
"JXJXJXJXJXJXJXJXX . 4 9 ( ] =.qXdXgXMXmXMXgXfXrXqX&.] ' / ( ^ ^ ( { / S <.6.y.a.y.<.M 0 ~ / ' ] ] @.@.#.#.=.=.0X0XqXeXrXaXdXdXsXfXhXgXgXnXnXMXnXgXgXhXhXhXhXhXfXdXdXrXeXyXqX0X=.=.&.#.#.@.@.] ' ^ 0 3 < > 1 i 4.u.a.u.7.q.} ' ` ' / ( ( ^ ^ ^ ^ 0 0 9 9 3 JXJXJX",
"JXJXJXJXJXJXJXJX. < 2 0 ( ] #.*.eXdXhXgXnXnXnXgXsXtX0X&.@.' ( ^ 0 ~ ^ M 1.3.r.u.y.<.M 0 ~ ( / ' ' ] @.#.#.&.=.=.0XqXeXrXaXaXaXdXdXfXhXgXgXgXgXgXhXfXsXsXsXdXdXdXrXtXeXqXqX0X=.=.#.#.@.@.] ' { ( 0 9 2 < > 1 i 4.u.u.r.4.1.C ^ ~ ^ ^ ^ ^ ^ ( ( / / / ( ^ ^ 0 9 JX",
"JXJXJXJXJXJXJXJX< 4 3 9 0 ^ ( ' @.&.0XqXeXaXjXgXgXhXdXtX0X#.' ^ 0 0 0 M p 2.e.u.y.<.Z 0 ~ ( / / ' [ @.#.#.#.&.=.*.0XeXtXrXrXaXaXdXdXsXfXhXhXfXsXsXdXdXaXrXrXtXeXeXqXqX0X0X*.=.&.#.@.@.] ' / ^ V 9 3 4 > , 1 i 4.u.u.e.4.A C ^ ( / ' ' [ ] +.@.#.#.#.@.] / 0 9 3 ",
"JXJXJXJXJXJXJXJXX X . > < 4 4 2 3 9 0 ( ' @.=.qXrXdXsXdXtXqX&.] / ~ 0 m i :.5.r.r.<.M 0 0 ! ^ ( ' ] @.&.&.=.=.=.=.0XqXeXrXrXrXaXrXaXaXdXdXdXaXrXrXrXrXtXeXeXqX0X0X0X0X*.*.=.&.#.@.@.] ' / ^ ^ 0 9 3 2 > , @ t 4.y.r.5.,.q.| #.=.*.0XqXeXeXeXeXeXqX0X&.@.' 0 9 3 ",
"JXJXJXJXJXJXJXJXJX    X X X X X X   X . 4 9 ^ ] #.0XeXtXtXeX0X&.+.` ^ m i ;.2.e.e.4.A M V V ^ ' @.#.=.0X0XqXqX0X*.*.0XqXeXtXtXtXtXeXtXtXtXeXeXeXeXeXeXeXeXqX0X*.*.*.*.=.=.=.=.=.=.#.@.] ' / ^ ! 0 8 2 4 @ t p 4.r.6.2.<.W./.tXdXfXgXgXgXgXhXdXrXqX=.@.' ^ 0 9 3 ",
"JXJXJXJXJXJXJXJXJXJXJX* - - - * * + + X X . < 3 0 ( ] #.=.=.=.=.#.@.' C i u :.3.6.e.t.8.q.) [ -.0XeXtXaXdXfXsXrXqX*.0X0X0XqXqXeXeXqXqXqXqXqXqXqXqXqXqXqXqXqX0X*.=.=.=.=.=.0XeXaXrXeXqX0X=.#.' ^ q 8 3 m p ,.5.6.6.2.:.1.W.uXgXNXVXBXNXMXhXaXqX=.] ( 0 3 2 2 JXJX",
"JXJXJXJXJXJXJXJXJXJXJXh f h B B h d ; * & # # @ & 4 9 0 / ] @.@.#.#.@.| S A p ,.2.e.a.a.8.q. .X.&.=.=.9XqXrXaXaXtXeX0X*.=.*.0X0X0X0X0X0X0X0X0X0XqXqX0X0X0X0X*.=.=.&.&.*.qXtXaXaXeX0X&.$.+.] } S Z Z Z p 4.6.6.3.>.;.p A W.eXsXgXcXgXsXrXwX=...) V 6 1 .   JXJXJX",
"JXJXJXJXJXJXJXJXJXU I B g B T J.T G j j B j d * # @ . < 2 9 0 ( ' @.#.&.#.| } p ;.3.e.u.a.i.7.A m 8 3 7 ^ ] &.qXaXdXeX=.#.#.&.&.=.=.*.*.0X0X0X0X0X0X*.*.=.=.&.&.#.#.=.eXdXdXeX*.@.^ 3 2 2 5 i 4.6.6.6.5.3.2.:.;.u i C ) ] $.&.=.=.&.@.' ( V N N N = - JXJXJXJXJX",
"JXJXJXJXJXJXJXJXT T P B B U I.!.U.P L U K.T L g = * & # # @ 1 3 0 / +.#.=.=. .Z y ;.>.5.r.y.e.4.p i y r t 5 ^ $.qXeXqX=.#.@.@.@.#.&.=.=.=.=.=.=.=.=.=.#.#.@.@.@.@.@.-.qXaXeX&.' V t e e r y ;.2.5.5.3.>.:.u y r t l C J J H J ) _ J H N N d d d d d JXJXJXJXJXJX",
"JXJXJXJXJXJXJXJXT T U I P J.^.^.I.U P J.~.!.H.G j j h = * + X . 4 9 ^ [ #.&. .M r r u ;.>.3.5.6.6.6.3.>.y O < ^ #.*.=.&.#.@.] @.$.#.#.#.#.#.#.#.#.#.#.@.] ] ' ' ' ' @.=.qX=.` 3 $ r u ;.:.:.:.;.;.u u y y r e a d g B G B N N N B B B h h h h h h h JXJXJXJXJXJX",
"JXJXJXJXJXJXJXJXU U U T K.I.^.^.I.T U I.'.^.L.I L U U L d + + X X & 2 0 ( / ^ 5 % e r y u u ;.:.2.2.>.:.r % . 0 @.=.&.@.] ] ' ' ] @.@.@.@.@.@.@.@.@.] ] ' / / ( ^ ^ { @.&.$.^ 4 % e y y y y y y r e t t l n k g g G U T U B B G L I I I L L L L P P JXJXJXJXJXJX",
"JXJXJXJXJXJXJXJXL I U J.I.!.~.!.U.T H.!.'.^.L.P P J.U.T j ; * + + # X & 2 3 2 > . % O e r r y y u p p p t $ 3 ^ @.#.@.] ' { / / ' ' ] ] @.@.@.] ] ] ' / ( ^ ^ ^ 0 0 0 / ] ' ^ 7 $ O e e e e e e e $ 1 6 G R U G G U L.I.J.T U U T T H.H.T U P T J.L.JXJXJXJXJXJX",
"JXJXJXJXJXJXI L G G P J.E.E.U.J.H.H.J.!.^.~.H.L U U.!.J.G d = f = * # X X X . X . @ # $ 5 5 m m C C } } } ' ' ' ' ' ' / ( ( ^ ( ( / ' ] ] ] ' ' ' ' / ( ^ ^ 0 0 9 9 9 9 0 0 0 0 0 6 6 5 5 5 1 $ @ w 4 N W L.K.P L T !.^.!.I.L.J.H.J.U.I.J.U P H.I.!.JXJXJXJXJXJX",
"JXJXJXJXJXJXI L B j I J.E.U.T U T L.I.!.!.U.T L R I.!.J.B f h G B f * + o       X . > < 2 3 8 9 0 ^ ` [ ] ] ] ' ( ^ ^ ^ ^ ^ ^ ^ ^ ( / ' ' / / / / / ( ^ 0 0 9 9 9 9 3 2 2 2 9 9 9 9 3 2 2 2 4 4 < > < N E !.U.T U J.^.'.'.^.!.U.J.L.!.^.U.U I H.E.^.JXJXJXJXJXJX",
"JXJXJXJXJXJXL B h g G H.I.J.U P K.!.^.!.L.H.U P T L.U.T h d j P P j = # X         X < 4 4 4 2 3 9 0 ^ / ' ' { / ( ( ^ ^ ^ ^ 0 0 ^ ^ ^ ( ( ^ ^ ^ ^ ^ ^ 0 0 9 9 9 9 0 0 9 3 2 4 < < < < . . . < < < . . N K.~.!.J.T U.^.=X=X=X^.I.J.U.^.'.!.T I T U.!.JXJXJXJXJXJX",
"JXJXJXJXJXJXj j g f B T J.H.L L T !.~.U.T U U U U T T L d = h L L h * + X     X < 8 0 ( ' ] @.$.#.=.0XqXqXqXeXeXeXeXqX0X=.#.] / ^ 0 0 0 0 ^ ^ ^ ^ ^ 0 0 9 9 0 ( ] =.0X/.=.&.#.@.] ] ' / ( ^ 0 9 3 < < N K.~.!.L.H.U.^.'.=X=X'.I.H.J.^.'.!.H.I U J.U.JXJXJXJXJXJX",
"JXJXJXJXJXJXg g f f j P T U B j U U.I.K.I L P U U I G g ; * f B j = + X o   X 4 9 ^ ] &.0XeXaXdXsXhXnXmXCXNXNXBXBXBXBXNXgXdXqX#./ 0 9 9 9 0 0 0 0 0 9 9 9 ^ ' &.eXgXmXmXmXMXgXfXdXtXeX0X=.#.] ( 0 3 2 N E !.!.U.J.U.!.^.'.=X^.U.T H.E.^.!.H.U U T T JXJXJXJXJXJX",
"JXJXJXJXJXJXf f d f h L U L j h P J.J.U j j L U I j = ; * * d h g ; + X X X . 4 9 ^ ' #.*.qXtXaXdXsXhXgXnXmXmXNXNXBXBXBXBXNXMXsXqX#.' 0 3 3 9 9 9 9 3 2 9 ] eXgXmXNXNXmXmXnXhXdXaXtXqX0X&.@.] / ^ 9 3 6 G E J.I.I.U.J.L.!.^.^.U.U U H.J.J.J.H.U G B JXJXJXJXJXJX",
"JXJXJXJXJX= d d = = f j B j f f B U T L f f B I G d * * ; = d f = * + X X . < 4 9 0 ( ] #.=.0XqXqXeXtXaXdXsXfXgXgXMXmXNXBXAXAXmXfXqX@.0 4 4 2 3 3 3 4 < 7 #.hXAXAXNXMXgXhXdXrXeXqX0X=.#.] ' ( ^ 0 9 9 6 N G T U.!.U.T U H.U.U.H.P L L L U T T L g = JXJXJXJXJXJX",
"JXJXJX+ * * = = ; * = d d d ; ; f j j f = = h j h = ; = h j f = * * JXJXX . . 1 3 9 ^ / ] #.=.=.*.0XqXeXeXtXrXdXdXfXgXnXMXmXMXgXaX0X] 9 . X < 4 4 4 < . 2 @.dXNXNXnXhXsXaXeXqX=.&.#.@.' ( ^ 0 9 9 3 2 1 = h I K.U.J.U I L B B B B B j j j B B f = ; JXJXJXJXJXJX",
"JXJXJX- 5 N J _ _ _  .| X.X.X.X.X.X.o. .J J J J N = ; = h j f * + JXJXJXJX. . < 4 3 9 V / ] @.#.#.=.*.0X0XqXeXeXrXaXaXaXrXtXeXqX*.#.@.' / ' ] ] ] ] ' / ' #.eXdXsXdXdXrXeXwX=.#.@.] ' ( 0 9 9 3 2 4 1 - = h G P R U I B h d = f N g f d d d = = ; * JXJXJXJXJXJX",
"JXJXJX0 ( ..*.yXtXaXsXhXnXmXNXNXCXnXhXaXqX/.&.$.) N * ; d d = ; + JXJXJXJXJXJX. . < 4 9 0 ( ' ] ] @.#.&.=.0X0XqXeXeXqX=.#.] ' ' ' ] &.qXdXhXHXnXnXgXhXdXtXqX=.=.*.qXqXqX0X*.=.#.@.' / ^ 0 8 2 4 1 & * = f j j j j B B B g d d N N N d = = f f d ; * JXJXJXJXJXJX",
"JXJX/ ] #.=.0XqXqXqXeXrXdXjXhXgXgXhXhXfXdXrXqX=...) V N N N - * + JXJXJXJXJXJX  X . < 2 9 0 ^ / / ' ] @.@.#.&.=.=.=.@.' ^ ^ ^ ( ] #.wXaXgXmXNXNXNXNXMXgXsXtX*.#.#.#.#.#.#.#.@.] ' ( 0 9 3 2 < < & & * d g j j h g f f N N V ( _ ....| _ _ _ J V 6 5 JXJXJXJXJXJX",
"0 ^ ] =.0X=.#.@...| ....-.&.=.%X%XqXeXaXdXaXeX0X=.$.] ' / ^ 6 * + JXJXJXJXJXJX    X . 4 3 9 0 ~ ^ ^ ( / ' ' ' ] ] ' ^ 9 3 9 ^ ] &.0XeXkXdXfXgXHXgXgXfXdXuXyXwX=.@.' / ' ' ' ' / ^ 0 9 2 4 < . . . # * = g B B B N g N N C ) | %./.wXwX0X*.#.] ) V V m JXJXJXJXJX",
"] +.#.&.&.+.{ _ o.@X#X$X*X*X$X$X$X$X$X%X%XwXrXdXtX0X-.#.#.@.[ N JXJXJXJXJXJXJX      X < 4 3 9 9 9 9 0 ^ ^ ^ ^ ^ ^ 0 3 4 3 0 ' ..-.7X7X8X8X7XkXdXsXdXiX`.`._.(.-.[ ~ 9 0 ( / ( ^ 0 9 2 < < . X   X @ & 5 6 H H J ) _ |  .H.q.w.w.w.W. .@.@.] _ S 1.<.7.i.JXJXJXJX",
"=.&.#.+.' / J Q  X;X<X1X4X4X3X2X<X:X;X@Xo.=.uXgXfXeX0X=.*.*.*.JXJXJXJXJXJXJXJX      X X . < 4 4 4 2 3 9 9 9 9 9 3 2 2 3 0 ( ' ..$.#.7X8X8X8X7XqXyXwX).j.d.p.W.| { 9 3 9 0 ^ 0 0 9 2 < . . X X   X < 2 9 0 ^ ( ' ] +.@.X.w.p.y.r.5.<.S _ ` ' } q.4.e.u.s.g.JXJXJX",
"#.@.' ! 0 K Y.|.;X>X2X4X4X4X4X4X2X>X-X}.|.#XpXfXfXkXqX0X=.=.=.JXJXJXJXJXJXJXJXJXJX      X . . . . < 4 2 2 2 2 < < 4 9 ^ ( / ' ] @.@.O.O.O.O.@.$.#.$. .<.3.<.S / ~ 9 3 3 3 3 3 2 4 < . . X . . < 4 3 9 0 0 ^ ^ ( ( ~ 0 m 1.r.a.u.e.w.W./.=.-.| q.,.5.r.u.s.g.f.f.",
"[ ' ) J Q Y.}.+X:X,X3X4X4X4X4X3X,X:X+XXX.X|.#X&XuXaXuXqX=.@.+.JXJXJXJXJXJXJXJXJXJXJX      X X X X . . . . . . . . 4 9 ^ ( ( ( / ' ' ' / / / ( ( / / C Z p i m 0 9 8 2 4 < < . . X X X   X X < 4 3 9 0 ^ ( / ' ' / 0 > $ p r.s.u.e.w.).tXeX9X%.} A ;.4.e.u.s.g.g.",
"0 H Q Y.|.}..XoX-X,X1X4X4X4X3X,X:X+X.X{.[.R.Z.E.#XpXjXeX#.' ( JXJXJXJXJXJXJXJXJXJXJX      X X . . . . . . . . < 2 7 9 0 ^ ^ ^ ^ ^ ^ ^ H H 0 0 ^ ^ ^ ^ V V 6 9 9 3 2 4 < . . X             X . 2 9 0 ( ' ] @.#.#.| ( 8 $ 1.e.u.r.5.w.).uXtX9X#.' V m p >.6.y.a.s.",
"4 6 G Y.[.{.{..X+X-X>X,X,X,X>X-X+X.X{.R.S.C.n.b.I.iXsXqX+.( Q #XJXJXJXJXJXJXJXJXJX0 9 3 2 < < 4 2 3 9 9 0 0 ^ ^ { ' ] @.@.#.&.=.&.&.&.&.&.#.#.#.#.#.@.[ ` ^ 0 9 9 9 9 0 q 9 9 9 2 4 < . X X . 2 9 0 ( ' ] @.$.$.| } A 1.4.r.r.5.>.q.W./.=.@.' ~ 8 5 i ;.3.e.r.y.",
". & h F m.A.S.R.{..XoXOX-XOXoX.X{.[.S.A.m.b.x.x.U.&XuX9X' H o.|.-XJXJXJXJXJXJX^ ^ / ' ' ^ 9 2 9 0 ^ ' ] @.@.#.&.*.0XqXeXrXdXsXhXgXgXgXhXhXfXfXsXdXrXeX0X&.] ( ^ ^ / ' ] @.@.@.] ' ^ 0 3 < . . 4 3 0 ^ ( ' ' [ [ } q.p.u.y.e.3.:.;.i C / ( ~ 9 3 < $ y :.3.5.6.6.",
": & f F x.b.b.m.C.S.D.[.{.[.D.A.V.n.b.v.x.c.9.b K.%XtX=.( 6 Q |..XJXJXJXJXJXJX/ ' @.=.=.] ^ 0 ^ / ] @.#.=.*.0XqXeXrXdXsXhXnXmXNXBXBXBXBXBXNXNXmXMXgXfXdXeX0X#.@.@.&.*.qXrXaXaXtX0X#.' 0 3 < < < 2 8 0 ~ ~ ^ S q.w.p.r.r.6.>.;.i t m 5 7 3 2 < , JXJX;.3.5.3.3.3.",
"> 1 d n 9.l.F N.N.Y.E.T.|.|.E.E.I.L.P.P.N.N.b b H.(.yX=.) N P B.S.JXJXJXJXJXJX' ] #.0X0X#./ ^ ( ' ] #.&.=.*.0XqXeXtXaXdXfXgXMXmXNXBXBXBXNXNXmXmXMXgXfXdXtXqX=.&.=.0XqXdXgXnXgXfXtX=.] ^ 9 4 1 @ 1 5 m C V M A 7.y.r.5.>.;.y r a 1 2 < < . . . # JXJXr.6.5.2.:.:.",
". & a z b n B K X.(.&XpXlXzXzXzXzXzXpXiX(.o.Y b Y (.%X%XU.Y.M.b.b.JXJXJXJX0 ^ ( ' @.=.=.@.^ 0 0 ^ ( ' ] @.@.#.&.=.*./.0XqXeXtXrXaXdXdXdXdXaXrXtXeXqX0X*.&.@.] ] @.#.*.qXrXaXtXqX=.] ( 0 3 1 $ e y u ,.,.,.,.4.3.3.2.:.u r O # @ X X X     JXJXJXu.u.e.3.>.;.u u ",
"X . $ a l B H ' #.qXaXgXNXZXFXFXFXDXVXhXeX%.W n I X./.(.E.C.n.c.b n JXJX9 9 9 0 ^ / ] ] ( 9 3 3 9 0 0 ^ ^ ( ( / ' ' ' ' ] ] @.@.#.#.#.#.#.#.#.@.@.] ] ' ( ^ ^ ^ ( ' @.#.=.=.#.@.' ^ 9 3 2 1 $ e r u :.2.3.3.2.:.;.u y e $ @         % O r JXJXa.y.e.3.:.u u y y ",
"    . & 5 q ^ [ &.qXdXnXVXAXDXFXFXSXNXhXeX-.) V H | -.Q.P.z.9.v z k 6 9 3 2 2 2 2 3 9 3 2 < < < 4 2 3 9 9 9 3 3 9 9 9 9 9 9 9 9 0 0 0 ^ ^ ^ ^ ! 0 0 9 9 3 3 9 9 0 0 ^ ( / / ^ ^ 0 9 2 4 4 < . X % e r y u u u y r e $ # X         % r ;.2.6.e.6.3.>.;.y y JXJXJX",
"    X . < 7 0 ` @.=.qXaXhXnXmXmXmXnXfXeX=.] ^ q ! [ @. .F b z s d 5 6 3 4 . . . . . . X X   X . < 4 3 9 9 0 0 0 ^ ^ ( ' ' ] ] ] ] @.@.#.#.@.] ] ' ( 0 9 2 4 4 4 4 4 3 ^ ' ] ] ] ] ] ' ' ( ~ 9 2 < $ O O O O O O O % X     o o % O e u :.>.>.>.:.u u y r JXJXJXJX",
"JXJXJX  X 4 9 ^ / ] @.=.0XqXtXrXeXqX=.#.' ( 0 9 0 ( ' J n z s - 3 3 7 2 .     X . @ < < < < < < < 2 9 0 ^ / ' @.#.&.*.qXeXrXaXdXdXdXsXfXfXdXtXqX0X&.] ^ 9 4 < @ . < 9 ' =.qXeXtXrXtXeX0X&.@.' ^ 9 4 @ X X               o o o O r y u u u u y y r r JXJXJXJXJXJX",
"JXJXJX    . 2 9 0 ^ / ' ] @.#.#.@.] ' / ^ 0 3 4 3 0 ^ V d = 5 q 0 0 0 9 4 X . 4 9 ^ / ' ' ' ( 9 4 4 7 0 ( ' @.&.*.qXtXdXhXgXMXmXNXBXBXBXNXmXzXfXaXqX&.' 0 9 3 9 ^ ' #.0XaXhXnXMXnXgXdXeX*.@.' ^ 9 3 < . X   o o o o o JXJXJXJXJXJXJXJXJXJXJXJXJXJXJXJXJXJXJXJXJX",
"JXJXJX    X . < 2 9 9 0 0 ^ ^ ^ ^ ~ 0 0 9 3 < . < 3 9 7 4 4 q ( ' ( ^ 9 4 . < 3 0 ' #.0XqXqX=.] 0 9 9 9 ^ ' ] #.=.qXtXdXhXnXmXNXAXSXSXAXBXNXmXgXdXqX&.' 0 0 ^ ' #.qXaXhXMXNXNXBXmXgXdXqX&.] ( 0 9 3 2 < .     o o JXJXJXJXJXJXJXJXJXJXJXJXJXJXJXJXJXJXJXJXJXJXJX",
"JXJXJXJXJX    X . < 4 2 2 3 3 3 3 2 2 2 4 . X   . 2 9 9 9 0 / @.@./ 9 4 . X X 4 9 / #.0XrXsXdXqX@./ 0 3 9 0 ^ / ] @.=.qXtXdXsXgXmXNXNXNXmXgXsXeX*.@.' 0 9 ^ ] =.eXsXnXmXNXNXNXmXgXaX0X#.' ^ 0 0 9 9 9 9 2 JXJXJXJXJXJXJXJXJXJXJXJXJXJXJXJXJXJXJXJXJXJXJXJXJXJXJX",
"JXJXJXJXJXJX        X . . . . . . . . X X X X . . < 4 3 0 ^ ] @.@.^ 2 X       . 2 0 ] =.eXfXhXdXeX=.' 0 3 3 9 9 0 ^ ' #.=.*.0XeXrXdXdXdXaXeX0X#.' ^ 0 q ^ ] =.eXsXgXMXmXmXMXhXdXeX=.@.{ 0 9 9 0 0 0 0 0 JXJXJXJXJXJXJXJXJXJXJXJXJXJXJXJXJXJXJXJXJXJXJXJXJXJXJXJX",
"JXJXJXJXJXJXJXJX          X X X X         . 4 3 2 . . 2 0 ( ' ' ( 9 < X       X < 3 ^ ] =.eXdXfXfXtX=.' 0 7 4 4 2 9 0 ^ / ' ' ] @.#.#.&.#.@.' ^ 9 2 3 ^ ] =.eXsXhXgXhXfXdXrXqX=.@.' ^ 0 9 9 0 ^ ( ( ^ ^ JXJXJXJXJXJXJXJXJXJXJXJXJXJXJXJXJXJXJXJXJXJXJXJXJXJXJXJX",
"JXJXJXJXJXJXJXJXJX          X X X X X . < 4 3 7 3 2 3 0 / ' / ^ 9 4 . X * a a a d - 5 0 ` #.0XtXaXrXqX-.' 0 2 < < < 2 3 9 9 9 0 0 ^ ^ ^ ^ 0 9 3 2 3 0 ] =.0XeXeXeXeXqX0X*.&.] / ~ 9 7 5 g B J _ ] ] ] ] JXJXJXJXJXJXJXJXJXJXJXJXJXJXJXJXJXJXJXJXJXJXJXJXJXJXJXJX",
"JXJXJXJXJXJXJXJXJXJXJX      X . . < 4 2 9 9 3 2 9 0 ^ ' ] ] ( 9 4 X X ; l b c.c.F l = 1 9 ^ ' #.*.0XqX0X#./ 9 2 < . X . . < 4 4 2 2 2 4 4 < . < 3 0 ' #.0X0X=.#.$.@.] ' ' ( 0 9 3 2 5 g n F E X.#.&.=.=.JXJXJXJXJXJXJXJXJXJXJXJXJXJXJXJXJXJXJXJXJXJXJXJXJXJXJXJX",
"JXJXJXJXJXJXJXJXJXJXJXJXJXJXJXJXX X . < 4 3 9 0 0 0 0 ^ / / 0 2 @ $ a s F v.n.n.v.N.F k = 4 7 ! ' @.#.&.@.` 0 3 < X         X X X X X X X   X 4 0 / ] @.@.@.] ' ( ~ 0 9 9 3 4 < & h L F x.M.Q.(.0XyXeXeXJXJXJXJXJXJXJXJXJXJXJXJXJXJXJXJXJXJXJXJXJXJXJXJXJXJXJXJX",
"JXJXJXJXJXJXJXJXJXJXJXJXJXJXJXJXJX      X < 9 ^ ^ 0 9 0 0 0 7 < # a z b x.m.m.B.B.C.C.M.L = & 4 9 0 / ' ' ( 0 9 4 X X                       X 4 0 / ' / ^ ^ ~ 0 q 5 5 5 5 5 - - j F B.C.C.B.Q.yXrXaXdXdXJXJXJXJXJXJXJXJXJXJXJXJXJXJXJXJXJXJXJXJXJXJXJXJXJXJXJXJX",
"JXJXJXJXJXJXJXJXJXJXJXJXJXJXJXJXJXJXJX    X < 3 9 0 0 0 q 9 2 . # a z 0.x.m.C.Z.S.R.[.[.T.V.F f & : 3 9 0 9 9 3 4 < < < .       JXJXX . . < < 2 9 0 0 q 8 2 4 1 = l n n F F Y.Y.T.[.[.G.S.T.#XpXjXfXsXtX*.@.JXJXJXJXJXJXJXJXJXJXJXJXJXJXJXJXJXJXJXJXJXJXJXJXJXJX",
"JXJXJXJXJXJXJXJXJXJXJXJXJXJXJXJXJXJXJXJX    X < 3 0 0 0 9 2 > . # a z 9.v.m.C.S.R.{..X.X.X{.T.F h * & > < 4 2 4 4 < < . .       JXJXJX< < 2 3 6 6 N N 5 - - - d n N.B.F.R.{.XXOXOXOX+XXX{.|.#X&XpXdXdXeX=.@.] JXJXJXJXJXJXJXJXJXJXJXJXJXJXJXJXJXJXJXJXJXJXJXJXJX",
"JXJXJXJXJXJXJXJXJXJXJXJXJXJXJXJXJXJXJXJXJXJXJXJXJX0 0 9 2 < .   + s b z.b.m.C.S.R.{.}..XXX.X{.[.B.F f X   . . . . X X           JXJXJXX < 8 0 H B n z z z b F N.B.[..XOX:X>X<X<X,X,X>X-XoX}.R.T.!.&XuXtX*.@.] JXJXJXJXJXJXJXJXJXJXJXJXJXJXJXJXJXJXJXJXJXJXJXJXJX",
"JXJXJXJXJXJXJXJXJXJXJXJXJXJXJXJXJXJXJXJXJXJXJXJXJX9 9 3 4 @ # ; a z b x.b.m.C.S.D.[.{.{.}.{.{.[.S.M.n ; + X X X               JXJXJXJXX < 0 ' _ I b c 0.9.v.m.F.[.XXOX<X1X4X3X3X3X1X,X>X-XoX[.S.E.&XuXtX7X#.@.JXJXJXJXJXJXJXJXJXJXJXJXJXJXJXJXJXJXJXJXJXJXJXJXJX",
"JXJXJXJXJXJXJXJXJXJXJXJXJXJXJXJXJXJXJXJXJXJXJXJXJX9 3 2 > @ a s x v l.x.b.m.C.S.D.R.R.R.R.R.D.Z.m.v.b z a +               JXJXJXJXJXJXX 4 ^ @.X.W b v c.M.B.F.R.}.+X:X,X4X4X5X5X4X3X,X>X:XOX.X[.|.&XpXrX0X&.#.JXJXJXJXJXJXJXJXJXJXJXJXJXJXJXJXJXJXJXJXJXJXJXJXJX",
"JXJXJXJXJXJXJXJXJXJXJXJXJXJXJXJXJXJXJXJXJXJXJXJXJX2 2 < . @ a z v 9.l.x.b.m.C.S.D.D.D.D.D.D.S.A.m.v.9.x s +   o           JXJXJXJXJXJXX 4 ( #.%.E b v 9.v.m.Z.[..XOX:X,X1X4X4X5X4X3X,X<X:X-XXX[.|.&XjXdXeX0X*.JXJXJXJXJXJXJXJXJXJXJXJXJXJXJXJXJXJXJXJXJXJXJXJXJX",
"JXJXJXJXJXJXJXJXJXJXJXJXJXJXJXJXJXJXJXJXJXJXJXJXJX4 4 > . @ a z c 0.l.x.b.m.C.S.D.R.D.D.D.D.S.C.m.x.0.x s +               JXJXJXJXJXJXX 2 / #.%.E b c v c.b.C.R.}.+X-X>X,X1X4X4X4X3X,X>X:XOX.X[.|.*XzXhXaXeXqXJXJXJXJXJXJXJXJXJXJXJXJXJXJXJXJXJXJXJXJXJXJXJXJXJX",
"JXJXJXJXJXJXJXJXJXJXJXJXJXJXJXJXJXJXJXJXJXJXJXJXJX4 < > . @ a z c 9.l.x.b.m.C.S.D.R.R.D.S.A.m.M.x.l.v z s $ X             JXJXJXJXJXJXX 4 ^ @.X.W b c v l.v.m.A.R..X+X:X,X1X4X4X4X3X,X:XOXXX{.[.|.lXcXnXsXtXeXJXJXJXJXJXJXJXJXJXJXJXJXJXJXJXJXJXJXJXJXJXJXJXJXJX",
"JXJXJXJXJXJXJXJXJXJXJXJXJXJXJXJXJXJXJXJXJXJXJXJXJX< < > . @ a z c 0.l.x.b.m.C.Z.S.S.S.Z.C.m.v.c.9.v v z s * . X           JXJXJXJXJXJXX 2 ^ ] .. .E P.l.0.c.b.m.S.[.XXOX>X,X1X3X3X1X,X:XOXXX{.[.|.&XpXjXaXrXeXJXJXJXJXJXJXJXJXJXJXJXJXJXJXJXJXJXJXJXJXJXJXJXJXJX",
"JXJXJXJXJXJXJXJXJXJXJXJXJXJXJXJXJXJXJXJXJXJXJXJXJX< < > . @ a z c 9.l.x.b.m.m.m.B.B.B.m.b.x.l.b v c c z s - < .       JXJXJXJXJXJXJXJXJXJX/ ] $./.yX(.H.b 9.x.m.A.D.{.oX-X:X,X,X2X,X,X<X:XOX.X[.S.B.Y.Q.&XaXeX#.( ^ JXJXJXJXJXJXJXJXJXJXJXJXJXJXJXJXJXJXJXJXJXJX",
"JXJXJXJXJXJXJXJXJXJXJXJXJXJXJXJXJXJXJXJXJXJXJXJXJX< < : . # a z c 0.l.x.b.m.m.m.m.m.m.m.v.c.9.v c x x x s - < .     JXJXJXJXJXJXJXJXJXJXJXJX( ] 9XtX%XK.b v c.b.m.C.D.{.oX-X>X,X,X,X,X>X-X+XXX}.D.V.b.U.&XjXtX#./ ^ JXJXJXJXJXJXJXJXJXJXJXJXJXJXJXJXJXJXJXJXJXJX",
"JXJXJXJXJXJXJXJXJXJXJXJXJXJXJXJXJXJXJXJXJXJXJXJXJX4 4 > . @ a z c 0.l.x.b.m.m.m.m.m.m.M.v.c.9.v c x x z s - 4 . X   JXJXJXJXJXJXJXJXJXJXJXJX0 / -.qX(.K.b c 9.c.v.M.C.R.}.+X:X,X,X,X,X:X+XXX.X.X{.F.B.~.iXgXaX&.' ( JXJXJXJXJXJXJXJXJXJXJXJXJXJXJXJXJXJXJXJXJXJX",
"JXJXJXJXJXJXJXJXJXJXJXJXJXJXJXJXJXJXJXJXJXJXJX4 3 9 0 8 < & a z v 9.l.c.x.x.v.v.v.v.v.x.l.b v c c z s d - & . X   JXJXJXJXJXJXJXJXJXJXJXJXJX3 ^ @./.(.T x x 9.c.x.M.C.R.}.oX-X:X<X,X,X>X-X+XXX}.[.A.C.~.pXcXdX*.] / JXJXJXJXJXJXJXJXJXJXJXJXJXJXJXJXJXJXJXJXJXJX",
"JXJXJXJXJXJXJXJXJXJXJXJXJXJXJXJXJXJXJXJXJXJX4 2 9 0 ^ ^ 0 6 g z c v 9.l.l.l.l.l.l.c.c.l.v c x z z s - 1 : X     JXJXJXJXJXJXJXJXJXJXJXJXJXJX4 0 ] &.%.E F b 0.l.z.b.B.D.{.oX+X-X:X<X<X>X:XOXXX[.S.C.B.~.lXMXjX0X@.' JXJXJXJXJXJXJXJXJXJXJXJXJXJXJXJXJXJXJXJXJXJX",
"JXJXJXJXJXJXJXJXJXJXJXJXJXJXJXJXJXJXJXJXJXJX9 9 9 0 ^ ' +.| W n x x v v 9.l.c.c.l.c.c.9.0.c z s ; # @ . X       JXJXJXJXJXJXJXJXJXJXJXJXJXJXJXJX] #.=.%X%XQ.P.v v l.b.C.R.}.oX-X:X:X:X-XOXoX}.[.S.C.B.~.lXmXfXwX@.] JXJXJXJXJXJXJXJXJXJXJXJXJXJXJXJXJXJXJXJXJXJX",
"JXJXJXJXJXJXJXJXJXJXJXJXJXJXJXJXJXJXJXJXJXJX7 9 9 9 0 { $.-.X.U n b x c v 9.9.9.9.9.9.b b n l - @ . X X       JXJXJXJXJXJXJXJXJXJXJXJXJXJXJXJXJX[ ] =.rXjXiXK.b c 9.x.m.Z.R.}.oXOXOXOXoX.X{.[.D.Z.m.m.~.lXmXfX0X@.' JXJXJXJXJXJXJXJXJXJXJXJXJXJXJXJXJXJXJXJXJXJX",
"JXJXJXJXJXJXJXJXJXJXJXJXJXJXJXJXJXJXJXJXJXJX. < < < 2 0 ' | $... .Y b x x c c c c c c b k C V 7 4 . X     JXJXJXJXJXJXJXJXJXJXJXJXJXJXJXJXJXJXJX( ' -.rXhXiXK.b c 9.c.b.m.A.D.[.{..XXX}.{.R.S.C.m.v.x.I.iXzXdX=.' ( JXJXJXJXJXJXJXJXJXJXJXJXJXJXJXJXJXJXJXJXJXJX",
"JXJXJXJXJXJXJXJXJXJXJXJXJXJXJXJXJXJXJXJXJXJX. . . . < 2 9 ^ { ] |  .E E K.K.K.E E E E W } / ~ 9 4 . X   JXJXJXJXJXJXJXJXJXJXJXJXJXJXJXJXJXJXJXJX^ / -.kXzXiXL.b c 9.c.x.v.M.B.A.D.[.{.[.D.Z.C.m.b.x.c.U.&XjXeX#.( 0 JXJXJXJXJXJXJXJXJXJXJXJXJXJXJXJXJXJXJXJXJXJX",
"JXJXJXJXJXJXJXJXJXJXJXJXJXJXJXJXJXJXJXJXJXJX< < < 4 4 < < 4 3 0 / ..-./.wXqXqXwX%X/.*.&.@.' ^ 9 4 < JXJXJXJXJXJXJXJXJXJXJXJXJXJXJXJXJXJXJXJXJXJX0 ( #.kXzXiXL.b c 9.l.l.c.x.b.m.C.S.D.S.C.m.m.m.b.x.c.J.%XeX7X[ 0 9 JXJXJXJXJXJXJXJXJXJXJXJXJXJXJXJXJXJXJXJXJXJX",
"JXJXJXJXJXJXJXJXJXJXJXJXJXJXJXJXJXJXJXJXJXJX4 4 3 9 0 9 2 4 4 2 9 ^ ' +.#.&.&.#.$.@.@.] ` ^ 9 2 . X JXJXJXJXJXJXJXJXJXJXJXJXJXJXJXJXJXJXJXJXJXJX2 9 [ wXaX&XH.c x v v 9.l.c.x.v.b.M.M.b.b.v.v.v.x.z.c.P.Q./.#.( 9 1 JXJXJXJXJXJXJXJXJXJXJXJXJXJXJXJXJXJXJXJXJXJX",
"JXJXJXJXJXJXJXJXJXJXJXJXJXJXJXJXJXJXJXJXJXJX4 2 9 0 ^ ^ 0 9 3 3 9 0 ^ ' ] @.$.@.@.+.] ] ' ( ^ 9 2 < JXJXJXJXJXJXJXJXJXJXJXJXJXJXJXJXJXJXJXJXJXJXX < 0 @./.(.E b b x c v 9.l.l.9.l.l.l.l.l.9.9.9.l.l.N.T  ...' 0 1 < JXJXJXJXJXJXJXJXJXJXJXJXJXJXJXJXJXJXJXJXJXJX",
"JXJXJXJXJXJXJXJXJXJXJXJXJXJXJXJXJXJXJXJXJXJX< 4 2 3 9 0 0 ^ ^ ( ' @.=.0XeXaXdXdXdXdXdXaXrXeX0X#.' ^ 0 9 JXJXJXJXJXJXJXJXJXJXJXJXJXJXJXJXJXJXJXJX  X 4 q / [ X.X.E b x x c c c c v v 9.v v c c c b Y W _ ) ^ 9 2 . . JXJXJXJXJXJXJXJXJXJXJXJXJXJXJXJXJXJXJXJXJXJX",
"JXJXJXJXJXJXJXJXJXJXJXJXJXJXJXJXJXJXJXJXJXJXJX< < < 4 3 9 ^ ( ' ] #.*.qXtXdXsXfXhXgXgXgXgXfXaXqX&.] ( 0 9 JXJXJXJXJXJXJXJXJXJXJXJXJXJXJXJXJXJXJX      . 2 ^ +.#.X.U D D Y Y P.P.L.I.I.I.L.P.P.Y U } ' / 0 3 4 < . . JXJXJXJXJXJXJXJXJXJXJXJXJXJXJXJXJXJXJXJXJXJX",
"JXJXJXJXJXJXJXJXJXJXJXJXJXJXJXJXJXJXJXJXJXJXJXJXJX. . < 2 3 9 0 ^ ( ' ] #.&.=.=.0XqXeXeXtXrXtXeX0X=.@.' / JXJXJXJXJXJXJXJXJXJXJXJXJXJXJXJXJXJXJX      X < 7 ^ ' | $.%.(./.yXuXjXzXcXcXcXzXjXuX%X%...{ ^ 0 9 2 4 < < JXJXJXJXJXJXJXJXJXJXJXJXJXJXJXJXJXJXJXJXJXJX",
"JXJXJXJXJXJXJXJXJXJXJXJXJXJXJXJXJXJXJXJXJXJXJXJXJX4 2 2 9 9 0 ^ / / ' ] #.=.0XqXtXaXdXfXhXhXhXfXdXeX*.#.' 0 JXJXJXJXJXJXJXJXJXJXJXJXJXJXJXJXJXJXJX      X < 3 0 / ] #.=.0XtXsXgXmXNXVXNXMXhXaXqX=.@./ ^ 0 0 9 9 3 3 JXJXJXJXJXJXJXJXJXJXJXJXJXJXJXJXJXJXJXJXJXJX",
"JXJXJXJXJXJXJXJXJXJXJXJXJXJXJXJXJXJXJXJXJXJXJXJXJX9 9 0 ^ ( ' ] @.#.=.*.qXrXsXnXNXBXBXBXBXBXBXmXnXdXqX&.' 9 .   JXJXJXJXJXJXJXJXJXJXJXJXJXJXJXJXJXJXJX    X < 3 0 ^ ' @.=.0XtXdXfXgXgXhXdXrXqX*.#.] ' / / ( ^ 0 0 0 JXJXJXJXJXJXJXJXJXJXJXJXJXJXJXJXJXJXJXJXJXJX",
"JXJXJXJXJXJXJXJXJXJXJXJXJXJXJXJXJXJXJXJXJXJXJXJXJX4 2 9 0 ^ ' @.&.0XeXdXsXhXgXnXnXnXgXgXhXfXdXaXeXqX=.] ^ 9 < . JXJXJXJXJXJXJXJXJXJXJXJXJXJXJXJXJXJXJXJXJX< 2 9 0 / +.=.qXrXfXnXmXmXmXMXgXsXaXeX0X=.@.] ] ' ( 0 9 9 JXJXJXJXJXJXJXJXJXJXJXJXJXJXJXJXJXJXJXJXJXJX",
"JXJXJXJXJXJXJXJXJXJXJXJXJXJXJXJXJXJXJXJXJXJXJXJXJXX . 4 3 0 ^ ' #.0XrXdXsXsXdXdXaXrXrXrXtXeXqX0X=.#.] ( 0 3 4 < JXJXJXJXJXJXJXJXJXJXJXJXJXJXJXJXJXJXJXJXJXJX9 0 ^ ' #.0XtXfXnXNXNXNXNXmXgXfXdXtXqX*.#.@.] ' ^ 0 3 3 JXJXJXJXJXJXJXJXJXJXJXJXJXJXJXJXJXJXJXJXJXJX",
"JXJXJXJXJXJXJXJXJXJXJXJXJXJXJXJXJXJXJXJXJXJXJXJXJXJXJX. < 4 2 3 0 ' @.#.@.@.#.&.*.eXsXgXnXnXgXsXtX0X@.( 9 2 . . JXJXJXJXJXJXJXJXJXJXJXJXJXJXJXJXJXJXJXJXJXJX3 9 ^ ' @.=.eXaXsXhXhXsXaXeXqX=.#.@.] ] ' ' ( ^ 0 9 2 2 JXJXJXJXJXJXJXJXJXJXJXJXJXJXJXJXJXJXJXJXJXJX",
"JXJXJXJXJXJXJXJXJXJXJXJXJXJXJXJXJXJXJXJXJXJXJXJXJXJXJXJXX X     . 4 9 0 0 ^ ' #.0XrXgXmXmXmXgXsXrX0X&.] ^ 9 4 . JXJXJXJXJXJXJXJXJXJXJXJXJXJXJXJXJXJXJXJXJX9 9 0 ^ ' #.*.eXaXsXfXfXdXeXqX=.#.] ' ( ( ^ ^ 0 9 3 2 4 < JXJXJXJXJXJXJXJXJXJXJXJXJXJXJXJXJXJXJXJXJXJX",
"JXJXJXJXJXJXJXJXJXJXJXJXJXJXJXJXJXJXJXJXJXJXJXJXJXJXJXJX          X < 9 ( @.*.eXdXhXhXfXdXeXqX=.#.#.=.=.@.^ 9 9 JXJXJXJXJXJXJXJXJXJXJXJXJXJXJXJXJXJXJX0 0 0 ^ ( ' #.=.eXdXhXMXmXmXMXgXdXtXqX=.#.] ' ( 0 9 3 4 < . . JXJXJXJXJXJXJXJXJXJXJXJXJXJXJXJXJXJXJXJXJXJX",
"JXJXJXJXJXJXJXJXJXJXJXJXJXJXJXJXJXJXJXJXJXJXJXJXJXJXJXJXJX      X . 2 0 ] &.0XqXeXeXeXqX0X=.#.] ' ' ] ] ' ^ 0 0 JXJXJXJXJXJXJXJXJXJXJXJXJXJXJXJXJXJXJX9 9 0 0 ( ' @.=.0XtXdXhXgXgXhXsXaXeXqX0X=.#.] ' ^ 9 3 < . X X JXJXJXJXJXJXJXJXJXJXJXJXJXJXJXJXJXJXJXJXJXJX",
"JXJXJXJXJXJXJXJXJXJXJXJXJXJXJXJXJXJXJXJXJXJXJXJXJXJXJXJXJXJXJXX < 3 0 ' @.#.#.@.@.@.#.#.=.=.=.@.' ^ 0 3 3 9 9 9 JXJXJXJXJXJXJXJXJXJXJXJXJXJXJXJXJXJXJX2 2 3 9 ^ ( ] @.=.0XqXqXeXqXqX0X*.=.=.&.#.#.@.] ( 0 9 4 < . X JXJXJXJXJXJXJXJXJXJXJXJXJXJXJXJXJXJXJXJXJXJX",
"JXJXJXJXJXJXJXJXJXJXJXJXJXJXJXJXJXJXJXJXJXJXJXJXJXJXJXJXJXJXJXX < 3 0 ^ ( / ' ' ] &.qXaXdXdXdXkXyX&./ 3 4 4 2 2 JXJXJXJXJXJXJXJXJXJXJXJXJXJXJXJXJXJX4 4 2 9 H / ] #.*.qXeXtXeXqX0X=.&.@.@.] ] ] ] ' / ^ 0 3 4 > . X JXJXJXJXJXJXJXJXJXJXJXJXJXJXJXJXJXJXJXJXJXJX",
"JXJXJXJXJXJXJXJXJXJXJXJXJXJXJXJXJXJXJXJXJXJXJXJXJXJXJXJXJXJXJX. < 2 9 9 9 9 0 ' #.eXhXmXmXMXnXgXsXqX@.0 2 < X X JXJXJXJXJXJXJXJXJXJXJXJXJXJXJXJX< 4 4 2 9 ^ ' @.=.qXrXsXhXhXsXaXeX0X&.@.' / ( ( ( ^ ^ 0 9 4 < . X X JXJXJXJXJXJXJXJXJXJXJXJXJXJXJXJXJXJXJXJXJXJX",
"JXJXJXJXJXJXJXJXJXJXJXJXJXJXJXJXJXJXJXJXJXJXJXJXJXJXJXJXJXJXJX< < < < 4 4 9 / =.eXdXjXsXaXeX0X*.=.@.] ( 9 <     JXJXJXJXJXJXJXJXJXJXJXJXJXJXJXJX4 4 2 9 ^ ' @.*.eXsXgXmXNXNXNXMXgXdXeX*.@.' ( ^ 0 9 9 2 4 : X X     JXJXJXJXJXJXJXJXJXJXJXJXJXJXJXJXJXJXJXJXJXJX",
"JXJXJXJXJXJXJXJXJXJXJXJXJXJXJXJXJXJXJXJXJXJXJXJXJXJXJXJXJXJXJX< < . X . 4 0 ] qXaXuXqX*.&.@.' ( ^ ^ ^ ^ 9 <     JXJXJXJXJXJXJXJXJXJXJXJXJXJXJXJX4 2 3 0 ( ] -.0XtXfXnXNXBXBXBXNXMXhXaXeX*.#.' ^ 9 2 4 < . X X     JXJXJXJXJXJXJXJXJXJXJXJXJXJXJXJXJXJXJXJXJXJXJX",
"JXJXJXJXJXJXJXJXJXJXJXJXJXJXJXJXJXJXJXJXJXJXJXJXJXJXJXJXJXJXJXJXJXX X 4 9 ( #.0XeX*.] ( / / ( 0 9 3 9 9 2 < X X JXJXJXJXJXJXJXJXJXJXJXJXJXJXJXJX4 4 9 0 / ] #.=.0XeXdXhXnXMXMXgXfXdXtXeXqX*.@.( 9 2 < . . . X JXJXJXJXJXJXJXJXJXJXJXJXJXJXJXJXJXJXJXJXJXJXJXJXJX",
"JXJXJXJXJXJXJXJXJXJXJXJXJXJXJXJXJXJXJXJXJXJXJXJXJXJXJXJXJXJXJXJXJX. < 3 ^ ] #.=.&.] ^ ^ ' @.@.' 0 9 2 4 < . . JXJXJXJXJXJXJXJXJXJXJXJXJXJXJXJXJX4 2 9 ^ ' ] ] @.&.9XqXrXdXsXdXrXeX0X*.=.=.#.] ^ 9 2 . X X X X JXJXJXJXJXJXJXJXJXJXJXJXJXJXJXJXJXJXJXJXJXJXJXJXJX",
"JXJXJXJXJXJXJXJXJXJXJXJXJXJXJXJXJXJXJXJXJXJXJXJXJXJXJXJXJXJXJXJXJX< 4 9 ' @.@.' / ^ ^ ' =.eXeX*.] ^ 3 < X JXJXJXJXJXJXJXJXJXJXJXJXJXJXJXJXJXJXJX4 2 9 ^ ' [ ] ] @.=.0XeXrXrXeX0X=.#.@.] ' / ^ 0 9 2 . X       JXJXJXJXJXJXJXJXJXJXJXJXJXJXJXJXJXJXJXJXJXJXJXJXJX",
"JXJXJXJXJXJXJXJXJXJXJXJXJXJXJXJXJXJXJXJXJXJXJXJXJXJXJXJXJXJXJXJXJX< 4 9 ( ] ' ^ 0 ( ] =.tXhXhXtX=.' 9 .   JXJXJXJXJXJXJXJXJXJXJXJXJXJXJXJXJXJXJX< 4 3 0 ^ ' @.&.0XeXdXgXMXMXgXsXtX*.@.' ^ 0 9 9 3 4 < .       JXJXJXJXJXJXJXJXJXJXJXJXJXJXJXJXJXJXJXJXJXJXJXJXJX",
"JXJXJXJXJXJXJXJXJXJXJXJXJXJXJXJXJXJXJXJXJXJXJXJXJXJXJXJXJXJXJXJXJX< < 3 0 ^ 0 9 9 ( @.0XdXgXgXaX0X] 0 <   JXJXJXJXJXJXJXJXJXJXJXJXJXJXJXJXJXJXJX< < 4 3 0 ' #.0XeXsXzXNXAXAXBXmXfXeX=.] ^ 9 2 2 4 4 < . X     JXJXJXJXJXJXJXJXJXJXJXJXJXJXJXJXJXJXJXJXJXJXJXJXJX",
"JXJXJXJXJXJXJXJXJXJXJXJXJXJXJXJXJXJXJXJXJXJXJXJXJXJXJXJXJXJXJXJXJX. . 4 3 9 3 < < q ' #.qXtXeX0X#./ 9 .   JXJXJXJXJXJXJXJXJXJXJXJXJXJXJXJXJXJXJXX . 4 9 ^ ' $.=.qXeXdXhXnXnXgXsXaXyX*.@.( 9 3 4 4 4 4 < . JXJXJXJXJXJXJXJXJXJXJXJXJXJXJXJXJXJXJXJXJXJXJXJXJXJXJX",
"JXJXJXJXJXJXJXJXJXJXJXJXJXJXJXJXJXJXJXJXJXJXJXJXJXJXJXJXJXJXJXJXJXX X . 4 2 < X X 2 ^ ' @.@.@.] ( 0 2 .   JXJXJXJXJXJXJXJXJXJXJXJXJXJXJXJXJXJXJXJX. 4 q ^ ' ] @.#.&.=.0XqXqX0X*.=.=.&.@.( 0 3 4 < . . . JXJXJXJXJXJXJXJXJXJXJXJXJXJXJXJXJXJXJXJXJXJXJXJXJXJXJXJX",
"JXJXJXJXJXJXJXJXJXJXJXJXJXJXJXJXJXJXJXJXJXJXJXJXJXJXJXJXJXJXJX< < . X . < 4 < X . 2 9 0 0 0 9 3 4 < . X X JXJXJXJXJXJXJXJXJXJXJXJXJXJXJXJXJXJXJXJXJXJXV ^ ^ ^ ^ ^ ^ ^ ^ ^ ^ ^ ^ ^ / ' { ( 0 9 < X X     JXJXJXJXJXJXJXJXJXJXJXJXJXJXJXJXJXJXJXJXJXJXJXJXJXJXJXJX",
"JXJXJXJXJXJXJXJXJXJXJXJXJXJXJXJXJXJXJXJXJXJXJXJXJXJXJXJXJXJX( 0 9 3 2 4 < < 2 9 ^ ' @.@.] / 0 3 < < 2 9 9 9 JXJXJXJXJXJXJXJXJXJXJXJXJXJXJXJXJXJXJXJXJX0 0 0 9 9 9 9 9 0 ^ ^ 0 0 0 0 0 0 ^ 0 8 < X       JXJXJXJXJXJXJXJXJXJXJXJXJXJXJXJXJXJXJXJXJXJXJXJXJXJXJXJX",
"JXJXJXJXJXJXJXJXJXJXJXJXJXJXJXJXJXJXJXJXJXJXJXJXJXJXJXJX=.&.#.] ' ( 0 9 2 2 0 ' &.qXrXdXtX0X#.^ 9 9 ^ ' / ^ 0 0 JXJXJXJXJXJXJXJXJXJXJXJXJXJXJXJXJXJXJX9 9 3 2 3 9 ^ / @.#.#.@.] ( 9 3 3 9 9 3 < X       JXJXJXJXJXJXJXJXJXJXJXJXJXJXJXJXJXJXJXJXJXJXJXJXJXJXJXJX",
"JXJXJXJXJXJXJXJXJXJXJXJXJXJXJXJXJXJXJXJXJXJXJXJXJXJX}.@X-.=.=.*.=.@.' ^ 9 9 ^ @./.eXtXtXeX0X#.^ 9 0 ' @.@./ ^ ' @.JXJXJXJXJXJXJXJXJXJXJXJXJXJXJXJXJXJX2 2 4 4 3 ^ @.*.tXsXsXdXeX&./ 9 2 3 2 4 . X       JXJXJXJXJXJXJXJXJXJXJXJXJXJXJXJXJXJXJXJXJXJXJXJXJXJXJXJX",
"JXJXJXJXJXJXJXJXJXJXJXJXJXJXJXJXJXJXJXJXJXJXJXJXJX.X}.@XX.#.*.qX0X=.] / 0 9 ^ @.=.*.*.=.&.#.' 0 2 9 ' #.@.' ' ] #.=.%XJXJXJXJXJXJXJXJXJXJXJXJXJXJXJXJX< < < < 9 ' *.aXnXNXBXNXgXeX@.0 3 4 < . . X       JXJXJXJXJXJXJXJXJXJXJXJXJXJXJXJXJXJXJXJXJXJXJXJXJXJXJXJX",
"JXJXJXJXJXJXJXJXJXJXJXJXJXJXJXJXJXJXJXJXJXJXJX-XoX[.T.H.K / ] #.#.@.' ^ 9 9 0 ' @.@.] ' { / ! 3 < 3 ^ ' ' / / +.&.%X&X;X:XJXJXJXJXJXJXJXJXJXJXJXJXJXJXJXJX< < 9 ' =.rXgXmXmXMXfXeX#.^ 9 4 . X X X       JXJXJXJXJXJXJXJXJXJXJXJXJXJXJXJXJXJXJXJXJXJXJXJXJXJXJXJX",
"JXJXJXJXJXJXJXJXJXJXJXJXJXJXJXJXJXJXJXJXJXJXOX+X.XD.M.F N 9 0 ^ ( ( ^ 0 7 3 q _ o.o.o.o._ K H 5 & < 3 9 9 9 0 ' #.%X#X;XOXJXJXJXJXJXJXJXJXJXJXJXJXJXJXJXJXJX< 3 ^ #.0XeXaXdXaXeX*.] ^ 9 4 . X X X       JXJXJXJXJXJXJXJXJXJXJXJXJXJXJXJXJXJXJXJXJXJXJXJXJXJXJXJX",
"JXJXJXJXJXJXJXJXJXJXJXJXJXJXJXJXJXJXJXJXJXJX{.[.D.m.z.n - < 4 3 9 9 9 7 2 1 N R T.|.;X;X;X|.Y.G & X X . X X 4 ! ] X.Q.|.{.JXJXJXJXJXJXJXJXJXJXJXJXJXJXJXJXJX< 2 9 ^ ' ..@.#.#.@.] ( 0 9 4 < X       JXJXJXJXJXJXJXJXJXJXJXJXJXJXJXJXJXJXJXJXJXJXJXJXJXJXJXJXJXJX",
"JXJXJXJXJXJXJXJXJXJXJXJXJXJXJXJXJXJXJXJXJXJXB.B.m.b.l.l * X . . . < 4 < > 1 g F Z..XOX:XOX}.Y.G & X         X 9 ' o.Y.B.B.JXJXJXJXJXJXJXJXJXJXJXJXJXJXJXJX^ 3 4 2 9 ^ ' ] #.&.=.#.@.' ^ 0 3 < X   < JXJXJXJXJXJXJXJXJXJXJXJXJXJXJXJXJXJXJXJXJXJXJXJXJXJXJXJXJXJX",
"JXJXJXJXJXJXJXJXJXJXJXJXJXJXJXJXJXJXJXJXJXJXz.z.z.JXJXJXJXJXJX    X . . . @ = n x.F.{..X[.A.N.k & X X X X JXJXJXJXJXN.z.z.JXJXJXJXJXJXJXJXJXJXJXJXJXJX*.&.] 0 3 3 q ( @.*.eXaXdXdXeX0X#.' ^ 7 < < 9 H ( JXJXJXJXJXJXJXJXJXJXJXJXJXJXJXJXJXJXJXJXJXJXJXJXJXJXJXJX",
"JXJXJXJXJXJXJXJXJXJXJXJXJXJXJXJXJXJXJXJXJXJXJXJXJXJXJXJXJXJXJXJXJXJXJXJXJXJXJXJXc.m.B.A.C.m.JXJXJXJXJXJXJXJXJXJXJXJXJXJXJXJXJXJXJXJXJXJXJXJXJXJXJXJXJXqX0X&.' ^ ^ ] #.qXaXhXMXmXmXnXfXrX0X-.[ ^ ^ / ] &.eXhXgXhXJXJXJXJXJXJXJXJXJXJXJXJXJXJXJXJXJXJXJXJXJXJXJXJX",
"JXJXJXJXJXJXJXJXJXJXJXJXJXJXJXJXJXJXJXJXJXJXJXJXJXJXJXJXJXJXJXJXJXJXJXJXJXJXJXJXJXJXc.c.JXJXJXJXJXJXJXJXJXJXJXJXJXJXJXJXJXJXJXJXJXJXJXJXJXJXJXJXJXJXJXaXtX0X@.' @.=.eXdXnXNXBXAXAXBXmXgXdXeX=.@.] #.*.eXdXhXhXsXdXdXJXJXJXJXJXJXJXJXJXJXJXJXJXJXJXJXJXJXJXJXJXJX",
"JXJXJXJXJXJXJXJXJXJXJXJXJXJXJXJXJXJXJXJXJXJXJXJXJXJXJXJXJXJXJXJXJXJXJXJXJXJXJXJXJXJXJXJXJXJXJXJXJXJXJXJXJXJXJXJXJXJXJXJXJXJXJXJXJXJXJXJXJXJXJXJXJXmXgXdXeX=.@.' #.0XtXjXHXmXNXVXVXCXMXhXaXqX&.] ] #.*.qXrXdXaXtXeXtXdXsXJXJXJXJXJXJXJXJXJXJXJXJXJXJXJXJXJXJXJXJX",
"JXJXJXJXJXJXJXJXJXJXJXJXJXJXJXJXJXJXJXJXJXJXJXJXJXJXJXJXJXJXJXJXJXJXJXJXJXJXJXJXJXJXJXJXJXJXJXJXJXJXJXJXJXJXJXJXJXJXJXJXJXJXJXJXJXJXJXJXJXJXJXJXnXgXsXtX0X#.' ' @.*.eXpXzXcXcXcXcXcXcXpXyX*.@./ / ] &.*.0XqX0X*.=.wXeXaXpXJXJXJXJXJXJXJXJXJXJXJXJXJXJXJXJXJXJXJX",
"JXJXJXJXJXJXJXJXJXJXJXJXJXJXJXJXJXJXJXJXJXJXJXJXJXJXJXJXJXJXJXJXJXJXJXJXJXJXJXJXJXJXJXJXJXJXJXJXJXJXJXJXJXJXJXJXJXJXJXJXJXJXJXJXJXJXJXJXJXJXfXsXdXtXqX=.@.' ^ ^ ' #.%X*X6X3X5XvXvX5X6X*X%X@.{ 0 0 ( ] @.@.@.@.] ] $.=.%X#X#XXXJXJXJXJXJXJXJXJXJXJXJXJXJXJXJXJXJX",
"JXJXJXJXJXJXJXJXJXJXJXJXJXJXJXJXJXJXJXJXJXJXJXJXJXJXJXJXJXJXJXJXJXJXJXJXJXJXJXJXJXJXJXJXJXJXJXJXJXJXJXJXJXJXJXJXJXJXJXJXJXJXJXJXJXJXJXJXJXJXlXpXyX*.$.[ ( 0 9 9 ! { X.@X;X>X2X3X1X<X-X#Xo.' ! 7 2 9 0 ^ ^ ^ 0 0 0 / ] X.Q.T.[..XJXJXJXJXJXJXJXJXJXJXJXJXJXJXJXJX",
"JXJXJXJXJXJXJXJXJXJXJXJXJXJXJXJXJXJXJXJXJXJXJXJXJXJXJXJXJXJXJXJXJXJXJXJXJXJXJXJXJXJXJXJXJXJXJXJXJXJXJXJXJXJXJXJXJXJXJXJXJXJXJXJXJXJXJXJXJXJX-X$X@X| ( 0 9 2 < < < 7 H R T..X-X<X:XoX[.Y.K ^ 8 < . . . < < < < 4 2 9 ^ ) P N.B.{.OX-XJXJXJXJXJXJXJXJXJXJXJXJXJXJX",
"JXJXJXJXJXJXJXJXJXJXJXJXJXJXJXJXJXJXJXJXJXJXJXJXJXJXJXJXJXJXJXJXJXJXJXJXJXJXJXJXJXJXJXJXJXJXJXJXJXJXJXJXJXJXJXJXJXJXJXJXJXJXJXJXJXJXJXJXJXJX{.T.R V 7 4 > . X   X . & k N.Z.}.oX.XD.M.F H 9 4 .                 X < 2 6 l z c.A.[.}.JXJXJXJXJXJXJXJXJXJXJXJXJXJX",
"JXJXJXJXJXJXJXJXJXJXJXJXJXJXJXJXJXJXJXJXJXJXJXJXJXJXJXJXJXJXJXJXJXJXJXJXJXJXJXJXJXJXJXJXJXJXJXJXJXJXJXJXJXJXJXJXJXJXJXJXJXJXJXJXJXJXJXJXJXJXm.N.k 5 : X             + a b b.C.F.A.b.c.n N 3 > X                   X X # a z v x.M.m.JXJXJXJXJXJXJXJXJXJXJXJXJXJX",
"JXJXJXJXJXJXJXJXJXJXJXJXJXJXJXJXJXJXJXJXJXJXJXJXJXJXJXJXJXJXJXJXJXJXJXJXJXJXJXJXJXJXJXJXJXJXJXJXJXJXJXJXJXJXJXJXJXJXJXJXJXJXJXJXJXJXJXJXJXJXb b n JXJXJXJXJXJXJXJXJXJXJXJXJXc.c.l.l.JXJXJXJXJXJXJXJXJXJXJXJXJXJXJXJXJXJXJXJXJXv b b JXJXJXJXJXJXJXJXJXJXJXJXJXJX",
"JXJXJXJXJXJXJXJXJXJXJXJXJXJXJXJXJXJXJXJXJXJXJXJXJXJXJXJXJXJXJXJXJXJXJXJXJXJXJXJXJXJXJXJXJXJXJXJXJXJXJXJXJXJXJXJXJXJXJXJXJXJXJXJXJXJXJXJXJXx x x JXJXJXJXJXJXJXJXJXJXJXJXJXJXx x x JXJXJXJXJXJXJXJXJXJXJXJXJXJXJXJXJXJXJXJXJXJXx x x JXJXJXJXJXJXJXJXJXJXJXJXJXJX"
};
