/* XPM */
static const char *bos2a8[] = {
/* columns rows colors chars-per-pixel */
"128 128 247 2 ",
"   c #0C0C0C",
".  c #040404",
"X  c #141414",
"o  c #1C1C1C",
"O  c #171816",
"+  c #121211",
"@  c #271B0D",
"#  c #241C15",
"$  c #341811",
"%  c #1B2919",
"&  c #1B3913",
"*  c #162E0E",
"=  c #2A2319",
"-  c #382817",
";  c #322E14",
":  c #1D1E20",
">  c #1F2022",
",  c #242424",
"<  c #2B2B2B",
"1  c #292826",
"2  c #342D27",
"3  c #37332C",
"4  c #343434",
"5  c #3B3B3B",
"6  c #383737",
"7  c #2E2F31",
"8  c #590504",
"9  c #501210",
"0  c #670202",
"q  c #7A0101",
"w  c #6C1919",
"e  c #432D18",
"r  c #45321C",
"t  c #4A351B",
"y  c #523B1E",
"u  c #57381A",
"i  c #4E2F0E",
"p  c #742C00",
"a  c #742500",
"s  c #7B3402",
"d  c #7A3907",
"f  c #66320C",
"g  c #473726",
"h  c #543C22",
"j  c #5B3E23",
"k  c #553A24",
"l  c #443C37",
"z  c #4F3531",
"x  c #6F322D",
"c  c #1E4317",
"v  c #234919",
"b  c #27551D",
"n  c #374E18",
"m  c #2C5B22",
"M  c #274B21",
"N  c #2D6423",
"B  c #336826",
"V  c #35732A",
"C  c #3A7A2D",
"Z  c #38772C",
"A  c #3D7D34",
"S  c #564619",
"D  c #794617",
"F  c #714A16",
"G  c #5C4223",
"H  c #594528",
"J  c #48433B",
"K  c #554938",
"L  c #4E5629",
"P  c #634425",
"I  c #6D4A29",
"U  c #674727",
"Y  c #744D2B",
"T  c #784E2B",
"R  c #7B522D",
"E  c #785529",
"W  c #664B34",
"Q  c #795534",
"!  c #6A5634",
"~  c #47782E",
"^  c #75682F",
"/  c #3D3E40",
"(  c #3F4143",
")  c #444444",
"_  c #4B4B4B",
"`  c #484747",
"'  c #524C48",
"]  c #575249",
"[  c #535353",
"{  c #5B5B5B",
"}  c #585757",
"|  c #4E5052",
" . c #635A57",
".. c #74554C",
"X. c #6A645C",
"o. c #756653",
"O. c #5C5E60",
"+. c #5E6061",
"@. c #646464",
"#. c #6B6B6B",
"$. c #686767",
"%. c #786A67",
"&. c #747474",
"*. c #7B7B7B",
"=. c #777878",
"-. c #72716F",
";. c #870000",
":. c #970202",
">. c #911717",
",. c #A90202",
"<. c #B70202",
"1. c #AD1B1B",
"2. c #823B04",
"3. c #902E2E",
"4. c #B62B2B",
"5. c #C30101",
"6. c #CC0101",
"7. c #D30000",
"8. c #DB0101",
"9. c #D50D0D",
"0. c #D41515",
"q. c #E30000",
"w. c #EB0000",
"e. c #EB0C0C",
"r. c #FD0000",
"t. c #F30101",
"y. c #F51717",
"u. c #DF2B2B",
"i. c #894609",
"p. c #95540E",
"a. c #995B13",
"s. c #875216",
"d. c #9B6418",
"f. c #A36918",
"g. c #AC761D",
"h. c #B37B1B",
"j. c #83562A",
"k. c #835631",
"l. c #8C5B35",
"z. c #865833",
"x. c #925E37",
"c. c #8D5528",
"v. c #986A26",
"b. c #9C653C",
"n. c #966239",
"m. c #917230",
"M. c #A77926",
"N. c #B27E21",
"B. c #A2683F",
"V. c #A87737",
"C. c #8C5252",
"Z. c #AC4F4F",
"A. c #8D724E",
"S. c #A86C42",
"D. c #B67548",
"F. c #AC734A",
"G. c #867869",
"H. c #837A76",
"J. c #946C6A",
"K. c #AD6A6A",
"L. c #CB6E57",
"P. c #3E8632",
"I. c #3D822F",
"U. c #428C35",
"Y. c #448737",
"T. c #48973B",
"R. c #578932",
"E. c #669238",
"W. c #52A13F",
"Q. c #4EA542",
"!. c #51AC45",
"~. c #56B84B",
"^. c #4FB146",
"/. c #64A642",
"(. c #5CC451",
"). c #5ECA54",
"_. c #5BC04F",
"`. c #65D85C",
"'. c #60CC55",
"]. c #6BE662",
"[. c #71F46A",
"{. c #68E05F",
"}. c #988A35",
"|. c #B78827",
" X c #BB932D",
".X c #B49034",
"XX c #B49E36",
"oX c #C2972C",
"OX c #C49C31",
"+X c #CBA738",
"@X c #D3B23D",
"#X c #D0AB37",
"$X c #978456",
"%X c #B09450",
"&X c #B6B14B",
"*X c #8F8670",
"=X c #AC926F",
"-X c #A0AB5E",
";X c #CB8355",
":X c #D1895A",
">X c #D7BA43",
",X c #C9B348",
"<X c #C8B46C",
"1X c #B0CE55",
"2X c #9CC553",
"3X c #D9CA50",
"4X c #E7D453",
"5X c #E2CC4D",
"6X c #F1E65C",
"7X c #D9D074",
"8X c #EDEF68",
"9X c #D3E063",
"0X c #7D8383",
"qX c #838383",
"wX c #8B8B8B",
"eX c #888787",
"rX c #958C8B",
"tX c #939494",
"yX c #9C9C9C",
"uX c #979898",
"iX c #92918D",
"pX c #A7948F",
"aX c #AEA794",
"sX c #9CA1A2",
"dX c #A3A3A3",
"fX c #ABABAB",
"gX c #A7A8A7",
"hX c #B3B3B3",
"jX c #BBBBBC",
"kX c #B8B9B8",
"lX c #B4B2AB",
"zX c #9B9CA0",
"xX c #C7B8B2",
"cX c #D49E96",
"vX c #C4C1BA",
"bX c #BFC2C3",
"nX c #C3C4C4",
"mX c #CBCBCB",
"MX c #C9C9C6",
"NX c #D3D3D3",
"BX c #DCDCDC",
"VX c #C9D6D6",
"CX c #E3E3E3",
"ZX c #EAEAEA",
"AX c #BFBFC0",
"SX c None",
"DX c black",
/* pixels */
"SXSXSXSXSXSXSXSXSXSXSXSXSXSXSXSXSXSXSXSXSXSXSXSXSXSXSXSXSXSXSXSXSXSXSXSXSXSXSXSXSXSXSXSXSX5.5.5.5.5.5.6.6.7.8.8.q.q.w.w.t.r.r.u.cXmXVXmXmXnXnXAXAXAXjXkXkXkXkXhXhXhXhXfXfXgXgXfXfXpXK.1.<.7.q.w.w.w.t.SXSXSXSXSXSXSXSXSXSXSXSXSXSXSXSXSXSXSXSXSXSXSXSXSXSXSXSXSX",
"SXSXSXSXSXSXSXSXSXSXSXSXSXSXSXSXSXSXSXSXSXSXSXSXSXSXSXSXSXSXSXSXSXSXSXSXSXSXSXSXSXSXSXSXSX,.,.,.,.,.<.<.<.<.5.6.7.7.8.q.w.t.t.u.L.cXxXxXnXjXkXhXhXhXhXfXfXfXfXfXfXgXgXdXdXyXyXyXuXrXJ.3.1.<.6.8.q.w.w.SXSXSXSXSXSXSXSXSXSXSXSXSXSXSXSXSXSXSXSXSXSXSXSXSXSXSXSXSX",
"SXSXSXSXSXSXSXSXSXSXSXSXSXSXSXSXSXSXSXSXSXSXSXSXSXSXSXSXSXSXSXSXSXSXSXSXSXSXSXSX:.:.:.;.q q q q q ;.;.;.:.:.,.,.<.<.5.6.7.8.q.e.y.u.L.aXfXfXdXdXdXdXsXyXyXyXyXyXyXdXyXyXtXwXeXqX*.&.&.%.C.3.,.<.6.8.q.w.t.SXSXSXSXSXSXSXSXSXSXSXSXSXSXSXSXSXSXSXSXSXSXSXSXSXSXSX",
"SXSXSXSXSXSXSXSXSXSXSXSXSXSXSXSXSXSXSXSXSXSXSXSXSXSXSXSXSXSXSXSXSXSXSXSXSXSXSXC.3.3.x w w w 9 9 9 9 9 w x 3.3.3.Z.4.1.<.<.5.7.q.t.t.u.L.K.pXrXtXtXtXtXyXyXyXyXdXgXfXgXdXdXdXdXyXtXtXtXtXeXC.3.>.,.<.7.q.w.w.SXSXSXSXSXSXSXSXSXSXSXSXSXSXSXSXSXSXSXSXSXSXSXSXSXSX",
"SXSXSXSXSXSXSXSXSXSXSXSXSXSXSXSXSXSXSXSXSXSXSXSXSXSXSXSXSXeXwXtXyXgXfXfXgXdXyXwX=.%. . .' ) l 3 2 2 l '  .%.eXrXpXpXZ.>.:.,.5.7.8.q.e.e.u.Z.rXwXeXeXtXdXgXgXgXhXjXnXnXjXjXnXmXNXNXmXmXjXfXtXH.C.>.:.<.6.8.w.w.w.SXSXSXSXSXSXSXSXSXSXSXSXSXSXSXSXSXSXSXSXSXSXSXSX",
"SXSXSXSXSXSXSXSXSXSXSXSXSXSXSXSXSXSXSXSXSXSXSXSXSXSXSXSXdXdXdXfXhXkXjXjXkXhXfXdXtXeX*.#.+.[ ` 5 4 4 5 _ { &.eXyXfXfXpXJ.3.1.,.<.5.7.8.q.0.Z.pXsXyXyXdXfXhXhXhXhXkXjXjXkXjXmXNXBXBXBXBXNXnXhXyXH...x >.,.5.8.8.0.Z.SXSXSXSXSXSXSXSXSXSXSXSXSXSXSXSXSXSXSXSXSXSXSX",
"SXSXSXSXSXSXSXSXSXSXSXSXSXSXSXSXSXSXSXSXSXSXSXSX*.*.eXyXgXhXnXmXmXNXNXNXNXmXnXjXhXdXtXqX&.@.[ _ 5 5 5 ) _ { &.eXdXfXhXdXrXC.>.:.,.<.5.6.u.L.fXkXjXjXkXkXkXhXhXhXhXfXhXhXkXjXnXmXNXBXBXBXNXnXhXyX*.X.x >.,.5.7.4.C.H.0XSXSXSXSXSXSXSXSXSXSXSXSXSXSXSXSXSXSXSXSXSX",
"SXSXSXSXSXSXSXSXSXSXSXSXSXSXSXSXSXSXSXSXSXSX&.*.eXwXyXgXhXnXmXNXBXBXCXBXBXBXBXNXnXkXdXtXqX&.$.} _ ) 5 5 5 _ @.*.tXdXfXgXyXH.C.3.>.:.1.Z.K.pXxXnXnXnXmXmXmXjXhXhXhXkXjXjXnXnXnXmXNXNXBXBXNXmXkXfXyXqXC.>.:.<.5.4.K.wXeX*.*.qXeXSXSXSXSXSXSXSXSXSXSXSXSXSXSXSXSXSX",
"SXSXSXSXSXSXSXSXSXSXSXSXSXSXSXSXSXSXSXSXSX*.*.eXtXdXfXkXnXmXNXBXCXZXZXZXZXZXZXCXNXmXhXdXtXeX*.#.{ _ ) 4 4 ) } #.*.wXyXyXyXtXeXJ.3.>.3.H.yXhXnXmXmXmXNXNXNXjXhXfXhXkXjXjXjXkXkXnXmXmXNXmXmXnXkXhXhXyXJ.3.>.,.5.4.K.rXwX*.*.qXeXeXSXSXSXSXSXSXSXSXSXSXSXSXSXSXSXSX",
"SXSXSXSXSXSXSXSXSXSXSXSXSXSXSXSXSXSXSX&.*.qXeXtXyXgXhXjXmXNXBXCXZXZXZXZXZXZXZXZXBXNXnXhXdXtXeX&.@.} _ 5 5 5 ) } #.*.eXtXuXuXtXH.o...G.eXzXfXjXMXmXmXmXnXkXhXgXdXdXyXyXtXtXyXyXgXhXjXkXhXhXkXkXkXfXdXrXJ.Z.4.<.4.J.eXwXeXqX0XqXqXeXeXSXSXSXSXSXSXSXSXSXSXSXSXSXSX",
"SXSXSXSXSXSXSXSXSXSXSXSXSXSXSXSXSXSXSX&.*.eXtXyXdXfXkXnXmXNXBXCXZXZXZXZXZXZXZXZXCXNXmXjXfXsXwX*.#.} [ ) ) 5 5 ) } #.*.eXtXtXiXeX&.&.qXtXdXfXhXjXnXmXnXhXhXhXhXgXyXtXeXqXqXqXeXyXgXhXfXgXgXhXjXhXdXyXsXdXrXZ.1.3.C.*.qXeXeX*.*.*.qXeXwXSXSXSXSXSXSXSXSXSXSXSXSXSX",
"SXSXSXSXSXSXSXSXSXSXSXSXSXSXSXSXSXSXSX&.*.eXtXyXgXhXkXnXmXNXNXBXCXZXZXZXZXZXZXCXBXNXmXkXfXdXtXqX-.{ [ _ 5 4 < 5 _ +.&.*.eXeXeX*.&.&.wXfXkXhXfXfXfXhXhXjXnXmXmXmXjXhXdXyXtXwXeXtXdXhXkXjXjXnXjXfXyXwXwXtXqX..x x  .#.*.wXwX*.&.&.*.eXwXyXsXSXSXSXSXSXSXSXSXSXSXSX",
"SXSXSXSXSXSXSXSXSXSXSXSXSXSXSXSXSXSX#.&.*.eXtXyXgXhXkXnXnXmXNXNXNXBXBXCXCXBXBXNXNXmXjXhXgXdXtXeX&.@.} _ 5 4 < 4 ) } @.&.*.*.*.&.#.#.tXkXmXnXhXdXyXyXdXhXnXNXNXNXNXmXnXkXhXdXyXyXdXhXjXmXmXmXjXgXtXeXeXwXeX=.$.+.{ @.&.eXeXqX*.*.*.eXwXyXdXdXSXSXSXSXSXSXSXSXSXSX",
"SXSXSXSXSXSXSXSXSXSXSXSXSXSXSXSX_ } @.&.*.eXtXyXdXfXhXkXjXnXmXmXmXNXNXNXNXNXmXnXnXkXhXgXdXyXtXeX*.@.} _ 5 4 < 4 ) _ } @.#.&.&.#.#.&.tXkXmXmXkXgXtXeXtXdXfXkXnXmXmXmXNXBXNXnXhXfXdXgXkXmXNXmXAXfXuXwXtXyXdXfXfXtX#.} @.*.eXwXwXwXeXeXtXyXdXgXhXhXSXSXSXSXSXSXSXSX",
"SXSXSXSXSXSXSXSXSXSXSXSXSXSXSXSX_ [ } #.&.qXwXtXyXdXgXgXfXhXkXjXjXnXnXjXjXjXkXhXhXgXdXyXyXyXtXeX*.@.} _ 5 4 4 5 5 _ [ } @.@.#.@.@.@.eXgXkXnXjXgXtXeXeXtXdXgXhXhXhXhXnXBXBXBXmXjXgXdXfXjXnXnXjXhXdXyXyXdXgXkXhXyX@._ } #.*.eXtXtXtXtXtXtXyXdXfXhXSXSXSXSXSXSXSXSX",
"SXSXSXSXSXSXSXSXSXSXSXSXSXSXSXSX_ _ [ } @.&.qXeXtXtXyXyXyXyXyXdXgXfXgXdXdXdXdXdXyXyXyXyXyXtXtXeX&.@.[ ) 5 5 5 5 ) ) _ } } @.@.} _ [ #.eXyXgXhXgXtXwXwXtXyXyXyXwXqXqXyXjXNXBXBXmXfXyXyXgXhXhXhXhXhXfXgXdXyXyXtX&._ 5 ) { #.*.eXtXyXdXtXwXwXyXdXgXSXSXSXSXSXSXSXSX",
"SXSXSXSXSXSXSXSXSXSXSXSXSXSXSXSX) ) ) _ } @.&.*.qXeXeXeXeXeXqXeXeXwXwXeXwXwXwXwXwXwXwXwXwXwXeX*.#.} _ 5 5 5 5 5 5 5 ) _ } } { } _ ) } #.*.eXtXtXtXtXtXtXeX&.@.[ ) _ #.tXhXmXBXNXjXgXyXtXtXdXgXhXhXhXhXgXyXeX&.[ 4 , 4 [ @.&.qXeXwXtXwXeXwXtXyXyXtXSXSXSXSXSXSXSX",
"SXSXSXSXSXSXSXSXSXSXSXSXSXSXSXSX5 5 5 ) _ } @.#.&.*.*.*.&.#.#.@.@.#.#.#.&.&.*.*.*.*.*.*.*.*.&.@.} _ ) 5 5 5 ) 5 4 < 4 ) _ } } [ _ _ [ } @.@.#.*.eXtXtXwX*._ < X X o 5 { eXhXNXBXmXjXdXeXqXwXyXgXhXhXkXhXdX*.[ 4 o X < _ { #.&.&.&.&.qXwXtXtXwXeXeXqXqXSXSXSXSXSX",
"SXSXSXSXSXSXSXSXSXSXSXSXSXSXSXSX5 5 5 5 5 _ } { @.@.@.@.{ } [ _ _ _ _ [ } } } } { @.@.@.@.@.{ } _ ) 5 4 4 5 ) 5 < < 4 5 ) _ _ } } @.#.&.&.#.@.#.*.eXwXeX&.) o   .   o < } eXkXmXNXmXfXwXeXtXdXgXhXhXnXmXfX&.5 o     , _ { #.#.#.{ @.*.tXyXwXqX*.*.*.*.SXSXSXSXSX",
"SXSXSXSXSXSXSXSXSXSXSXSXSXSXSXSX) ) 5 4 4 5 _ _ _ _ _ _ _ _ _ ) ) ) ) ) ) ) ) ) ) _ _ _ _ _ _ ) 5 4 4 4 4 5 ) 5 4 < < 4 5 ) ) } @.*.tXdXyXwX*.&.&.*.qXeX&._ , X     .   < @.yXkXmXNXkXyXwXtXdXgXfXhXmXNXhX&.<   .   , _ { #.#.{ [ [ &.yXdXwX&.#.#.&.&.SXSXSXSXSX",
"SXSXSXSXSXSXSXSXSXSXSXSXSXSXSXSX[ _ 5 4 < 4 5 5 5 5 ) _ [ } @.@.@.@.@.{ } _ ) 5 5 5 5 5 5 ) 5 5 4 < < < 4 ) _ ) 4 < < 4 4 4 5 [ &.wXdXhXkXfXyXeX&.#.*.wXeX@.) < o   . . o ) #.tXkXmXhXtXeXwXtXyXdXgXkXnXdX@.,     X 4 [ @.#.@.} ) _ &.yXdXwX&.#.#.#.@.SXSXSXSXSX",
"SXSXSXSXSXSXSXSXSXSXSXSXSXSXSXSX{ } ) 4 < 7 4 4 4 4 ) } #.*.eXwXtXtXwXeX*.#.{ [ _ ) 5 5 4 4 4 4 < , < < 5 _ [ _ 4 < < < 4 4 5 [ &.tXgXkXnXnXjXyX&.@.*.yXdXeX#._ 4 o     X < _ &.dXjXfXwXeXeXtXtXyXdXhXhXyX#.5 , o , 5 } @.@.@.[ ( ) #.yXdXtX*.#.@.@.@.SXSXSXSXSX",
"SXSXSXSXSXSXSXSXSXSXSXSXSXSXSXSX#.@.} ) 4 4 4 4 5 ) @.*.tXdXhXkXjXnXjXhXfXdXtXqX#.} ) 4 < < < , , , < 4 ) [ } | 5 < < < < < 4 _ #.eXdXfXjXnXnXdX*.@.*.dXhXfXyX*.} 5 , X X , 4 @.tXfXyXeXqXtXdXfXkXnXmXNXnXdXqX@._ ) ) [ } { } _ 5 5 @.wXyXtXeX*.&.#.#.SXSXSXSXSX",
"SXSXSXSXSXSXSXSXSXSXSXSXSXSXSXSX#.#.{ [ _ ) 5 ) _ @.*.yXhXjXnXmXNXNXNXNXmXmXnXfXtX&.{ ) 4 < , , , , 4 ) [ { { [ 5 < , < < < < ) @.*.wXyXfXnXnXgX*.@.*.yXhXnXnXgXeX@._ 4 < < 4 } eXdXyXeXeXtXgXkXmXNXCXZXCXNXnXdXqX@.} [ _ [ [ ) 4 4 _ &.eXeXeX*.#.@.@.SXSXSXSXSX",
"SXSXSXSXSXSXSXSXSXSXSXSXSXSXSXSX{ @.@.#.#.@.@.#.&.*.tXdXhXkXjXnXnXnXmXmXmXNXNXmXjXgXeX#.[ 5 4 < < 4 _ { #.@.{ _ 4 , , , < , < 5 [ #.*.wXyXhXjXdX*.@.#.eXyXjXNXmXhXtX*.@._ ) ` { qXyXyXtXtXtXyXfXmXBXZXZXZXZXNXnXhXtX&.[ ) ) ` 5 < , 5 } @.#.#.@.[ _ ) SXSXSXSXSX",
"SXSXSXSXSXSXSXSXSXSXSXSXSXSXSXSX) _ } #.&.*.*.qXqXeXwXtXtXtXtXtXtXyXyXdXfXhXjXnXnXjXgXwX*.@.} _ _ [ @.&.&.#.} ) < o o , , , , < ) } @.*.wXdXfXyXqX#.@.#.qXgXnXNXmXjXdXeX&.#.@.&.wXyXyXyXtX*.&.eXfXmXBXZXZXZXCXmXhXyX&._ 4 5 5 4 , o < 5 ) _ _ _ ) 5 SXSXSXSXSXSX",
"SXSXSXSXSXSXSXSXSXSXSXSXSXSXSXSX, < 5 } @.&.H.qX*.&.#.@.} } [ [ [ } +.#.&.eXtXyXgXfXfXgXdXuXwXeX*.*.*.*.&.{ ) 4 , X X o o o o , 4 ) } @.&.eXtXtXeX&.@.} @.qXdXkXnXmXjXgXyXwXwXtXdXfXgXyXeX{ ) _ &.yXjXBXZXZXBXjXtX#._ 4 < < 4 < , o , < 4 4 4 6 SXSXSXSXSXSXSXSX",
"SXSXSXSXSXSXSXSXSXSXSXSXSXSXSXSXSXo < 5 _ } @.@.} [ ' J J l g g g l J ' ] } @.#.*.eXtXyXyXyXyXtXwXeX*.&.@._ 4 , o o o o o o o o , < 5 _ } #.&.*.*.*.@.[ _ @.&.eXyXgXdXdXyXyXdXgXhXhXhXdXeX[ < < _ &.yXmXCXZXNXfX&._ 4 < , < < 1 > o o > , 1 2 2 SXSXSXSXSXSXSXSX",
"SXSXSXSXSXSXSXSXSXSXSXSXSXSXSXSXSXSX, , , < 7 < < < g H U P H G P P G H g 3 4 6 ) _ } #.&.*.*.*.*.&.@.} ) < o o , , , o o X X X X X , 4 ) _ [ @.#.&.@.} _ _ [ } { @.#.*.eXtXdXfXhXhXkXhXtX@.4 < 4 [ eXkXNXBXmXyX{ 4 , , , , , , o o o o = - - r SXSXSXSXSXSXSXSX",
"SXSXSXSXSXSXSXSXSXSXSXSXSXSXSXSXSXSXk g g 2 2 - - - k I T I U I R R Y P h g g 3 3 3 6 ) ) _ [ } [ _ ) 4 < , o , < < < , , o o o X X o , < < 4 ) [ { @.@.@.{ { } } [ } { @.&.qXtXyXgXhXhXdX*.[ 5 4 ) &.gXmXmXnXtX} < o # # = = = # o # = = - r h Y SXSXSXSXSXSXSX",
"SXSXSXSXSXSXSXSXSXSXSXSXSXSXSXSXT T R R T Y U P P U T z.z.R I R x.b.l.T I I I U h r - 1 , < < < < < , o o , < 4 4 5 4 4 < < < < , , , , , , < 4 5 ) } #.&.*.*.&.#.@.} [ _ _ } @.*.tXdXhXgXtX*.@._ ) #.yXkXnXjXtX{ 4 = # @ @ - = @ @ = - e e r j R n.b.SXSXSXSXSX",
"SXSXSXSXSXSXSXSXSXSXSXSXSXSXSXSXT T R z.l.z.z.k.R R x.S.S.l.R l.S.D.b.k.T R k.Y j r - - - - = 1 , , , o , , < < 4 4 5 5 ) ) _ [ [ [ [ [ _ _ _ [ } } } } { #.*.*.qXqXqX*.&.#.@.@.@.&.qXtXdXyXyXeX&.&.eXfXnXmXnXgXqXX.J = @ $ - - $ = e y j t r j T l.x.SXSXSXSXSX",
"SXSXSXSXSXSXSXSXSXSXSXSXSXSXSXSXR R k.z.l.x.n.x.l.l.S.D.D.S.l.b.D.D.S.z.R z.l.R P y y j h t - - 1 1 < < < < , < < 4 4 5 _ } @.&.&.*.qXeXeXqXqXqXqX*.@.[ _ } @.&.eXyXdXfXgXyXwX*.@.} @.*.eXyXdXdXyXdXfXnXmXmXmXAXfXiXX.g $ - t r - - y U I j t h U T R SXSXSXSXSX",
"SXSXSXSXSXSXSXSXSXSXSXSXSXSXSXSXB.b.x.l.l.n.S.B.n.b.D.;X;XD.b.S.;X;XF.z.R l.b.l.I G G G h r - = = 1 < 4 4 4 < < , < < 4 5 ) [ { #.&.qXeXtXyXyXdXdXyXtXqX&.} _ [ @.&.wXyXfXhXhXdXwX*.#.@.@.*.wXyXdXhXkXnXmXNXNXmXkXyX%.g $ e y t e e j T T P h h G P P SXSXSXSXSX",
"SXSXSXSXSXSXSXSXSXSXSXSXSXSXSXSXD.D.B.l.z.b.F.S.B.B.D.:X:XD.B.F.;X:XF.k.T n.S.b.R G G G y - @ # , < 4 5 ) ) ) ) 5 4 4 < < 4 5 ) [ { #.&.qXwXyXyXdXdXdXdXwX@.) 4 5 _ @.*.tXfXjXjXhXdXqX@.} { &.eXyXfXkXnXmXNXNXmXkXyX$.g - i G j t r j T R I j h h y G SXSXSXSXSX",
"SXSXSXSXSXSXSXSXSXSXSXSXSXSXR n.S.D.b.z.z.b.D.D.S.B.D.;X;XD.B.D.;X:XF.R R B.D.S.R G G G y - @ # < 5 _ } @.&.*.qX*.#.{ _ 5 4 4 4 5 ) ) _ [ } @.#.#.&.*.qX*.@.[ ) 4 4 ) } &.eXdXhXjXkXdXeX&.@.} @.eXyXhXnXmXNXmXnXhXtXX.g - u U P t r j T R T I G y y U z.b.SXSXSX",
"SXSXSXSXSXSXSXSXSXSXSXSXSXY R l.B.S.n.k.k.b.D.D.B.b.S.D.D.S.b.S.D.;XS.R R B.D.S.T G y G y - @ = 3 ) [ @.&.wXyXdXgXdXwX*.@.} _ ) 5 4 4 < < 4 5 ) } @.#.&.*.*.&.@._ 5 ) _ } #.*.tXgXkXhXgXtX#.} } #.eXyXkXnXMXnXhXdXeX .g - u I U y r h I R R R U y t U z.n.SXSXSX",
"SXSXSXSXSXSXSXSXSXSXSXSXSXY R l.b.S.n.R R x.S.B.n.x.b.S.S.b.x.b.D.D.b.R R n.F.b.I y y y y - @ # 1 6 ) [ @.*.tXdXhXkXkXhXfXyXeX&.{ _ 5 < < < 5 _ @.*.tXdXgXgXdXtXeX*.#.@.@.} { #.eXyXdXgXyXeX#.{ } @.qXdXhXhXhXdXwX&.' 2 - u I U h r y P I R z.Y k t j T k.SXSXSX",
"SXSXSXSXSXSXSXSXSXSXSXSXSXT R z.n.b.l.Y Y k.n.x.l.k.l.n.n.l.z.l.b.S.l.T T l.b.l.I y y y r - @ o , < 5 ) } #.*.tXdXhXjXmXmXnXhXyX*.{ ) 4 < < 4 _ #.qXtXgXhXhXfXdXtXeX*.@.} _ ) _ @.&.eXtXyXwX*.#._ _ @.eXyXyXtXeX&.{ l = @ t U U k t t h U R l.R j t h U I SXSXSX",
"SXSXSXSXSXSXSXSXSXSXSXSXSXT R k.l.x.R I U Y R R T Y T R R R R k.l.n.k.Y T l.n.l.Y G h h - = O O , < 4 5 _ } #.*.eXtXyXfXhXkXhXdXeX#._ 4 , , < 5 [ @.&.eXwXtXtXeX*.#.} _ 5 4 < 4 ) } @.&.qXeXeX#._ 5 [ &.qX0X&.#.} ` 3 = @ r G G h h g g j R x.k.j r t h k SXSXSX",
"SXSXSXSXSXSXSXSXSXSXSXSXSXT R R l.z.T P G U I I U U U I I Y Y R R k.R T T k.l.z.Y P h g - # O O , < < 4 5 _ } @.#.&.qXeXtXyXyXwX&.{ ) < , , < 4 _ } #.*.qXeXwXeX*.#.} _ 5 4 < < 4 5 ) [ { #.&.@.) 5 ) { @.@.} | ` l 2 = = e y j j h g r h T l.k.j e - e t j SXSX",
"SXSXSXSXSXSXSXSXSXSXSXSXSXT T R z.k.Y G G G P P P P P P U U I I I Y T R R R R T Y U j t - # X O , < < < 4 5 ) [ } @.@.#.#.&.&.@.[ ) < , o , < 5 [ @.&.qXwXtXyXtXwXqX*.#.} _ 5 4 < < < 4 5 _ [ _ 5 5 ) _ _ ) l l g g - - - - e y j P y - r U k.T j r - - r j T k.",
"SXSXSXSXSXSXSXSXSXSXSXSX3 K W W ! ..o.o.o.! G u u G G G G P P G G P I R k.R I I I U P t = O X X o = , , < < 4 4 5 ) _ _ _ [ _ ) 4 < , , < 4 ) } #.*.wXyXgXhXhXhXhXgXdXtXqX&.{ [ _ ) 5 4 4 4 5 4 4 4 6 5 5 4 1 2 - r r e - - - r j U y - - u U Q o.X. .' K K W W ",
"SXSXSXSXSXr.r.w.7.,.w e < 6 J ` ]  .=.wX*Xo.W G P P P G G G G y y y U R k.Y U P U U I SXSX      X X o o o o o , , < 4 5 5 4 < , o o o < 4 ) } #.*.tXdXhXnXmXmXmXmXnXjXhXdXwX*.&.#.@.[ ) 4 4 < < < < < 7 < = @ @ - - r g r - @ - j I j r e t H o.*XyXrX&. .' J l ",
"SXSXSXSXr.r.t.8.<.:.w - 1 < 4 6 5 _ { &.=.%.%.G.G.G.o.U u u y t t t j Y T P y y j P U K SXSX+       X X X X X o o , , < < < , , o X o , 4 ) [ { #.&.eXtXyXdXdXdXdXdXyXtXeX&.@.{ } _ ) 4 4 < < < , , , = = # @ @ @ $ e r e $ @ $ t U o.G.H.G.%.=.qXeX*.$.} _ ( / ",
"SXSXSXr.r.t.q.5.:.q 9 2 < < < < 4 4 5 ) } #.*.tXgXdX*X! h H U U H H W Q Q U h h h H K J ) SXSXSX        X X o , < < 4 4 5 5 4 < , o , , < 4 ) ) _ _ } @.#.#.&.&.&.&.#.#.{ _ ) 5 4 4 < < < 4 5 4 < 1 = = = @ # @ = - r h h r - e y ! *XlXnXhXuXqX#.{ } } } ] ' ' ",
"r.r.r.r.t.8.5.,.;.0 w l | [ } _ 5 4 < < 4 / [ @.&.*.&.X.%.G.*XpXpXpXpXpXpXG.X. .] K l 6 4 SXSXSXSXSX  X o < 5 [ @.#.&.&.&.#.@.[ ) 4 < , , < < < < 4 5 _ [ } { @.{ } } [ _ ) ) 5 4 < , , < ) [ [ _ ( 6 3 < < 7 6 ` } X.%.H.H.H.H.H.*XiXdXdXwX&.@.} } $.*.*X$XA.m.",
"r.r.r.r.w.6.,.:.q w x %.*.qXqX&.} 5 4 < , , < 4 5 ` } #.*.tXgXkXnXnXnXkXgXtX*.$.} ` 6 < , SXSXSXSXSXSXo , 5 } &.wXdXdXdXdXtXeX#.} ) 4 < , , < < < 4 ) [ @.#.&.&.#.#.@.} [ _ _ ) 5 4 < < 4 _ @.$.X.} ] K K K ] X.*XrXpXaXlXlXlXlXlXaXiX*.#.} _ _ } $.0XyXaX%XXXoX",
"t.t.r.r.w.5.:.>.x ..%.rXdXfXfXtX#.[ [ } _ 5 < , < 4 5 ) _ { #.*.qXqX*.&.@.} _ / 5 4 1 o o SXSXSXSXSXSX, < 5 _ @.*.tXyXyXyXtXeX&.} ) 5 4 4 5 ) _ } @.*.tXdXhXhXhXhXdXtXeX&.#.} _ ) 4 7 < 5 } #.%.Q j.v.m.}.%X&X<X7X7X7X7X7X7X7X<X<X%X$XX.| ( ) } *.iXuXtXrX%X.X|.",
"w.w.t.r.w.<.:.>...&.tXfXjXmXmXfXqX#.*.eX*.} 4 < < < < < 4 5 _ } { { } _ 5 4 < , , , < < < SXSXSXSXSXSXo , < 5 _ @.&.*.*.*.*.&.@._ 5 5 5 5 _ { #.*.wXdXnXNXBXCXCXBXmXkXdXwX*.#.} _ ) ( ) [ #.*X*XF.V..X%X,X,X3X9X9X9X9X3X3X>X@X#X+X Xm.! K J ) @.tXfXdXrX$XV.M.g.",
"7.8.q.w.8.<.:.3.C.qXsXjXNXBXBXnXyXwXdXkXfX*._ 4 4 4 4 5 ) } @.&.qXeX*.#.{ ` 4 < , < ) } @.SXSXSXSXSXSXX X o , 4 5 ) _ _ [ _ _ ) 4 < < 4 ) } #.*.eXyXfXnXNXBXBXBXNXmXkXdXtXqX&.@.} } +.&.eXyXhXxXxXxXxXaXaX=X=X*X*X*X*X$X$X}.|.oXoXoX|.M.l...{ &.zXlXaX%X.XM.f.f.",
"5.5.6.8.7.5.<.3.C.qXsXjXNXNXNXnXdXyXkXNXnXwX} 5 5 ) _ } @.*.wXyXgXfXdXyXqX@._ 4 < 4 [ *.wXSXSXSXSXSXX   X X o , , < < 4 4 4 < < , , , < 5 [ @.&.qXwXyXgXhXhXkXhXhXgXyXeX*.&.#.@.} { #.eXyXfXnXmXNXNXMXhXdXiXqX*.=.&.#.$.X.A.V.V.|.|.h.g.M.A.&.eXyXaX=X%X|.f.a.p.",
",.<.<.6.7.7.7.1.C.=.tXfXjXnXjXhXdXdXnXBXNXtX{ ) ) _ { &.eXdXkXnXmXNXmXkXdXqX@.) < 4 } eXdXSXSXSXX o o o o o , , , < < , , , , o o X o o < 4 ) [ { #.&.*.*.qXqX*.&.#.@.{ } [ | _ [ } #.*.eXyXgXkXnXnXhXyXtXiXtXuXdXsXwX=.#.&.G.A.c.p.p.a.v.$XiXuXtXeX$X.Xg.d.i.i.",
":.,.,.<.6.8.8.1.C.@.0XuXdXgXdXyXtXtXkXBXmXtX{ _ _ } #.eXyXkXNXBXZXZXBXmXhXtX#._ 4 4 @.yXfXtXSX  X o o , , , , , , , , , , , , o X X X X o , < 5 ) _ [ } } } } } _ _ ) 5 5 5 5 _ } #.&.eXtXgXkXnXAXkXdXtXeXtXdXfXjXjXdXeX0XwXtX*XA.k.s.p.v.=XfXdXeX%.A.v.d.p.i.2.",
";.:.:.,.<.7.7.1.x } #.qXtXtXiXeX*.eXgXNXnXwX} ) _ } &.eXdXjXNXZXZXZXCXNXkXtX&._ 4 4 #.gXgX#.,   X o , < < < , , o o , , < < 4 < o X X o o , , < 4 4 5 ) _ _ _ ) ) 5 5 4 4 4 5 _ @.*.wXyXfXnXNXNXnXhXyXeXeXyXfXjXNXNXkXyXyXfXkXgXrXG.z.s.v.=XkXgX*.} W s.i.SXSXSX",
";.;.;.:.,.<.5.<.1.3.C.%.*.*.*.&.#.&.yXnXkXqX_ ) _ } #.*.yXhXmXBXBXBXNXnXgXwX#._ 4 5 &.fXdX@., X X , < < 4 < < < , , , , , < < < < < < < 4 5 5 ) ) _ } +.#.#.&.&.&.#.#.@.} ) 5 ) } #.*.qXtXdXhXhXdXtXeX*.*.tXhXnXBXBXnXfXgXjXmXbXdXqX..D c.=XlXsX#.' j d 2.SXSXSX",
"SXSXSXq ;.:.<.5.8.9.4.C.$.@.@.+.{ @.wXhXgX*._ 5 ) _ { &.eXyXhXjXnXnXjXgXtX*.@._ 4 5 &.dXdX@., X o < < 4 5 5 5 5 5 4 < , o , , < 4 5 ) ) _ } @.@.@.#.*.eXtXdXhXhXhXhXhXfXtX#.) 5 ) [ } @.#.&.qXqX*.&.#.@.&.wXfXnXBXBXmXhXfXnXNXmXfXrXC.D T J.yXwXO.l t f p SXSXSX",
"SXSXSX0 0 q :.<.7.q.0.4.3..._ _ | } 0XdXsX&._ 5 ) _ } #.*.eXtXdXgXgXdXtXqX#.} ) 4 5 #.yXtX{ , o , 4 5 ) _ _ _ _ [ _ ) 4 < , , < 4 5 _ [ } } } { @.&.*.eXyXfXjXnXmXNXNXNXkX*._ ) [ @.&.*.eXyXdXdXyXeX&.@.#.eXdXjXNXBXnXgXgXkXmXjXdXwXG.o.o.G.qX&._ 7 - e i SXSXSX",
"SXSXSX8 0 0 q :.<.7.w.t.9.>.z l ) } *.yXyX&.[ ) ) ) [ @.#.&.*.qXeXeXqX*.#.@.[ ) 4 5 @.wXeX} < o < 5 ) [ } } } @.#.#.@.[ ) 5 4 4 4 5 _ } } [ _ _ } @.#.&.eXyXgXkXnXmXBXBXnXeX[ _ { &.eXyXgXjXmXmXjXdXeX@.@.*.tXfXnXmXhXyXtXdXhXgXtXeXqXH.=.&.#.} 5 1 # o o SXSXSX",
"SXSXSXSX8 0 0 q :.<.7.w.w.9.1.3.x [ =.yXyX*.} ) 5 5 ) _ } } { @.#.#.#.#.@.} _ ) 5 5 @.eX*.[ , o , 4 5 _ } { @.&.*.qX*.&.#.@.} [ _ ) ) _ _ [ } [ _ _ [ { #.&.eXtXyXgXkXnXfX&.) 5 _ } @.&.eXyXgXfXgXyX*.{ } #.*.tXdXgXtXqX*.wXyXtXqX&.*.*.&.@.[ 5 < , o o SXSXSXSX",
"SXSXSXSXSXSX8 0 q ;.,.6.q.t.t.0.3. .*.yXyXeX@.[ 5 4 4 5 ) ) _ _ } } } } } _ ) ) 5 ) @.*.&._ , o , < 5 _ } { #.*.eXtXtXtXwXeX*.&.@.} _ ) ) [ } } _ ) ) _ _ } { @.&.*.wXyXeX{ 5 4 5 ) _ { #.*.wXtXtXwX&.} _ } @.&.eXeX*.#.@.&.qX*.#.@.#.&.#.} 5 < , o O SXSXSXSXSX",
"SXSXSXSXSXSXSX0 0 q ;.,.6.w.t.0.C.&.eXuXyXtXqX@.) 4 < 4 4 5 5 ) _ _ _ _ ) 5 5 5 ) _ @.#.@.5 o X o < 5 _ } @.#.*.eXtXyXdXdXdXyXtXeX*.#.} _ _ _ } @.@.} ) 5 5 ) _ _ } @.#.@._ 4 4 ) } #.eXtXgXhXfXyXeX#._ ) ) [ @.&.&.#.} } { @.{ [ _ [ { } ) 4 , o X X SXSXSXSXSX",
"SXSXSXSXSXSXSXSX8 8 0 ;.,.6.8.4.K.wXiXiXtXtXtX*.[ 4 < < < 4 5 5 ) ) ) 5 5 4 < 5 [ { @.{ _ 4 o X o , 4 ) [ { #.&.*.eXyXgXhXhXfXgXgXyXeX&.{ _ ) [ #.&.@.[ ) 5 4 4 4 5 ) _ _ 5 4 5 _ @.*.tXdXhXkXfXtX*.{ ) 5 5 _ } @.@.} _ ) _ _ ) 5 4 5 _ ) 5 < o o X SXSXSXSXSXSX",
"SXSXSXSXSXSXSXSX# $ 9 0 ;.,.<.4.K.yXtXqXqXtXyXqX} 5 < , , < 4 4 4 4 4 < < , < 5 { #.@.[ 5 , X X O , < 5 ) } @.#.&.qXtXdXhXhXkXjXnXjXfXtX*.{ _ _ } @.#.&.#._ 4 < < < 4 4 4 4 4 5 ) } @.&.qXwXtXeX&.{ _ 5 4 5 ) _ [ } _ 5 4 5 5 4 < , < 4 4 < , o SXSXSXSXSXSXSXSX",
"SXSXSXSXSXSXSXSXo # $ 8 0 ;.:.3.J.rX0X#.#.qXwX*.{ ) < , o , < < < < < , , , < ) @.&.{ ) 2 - - = # o , < 6 _ } @.#.&.eXyXfXkXnXmXNXNXnXfXtX&.} _ _ [ #.*.*.@._ 5 < < < < < < < 4 5 _ } @.#.*.*.&.@.} ) 4 4 4 5 ) ) ) 5 4 < < < , o o o , , , o o SXSXSXSXSXSXSXSX",
"SXSXSXSXSXSXSXSXo # $ 8 8 q ;.>...$.{ _ | @.*.&.@.[ 5 , o o o , , < , , , < 4 ) { @._ < - u F f - O X o 1 4 ) [ { #.qXtXgXkXnXNXNXNXNXnXfXeX@._ 5 5 [ #.*.*.&.{ ) < < < , , , < 5 ) } @.&.*.*.*.&.@._ 5 < 4 4 4 4 4 < < , , o o X X o o o o SXSXSXSXSXSXSXSXSXSX",
"SXSXSXSXSXSXSXSXSXo $ $ 9 9 9 w z ) 5 4 5 _ @.#.#.#.} 5 < , o o o , , , 4 5 _ [ | ` 4 > - F p.D - X   + o , 4 ) [ @.&.eXyXfXjXmXNXBXBXNXjXyX*.} 5 4 ) } #.*.qX*.@._ 5 < , , , , < 5 ) [ { @.#.#.@.} ) 4 < , < < < , , o o o o X X X X o o SXSXSXSXSXSXSXSXSXSXSX",
"SXSXSXSXSXSXSXSXSXSXo # # # # 1 1 < , > , 4 ) { &.*.&.@._ 5 < o o , , 4 5 } @.} 5 < o X = f s.D - X     X o , 4 ) } @.&.eXyXfXjXmXBXBXBXmXfXwX#.) 4 4 ) } #.*.eXeX*.} 5 , < < < < < 4 5 ) ) _ ) 5 4 < , o o o o o o o X X X X X SXSXSXSXSXSXSXSXSXSXSXSXSXSXSXSX",
"SXSXSXSXSXSXSXSXSXSXSXX X O o o o o X X o , 4 _ @.&.*.*.&.#.} [ _ _ ) ) _ [ } ) < o X X - F i.s.F u i i - @ o , 4 ) } @.&.eXyXfXnXNXBXBXNXhXyX&.[ 4 7 4 / [ #.*.wXwX&.} ) 4 < < < < < < < < 4 < < , o o X X X X X X X X X X X SXSXSXSXSXSXSXSXSXSXSXSXSXSXSXSXSX",
"SXSXSXSXSXSXSXSXSXSXSXO O O O X X X X X X o , 4 ) } #.eXwXwXeXeX*.&.#.} _ ) 4 < , o X SXSXi.i.p.d.f.f.a.D i @ o < 5 ) } @.&.eXyXhXnXmXNXNXjXdX*.} 5 7 < 4 5 [ #.qXwXeX*.@.) < , 7 4 4 < < < < < < , o o X X X X X X X X X SXSXSXSXSXSXSXSXSXSXSXSXSXSXSXSXSXSXSX",
"SXSXSXSXSXSXSXSXSXSXSXm m M v & % % O X X X O o , 4 ` { @.@.@.{ } } _ ) 5 < , o O X + SXSX2.d i.f.h.|.N.f.D u e = 1 4 ) } @.*.eXyXhXnXNXmXjXdX0X} l g j j g 5 | #.qXwXeX=.[ < < 4 ) [ } @.{ } _ ) 4 < < , , , , o X SXSXSXSXSXSXSXSXSXSXSXSXSXSXSXSXSXSXSXSXSXSX",
"SXSXSXSXSXSXSXSXSXSXSXT.T.U.C B m v & % O X O X X O , < 7 < , , , , , , , , % % O O O SXSXp p i.a.g.|.oX XN.d.F - O > 4 ) } @.*.wXdXkXmXmXkXdX*.} J P s.s.P g J } #.qXwXqX} 4 < 5 [ &.wXyXtXeX&.{ _ 5 5 4 4 4 4 SXSXSXSXSXSXSXSXSXSXSXSXSXSXSXSXSXSXSXSXSXSXSXSX",
"SXSXSXSXSXSXSXSXSXC T.!.~.~.^.T.P.V m M v & & * * O O O O X X X X X X X o % & M M M M SXSXa p s i.d.|.+X#XOX|.s.- + + > 4 5 [ @.*.tXfXnXnXhXyX=.| l U d.f.s.F P K [ #.qX*.} 4 4 _ @.qXyXdXyXwX&.} ( 5 5 5 5 5 5 SXSXSXSXSXSXSXSXSXSXSXSXSXSXSXSXSXSXSXSXSXSXSXSX",
"SXSXSXSXSXSXSXSXV C T.~.(.).(.~.Q.T.U.I.Z V N b v c & % % % % % % % % % & M N V Z Z C SXSXSXp p s i.g.OX@X#XOXm.S @ X O > < 5 [ #.eXdXhXjXfXtX&._ 6 U v.g.g.f.j.H J } &.&.} ) ) } #.eXyXyXtX*.$.] l 6 6 4 4 4 4 SXSXSXSXSXSXSXSXSXSXSXSXSXSXSXSXSXSXSXSXSXSXSXSX",
"SXSXSXSXSXSXSXSXV C T.~.).~.^.!.!.!.!.!.Q.Q.T.T.U.P.C A A ~ Y.Y.Y.Y.~ A A Y.U.U.U.U.P.SXSXSXSXp p d a.|.OX#X#XXXv.F e @ X o < ) } &.wXdXgXdXtX&._ 6 U v.|.oX Xm.K 4 ) { #.&.&.#.#.#.*.eXeX=.@...Q I H 3 4 4 4 4 SXSXSXSXSXSXSXSXSXSXSXSXSXSXSXSXSXSXSXSXSXSXSXSX",
"SXSXSXSXSXSXSXSXV Z T.^.~.T.~ Y.T.Q.~.~.~.(.).(.(.~.~.~.~.(.).).).).)._.~.~.~.!.T.U.U.SXSXSXSXSXp s i.d.N.OX#X#XOX|.E e = # , 4 ) { &.eXtXtXeX$.) 3 P v.|.#X>X%X^ K J _ { &.eXqX#.@.#.&.&.O._ W c.a.F g 4 4 4 4 SXSXSXSXSXSXSXSXSXSXSXSXSXSXSXSXSXSXSXSXSXSXSXSX",
"SXSXSXSXSXSXSXSXN B C U.Y.L e r B Y.T.!.~.).'.`.`.].].].{.`.`.`.].].].].].].`.).Q.U.I.SXSXSXSXSXp p d i.d.|.OX#X#X+X|.d.F e = > < ) } &.*.*.&.{ 5 3 G v. X@X5X>XXXm.! K _ @.*.&.$.{ @.$.+._ 5 H c.d.E K 6 6 4 4 SXSXSXSXSXSXSXSXSXSXSXSXSXSXSXSXSXSXSXSXSXSXSXSX",
"SXSXSXSXSXSXSXSXN N V C B i 8 9 ; N C U.T.Q.!.~.`.].[.[.[.].`.`.`.].].].[.[.[.`.Q.I.Z SXSXSXSXSXp p p s i.d.|.OX@X>X@X+XM.S O + o < ) } @.@.{ _ 4 2 G d.|.@X5X5X@X Xm.K ` } @.@.} [ [ [ | K K E M.M.m.K 5 6 5 4 SXSXSXSXSXSXSXSXSXSXSXSXSXSXSXSXSXSXSXSXSXSXSXSX",
"SXSXSXSXSXSXSXSXN N V V L i 8 9 ; v b b m m m I.^.`.[.[.[.].).(.~.~.).`.].[.[.`.T.C B SXSXSXSXSXp p p p d i.f.|.+X>X5X5X&X! O   X , 4 5 ) ) ) 5 7 2 u s.g.OX>X>X#X Xm.] _ | } [ ` ) 5 6 J ^ }..X X.Xm.] ) 5 5 4 SXSXSXSXSXSXSXSXSXSXSXSXSXSXSXSXSXSXSXSXSXSXSXSX",
"SXSXSXSXSXSXSXSXm N B V ~ ^ c.E L v c c & * & m T.(.{.[.].`.~.!.Q.Q.^.).`.].].(.U.B N SXSXSXSXSXSXp p p s 2.p.f. X@X4X6X3X}.L ; # X o < < 4 4 < < 2 t D p.g. XOX+XOXV.Q K ' _ ( 4 2 3 H ^ }. XOXOX.Xm.] _ ( 5 SXSXSXSXSXSXSXSXSXSXSXSXSXSXSXSXSXSXSXSXSXSXSXSXSX",
"SXSXSXSXSXSXSXSXb b N C E.&X9X&XE.N v v & * * b Y.~.'.`.`.(.!.T.U.U.T.!.~.).(.Q.Z b b SXSXSXSXSXSXSXp p p s i.a.|.+X5X6X6X4X+Xm.r X + o , , , , 1 1 e f 2.p.f.|.+X#X.Xa.D W ` 5 , = H m..XOXoXoX|.M.z.] _ ) SXSXSXSXSXSXSXSXSXSXSXSXSXSXSXSXSXSXSXSXSXSXSXSXSXSX",
"SXSXSXSXSXSXSXSXv b N P./.1X8X9X/.Z N b v & v m U.!.).`.).~.T.U.C C I.T.Q.!.Q.U.N v v SXSXSXSXSXSXSXSXp p s i.a.g. X>X4X6X6X5XXXj.y - # o O o o , < g j Q A.F.=X<XcX<X%XA.G.$.} ( l ! M.|.|.|.h.f.d.Y K / SXSXSXSXSXSXSXSXSXSXSXSXSXSXSXSXSXSXSXSXSXSXSXSXSXSXSX",
"SXSXSXSXSXSXSXSXc v B U./.1X8X9X2XT.C B N m N C T.^.(.).(.^.T.I.V B V C U.U.U.C m v & SXSXSXSXSXSXSXSXp p s i.p.f.N.OX@X3X4X4X>X Xd.P - o X X o , 4 _ @.H.uXlXvXMXMXvXlXdXuXeX=.$. .Q c.a.d.a.a.i.D u g 4 SXSXSXSXSXSXSXSXSXSXSXSXSXSXSXSXSXSXSXSXSXSXSXSXSXSXSX",
"SXSXSXSXSXSXSXSXSXb V P./.2X4X4X9X2X/.Y.Z C P.U.T.!.^.~.^.Q.T.P.Z B B V V V V B b SXSXSXSXSXSXSXSXSXSXSXp s s i.p.d.g.|.+X@X>X#X|.d.F - > > , 4 ) } &.iXdXhXjXjXhXgXyXtXeX*.&.@.} ] ] W I I I P u t r 2 < SXSXSXSXSXSXSXSXSXSXSXSXSXSXSXSXSXSXSXSXSXSXSXSXSXSXSX",
"SXSXSXSXSXSXSXSXSXSXSXC R.}.,X4X6X8X1XE.P.P.T.T.T.T.T.Q.Q.Q.Q.T.P.Z B N m b b b SXSXSXSXSXSXSXSXSXSXSXSXSXp p s d i.a.f.N.|. X|.g.p.P 2 < 7 5 _ @.*.tXfXhXhXfXyXeX&.#.@.} } | _ ) 5 ) _ ' _ ` l 4 < 1 < , SXSXSXSXSXSXSXSXSXSXSXSXSXSXSXSXSXSXSXSXSXSXSXSXSXSXSX",
"SXSXSXSXSXSXSXSXSXSXSXN ~ ^  X>X6X8X1XE.P.P.T.T.U.U.T.Q.!.~.~.^.Q.U.C N b v c & SXSXSXSXSXSXSXSXSXSXSXSXSXp p p p s i.p.a.d.d.a.p.i.j g 4 ) } #.eXuXyXyXyXtXqX&.@.} _ _ ) ) 5 5 4 4 ) } @.$.$.{ ` 6 7 < SXSXSXSXSXSXSXSXSXSXSXSXSXSXSXSXSXSXSXSXSXSXSXSXSXSXSXSX",
"SXSXSXSXSXSXSXSXSXSXSXb n F f.OX4X6X1XE.I.I.U.U.U.U.T.!.~.).).~.!.U.Z b v & & * SXSXSXSXSXSXSXSXSXSXSXSXSXSXp p p p s 2.i.i.i.i.i.D P l ) } #.*.tXyXtXqX*.&.#.@.+.{ } } } _ ) 5 4 4 ) { #.&.&.#.[ ) 5 SXSXSXSXSXSXSXSXSXSXSXSXSXSXSXSXSXSXSXSXSXSXSXSXSXSXSXSXSX",
"SXSXSXSXSXSXSXSXSXSXSXv n S s.N.@X3X2XR.V V C P.U.T.~.).`.`.).~.U.Z m v & & SXSXSXSXSXSXSXSXSXSXSXSXSXSXSXSXSXp p p p s s s s f j K ' | } $.&.*.*.*.#.@.@.&.*.eXuXsXdXyXtXqX#.} ` 5 ) _ } } } [ ) 5 5 SXSXSXSXSXSXSXSXSXSXSXSXSXSXSXSXSXSXSXSXSXSXSXSXSXSXSXSXSX",
"SXSXSXSXSXSXSXSXSXSXSXc n u D a.|.XX}.E.~ ~ V Z C U.!.(.)._.!.U.V b v & * SXSXSXSXSXSXSXSXSXSXSXSXSXSXSXSXSXSXSXp p p f f f f u z ) ` | } @.@.$.@.@.@.@.&.eXyXhXnXNXNXNXnXfXtX*.{ _ _ _ ) ) 5 5 5 5 SXSXSXSXSXSXSXSXSXSXSXSXSXSXSXSXSXSXSXSXSXSXSXSXSXSXSXSXSXSX",
"SXSXSXSXSXSXSXSXSXSXSXSXSXf s i.a.M..XXX}.E.V m b b V U.T.U.C N v & & SXSXSXSXSXSXSXSXSXSXSXSXSXSXSXSXSXSXSXSXSXSXSX- $ $ - - 2 3 4 4 5 5 5 ) _ } @.*.tXdXhXnXNXCXZXZXZXBXnXfXtX&.@.} _ ) 5 4 4 SXSXSXSXSXSXSXSXSXSXSXSXSXSXSXSXSXSXSXSXSXSXSXSXSXSXSXSXSXSXSXSX",
"SXSXSXSXSXSXSXSXSXSXSXSXSXSXp s i.p.g. X.X^ m c & & v m N m b v & * SXSXSXSXSXSXSXSXSXSXSXSXSXSXSXSXSXSXSXSXSXSXSXSXSX, , < < 7 4 4 4 4 5 5 ) } @.*.tXfXjXmXNXCXZXZXZXZXNXnXfXtX*.@.} _ ) 5 4 SXSXSXSXSXSXSXSXSXSXSXSXSXSXSXSXSXSXSXSXSXSXSXSXSXSXSXSXSXSXSXSXSX",
"SXSXSXSXSXSXSXSXSXSXSXSXSXSXSXSXs s i.p.s.S & * * & & & & & * * SXSXSXSXSXSXSXSXSXSXSXSXSXSXSXSXSXSXSXSXSXSXSXSXSXSXSX4 4 5 5 5 ) ) ) ` _ } #.*.eXtXdXhXjXnXmXNXBXBXBXNXnXfXtXqX#.{ _ ) 5 4 SXSXSXSXSXSXSXSXSXSXSXSXSXSXSXSXSXSXSXSXSXSXSXSXSXSXSXSXSXSXSXSXSXSX",
"SXSXSXSXSXSXSXSXSXSXSXSXSXSXSXSXSXp s 2.d i & * * * * * * * * SXSXSXSXSXSXSXSXSXSXSXSXSXSXSXSXSXSXSXSXSXSXSXSXSXSXSX< 4 4 5 5 ) ) _ _ _ } @.&.*.eXtXyXyXdXdXgXhXhXhXfXdXyXeX*.#.{ [ ) 5 4 SXSXSXSXSXSXSXSXSXSXSXSXSXSXSXSXSXSXSXSXSXSXSXSXSXSXSXSXSXSXSXSXSXSXSX",
"SXSXSXSXSXSXSXSXSXSXSXSXSXSXSXSXSXSXSXSXSXSXSXSXSXSXSXSXSXSXSXSXSXSXSXSXSXSXSXSXSXSXSXSXSXSXSXSXSXSXSXSXSXSXSXSXo o , , < < 4 4 5 ) ) _ [ } @.#.&.&.*.*.*.*.*.qXqX*.&.#.@.@.{ } _ ) ) SXSXSXSXSXSXSXSXSXSXSXSXSXSXSXSXSXSXSXSXSXSXSXSXSXSXSXSXSXSXSXSXSXSXSXSXSX",
"SXSXSXSXSXSXSXSXSXSXSXSXSXSXSXSXSXSXSXSXSXSXSXSXSXSXSXSXSXSXSXSXSXSXSXSXSXSXSXSXSXSXSXSXSXSXSXSXSXSXSXSXSXSXSXSXo , , < 4 4 < < 4 4 4 6 5 ) _ [ } { { { { { { { { } } [ _ _ ) 5 5 4 4 SXSXSXSXSXSXSXSXSXSXSXSXSXSXSXSXSXSXSXSXSXSXSXSXSXSXSXSXSXSXSXSXSXSXSXSXSX",
"SXSXSXSXSXSXSXSXSXSXSXSXSXSXSXSXSXSXSXSXSXSXSXSXSXSXSXSXSXSXSXSXSXSXSXSXSXSXSXSXSXSXSXSXSXSXSXSXSXSXSXSXSXSXSXSX, , 4 ) ) 5 4 < < < < < 4 4 5 ) _ [ [ [ [ _ _ _ _ ) ) ) ) 5 4 < < < < SXSXSXSXSXSXSXSXSXSXSXSXSXSXSXSXSXSXSXSXSXSXSXSXSXSXSXSXSXSXSXSXSXSXSXSXSX",
"SXSXSXSXSXSXSXSXSXSXSXSXSXSXSXSXSXSXSXSXSXSXSXSXSXSXSXSXSXSXSXSXSXSXSXSXSXSXSXSXSXSXSXSXSXSXSXSXSXSXSXSXSXSXSXSX, < 5 _ _ 5 4 4 5 5 ) _ [ } @.@.#.&.*.*.*.&.@.{ [ _ _ ) ) 4 < < < SXSXSXSXSXSXSXSXSXSXSXSXSXSXSXSXSXSXSXSXSXSXSXSXSXSXSXSXSXSXSXSXSXSXSXSXSXSXSX",
"SXSXSXSXSXSXSXSXSXSXSXSXSXSXSXSXSXSXSXSXSXSXSXSXSXSXSXSXSXSXSXSXSXSXSXSXSXSXSXSXSXSXSXSXSXSXSXSXSXSXSXSXSXSXSXSX, < 5 _ _ ) 5 5 ) [ { @.&.*.eXtXyXdXfXhXfXdXtX*.#.{ } _ ) 5 4 < SXSXSXSXSXSXSXSXSXSXSXSXSXSXSXSXSXSXSXSXSXSXSXSXSXSXSXSXSXSXSXSXSXSXSXSXSXSXSXSX",
"SXSXSXSXSXSXSXSXSXSXSXSXSXSXSXSXSXSXSXSXSXSXSXSXSXSXSXSXSXSXSXSXSXSXSXSXSXSXSXSXSXSXSXSXSXSXSXSXSXSXSXSXSXSXSXSX, < 4 ) _ [ [ _ ) ) ) [ @.*.tXgXjXmXNXNXNXmXkXdXeX&.@.} _ ) 4 4 SXSXSXSXSXSXSXSXSXSXSXSXSXSXSXSXSXSXSXSXSXSXSXSXSXSXSXSXSXSXSXSXSXSXSXSXSXSXSXSX",
"SXSXSXSXSXSXSXSXSXSXSXSXSXSXSXSXSXSXSXSXSXSXSXSXSXSXSXSXSXSXSXSXSXSXSXSXSXSXSXSXSXSXSXSXSXSXSXSXSXSXSXSXSXSXSXSX, , < 4 ) } @.{ _ 5 5 ) [ #.wXgXnXNXBXCXBXBXmXhXtX*.#.{ [ ) 5 4 SXSXSXSXSXSXSXSXSXSXSXSXSXSXSXSXSXSXSXSXSXSXSXSXSXSXSXSXSXSXSXSXSXSXSXSXSXSXSXSX",
"SXSXSXSXSXSXSXSXSXSXSXSXSXSXSXSXSXSXSXSXSXSXSXSXSXSXSXSXSXSXSXSXSXSXSXSXSXSXSXSXSXSXSXSXSXSXSXSXSXSXSXSXSXSXSXSX, , , < 4 _ { #.#.#.} ) ) [ @.qXyXhXnXmXmXnXhXyXqX#.} [ _ 5 5 4 SXSXSXSXSXSXSXSXSXSXSXSXSXSXSXSXSXSXSXSXSXSXSXSXSXSXSXSXSXSXSXSXSXSXSXSXSXSXSXSX",
"SXSXSXSXSXSXSXSXSXSXSXSXSXSXSXSXSXSXSXSXSXSXSXSXSXSXSXSXSXSXSXSXSXSXSXSXSXSXSXSXSXSXSXSXSXSXSXSXSXSXSXSXSXSXSXSX< < , , 4 ) [ #.qXeX&.@.[ ) ) } &.eXyXdXdXyXwX*.@.[ ) 5 5 5 6 4 SXSXSXSXSXSXSXSXSXSXSXSXSXSXSXSXSXSXSXSXSXSXSXSXSXSXSXSXSXSXSXSXSXSXSXSXSXSXSXSX",
"SXSXSXSXSXSXSXSXSXSXSXSXSXSXSXSXSXSXSXSXSXSXSXSXSXSXSXSXSXSXSXSXSXSXSXSXSXSXSXSXSXSXSXSXSXSXSXSXSXSXSXSXSXSXSXSX< < < < 4 5 _ { *.eXwXeX&.} 5 5 ) } @.#.&.#.@.} _ 5 4 < < < SXSXSXSXSXSXSXSXSXSXSXSXSXSXSXSXSXSXSXSXSXSXSXSXSXSXSXSXSXSXSXSXSXSXSXSXSXSXSXSXSXSX",
"SXSXSXSXSXSXSXSXSXSXSXSXSXSXSXSXSXSXSXSXSXSXSXSXSXSXSXSXSXSXSXSXSXSXSXSXSXSXSXSXSXSXSXSXSXSXSXSXSXSXSXSXSXSXSXSX< < 4 ) ) ) ) [ @.&.eXtXeX#.) 4 4 4 5 ) ) ) 5 4 4 4 5 ) _ SXSXSXSXSXSXSXSXSXSXSXSXSXSXSXSXSXSXSXSXSXSXSXSXSXSXSXSXSXSXSXSXSXSXSXSXSXSXSXSXSXSXSX",
"SXSXSXSXSXSXSXSXSXSXSXSXSXSXSXSXSXSXSXSXSXSXSXSXSXSXSXSXSXSXSXSXSXSXSXSXSXSXSXSXSXSXSXSXSXSXSXSXSXSXSXSXSXSXSXSX, < ) { @.} _ ) ) _ #.eXwX*.@._ 4 , o , , , , , , 4 } qXtXSXSXSXSXSXSXSXSXSXSXSXSXSXSXSXSXSXSXSXSXSXSXSXSXSXSXSXSXSXSXSXSXSXSXSXSXSXSXSXSXSXSXSX",
"SXSXSXSXSXSXSXSXSXSXSXSXSXSXSXSXSXSXSXSXSXSXSXSXSXSXSXSXSXSXSXSXSXSXSXSXSXSXSXSXSXSXSXSXSXSXSXSXSXSXSXSXSXSXSXSXo < ) { #.@.{ _ 5 5 } &.qXqX&.} 5 , o o o , , , , 4 #.dXkXhXSXSXSXSXSXSXSXSXSXSXSXSXSXSXSXSXSXSXSXSXSXSXSXSXSXSXSXSXSXSXSXSXSXSXSXSXSXSXSXSXSXSX",
"SXSXSXSXSXSXSXSXSXSXSXSXSXSXSXSXSXSXSXSXSXSXSXSXSXSXSXSXSXSXSXSXSXSXSXSXSXSXSXSXSXSXSXSXSXSXSXSXSXSXSXSXSXSXSXSXo , 4 ) } #.&.@.) 5 _ @.&.&.&.@._ 4 < , , < 4 4 4 ) &.gXkXgXtXqX*.0XtXhXjXSXSXSXSXSXSXSXSXSXSXSXSXSXSXSXSXSXSXSXSXSXSXSXSXSXSXSXSXSXSXSXSXSXSXSX",
"SXSXSXSXSXSXSXSXSXSXSXSXSXSXSXSXSXSXSXSXSXSXSXSXSXSXSXSXSXSXSXSXSXSXSXSXSXSXSXSXSXSXSXSXSXSXSXSXSXSXSXSXSXSXSXSXo o , 4 _ @.&.#._ 5 ) [ { @.@.{ _ 5 4 < 4 5 _ ) 4 5 @.tXdXtXeXeXtXyXuXtXiX=XSXSXSXSXSXSXSXSXSXSXSXSXSXSXSXSXSXSXSXSXSXSXSXSXSXSXSXSXSXSXSXSXSXSX",
"SXSXSXSXSXSXSXSXSXSXSXSXSXSXSXSXSXSXSXSXSXSXSXSXSXSXSXSXSXSXSXSXSXSXSXSXSXSXSXSXSXSXSXSXSXSXSXSXSXSXSXSXSXSXSXSXo o o , 6 } #.@._ 5 5 ) _ [ } _ ) 4 4 4 5 _ [ _ 4 4 _ #.qXqXqXtXgXfXiX#.o.$X,X5X5X4X4XSXSXSXSXSXSXSXSXSXSXSXSXSXSXSXSXSXSXSXSXSXSXSXSXSXSXSXSXSX",
"SXSXSXSXSXSXSXSXSXSXSXSXSXSXSXSXSXSXSXSXSXSXSXSXSXSXSXSXSXSXSXSXSXSXSXSXSXSXSXSXSXSXSXSXSXSXSXSXSXSXSXSXSXSXSXSXSXSXX o < ) { } ) 5 4 4 4 5 ) 5 4 < < 4 5 ) _ _ 5 4 ) [ @.*.wXtXtXeX%.! E M. X+X@X>X5X4XSXSXSXSXSXSXSXSXSXSXSXSXSXSXSXSXSXSXSXSXSXSXSXSXSXSXSXSX",
"SXSXSXSXSXSXSXSXSXSXSXSXSXSXSXSXSXSXSXSXSXSXSXSXSXSXSXSXSXSXSXSXSXSXSXSXSXSXSXSXSXSXSXSXSXSXSXSXSXSXSXSXSXSXSXSXSXSX= o , 6 ` ` 5 4 < < < < < < , o , < 4 5 ) ) 5 4 4 5 _ &.wXeX&. .W D i.d.g.|.|.OX@X5X4XSXSXSXSXSXSXSXSXSXSXSXSXSXSXSXSXSXSXSXSXSXSXSXSXSXSXSX",
"SXSXSXSXSXSXSXSXSXSXSXSXSXSXSXSXSXSXSXSXSXSXSXSXSXSXSXSXSXSXSXSXSXSXSXSXSXSXSXSXSXSXSXSXSXSXSXSXSXSXSXSXSXSXSXSXSX,X^ 2 > < 6 5 4 < , , o o , o X X o , < < < < , , , , 4 } &.-.{ ` P D i.p.f.f.f.g.|.OX#X>X4XSXSXSXSXSXSXSXSXSXSXSXSXSXSXSXSXSXSXSXSXSXSXSXSXSX",
"SXSXSXSXSXSXSXSXSXSXSXSXSXSXSXSXSXSXSXSXSXSXSXSXSXSXSXSXSXSXSXSXSXSXSXSXSXSXSXSXSXSXSXSXSXSXSXSXSXSXSXSXSXSXSXSX@XXXm.3 o > < < , , , , , o o o o X o # , o o o X X X o < ) { { ] K U D i.p.a.a.a.a.f.g.|.#X5X5XSXSXSXSXSXSXSXSXSXSXSXSXSXSXSXSXSXSXSXSXSXSXSXSX",
"SXSXSXSXSXSXSXSXSXSXSXSXSXSXSXSXSXSXSXSXSXSXSXSXSXSXSXSXSXSXSXSXSXSXSXSXSXSXSXSXSXSXSXSXSXSXSXSXSXSXSXSXSXSXSXSXoX|.E 2 o o = % o o , < < < < , , o o o o o > o SXSXSXSXSXSXSXQ E j.s.SXSXSXSXSXSXSXSXSXSX XOXOXSXSXSXSXSXSXSXSXSXSXSXSXSXSXSXSXSXSXSXSXSXSXSXSX",
"SXSXSXSXSXSXSXSXSXSXSXSXSXSXSXSXSXSXSXSXSXSXSXSXSXSXSXSXSXSXSXSXSXSXSXSXSXSXSXSXSXSXSXSXSXSXSXSXSXSXSXSXSXSXSXSXh.d.F - o o o % , < 5 _ _ _ _ ) 5 < , > o o , < SXSXSXSXSXSXSXSXa.a.SXSXSXSXSXSXSXSXSXSXSXSXg.g.SXSXSXSXSXSXSXSXSXSXSXSXSXSXSXSXSXSXSXSXSXSXSXSX",
"SXSXSXSXSXSXSXSXSXSXSXSXSXSXSXSXSXSXSXSXSXSXSXSXSXSXSXSXSXSXSXSXSXSXSXSXSXSXSXSXSXSXSXSXSXSXSXSXSXSXSXSXSXSXSXSXSXSXr 1 , > , < 5 _ @.&.qXqX*.&.{ _ 5 < , o , 4 } #.SXSXSXSXSXSXSXSXSXSXSXSXSXSXSXSXSXSXSXSXSXSXSXSXSXSXSXSXSXSXSXSXSXSXSXSXSXSXSXSXSXSXSXSXSXSX",
"SXSXSXSXSXSXSXSXSXSXSXSXSXSXSXSXSXSXSXSXSXSXSXSXSXSXSXSXSXSXSXSXSXSXSXSXSXSXSXSXSXSXSXSXSXSXSXSXSXSXSXSXSXSXSXSXSXSX| 6 4 < 4 5 } #.qXtXdXdXdXtX*.@._ 4 < , , 4 _ { #.SXSXSXSXSXSXSXSXSXSXSXSXSXSXSXSXSXSXSXSXSXSXSXSXSXSXSXSXSXSXSXSXSXSXSXSXSXSXSXSXSXSXSXSXSX",
"SXSXSXSXSXSXSXSXSXSXSXSXSXSXSXSXSXSXSXSXSXSXSXSXSXSXSXSXSXSXSXSXSXSXSXSXSXSXSXSXSXSXSXSXSXSXSXSXSXSXSXSXSXSXSXSXyXwX&.[ ) 5 ) [ #.*.tXdXfXhXhXgXtX*.@._ 5 < < < 5 ) { &.eXtXtXqX#.{ SXSXSXSXSXSXSXSXSXSXSXSXSXSXSXSXSXSXSXSXSXSXSXSXSXSXSXSXSXSXSXSXSXSXSXSXSXSX",
"SXSXSXSXSXSXSXSXSXSXSXSXSXSXSXSXSXSXSXSXSXSXSXSXSXSXSXSXSXSXSXSXSXSXSXSXSXSXSXSXSXSXSXSXSXSXSXSXSXSXSXSXSXSXSX$XrXeX-.[ ) ) _ } &.eXtXyXdXfXhXgXyXtXqX&.+._ 5 7 < 4 ) } #.&.&.#.@.} { SXSXSXSXSXSXSXSXSXSXSXSXSXSXSXSXSXSXSXSXSXSXSXSXSXSXSXSXSXSXSXSXSXSXSXSXSX",
"SXSXSXSXSXSXSXSXSXSXSXSXSXSXSXSXSXSXSXSXSXSXSXSXSXSXSXSXSXSXSXSXSXSXSXSXSXSXSXSXSXSXSXSXSXSXSXSXSXSXSXSXSXh.M.V.G.&.+.` 5 5 ) } #.*.eXwXtXtXyXyXyXyXyXuXeX#.| l 3 < < 4 5 5 ) _ [ } @.&.=.=.=.=.SXSXSXSXSXSXSXSXSXSXSXSXSXSXSXSXSXSXSXSXSXSXSXSXSXSXSXSXSXSXSXSX",
"SXSXSXSXSXSXSXSXSXSXSXSXSXSXSXSXSXSXSXSXSXSXSXSXSXSXSXSXSXSXSXSXSXSXSXSXSXSXSXSXSXSXSXSXSXSXSXSXSXSXSXSXg.f.d.l.o.{ | 5 4 5 ) _ @.#.&.*.*.*.eXiXyXdXpX=X$XA.A.m.m.^ L 1 : > < 5 _ +.&.eXwX*XA.$X%XSXSXSXSXSXSXSXSXSXSXSXSXSXSXSXSXSXSXSXSXSXSXSXSXSXSXSXSXSXSXSX",
"SXSXSXSXSXSXSXSXSXSXSXSXSXSXSXSXSXSXSXSXSXSXSXSXSXSXSXSXSXSXSXSXSXSXSXSXSXSXSXSXSXSXSXSXSXSXSXSXSXSXSXg.f.a.i.D K ` 5 4 < 4 4 ) [ } { @.@.#.&.qXuXyX=Xb.f.M. X+X3X,X}.g o o , 4 _ @.qXtXpX%X|.|.+X>X3XSXSXSXSXSXSXSXSXSXSXSXSXSXSXSXSXSXSXSXSXSXSXSXSXSXSXSXSXSX",
"SXSXSXSXSXSXSXSXSXSXSXSXSXSXSXSXSXSXSXSXSXSXSXSXSXSXSXSXSXSXSXSXSXSXSXSXSXSXSXSXSXSXSXSXSXSXSXSXSXSXSXa.p.i.d f g 6 7 < , , < 4 5 ) ) ) _ [ } &.wXtX$Xv.f.g.|.+X5X3X&X}.! g < 6 | $.%.A.F.V.N. X#X>X5X4XSXSXSXSXSXSXSXSXSXSXSXSXSXSXSXSXSXSXSXSXSXSXSXSXSXSXSXSX",
"SXSXSXSXSXSXSXSXSXSXSXSXSXSXSXSXSXSXSXSXSXSXSXSXSXSXSXSXSXSXSXSXSXSXSXSXSXSXSXSXSXSXSXSXSXSXSXSXSXSXSXi.2.s p f r < , o o o , , < < < < 4 5 _ +.*.eXA.v.a.f.g.|.+X>X>X>XXX^ 3 4 _  .! D i.a.g.|.+X>X5X5X4XSXSXSXSXSXSXSXSXSXSXSXSXSXSXSXSXSXSXSXSXSXSXSXSXSXSXSX",
"SXSXSXSXSXSXSXSXSXSXSXSXSXSXSXSXSXSXSXSXSXSXSXSXSXSXSXSXSXSXSXSXSXSXSXSXSXSXSXSXSXSXSXSXSXSXSXSXSXSXSXs s s SXe = , o X X X o o o o o o , < 4 _ +.$...D i.i.p.f.N. X#X>XXX^ 2 , 4 J j f s i.p.f.|. X+X#X@X#X+XSXSXSXSXSXSXSXSXSXSXSXSXSXSXSXSXSXSXSXSXSXSXSXSXSX",
"SXSXSXSXSXSXSXSXSXSXSXSXSXSXSXSXSXSXSXSXSXSXSXSXSXSXSXSXSXSXSXSXSXSXSXSXSXSXSXSXSXSXSXSXSXSXSXSXSXSXSXp p SXSXSXo o O X X X X X X X X X o , < 5 _ ] W f p s i.p.f.|.OX#XXX^ = : , 2 r f p s i.p.f.h.|. XoXoXoXoXSXSXSXSXSXSXSXSXSXSXSXSXSXSXSXSXSXSXSXSXSXSXSXSX",
"SXSXSXSXSXSXSXSXSXSXSXSXSXSXSXSXSXSXSXSXSXSXSXSXSXSXSXSXSXSXSXSXSXSXSXSXSXSXSXSXSXSXSXSXSXSXSXSXSXSXSXSXSXSXSXSXSXSXSXSXSXSXSXSXSXSXSXSXSXSXSXSXSXSXSXSXSXSXSXSXSXSX|.|.|.v.SXSXSXSXSXSXSXSXSXSXSXSXSXSXSX|.|.|.SXSXSXSXSXSXSXSXSXSXSXSXSXSXSXSXSXSXSXSXSXSXSXSX",
"SXSXSXSXSXSXSXSXSXSXSXSXSXSXSXSXSXSXSXSXSXSXSXSXSXSXSXSXSXSXSXSXSXSXSXSXSXSXSXSXSXSXSXSXSXSXSXSXSXSXSXSXSXSXSXSXSXSXSXSXSXSXSXSXSXSXSXSXSXSXSXSXSXSXSXSXSXSXSXSXSXSXSXg.g.SXSXSXSXSXSXSXSXSXSXSXSXSXSXSXSXg.g.g.SXSXSXSXSXSXSXSXSXSXSXSXSXSXSXSXSXSXSXSXSXSXSXSX"
};
