/* XPM */
static const char *bos2c4[] = {
/* columns rows colors chars-per-pixel */
"128 128 252 2 ",
"   c #141414",
".  c #1B1B1B",
"X  c #191816",
"o  c #15110C",
"O  c #241A0D",
"+  c #251D15",
"@  c #32150E",
"#  c #183012",
"$  c #2A231A",
"%  c #392918",
"&  c #332C11",
"*  c #232424",
"=  c #2B2B2B",
"-  c #292826",
";  c #352C27",
":  c #3A342A",
">  c #2F3132",
",  c #333333",
"<  c #3B3B3B",
"1  c #383737",
"2  c #2D2E32",
"3  c #1D1F21",
"4  c #490101",
"5  c #570202",
"6  c #491614",
"7  c #4F1812",
"8  c #680404",
"9  c #7C0101",
"0  c #750606",
"q  c #731718",
"w  c #661A16",
"e  c #442C18",
"r  c #45321A",
"t  c #4B341C",
"y  c #4E381B",
"u  c #533B1E",
"i  c #573518",
"p  c #522C0D",
"a  c #682B08",
"s  c #742C01",
"d  c #742901",
"f  c #6A350C",
"g  c #7B3302",
"h  c #783707",
"j  c #693A16",
"k  c #713813",
"l  c #492726",
"z  c #592525",
"x  c #463627",
"c  c #5B3D22",
"v  c #543B24",
"b  c #453B36",
"n  c #573636",
"m  c #683939",
"M  c #712F2D",
"N  c #4C1E20",
"B  c #1C4518",
"V  c #244919",
"C  c #28551D",
"Z  c #3C4919",
"A  c #315628",
"S  c #2D6423",
"D  c #336926",
"F  c #37762B",
"G  c #3A6F32",
"H  c #554713",
"J  c #784814",
"K  c #594327",
"L  c #484339",
"P  c #584939",
"I  c #545432",
"U  c #634324",
"Y  c #6D4A29",
"T  c #684728",
"R  c #734C2A",
"E  c #7A4928",
"W  c #7C522E",
"Q  c #79542A",
"!  c #6D5437",
"~  c #4D6B27",
"^  c #776E36",
"/  c #736B1E",
"(  c #3E3F40",
")  c #3D4142",
"_  c #434344",
"`  c #4B4C4C",
"'  c #474848",
"]  c #584A47",
"[  c #4E5152",
"{  c #535353",
"}  c #5B5C5C",
"|  c #595756",
" . c #55534D",
".. c #655956",
"X. c #6F544B",
"o. c #516C4C",
"O. c #716855",
"+. c #5E5F60",
"@. c #5E6162",
"#. c #636363",
"$. c #6B6B6C",
"%. c #676767",
"&. c #746C6A",
"*. c #737474",
"=. c #7B7B7C",
"-. c #787877",
";. c #6F726E",
":. c #403E40",
">. c #830101",
",. c #8B0101",
"<. c #850C0C",
"1. c #930101",
"2. c #9B0202",
"3. c #861414",
"4. c #971914",
"5. c #AB0101",
"6. c #A40101",
"7. c #BB0000",
"8. c #B40202",
"9. c #AE1717",
"0. c #833C05",
"q. c #813A05",
"w. c #872F0E",
"e. c #973737",
"r. c #8C2B2B",
"t. c #AC2F2F",
"y. c #C30101",
"u. c #CC0000",
"i. c #D70101",
"p. c #DE1313",
"a. c #E60101",
"s. c #F50202",
"d. c #EC1616",
"f. c #EE3030",
"g. c #CE3434",
"h. c #864106",
"j. c #8D4B0A",
"k. c #884508",
"l. c #914E0C",
"z. c #94530D",
"x. c #9A580D",
"c. c #8B561A",
"v. c #9A5C12",
"b. c #955914",
"n. c #884C16",
"m. c #9D6316",
"M. c #A56C19",
"N. c #A46816",
"B. c #AA731C",
"V. c #AC771E",
"C. c #B17A1C",
"Z. c #8B5B35",
"A. c #845732",
"S. c #915E37",
"D. c #895726",
"F. c #996623",
"G. c #97633A",
"H. c #886D32",
"J. c #AA7A25",
"K. c #B17D21",
"L. c #A3683E",
"P. c #A47430",
"I. c #A25E10",
"U. c #8B4545",
"Y. c #8D514D",
"T. c #8F7151",
"R. c #A86C41",
"E. c #B67448",
"W. c #A87449",
"Q. c #867976",
"!. c #8E7369",
"~. c #AD6E6E",
"^. c #AA4D4D",
"/. c #C47C4D",
"(. c #C57F50",
"). c #CE7272",
"_. c #E35757",
"`. c #3D8431",
"'. c #469439",
"]. c #498C35",
"[. c #5B9437",
"{. c #529449",
"}. c #56B74B",
"|. c #50AA45",
" X c #679662",
".X c #5DC954",
"XX c #64D95C",
"oX c #60C358",
"OX c #69E461",
"+X c #68DB60",
"@X c #968938",
"#X c #B58424",
"$X c #B88A28",
"%X c #BD922B",
"&X c #B29436",
"*X c #BCA73C",
"=X c #C49C32",
"-X c #C2972D",
";X c #CAA737",
":X c #D2B33E",
">X c #CFAE3B",
",X c #948950",
"<X c #918376",
"1X c #AC9556",
"2X c #D08756",
"3X c #D6B942",
"4X c #C7B24B",
"5X c #DCC449",
"6X c #DACC53",
"7X c #E2CC4D",
"8X c #E8D855",
"9X c #E8D24E",
"0X c #F1E75D",
"qX c #FCF96A",
"wX c #F9F568",
"eX c #7D7E80",
"rX c #7E8182",
"tX c #838484",
"yX c #8C8C8C",
"uX c #878988",
"iX c #978988",
"pX c #939494",
"aX c #9B9C9C",
"sX c #999795",
"dX c #8D9090",
"fX c #A59B97",
"gX c #A69489",
"hX c #A8A29B",
"jX c #B4A896",
"kX c #A3A3A4",
"lX c #ABABAB",
"zX c #A6A9A9",
"xX c #B3B3B4",
"cX c #BBBBBB",
"vX c #B9B7B6",
"bX c #B1ADAD",
"nX c #9DA2A1",
"mX c #C8B6B1",
"MX c #DD9A92",
"NX c #BCC2C2",
"BX c #C3C3C3",
"VX c #CBCBCB",
"CX c #C7C8C8",
"ZX c #D3D4D4",
"AX c #DBDBDB",
"SX c #D6DADA",
"DX c #D2CFCF",
"FX c #E7D6D6",
"GX c #E2E4E4",
"HX c #DBE3E3",
"JX c #C8C39C",
"KX c None",
/* pixels */
"KXKXKXKXKXKXKXKXKXKXKXKXKXKXKXKXKXKXKXKXKXKXKXKXKXKXKXKXKXKXKXKXKXs.s.a.a.a.i.i.i.a.a.a.s.s.s.s.s.s.s.s.s.d.^.Q.dXuXtXrXrX=.=.-.*.*.$.X.r.,.,.,.,.,.,.1.2.5.8.y.u.u.KXKXKXKXKXKXKXKXKXKXKXKXKXKXKXKXKXKXKXKXKXKXKXKXKXKXKXKXKXKXKXKXKXKXKXKXKXKXKXKXKXKXKXKXKXKX",
"KXKXKXKXKXKXKXKXKXKXKXKXKXKXKXKXKXKXKXKXKXKXKXKXKXKXKXKXKXKXKXKXy.u.u.u.y.7.7.7.7.7.y.y.u.u.u.i.i.a.a.a.s.d.g.^.~.~.~.~.iXyXdXuXtXrX=.!.U.r.r.r.r.r.r.r.<.1.2.6.5.5.KXKXKXKXKXKXKXKXKXKXKXKXKXKXKXKXKXKXKXKXKXKXKXKXKXKXKXKXKXKXKXKXKXKXKXKXKXKXKXKXKXKXKXKXKXKX",
"KXKXKXKXKXKXKXKXKXKXKXKXKXKXKXKXKXKXKXKXKXKXKXKXKXKXKXu.u.y.8.6.6.2.1.,.,.>.>.>.>.>.>.,.,.1.2.6.8.7.y.u.u.i.p.p.d.d.d.g.~.kXzXnXaXaXaXpXiXiXiXiXiXiXiX!.M 8 8 0 9 9 >.1.5.y.u.KXKXKXKXKXKXKXKXKXKXKXKXKXKXKXKXKXKXKXKXKXKXKXKXKXKXKXKXKXKXKXKXKXKXKXKXKXKXKXKXKX",
"KXKXKXKXKXKXKXKXKXKXKXKXKXKXKXKXKXKXKXKXKXKXKXKXKXKX5.5.5.9.t.e.e.e.U.U.U.Y.Y.Y.Y.Y.U.U.U.U.e.e.e.e.t.9.6.5.8.y.u.a.a.d._.).).).).gXlXlXzXzXlXlXbXbXlXsX!.X.m m M q 0 >.1.6.6.6.KXKXKXKXKXKXKXKXKXKXKXKXKXKXKXKXKXKXKXKXKXKXKXKXKXKXKXKXKXKXKXKXKXKXKXKXKXKXKXKX",
"KXKXKXKXKXKXKXKXKXKXKXKXKXKXKXKXKXKXKXKXKXKX_ n q 2.2.,.9 r.!.iXsXfXfXlXbXvXmXmXmXxXbXbXhXfXfXgXsXsXQ.Y.q 0 9 >.1.5.y.i.p.p.d.d.f.).jXxXbXlXlXxXxXcXcXxXlXfXpXuX!.X.w 8 8 8 9 ,.2.8.u.a.KXKXKXKXKXKXKXKXKXKXKXKXKXKXKXKXKXKXKXKXKXKXKXKXKXKXKXKXKXKXKXKXKXKXKXKX",
"KXKXKXKXKXKXKXKXKXKXKXKXKXKXKXKXKXKXKXKX| n z w q >.<.q M O.iXzXxXNXCXDXZXSXSXSXSXDXVXCXNXcXxXlXlXzXaXQ.Y.X.m M M 3.1.6.8.u.i.a.s.f._.MXmXcXNXNXBXBXVXVXCXcXxXkXpXQ.X.m m z w 8 >.1.5.7.u.i.KXKXKXKXKXKXKXKXKXKXKXKXKXKXKXKXKXKXKXKXKXKXKXKXKXKXKXKXKXKXKXKXKXKX",
"KXKXKXKXKXKXKXKXKXKXKXKXKXKXKXKXpXyX=.$.| m q 0 8 8 w X.&.yXkXvXBXZXSXGXGXGXGXAXSXZXZXVXBXcXxXxXlXlXzXaXpXuXtX-.X.M 0 0 >.1.8.u.a.s.s.f.).mXCXVXVXVXZXZXVXVXBXxXlXaXdXQ.;...] z 8 8 9 1.5.y.i.KXKXKXKXKXKXKXKXKXKXKXKXKXKXKXKXKXKXKXKXKXKXKXKXKXKXKXKXKXKXKXKXKX",
"KXKXKXKXKXKXKXKXKXKXKXKXkXlXxXlXaXpX=.%.] z 8 8 w z ] %.uXaXxXBXZXAXGXGXGXGXAXSXSXZXZXVXCXBXcXxXlXlXkXaXsXdXuXrX&.X.m m m M 3.1.5.y.i.d.f._.MXmXSXSXSXSXSXZXVXBXcXbXzXsXuX-.#.] n z 8 8 ,.6.7.u.i.KXKXKXKXKXKXKXKXKXKXKXKXKXKXKXKXKXKXKXKXKXKXKXKXKXKXKXKXKXKXKX",
"KXKXKXKXKXKXKXKXKXKXKXkXzXlXxXxXzXpX=.@.' l 7 7 z ] } -.pXzXcXVXSXGXGXGXSXZXZXZXZXZXVXVXBXcXxXlXzXkXaXpXyXuX=.*.*.$.%.#.} ] n w 0 1.5.u.a.d._.MXDXAXAXGXAXAXZXDXBXcXxXzXaXpXtX*.#.] z 5 8 9 2.7.i.a.KXKXKXKXKXKXKXKXKXKXKXKXKXKXKXKXKXKXKXKXKXKXKXKXKXKXKXKXKXKX",
"KXKXKXKXKXKXKXKXKXkXzXlXxXBXVXBXlXpX*.} _ : ; l b | %.rXpXlXcXVXZXZXZXZXZXVXVXBXBXBXcXcXxXlXlXkXaXpXyXtX*.$.%.} } } | { [ { ] ] m q 9 1.8.u.d.f._.MXFXGXGXGXAXZXVXBXcXxXlXkXpXuX=.#.] n z 8 9 2.7.u.i.a.KXKXKXKXKXKXKXKXKXKXKXKXKXKXKXKXKXKXKXKXKXKXKXKXKXKXKXKX",
"KXKXKXKXKXKXKXKXaXkXlXxXBXVXZXVXlXyX*.{ 1 , , 1 ` } $.tXpXzXxXBXBXBXBXBXcXcXcXvXxXxXlXlXzXkXaXpXyXuX=.*.%.#.} { ` ` ` ` ` | #.$.%.m w 0 ,.5.u.a.d._.MXFXGXGXGXSXZXVXBXcXxXlXkXpXuX-.%.| n 7 8 9 2.7.i.a.s.KXKXKXKXKXKXKXKXKXKXKXKXKXKXKXKXKXKXKXKXKXKXKXKXKXKXKX",
"KXKXKXKXKXKXKXKXaXkXzXxXcXBXCXcXzXyX%._ , = , < ` } $.=.yXaXlXlXxXlXlXlXzXzXkXkXfXaXaXaXpXpXpXyXuXtX=.*.%.#.} | | { | } } %.;.-.-.&...m q >.6.u.a.d.f._.MXFXGXAXZXVXVXBXcXlXkXpXyX=.;.#.| ] z w >.6.y.i.a.KXKXKXKXKXKXKXKXKXKXKXKXKXKXKXKXKXKXKXKXKXKXKXKXKXKXKX",
"KXKXKXKXKXKXKXKXzXzXlXlXlXxXxXlXaX=.} < - - , _ ` } $.=.uXpXaXaXaXaXaXpXpXpXpXpXpXsXaXaXaXaXaXaXaXpXyXyXtX=.*.$.%.%.%.$.*.-.=.=.=.*.%...m q 3.8.u.a.s.f.MXFXGXAXZXVXBXNXxXlXkXsXyXtX*.%.@.| ] z 8 ,.8.u.u.KXKXKXKXKXKXKXKXKXKXKXKXKXKXKXKXKXKXKXKXKXKXKXKXKXKXKX",
"KXKXKXKXKXKXlXxXxXxXlXaXpXaXkXaXuX$.| 1 - - , < { #.;.=.tXuXyXpXpXdXyXyXuXuXyXyXpXkXlXxXcXBXBXBXBXcXxXxXlXkXaXpXyXyXyXuXuXuX=.-.$.#.| } #.O.U.4.8.i.s.f.MXFXHXZXVXBXcXcXxXlXkXpXyXtX=.*.%.} ] z 8 9 2.7.y.y.7.KXKXKXKXKXKXKXKXKXKXKXKXKXKXKXKXKXKXKXKXKXKXKXKXKX",
"KXKXKXKXKXxXlXlXlXkXpXtX=.tXyXyX*.} ` , * * , < { #.$.*.=.=.tXuXuXuXuXtXtXuXpXaXlXxXBXBXVXVXVXVXBXcXxXxXlXlXkXaXpXpXyXuXtX=.*.%.} ` ` { %.&.X.3.2.y.a.d._.MXmXmXBXNXcXxXxXlXzXaXyXuXeX=.$.#.] n 7 8 ,.5.8.7.7.7.KXKXKXKXKXKXKXKXKXKXKXKXKXKXKXKXKXKXKXKXKXKXKXKX",
"KXKXKXKXKXcXxXzXyX*.%.#.#.*.=.=.%.{ < - * * = < ` } %.$.*.*.-.=.=.=.=.=.tXpXzXxXBXVXVXVXBXcXxXlXaXpXyXyXpXpXyXyXtX=.*.$.%.#.| ` _ :.< _ | ..m w 9 5.u.a.d.f._.MXmXNXcXxXxXxXlXaXyXuXuX=.*.#.{ _ b z 0 2.5.8.8.KXKXKXKXKXKXKXKXKXKXKXKXKXKXKXKXKXKXKXKXKXKXKXKXKX",
"KXKXKXKXKXlXzXyX%._ < _ ` } $.%.} _ , * X * = 1 ` | } %.%.%.%.$.$.*.*.=.uXsXlXcXBXBXBXxXkXpXtX*.%.#.} } @.@.@.} } | { ` ' _ < 1 , , , ) ` { ] m M 4.7.u.i.i.g.gXvXcXxXxXlXlXkXpXyXyXuX=.*.#.{ ) 1 l q 1.6.6.5.KXKXKXKXKXKXKXKXKXKXKXKXKXKXKXKXKXKXKXKXKXKXKXKXKX",
"KXKXKXcXlXaXuX%.1 . . = < { } } ` , * . X . - , _ ` | } } } } } #.%.*.eXyXaXlXxXxXlXkXyX*...` < , , , , , , , , , 2 = = = = = - = , , < _ { %.-.!.^.9.7.7.y.t.~.bXxXbXlXkXaXpXpXyXuXtX=.$.} ` ) , l 0 ,.1.2.2.KXKXKXKXKXKXKXKXKXKXKXKXKXKXKXKXKXKXKXKXKXKXKXKXKX",
"KXKXKXcXlXyX} 1 X o X , ` { { ` 1 = * X X X * = 1 _ ` ` { { { | } %.*.tXpXaXzXzXaXyX*.} ' 1 ; - $ $ % x v v v x x ; % ; x x % $ - = , < ` | $.rXQ.U.4.6.5.5.t.~.kXzXkXaXpXyXyXyXuXtX=.*.#.| _ < , l 0 ,.1.,.,.KXKXKXKXKXKXKXKXKXKXKXKXKXKXKXKXKXKXKXKXKXKXKXKXKX",
"KXKXKXBXzX$., X   X , ` } { _ 1 , - * X X X * - , < _ _ _ ` ` ` | %.*.tXpXpXpXyX=.#.` , - $ $ % % % r U A.S.Z.W Y c u v U U u % $ ; , < ` | %.-.!.U.3.1.1.2.e.!.sXaXaXpXyXuXtXtX=.=.*.%.} ` ) 1 , l 0 1.1.>.9 KXKXKXKXKXKXKXKXKXKXKXKXKXKXKXKXKXKXKXKXKXKXKXKXKX",
"KXKXKXBXkX%.- * ` %.*.*.%.` , - - = * . X X * - = , 1 < < _ _ ` | %.*.=.tXtX=.%.| < = - $ % t c c y u Y Z.L.L.L.G.R U T W W Y u t : , < ' | #.;.&.e.3.,.>.<.r.!.pXaXsXpXyX=.=.*.*.$.%.} { ' ( 1 1 z <.2.1.9 0 KXKXKXKXKXKXKXKXKXKXKXKXKXKXKXKXKXKXKXKXKXKXKXKXKX",
"KXKXKXxXaX%.< ` tXlXkXtX#.` 1 , , 1 2 3 X X . * - = , , , 1 < ` | %.*.*.*.%.} ` < = $ $ % x Y A.W T U R Z.L.E./.E.S.W W A.Z.A.R U x : 1 _ ` } %.O.M 3.>.9 0 M !.pXsXpXyXtX*.*.$.%.#.} } | [ ` ) 1 z 3.2.,.0 8 KXKXKXKXKXKXKXKXKXKXKXKXKXKXKXKXKXKXKXKXKXKXKXKXKX",
"BXcXlXkXpXuX=.uXaXlXyX} ` | $.*.#.` 1 * X X X * * = > , , , < ` | %.$.%.#.| _ , : x x e % t R S.G.A.W A.S.R.E.2X(.R.G.Z.A.A.Z.Z.W U x : < _ [ } ..M <.>.0 8 M !.yXdXuX=.*.%.#.} } } %.%.$.$.#.[ < l q ,.>.8 8 KXKXKXKXKXKXKXKXKXKXKXKXKXKXKXKXKXKXKXKXKXKXKXKXKX",
"BXcXzXpXyXpXaXkXkXpX$._ 1 #.pXaXtX} _ - X   X . * - = = , , _ ` } #.%.} { _ > - : c U u e t R G.L.G.G.G.G.L.E.2X2XE.R.G.Z.A.Z.G.Z.R v x : 1 _ [ ] M <.9 8 5 M O.tXtX-.$.%.} | | | #.*.=.uXtX-...n z 0 >.0 8 5 KXKXKXKXKXKXKXKXKXKXKXKXKXKXKXKXKXKXKXKXKXKXKXKXKX",
"BXcXaX=.*.=.pXpXyXtX%._ _ %.pXaXtX} _ - X   X . * * - - = 1 ` { } } } ` < , * * : U R U t u Y Z.L.E.E.R.S.G.E.2X2X2X/.R.Z.W Z.G.S.W U x : , ) ` ] M 0 0 8 5 z ..-.*.%.#.} } } } %.-.yXpXpXdX!.U.4.2.>.0 8 5 4 KXKXKXKXKXKXKXKXKXKXKXKXKXKXKXKXKXKXKXKXKXKXKXKXKX",
"cXxXyX#.| %.=.=.*.%.#.#.$.yXkXaXtX} < * X X X . * * - = , ( ` | | | ` < = * . $ x T W R U U Y W G.E./.E.G.G.W.2X2X2X2XE.S.W A.Z.Z.W T v : 2 1 n m w 8 8 5 5 z ..;.$.#.} | } } %.*.*.=.-.Q.!.Y.t.8.6.>.8 5 4 4 4 KXKXKXKXKXKXKXKXKXKXKXKXKXKXKXKXKXKXKXKXKXKXKXKX",
"xXkX=.` , ` #.#.{ ` %.yXlXvXxXkX=.{ 1 * . X X . * - , 1 < _ ` [ ` _ 1 - . X + % y Y W A.A.W Y Y A.R./.E.L.G.E./.2X2X2XE.G.A.W W W Q R K : ; N q <.0 8 5 4 4 z ] %.%.@.} | } #.$.;.} < ; z 3.4.2.1.>.8 5 4 4 4 4 KXKXKXKXKXKXKXKXKXKXKXKXKXKXKXKXKXKXKXKXKXKXKXKX",
"bXaX*.< - 1 { { _ _ $.kXBXcXlXyX%.` , * . X X . * * = , 1 < _ ) 1 , = * + + $ e u U W Z.G.Z.R U W G.E.E.R.R.R.E./.2X2X/.R.S.A.R Y Q W U x % 7 0 ,.9 5 5 6 7 n  .#.@.} | { [ } %.$.` . o 4 9 1.>.0 8 5 4 4 4 4 KXKXKXKXKXKXKXKXKXKXKXKXKXKXKXKXKXKXKXKXKXKXKXKXKX",
"xXzX=._ = , ` { { } =.kXxXkXtX%.{ < = * . X X . . . * * * - - - * * $ $ % % r t u K Y A.G.G.W T Y A.G.R.E.E.R.G.L.E.(./.E.R.A.T U R W Y t % 6 8 0 8 4 6 l ] { | } | ` ` _ _ ` #.#.` . o @ 5 8 8 8 5 4 4 4 KXKXKXKXKXKXKXKXKXKXKXKXKXKXKXKXKXKXKXKXKXKXKXKXKXKXKX",
"BXxXyX} _ < _ { #.*.yXpXpXuX%.{ _ , * * 3 * * * * * . . . X X X X X + $ % r t y u u K W S.G.Z.W R W A.G.E.E.R.S.G.R.E././.E.Z.U u T W Y u % % 7 7 6 6 l b ` { [ ` _ < 1 , , < { } | _ 1 l z z 7 6 6 4 4 KXKXKXKXKXKXKXKXKXKXKXKXKXKXKXKXKXKXKXKXKXKXKXKXKXKXKXKX",
"VXcXkX=.#.` _ { *.pXpXuX*.%.| _ , * . . * - , , = - * . X X X X   O O O $ % r u u y u U W A.S.S.A.R Y A.L.R.G.Z.Z.G.R.E./.E.S.U u U R Y c t % ; - ; ; 1 b _ _ _ < , = - * * = _ [ } %.$.#.| ' b ; - KXKXKXKXKXKXKXKXKXKXKXKXKXKXKXKXKXKXKXKXKXKXKXKXKXKXKXKXKXKX",
"cXlXpX*.} ` ` | *.yXtX%.| ` < , * X X X . * - - - * * . . . * * + O O O O & r u u t t c T W S.G.Z.Y K Y A.S.Z.Z.A.Z.S.L.E.E.G.Y u u U U K v x - * * = > , , , , = - * * . . * = 1 ' { | [ _ < , = - KXKXKXKXKXKXKXKXKXKXKXKXKXKXKXKXKXKXKXKXKXKXKXKXKXKXKXKXKXKX",
"kXpX=.#.` ` ` } %.*.#.` 1 > - * X X     X X X X X X . * - > 1 1 ; $ O O O $ % y y r r y c Y Z.G.Z.T u u U R W A.A.W W Z.L.R.G.W U v u u U U x % . . * * * * * * * * * - = , , , 1 1 1 1 , = - - - - KXKXKXKXKXKXKXKXKXKXKXKXKXKXKXKXKXKXKXKXKXKXKXKXKXKXKXKXKXKX",
"uX=.%.{ _ ` | } } { _ 1 - * . X X KXKXKXKX        X . - , _ ` ` _ , - + O O % e r r r r r u R A.A.Y c u u u Y A.W Y U R Z.G.S.A.R v e t U T c % + + . . . 3 * * * = 1 ` #.*.=.=.=.*.$.#.{ _ , , , , KXKXKXKXKXKXKXKXKXKXKXKXKXKXKXKXKXKXKXKXKXKXKXKXKXKXKXKXKXKX",
"%.%.| _ < ` { [ _ 1 , - * X X   KXKXKXKXKXKXo o o   . = ( ` } } { _ , $ O O O % % r t e % e c Y R R T c r t U W W U u K R A.Z.A.W c e r U R U r % + . X X X X . * 1 ` %.yXzXxXxXlXkXpXuX%.{ _ < 1 , KXKXKXKXKXKXKXKXKXKXKXKXKXKXKXKXKXKXKXKXKXKXKXKXKXKXKXKXKXKX",
"| { _ 1 , 1 < 1 , - * . X X KXKXKXKXKXKXKXKXKXKX  X * = < ` { { ` < = $ O O O O % r t r % % r v U R R c e e u Y Y c y u U Y W A.R c e r U R U t % + . X     o   . , | *.yXaXaXpXyXuX=.*.#.` _ < KXKXKXKXKXKXKXKXKXKXKXKXKXKXKXKXKXKXKXKXKXKXKXKXKXKXKXKXKXKXKXKX",
"` ` < , = = - - * * . X   KXKXKXKXKXKXKXKXKXKXKXKXX * = , < _ _ < , = - $ + O O + % r r r e % % y U Y c e % t c K u u y u c Y W R c r y U Y U y % ; = = > , = = , _ | %.*.tXtX=.$.%.%.} { _ _ KXKXKXKXKXKXKXKXKXKXKXKXKXKXKXKXKXKXKXKXKXKXKXKXKXKXKXKXKXKXKXKXKX",
"` _ < , - * * . X X X KXKXKXKXKXKXKXKXKXKXKXKXKXKXKXKX* - - - - = , 1 < < : $ O O O $ % r r % % e t u t e % e r t u u t r r c R R c r r c U K u x P ..;.tXyXyXtX*.#.{ ` } $.*.*.$.%.} { ` _ < KXKXKXKXKXKXKXKXKXKXKXKXKXKXKXKXKXKXKXKXKXKXKXKXKXKXKXKXKXKXKXKXKX",
"` _ 1 - * . X X X   KXKXKXKXKXKXKXKXKXKXKXKXKXKXKXKXKX= * . . . - 1 ) _ _ < ; + O O O $ % e e e x x K P P P ] X.X.O.O.X.X.P ! ! ! K r r u u u u K X.&.uXaXlXxXlXaX=.} ` { | } %.%.#.| ` _ < 1 KXKXKXKXKXKXKXKXKXKXKXKXKXKXKXKXKXKXKXKXKXKXKXKXKXKXKXKXKXKXKXKXKX",
"KXKX- * . X X X   KXKXKXKXKXKXKXKXKXKXyXpXaXlXbXzXpX$._ * X . * , < _ _ < 1 , - $ O O O O & x K P ..#.&.=.uXsXkXbXvXvXbXfXiXQ.O.! K y r r r t y K P ..$.=.uXyXpXpXyXtX$.{ < < ` } | ` ` _ KXKXKXKXKXKXKXKXKXKXKXKXKXKXKXKXKXKXKXKXKXKXKXKXKXKXKXKXKXKXKXKXKXKXKX",
"KXKXKXX X X X KXKXKXKXKXKXKXKXKXKXKX X;.*.eXpXaXaXpXtX} _ , - * = , 1 , , , 1 1 , - $ + X $ : L ] } %.*.eXyXsXkXzXzXkXzXlXzXsX<X&. .x % % % % r v P  .} #.$.*.rXuXyXyX=.#._ 1 < _ _ _ _ _ KXKXKXKXKXKXKXKXKXKXKXKXKXKXKXKXKXKXKXKXKXKXKXKXKXKXKXKXKXKXKXKXKXKXKX",
"KXKXKXKXKXKXKXKXKXKXKXKXKXKXOXXX.X}.{.o.` { %.=.yXpXpXtX%.{ 1 - * * * * * - < ' _ < , = - - , < ' { } +.#.%.%.%.#.| | %.yXnXlXzXpX%.L ; $ & & % r b ' { | } #.%.*.=.tX=.*.%.{ < = = , 1 1 KXKXKXKXKXKXKXKXKXKXKXKXKXKXKXKXKXKXKXKXKXKXKXKXKXKXKXKXKXKXKXKXKXKXKX",
"KXKXKXKXKXKXKXKXKXKXKXKXKXXXXXXXXX.X{.o.` { +.%.$.%.%.+.| _ , * . X X X X * 1 _ _ < , : r u T ! ^ T.T.,X,X,X,X,X,XT.^ O.&.=.sXbXzXrX| _ b b x x : 1 b _ ' ` X.U.^.Y.!.*.-.*.+._ - - = , , KXKXKXKXKXKXKXKXKXKXKXKXKXKXKXKXKXKXKXKXKXKXKXKXKXKXKXKXKXKXKXKXKXKXKX",
"KXKXKXKXKXKXKXKX.X.X.X}.}..XXXXXOXXXoX X#.#.%.%.{ < , 2 = = - * X       X * 2 , , = ; i k z.B.$X=X;X4X3X6X6X8X6X6X5X4X@X! { =.lXlXpX*.%.#.+.| ` _ < 1 1 1 b M 9.p.t.Y.%.;.*.#.` , = = , , KXKXKXKXKXKXKXKXKXKXKXKXKXKXKXKXKXKXKXKXKXKXKXKXKXKXKXKXKXKXKXKXKXKXKX",
"KXKXKXKXKXKXKX}.|.|.'.].].{.}..XXXOX+XoX X X;.$.%.%.#.} } | ` < = X     X 3 * - ; r i J b.B.-X>X:X3X5X7X7X9X9X9X9X9X7X*XH.^ <XhXlXpX=.%.} | } %.#.| _ < > ; w 5.y.9.m { @.%.} ` 1 , , KXKXKXKXKXKXKXKXKXKXKXKXKXKXKXKXKXKXKXKXKXKXKXKXKXKXKXKXKXKXKXKXKXKXKXKXKX",
"KXKXKXKXKXKX}.|.'.F S V C D '.}.XXOXOXXXoX X;.$.tXpXaXaXyX=.$.| 1 * X X X . . + e f k.v.M.#X=X>X:X3X3X3X3X3X3X3X5X9X9X:X%XJ.1XhXkXpX=.%.` _ | *.=.$.| _ , = 6 0 <.q l < ' { ` _ 1 , KXKXKXKXKXKXKXKXKXKXKXKXKXKXKXKXKXKXKXKXKXKXKXKXKXKXKXKXKXKXKXKXKXKXKXKXKXKX",
"KXKXKXKXKX|.|.'.F V # # # C `.|..XOXOXXX}.{.o.| $.uXyXuX=.%.{ < - . X X X X   X % f k.x.I.N.M.B.V.K.#X$X%X=X=X;X:X5X5X;X#XJ.,XgXaXpXtX$.} ` { } #.#.} { < - $ 6 6 6 - = , 1 , , = - KXKXKXKXKXKXKXKXKXKXKXKXKXKXKXKXKXKXKXKXKXKXKXKXKXKXKXKXKXKXKXKXKXKXKXKXKXKX",
"KXKXKXKXKX'.'.F C # # o # C F |.}..X.X}.|.~ A _ } *.=.*.%.{ 1 * X X X X X X   X % j n.b.F.F.c.c.c.c.F.M.B.K.$X%X;X:X:X-XB.F.T.gXaXpXtX*.%.} { ` ` { } { _ , = = , , , = = = - - - , KXKXKXKXKXKXKXKXKXKXKXKXKXKXKXKXKXKXKXKXKXKXKXKXKXKXKXKXKXKXKXKXKXKXKXKXKXKX",
"KXKXKX.X}.'.`.D C # # # # C F '.'.|.'.].F G A ` $.yXsXpXuX%._ * X X X X . * * - b P O.!.<X<X<X<X!.!.T.G.F.N.B.#X%X;X;X#Xm.c.T.fXzXpX=.*.*.$.#.{ _ _ _ _ _ _ { @.%.#.} ` _ < 1 < _ } *.yXtX*.%.KXKXKXKXKXKXKXKXKXKXKXKXKXKXKXKXKXKXKXKXKXKXKXKXKXKXKXKXKXKXKXKXKX",
"KXKXKX}.|.'.F D C V B V C A ~ ~ ~ ~ D D S A L | -.sXkXaXyX%._ - X X X . * - = , ` %.uXaXxXcXcXvXbXkXsX<XR.F.F.F.J.#X#XB.z.c.T.jXlXdX*.*.=.tX*.} ` 1 , , ` #.=.pXkXaXyX*.#.{ ` { } *.yXaXyXtX=.KXKXKXKXKXKXKXKXKXKXKXKXKXKXKXKXKXKXKXKXKXKXKXKXKXKXKXKXKXKXKXKXKX",
"KXKXKX'.'.].F D S C C S S H a w w w p Z S D G o. XuXyX=.%.{ < = . X X . - , , _ #.yXlXBXZXAXAXAXZXVXcXhX<X!.O.! ! c.b.l.k.n.W.jXzXrX} %.yXaXyX#._ , - , | =.aXcXVXCXxXaX=.} { | %.uXzXcXxXkXaXKXKXKXKXKXKXKXKXKXKXKXKXKXKXKXKXKXKXKXKXKXKXKXKXKXKXKXKXKXKXKXKXKX",
"KXKXKXF D D D D ~ [.[.[.^ Q w.3.q w i ~ F `.'.{. X*.$.} ` 1 , - * * * - , < _ | *.aXxXcXcXBXVXZXSXZXVXxXaXeX@.` b u f k J A.!.fXaX=.#.*.pXzXyX#._ = * , | =.aXcXVXBXxXaX=.} { { } =.aXxXlXaXaXKXKXKXKXKXKXKXKXKXKXKXKXKXKXKXKXKXKXKXKXKXKXKXKXKXKXKXKXKXKXKXKXKX",
"KXKXKXV V B V ~ @X4X5X4X*X$XB.b./ ~ ~ '.|.}.}.|. X#.| _ 1 = * * - , < < < ` } $.uXaXaXyX=.rXpXlXxXcXxXlXaXuX%.' , - % x ] O.Q.yXyXtX=.uXaXkXtX{ , * 3 - _ } =.yXaXyX=.%.} ` _ _ _ } *.=.=.*.$.KXKXKXKXKXKXKXKXKXKXKXKXKXKXKXKXKXKXKXKXKXKXKXKXKXKXKXKXKXKXKXKXKX",
"KXKXKX~ ~ ~ ~ ^ &X3X:X;X%X$X@X[.[.'.|.}..X.X}.|.o.[ < 2 * * - , _ { | ` ` | %.=.uXuXQ.Y.U.U.O.-.uXsXnXaXdX=.} _ = 3 * < #.=.=.*.*.uXpXpXpXuX%._ - . X * = _ { } #.| _ < 1 , , = , 1 ` { { ` ` KXKXKXKXKXKXKXKXKXKXKXKXKXKXKXKXKXKXKXKXKXKXKXKXKXKXKXKXKXKXKXKXKX",
"KXKXKX*X*X&X&X$X$X#XB.v.c./ [.[.}..XXXXXXX.X|.].G , * . . = _ } %.$.%.} [ } *.tX=.$.X.e.9.9.r.] } *.uXtX*.#.` 1 - * = { tXpX=.} } uXkXaX=.} _ , * X X X * - = > = - * * * * * * - = , 1 1 1 < KXKXKXKXKXKXKXKXKXKXKXKXKXKXKXKXKXKXKXKXKXKXKXKXKXKXKXKXKXKXKXKXKX",
"KXKXKX=X-X-XK.B.N.b.k.J H ~ ].|..XXXOXXX.X}.'.F V 3 3 = _ | $.=.=.*.%.| ` | *.uXtX=.&.U.r.4.M  .@.$.*.%.} ` 1 = = , ` %.yXaXtX#.#.yXzXpX%._ = * . . * - 1 _ < , - * * * - , _ { #.%.%.$.%.%.%.%.KXKXKXKXKXKXKXKXKXKXKXKXKXKXKXKXKXKXKXKXKXKXKXKXKXKXKXKXKXKXKXKX",
"KXKXKXm.v.b.j.h.h h p & C F '.}..XXXXX.X|.'.F C # 3 , | =.dXpXpXuX$.} ` _ ` %.tXyXpXyX&.] ] #.-.-.$.#.{ _ , * * , [ $.tXyXpXtX*.*.yXpXtX} , * X X * , _ } %.#.` 1 , , 1 ` #.=.aXxXcXcXcXxXzXpXtX*.%.KXKXKXKXKXKXKXKXKXKXKXKXKXKXKXKXKXKXKXKXKXKXKXKXKXKXKXKXKXKX",
"KXKXKXH H H H i p r & C S F '.|.}.}.|.|.].F C V A { $.yXzXlXzXpXtX%.{ _ < _ } *.tXpXpXrX$.%.*.=.*.} ` < , - 3 * 1 %.uXyX=.;.*.*.*.-.*.} < * X X X , ` } %.%.} _ < < ` } =.aXxXBXZXSXZXDXBXxXkXyX=.*.KXKXKXKXKXKXKXKXKXKXKXKXKXKXKXKXKXKXKXKXKXKXKXKXKXKXKXKXKXKX",
"KXKXKXV V V V V V V C S F `.].'.'.'.].F D C V A #.pXlXxXxXlXaXyX*.| _ < < _ ` } $.=.uXuX=.=.*.%.} ` 1 , - * * - _ *.yXtX} ` | %.%.} _ , - . X X . 1 { } } | ` _ _ { %.uXzXBXZXZXZXZXVXBXxXlXaXyXtX=.KXKXKXKXKXKXKXKXKXKXKXKXKXKXKXKXKXKXKXKXKXKXKXKXKXKXKXKXKXKX",
"KXKXKXKXB B B B B V C S D F F F F D S C C A o.-.sXxXcXxXlXaXyX*.} _ 1 , , 1 _ ` | #.%.%.#.} | ` _ 1 = * . * , _ } *.<X$.` , < ` ` < = * X X X . * , 1 < 1 1 < ` } *.pXlXcXBXBXcXxXlXkXaXpXuX=.*.%.$.=.yXKXKXKXKXKXKXKXKXKXKXKXKXKXKXKXKXKXKXKXKXKXKXKXKXKXKXKXKX",
"KXKXKXKXKXKXB V V C C S S D S S C C C C A #.dXlXcXcXxXkXyX=.$.} ' , = = = , , 1 _ ` ` _ _ < 1 , , - * * . - _ } %.%.#.` , - - , = * . X X X X * * * * * * - < } *.pXlXcXxXlXaXyXtX=.*.$.%.#.} ` ` } *.uXyXKXKXKXKXKXKXKXKXKXKXKXKXKXKXKXKXKXKXKXKXKXKXKXKXKXKXKX",
"KXKXKXKXKXKXKXKXKXKXKXKXKXKXKXKXKXKXo.;. XaXvXBXcXkXpX=.$.} [ _ , - * * - - - = , 1 1 , = - - - * * * * - 1 | %.%.[ 1 - 3 X X . . X X       X . . X X . * 1 | =.aXzXlXzXpX=.%.} { [ ` ' _ ) < , , ' #.*.=.KXKXKXKXKXKXKXKXKXKXKXKXKXKXKXKXKXKXKXKXKXKXKXKXKXKXKX",
"KXKXKXKXKXKXKXKXKXKXKXKXKXKXKXKXKXKXKXxXxXcXBXcXkXuX*.@.{ _ < , : : : : , , ( ` { | { ` 1 , - * . . * = _ { } #.| L % $ + + X             X X X X X X * 1 { $.yXaXaXpXtX%.` L b b x x x x x : % ; b | %.-.KXKXKXKXKXKXKXKXKXKXKXKXKXKXKXKXKXKXKXKXKXKXKXKXKXKXKX",
"KXKXKXKXKXKXKXKXKXKXKXKXKXKXKXKXKXkXxXBXVXBXlXsXtX$.} ` ( , 2 1 I H.H.! ' | -.pXzXlXkXyX*.} < - . . * _ %.;.} _ b K J J k f e O       X X X   X X X * 1 | $.=.eX=.*.%.{ _ , ; t a f k k k k f f f U ] #.eXnXcXKXKXKXKXKXKXKXKXKXKXKXKXKXKXKXKXKXKXKXKXKXKXKXKXKX",
"KXKXKXKXKXKXKXKXKXKXKXKXKXKXKXKXzXzXxXBXBXxXdX*.@.[ ` ] I I P K D.J.J.H...*.aXNXZXZXVXlXyX%._ = * = < | $.;.| x u J m.I.z.J p O       X X X X X X * = _ } $.$.%.} ` < , ; : p a s 0.j.z.z.x.x.x.v.c.Q X.Q.sXlXbXKXKXKXKXKXKXKXKXKXKXKXKXKXKXKXKXKXKXKXKXKXKXKXKX",
"KXKXKXKXKXKXKXKXKXKXKXKXKXKXKXKXxXxXxXxXzXdX*.} _ < P H.&X&X@XF.m.b.c.! O.rXzXBXVXVXcXkXtX#._ = , ` } } |  .! Q b.M.B.N.z.J p O           X X X . - , _ ` { ` _ , - 3 $ e f h h h.l.m.B.K.#X$X$X$XK.m.D.T.<XyXKXKXKXKXKXKXKXKXKXKXKXKXKXKXKXKXKXKXKXKXKXKXKXKXKX",
"KXKXKXKXKXKXKXKXKXKXKXKXKXKXKXKXaXzXaXyX=.%.{ ' P ! H.&X;X=X#XN.z.h.k Y ..-.aXxXcXxXkXyX$.| < , 1 { #...] Y D.m.M.M.N.v.j.h p @             X X . * , , 1 1 > * . + O 6 f k.l.z.b.M.#X%X;X;X;X;X;X=X#XB.G.T.T.Q.KXKXKXKXKXKXKXKXKXKXKXKXKXKXKXKXKXKXKXKXKXKXKXKX",
"KXKXKXKXKXKXKXKXKXKXKXKXKXKX*.=.tXuX=.%.{ _ 1 L ^ &X;X%X#XB.v.j.q.g f c ] @.eXpXsXpXtX$.| _ , , < ` | X.D.b.M.B.M.v.j.0.g s a KXKXKXKXKX        X . * - * * . X X @ p s h.z.v.N.V.$X;X:X3X3X3X3X3X>X;X%XB.b.D.!.hXxXKXKXKXKXKXKXKXKXKXKXKXKXKXKXKXKXKXKXKXKXKXKX",
"KXKXKXKXKXKXKXKXKXKXKXKXKXKX$.$.*.$.+.' < L ^ ,X&X>X;X#XN.z.h.g s s a t 1 _ } %.$.%.} ` < , 1 < L P ! D.m.N.B.B.N.z.k.g s d s KXKXKXKXKX          X * * * * + @ @ p s 0.j.v.N.B.K.%X;X:X3X3X5X5X5X5X5X:X%XN.F.T.fXzXKXKXKXKXKXKXKXKXKXKXKXKXKXKXKXKXKXKXKXKXKXKX",
"KXKXKXKXKXKXKXKXKXKXKXKXKXKX} } } } ` < L ^ *X5X3X;X$XN.j.q.g s s d a e - > < _ ` _ < , - = 1 _ P Q b.M.B.B.M.m.z.j.h.h g s d KXKXKXKXKX        X . * = 2 2 l p a g q.k.l.v.N.M.V.#X%X;X>X3X5X7X8X8X8X9X:X%XJ.,X<XyXKXKXKXKXKXKXKXKXKXKXKXKXKXKXKXKXKXKXKXKXKXKX",
"KXKXKXKXKXKXKXKXKXKXKXKXKXKX_ _ ( b P O.,X*X3X:X;X#XM.j.h s s d a p e ; ; , < _ < , - * * * > < P D.M.C.K.V.N.z.k.q.h g s KXKXKXKXKXKXKXX X . * 2 1 _ _ _ _ v f s g 0.j.z.v.m.N.M.K.$X=X;X:X5X7X8X0XwX0X9X>X&XT.&.%.KXKXKXKXKXKXKXKXKXKXKXKXKXKXKXKXKXKXKXKXKXKX",
"KXKXKXKXKXKXKXKXKXKXKXKXKXKX< , 2 2 I ,X4X3X;X%XK.N.z.q.s d d a p ; , < ` { } } | _ 1 , , 2 2 , K D.B.C.V.B.v.j.q.g s d KXKXKXKXKXKXKXKXX . * , _ { } #.@.} P j s g 0.k.z.x.v.v.v.B.$X=X;X:X5X7X8X0XwXqX0X7X4X,XX. .KXKXKXKXKXKXKXKXKXKXKXKXKXKXKXKXKXKXKXKXKXKX",
"KXKXKXKXKXKXKXKXKXKXKXKX#.{ ` < , , L ! ^ P.J.B.N.z.k.q.s a i v b ' | $.tXpXzXlXzXpXyX=.%.} _ < v J v.v.v.z.j.k.0.g KXKXKXKXKXKXKXKXKXKXKXKX* , < ` %.*.rXtXT.E d s 0.k.j.l.z.z.v.M.K.$X;X:X5X8XwXwXqXqXqXwX6X&XH.! !.sXKXKXKXKXKXKXKXKXKXKXKXKXKXKXKXKXKXKXKXKX",
"KXKXKXKXKXKXKXKXKXKXKX*.*.*.%.#.| ` _ ( b K Q c.n.J h s a p x < ' | $.yXzXcXZXSXZXVXcXzXyX*.| _ x j J h.h.h.k.h.h.KXKXKXKXKXKXKXKXKXKXKXKXKXKX* = _ } =.pXaX<XY.J h 0.h.h.k.j.l.v.N.B.#X%X;X5X8XwXqXqXqXqXqX0X;XJ.G.<XsXnXKXKXKXKXKXKXKXKXKXKXKXKXKXKXKXKXKXKXKX",
"KXKXKXKXKXKXKXKXKXKXKXzXzXlXlXlXaXpXtX*.#. .P K v x r e e ; ; , < ` } *.pXkXxXxXxXzXpXuX*.#.{ _ b x v j h k.k.KXKXKXKXKXKXKXKXKXKXKXKXKXKXKXKXX * , ` %.tXpXfXgX<XT.n.g q.h.k.k.j.v.M.K.#X$X;X5X0XwXqXqXqXwX8X;X#XP.!.uXdXKXKXKXKXKXKXKXKXKXKXKXKXKXKXKXKXKXKXKX",
"KXKXKXKXKXKXKXKXKXKXKXlXxXxXcXcXxXlXkXpXuX*.} ` _ 1 , = - * * - , < ` #.*.uXpXsXpXtX*.%.} { ` _ < , : x j J KXKXKXKXKXKXKXKXKXKXKXKXKXKXKXKXKX  X * , ` %.uXaXbXlX!.n.s g q.0.0.k.z.N.V.B.V.$X;X5X8X0XwX0X8X7X;X$XP.T.!.&.KXKXKXKXKXKXKXKXKXKXKXKXKXKXKXKXKXKXKX",
"KXKXKXKXKXKXKXKXKXKXKX=.=.=.tXuXuXyXyXpXpXpXyXrX$.| _ , - * * * = , _ } $.=.yXyXyX=.$.} { ` _ < , = - : x x KXKXKXKXKXKXKXKXKXKXKXKXKXKXKXKXKX  X . * 1 ` %.uXnXkX!.E d d s g q.k.l.v.N.M.B.#X-X;X3X5X7X7X5X3X>X=X#XF.D.D.KXKXKXKXKXKXKXKXKXKXKXKXKXKXKXKXKXKXKX",
"KXKXKXKXKXKXKXKXKXKXKX{ { ` ` { | } %.*.=.yXpXyX=.%.| ( , = = , < ` | %.=.yXaXzXkXpXuX*.%.} ` _ < , = , 1 < _ KXKXKXKXKXKXKXKXKXKXKXKXKXKXKXKX  X X . - 1 ` %.yXsX<XT.D.k s s g q.k.l.z.m.M.V.#X%X=X;X;X;X;X;X=X%XC.x.k.0.KXKXKXKXKXKXKXKXKXKXKXKXKXKXKXKXKXKXKX",
"KXKXKXKXKXKXKXKXKXKXKX, , , , , , , 1 _ ` } %.$.*.%.} ` 1 1 _ { +.$.=.yXkXxXVXZXZXBXxXkXyX=.%.} ` _ 1 1 1 ( ` | } KXKXKXKXKXKXKXKXKXKXKXKXKXKXKXKXX . * - 1 ` %.tXsXhXgXT.k d d g h h.j.z.v.M.V.K.#X#X#X$X$X#XV.M.v.l.k.h.KXKXKXKXKXKXKXKXKXKXKXKXKXKXKXKXKXKXKX",
"KXKXKXKXKXKXKXKXKXKXKX- = , , 1 1 1 1 , 1 < _ ` | } { _ , , _ ` } #.*.=.dXkXxXcXcXbXkXyX=.$.#.| ` < , , , _ { #.%.KXKXKXKXKXKXKXKXKXKXKXKXKXKXKXKXKXX X * = < { %.yXkXfXT.k d d d s g q.k.l.v.N.M.B.B.M.N.N.m.F.S.Z.Q E E KXKXKXKXKXKXKXKXKXKXKXKXKXKXKXKXKXKXKX",
"KXKXKXKXKXKXKXKXKXKXKX, 1 _ | } #.#.} ` < , , , 1 < 1 , - * - 2 , < _ ` } %.*.-.*.$.%.} { ` _ < , = = = , _ | $.*.KXKXKXKXKXKXKXKXKXKXKXKXKXKXKXKXKXX X . * , _ { %.eXQ.Y.k d d d d s s h h.j.z.v.v.m.v.z.l.c.Z.&.&.#... .KXKXKXKXKXKXKXKXKXKXKXKXKXKXKXKXKXKXKX",
"KXKXKXKXKXKXKXKXKXKXKX, _ { $.tXyXpXuX$.| _ , = = , = - * * * * - , , , 1 _ | #.} { ` ` { ` _ 1 1 1 1 1 1 < ` } } KXKXKXKXKXKXKXKXKXKXKXKXKXKXKXKXKXKXX X . * , b { #.%.O.X.E k s d d s s g q.q.k.n.S.T.T.T.T.!.<X-.%.} [ ' KXKXKXKXKXKXKXKXKXKXKXKXKXKXKXKXKXKX",
"KXKXKXKXKXKXKXKXKXKXKX1 _ } =.pXlXcXlXpX*.} _ 1 , - * * * * . 3 - 1 1 , - 1 | %.} _ _ { %.%.{ _ _ { | ` < , 1 1 1 KXKXKXKXKXKXKXKXKXKXKXKXKXKXKXKXKXKXKX  X . * , < ` } $.Q.!.W h d d d s s s s h E T.uXsXhXhXsXyX=.%.| ` ' _ _ KXKXKXKXKXKXKXKXKXKXKXKXKXKXKXKX",
"KXKXKXKXKXKXKXKXKXKXKXKX_ | %.=.pXzXzXpX=.%.{ _ 1 , - * . . X * 1 { { < = 1 } *.#.` _ } =.=.} _ ` %.*.#._ = - * * KXKXKXKXKXKXKXKXKXKXKXKXKXKXKXKXKXKXKX    X . * , 1 ` } $.&.O.! E h s d d h E Y.!.<XyXyXtX=.*.%.@.} | | } } | { KXKXKXKXKXKXKXKXKXKXKXKXKXKXKX",
"KXKXKXKXKXKXKXKXKXKXKXKXKXKX` } *.uXyXtX=.%.} ` _ 1 , * . X X * _ } #._ = 1 } $.#._ _ } =.=.} _ { *.=.%.< * . . . KXKXKXKXKXKXKXKXKXKXKXKXKXKXKXKXKXKXKX    X X . * , 1 _ ` | #.#.X.j s s h E T.uXdXyXtX$.} ` ` ` | @.%.*.=.=.%.} { KXKXKXKXKXKXKXKXKXKXKXKXKXKX",
"KXKXKXKXKXKXKXKXKXKXKXKXKXKX< ` } $.*.$.%.} { _ _ 1 , = * . X X - < < = * * , _ 1 - - , _ _ , = , ` { _ - X X KXKXKXKXKXKXKXKXKXKXKXKXKXKXKXKXKXKXKXKXKXKXKXX X X . * - , 1 _ [ | ] P v ! X.O.&.*.;.@.| ` ` { %.*.yXaXzXlXlXzXyX$.} ` _ KXKXKXKXKXKXKXKXKXKXKXKX",
"KXKXKXKXKXKXKXKXKXKXKXKXKXKX, < ` } } } { ` _ < 1 , , , , - * . * * * . X X X . X X X X X X X . * - = * X   KXKXKXKXKXKXKXKXKXKXKXKXKXKXKXKXKXKXKXKXKXKXKXKXKX    X X . * - , , < _ _ ` +.*.*.%.| ` < 1 _ | $.yXzXvXBXVXBXNXlXpX*.} ` _ < KXKXKXKXKXKXKXKXKXKXKX",
"KXKXKXKXKXKXKXKXKXKXKXKXKXKXKXKX_ _ _ _ _ 1 , = = = = , , , , , , , = * . . . . X       X X X KXKXKXKXKXKXKXKXKXKXKXKXKXKXKXKXKXKXKXKXKXKXKXKXKXKXKXKXKXKXKXKXKXKX  X X X X . * - 1 ` | } } { _ 1 1 < ` %.=.aXlXcXBXcXbXkXyX=.%.{ _ _ ` ` | #.KXKXKXKXKXKXKXKXKX",
"KXKXKXKXKXKXKXKXKXKXKXKXKXKXKXKX, , , , , = - * * - , 1 _ ` { | [ _ < , - - = , = * * * . . KXKXKXKXKXKXKXKXKXKXKXKXKXKXKXKXKXKXKXKXKXKXKXKXKXKXKXKXKXKXKXKXKXKXKXKX        X X . = _ ` ` < , = = , _ } *.yXkXlXxXlXaXtX$.} { ` { | #.%.$.$.%.%.KXKXKXKXKXKXKXKX",
"KXKXKXKXKXKXKXKXKXKXKXKXKXKXKXKX. . . * * * * * - , _ | %.*.*.*.%.} ` < , < ` } | ` _ 1 = - KXKXKXKXKXKXKXKXKXKXKXKXKXKXKXKXKXKXKXKXKXKXKXKXKXKXKXKXKXKXKXKXKXKXKXKXKXKX    X X . * = > = * * = , < _ { #.*.=.=.=.$.} ` _ _ ` %.tXpXkXlXkXyX=.%.{ _ KXKXKXKXKXKX",
"KXKXKXKXKXKXKXKXKXKXKXKXKXKXKXKX    X   X . * - , _ { #.$.*.*.$.%.%.#.} } #.*.=.=.%.} _ , = KXKXKXKXKXKXKXKXKXKXKXKXKXKXKXKXKXKXKXKXKXKXKXKXKXKXKXKXKXKXKXKXKXKXKXKXKXKXKX  X X X X . . X X . - , < _ ` { } } { ` < , , < { $.yXlXcXBXBXlXpX*.} ` _ < KXKXKXKXKX",
"KXKXKXKXKXKXKXKXKXKXKXKXKXKXKXKX    X X X . * = < ` } } } | ` ` } %.*.tXyXpXpXpXyX=.%.` 1 = KXKXKXKXKXKXKXKXKXKXKXKXKXKXKXKXKXKXKXKXKXKXKXKXKXKXKXKXKXKXKXKXKXKXKXKXKXKXKXKXKXX X X X X X X X * = 1 ) _ _ < , = - - , _ } uXzXcXVXVXBXxXaX=.#.` _ 1 , KXKXKXKXKX",
"KXKXKXKXKXKXKXKXKXKXKXKXKXKXKXKXKX  X X . * - , < ` ` ` ` ` ` { %.*.tXuXuXtX=.=.*.%.} ` _ 1 1 KXKXKXKXKXKXKXKXKXKXKXKXKXKXKXKXKXKXKXKXKXKXKXKXKXKXKXKXKXKXKXKXKXKXKXKXKXKXKXKXKX          X X * = , , , = - * * * , _ %.uXlXBXBXBXxXkXyX*.#.{ _ 1 , = KXKXKXKXKX",
"KXKXKXKXKXKXKXKXKXKXKXKXKXKXKXKXKXKXKXX . * = , , , 1 < _ { #.*.=.uXtX*.} { ` ` ` | } | ` ` ` _ _ KXKXKXKXKXKXKXKXKXKXKXKXKXKXKXKXKXKXKXKXKXKXKXKXKXKXKXKXKXKXKXKXKXKXKXKXKXKXKXKXKX  X X X . * = = * * . . * * , ` *.pXlXcXcXlXaXuX*.%.} | ` _ _ 1 , - * KXKXKX",
"KXKXKXKXKXKXKXKXKXKXKXKXKXKXKXKXKXKXKXX X . * = = , 1 _ ` | @.%.%.%.%.#.} #.$.=.tXyXyX=.*.#.| ` _ KXKXKXKXKXKXKXKXKXKXKXKXKXKXKXKXKXKXKXKXKXKXKXKXKXKXKXKXKXKXKXKXKXKXKXKXKXKXKXKXKXKXX X   X * * * X X X X * 1 { %.uXaXkXaXaXyX=.*.*.*.=.=.=.*.$.} ` < , KXKXKX",
"KXKXKXKXKXKXKXKXKXKXKXKXKXKXKXKXKXKXKX  X X X * - , _ ` { { ` ` ` ` { } *.yXzXcXBXBXxXkXuX$.} ` _ KXKXKXKXKXKXKXKXKXKXKXKXKXKXKXKXKXKXKXKXKXKXKXKXKXKXKXKXKXKXKXKXKXKXKXKXKXKXKXKXKXKXKXKX  X X X X X X X * , ` %.=.yXyXuX*.$.%.$.=.yXkXlXxXxXlXaXuX%.{ _ KXKXKX",
"KXKXKXKXKXKXKXKXKXKXKXKXKXKXKXKXKXKXKXKXKXX X . * = , 1 < < 1 < < _ | *.yXaXkXkXaXyX=.%.} _ , = - KXKXKXKXKXKXKXKXKXKXKXKXKXKXKXKXKXKXKXKXKXKXKXKXKXKXKXKXKXKXKXKXKXKXKXKXKXKXKXKXKXKXKXKXKX  X X X X . * , _ | %.%.%.%.%.%.%.=.pXzXcXBXVXBXcXzXyX*.} _ < KXKXKX",
"KXKXKXKXKXKXKXKXKXKXKXKXKXKXKXKXKXKXKXKXKXKXX . 3 * * * * - = , _ { %.tXpXaXyX=.%.} ` _ , - * . X KXKXKXKXKXKXKXKXKXKXKXKXKXKXKXKXKXKXKXKXKXKXKXKXKXKXKXKXKXKXKXKXKXKXKXKXKXKXKXKXKXKXKXKXKXKX  X X . * , _ ` { { { ` ` { #.=.sXxXBXVXVXBXxXkXuX$.| _ , = KXKXKX",
"KXKXKXKXKXKXKXKXKXKXKXKXKXKXKXKXKXKXKXKXKXKXX X X X X X . - , _ | %.$.$.%.%.%.%.*.tXuX=.%.} ` b 1 KXKXKXKXKXKXKXKXKXKXKXKXKXKXKXKXKXKXKXKXKXKXKXKXKXKXKXKXKXKXKXKXKXKXKXKXKXKXKXKXKXKXKXKXKXKXX X X * - , < _ < 1 1 1 _ } *.yXaXlXlXkXpXtX*.%.| ` < , - * KXKXKX",
"KXKXKXKXKXKXKXKXKXKXKXKXKXKXKXKXKXKXKXKXKXKX        X X * > _ { } %.%.} { { } *.yXlXxXzXdX=.%.| ` KXKXKXKXKXKXKXKXKXKXKXKXKXKXKXKXKXKXKXKXKXKXKXKXKXKXKXKXKXKXKXKXKXKXKXKXKXKXKXKXKXKXKXKXKXKXX X . * * = , , = * - 1 ` #.=.yXpXyX=.%.| ` _ _ _ _ _ , = * KXKXKX",
"KXKXKXKXKXKXKXKXKXKXKXKXKXKXKXKXKXKXKXKXKXKXKXKX    X * , _ ` ` ` ` { } %.=.yXaXlXxXbXaX=.%.{ _ 1 KXKXKXKXKXKXKXKXKXKXKXKXKXKXKXKXKXKXKXKXKXKXKXKXKXKXKXKXKXKXKXKXKXKXKXKXKXKXKXKXKXKXKXKXKXKXX X X 3 * * * * * * = < { #.$.*.%.| ` < 1 < _ { #.*.$.} _ , KXKXKX",
"KXKXKXKXKXKXKXKXKXKXKXKXKXKXKXKXKXKXKXKXKXKXKXKXKXX . - 1 < _ _ _ _ ` %.=.yXaXaXaXaXyX=.#.` 1 = - KXKXKXKXKXKXKXKXKXKXKXKXKXKXKXKXKXKXKXKXKXKXKXKXKXKXKXKXKXKXKXKXKXKXKXKXKXKXKXKXKXKXKXKXKXKXKX    . . . . . * - , _ { } } { _ , = , 1 ` #.*.yXaXpX*.| _ KXKXKX",
"KXKXKXKXKXKXKXKXKXKXKXKXKXKXKXKXKXKXKXKXKXKXKXKXKX    . * * - , < [ #.*.tX=.*.%.#.} | ` _ , - * . KXKXKXKXKXKXKXKXKXKXKXKXKXKXKXKXKXKXKXKXKXKXKXKXKXKXKXKXKXKXKXKXKXKXKXKXKXKXKXKXKXKXKXKXKXKXKXKXKXX X X X . * , 1 ` ` ` < , = = , ` } =.pXlXxXxXkX=.} ` KXKXKX",
"KXKXKXKXKXKXKXKXKXKXKXKXKXKXKXKXKXKXKXKXKXKXKXKXKX  X X X . * = _ } %.$.$.%.} { [ { ` _ 1 = * . X KXKXKXKXKXKXKXKXKXKXKXKXKXKXKXKXKXKXKXKXKXKXKXKXKXKXKXKXKXKXKXKXKXKXKXKXKXKXKXKXKXKXKXKXKXKXKXKXKX    X X * - , < _ _ 1 = * - , _ %.tXaXlXxXxXzXpX*.| _ KXKXKX",
"KXKXKXKXKXKXKXKXKXKXKXKXKXKXKXKXKXKXKXKXKXKXKXKXKXKXKX  X . - < { %.%.} ` ` { } $.-.*.#.` _ , KXKXKXKXKXKXKXKXKXKXKXKXKXKXKXKXKXKXKXKXKXKXKXKXKXKXKXKXKXKXKXKXKXKXKXKXKXKXKXKXKXKXKXKXKXKXKXKXKXKXKX  X X . * = , 1 1 , , - - , _ } tXaXzXkXpXyX=.%.{ < , KXKXKX",
"KXKXKXKXKXKXKXKXKXKXKXKXKXKXKXKXKXKXKXKXKXKXKXKXKXKXKXX X * , < _ ` ` _ 1 _ } -.yXkXkXtX%.| KXKXKXKXKXKXKXKXKXKXKXKXKXKXKXKXKXKXKXKXKXKXKXKXKXKXKXKXKXKXKXKXKXKXKXKXKXKXKXKXKXKXKXKXKXKXKXKXKXKXKXKXKXX X * * , , , , - - - , _ } $.uXpXyX=.$.#.| _ 1 = - KXKXKX",
"KXKXKXKXKXKXKXKXKXKXKXKXKXKXKXKXKXKXKXKXKXKXKXKXKXKXKX* * - , , = - * = 1 { *.dXlXcXcXaX*.%.KXKXKXKXKXKXKXKXKXKXKXKXKXKXKXKXKXKXKXKXKXKXKXKXKXKXKXKXKXKXKXKXKXKXKXKXKXKXKXKXKXKXKXKXKXKXKXKXKXKXKXKXKXKXKX* * = , , = * - = < | $.=.*.$.#.| ` _ < , = * * KXKXKX",
"KXKXKXKXKXKXKXKXKXKXKXKXKXKXKXKXKXKXKXKXKXKXKXKXKXKXKX* * * * * . X . - < { $.tXpXaXpX=.} { KXKXKXKXKXKXKXKXKXKXKXKXKXKXKXKXKXKXKXKXKXKXKXKXKXKXKXKXKXKXKXKXKXKXKXKXKXKXKXKXKXKXKXKXKXKXKXKXKXKXKXKXKXKXKX3 * - = = - * - , _ | %.%.} ` ` | } } | ` 1 - * KXKXKX",
"KXKXKXKXKXKXKXKXKXKXKXKXKXKXKXKXKXKXKXKXKXKXKXKXKXKXKX- * * X X X X * = < ` } #.#.} | _ 1 , KXKXKXKXKXKXKXKXKXKXKXKXKXKXKXKXKXKXKXKXKXKXKXKXKXKXKXKXKXKXKXKXKXKXKXKXKXKXKXKXKXKXKXKXKXKXKXKXKXKXKXKXKXKXKXX . * * * * * = < _ ` ` ' < 1 ` $.uXyXuX*.{ , * KXKXKX",
"KXKXKXKXKXKXKXKXKXKXKXKXKXKXKXKXKXKXKXKXKXKXKX} %.*.#._ , - * X X . * * - , , 1 1 , , - * * KXKXKXKXKXKXKXKXKXKXKXKXKXKXKXKXKXKXKXKXKXKXKXKXKXKXKXKXKXKXKXKXKXKXKXKXKXKXKXKXKXKXKXKXKXKXKXKXKXKXKXKXKXKXKXX X X 3 * * * > 1 _ < 1 , , < } uXlXxXlXpX%.< * KXKXKX",
"KXKXKXKXKXKXKXKXKXKXKXKXKXKXKXKXKXKXKXKXKXKX} #.%.*.$.} _ , = * * * * * * * * * . . . . . . KXKXKXKXKXKXKXKXKXKXKXKXKXKXKXKXKXKXKXKXKXKXKXKXKXKXKXKXKXKXKXKXKXKXKXKXKXKXKXKXKXKXKXKXKXKXKXKXKXKXKXKXKXKXKX  X X X . * * = , 1 , - = 1 ` $.aXcXBXBXlX-._ = KXKXKX",
"KXKXKXKXKXKXKXKXKXKXKXKXKXKXKXKXKXKXKXKX$.*.=.=.=.=.$.} ` 1 = - = , 1 < 1 , = - * 3 . * = , KXKXKXKXKXKXKXKXKXKXKXKXKXKXKXKXKXKXKXKXKXKXKXKXKXKXKXKXKXKXKXKXKXKXKXKXKXKXKXKXKXKXKXKXKXKXKXKXKXKXKXKXKXKXKXKXKXX X X . * - = = - * = _ } =.kXcXcXlXaXtXKXKXKXKXKX",
"KXKXKXKXKXKXKXKXKXKXKXKXKXKXKXKXKXKXKX*.*.tXyXyXuX=.%.} _ 1 , , < [ } %.%.#.{ _ 1 = = 1 _ { } KXKXKXKXKXKXKXKXKXKXKXKXKXKXKXKXKXKXKXKXKXKXKXKXKXKXKXKXKXKXKXKXKXKXKXKXKXKXKXKXKXKXKXKXKXKXKXKXKXKXKXKXKXKXKXKXX X X . * * * * * - , ` #.=.pXaXpXuX=.=.KXKXKXKXKX",
"KXKXKXKXKXKXKXKXKXKXKXKXKXKX_ [ %.=.uXuXuXyXyXyXuX=.%.{ _ 1 < ` @.=.dXkXlXkXdX=.#.` _ { %.=.dXnXKXKXKXKXKXKXKXKXKXKXKXKXKXKXKXKXKXKXKXKXKXKXKXKXKXKXKXKXKXKXKXKXKXKXKXKXKXKXKXKXKXKXKXKXKXKXKXKXKXKXKXKXKXKXKXKX. . X X X * * - , < ` } #.%.%.} { ` ` KXKXKXKXKX",
"KXKXKXKXKXKXKXKXKXKXKXKXKXP _ ` #.*.=.=.=.=.=.*.$.%.| _ 1 1 _ | &.<XgXjXmXmXjXgXQ.| ` | $.<XiXgXgXKXKXKXKXKXKXKXKXKXKXKXKXKXKXKXKXKXKXKXKXKXKXKXKXKXKXKXKXKXKXKXKXKXKXKXKXKXKXKXKXKXKXKXKXKXKXKXKXKXKXKXKXKXKX= * * X X X . * 2 1 _ ` ` ` _ 1 , - * * KXKXKXKXKX",
"KXKXKXKXKXKXKXKXKXKXKX;X&X^ P _ [ } #.} } | ` ` _ _ 1 , = 1 ` | X.A.G.P.&X4X4X4X,XX._ ' | O.T.@X&XKXKXKXKXKXKXKXKXKXKXKXKXKXKXKXKXKXKXKXKXKXKXKXKXKXKXKXKXKXKXKXKXKXKXKXKXKXKXKXKXKXKXKXKXKXKXKXKXKXKXKXKX` _ 1 > * * X X . * , _ _ _ < , = * . X X X KXKXKXKXKX",
"KXKXKXKXKXKXKXKXKXKX#X#XJ.Q L 1 ( _ _ _ 1 , , = - * * * * , _ ] T k h.z.N.$X;X>X@XI , > < P Q M.B.KXKXKXKXKXKXKXKXKXKXKXKXKXKXKXKXKXKXKXKXKXKXKXKXKXKXKXKXKXKXKXKXKXKXKXKXKXKXKXKXKXKXKXKXKXKXKXKXKXKXKX} } | ` < = * . X . * = , 1 1 , = - - - = , , KXKXKXKXKX",
"KXKXKXKXKXKXKXKXK.V.M.v.n.j : - = = - * * * * . X X X X . - 1 b v f g k.v.K.;X>X@XK * 3 - x Y b.N.KXKXKXKXKXKXKXKXKXKXKXKXKXKXKXKXKXKXKXKXKXKXKXKXKXKXKXKXKXKXKXKXKXKXKXKXKXKXKXKXKXKXKXKXKXKXKXKXKX#.%.$.*.*.#.` 1 - . X X . * * - = > , < _ | %.%.#.| ` KXKXKX",
"KXKXKXKXKXKXKXKXN.m.v.l.h i ; * * * * . X X X X X     X X * > 1 v a g q.k.m.$X%X@XK .   . e j k.j.KXKXKXKXKXKXKXKXKXKXKXKXKXKXKXKXKXKXKXKXKXKXKXKXKXKXKXKXKXKXKXKXKXKXKXKXKXKXKXKXKXKXKXKXKXKXKXKX%.$.*.=.uXtX$.| _ , * 3 . * * - , 1 _ { #.*.yXaXkXdX-.;.KXKXKX",
"KXKXKXKXKXKXKXKXj.j.j.KXKXKXKXKXKXKXKXKXKXKXKXKXKXKXKXKXKXKXKXKXKXKXKXs g k.m.K.#XKXKXKXKXKXs s g KXKXKXKXKXKXKXKXKXKXKXKXKXKXKXKXKXKXKXKXKXKXKXKXKXKXKXKXKXKXKXKXKXKXKXKXKXKXKXKXKXKXKXKXKXKX#.%.%.*.=.uXyXtX*.} ` < > - * - , 1 ` } $.=.yXkXxXCXVXcXlXhXKXKXKX",
"KXKXKXKXKXKXKXKXKXKXKXKXKXKXKXKXKXKXKXKXKXKXKXKXKXKXKXKXKXKXKXKXKXKXKXKXKXq.z.v.m.KXKXKXKXKXKXKXKXKXKXKXKXKXKXKXKXKXKXKXKXKXKXKXKXKXKXKXKXKXKXKXKXKXKXKXKXKXKXKXKXKXKXKXKXKXKXKXKXKXKXKXKXKX=.$.%.%.%.%.*.*.*.%.| ` < , > = , < { %.=.yXkXbXvXmXjXjXJXJXJXKXKXKX",
"KXKXKXKXKXKXKXKXKXKXKXKXKXKXKXKXKXKXKXKXKXKXKXKXKXKXKXKXKXKXKXKXKXKXKXKXKXKXk.k.k.KXKXKXKXKXKXKXKXKXKXKXKXKXKXKXKXKXKXKXKXKXKXKXKXKXKXKXKXKXKXKXKXKXKXKXKXKXKXKXKXKXKXKXKXKXKXKXKXKX< _ | *.-.;.%.} { ` ` | | ` _ < 1 , , = , _ } *.yXaXbXcXvXgXW.J.%X5X8XKXKXKX",
"KXKXKXKXKXKXKXKXKXKXKXKXKXKXKXKXKXKXKXKXKXKXKXKXKXKXKXKXKXKXKXKXKXKXKXKXKXKXKXKXKXKXKXKXKXKXKXKXKXKXKXKXKXKXKXKXKXKXKXKXKXKXKXKXKXKXKXKXKXKXKXKXKXKXKXKXKXKXKXKXKXKXKXKXKXKXKXKXJ.c.Y U P ..#.+.} ` _ , , 1 1 , , 2 = - * * - 1 ` } *.tXdXaXsX!.D.j.M.=X:X5X8X0X",
"KXKXKXKXKXKXKXKXKXKXKXKXKXKXKXKXKXKXKXKXKXKXKXKXKXKXKXKXKXKXKXKXKXKXKXKXKXKXKXKXKXKXKXKXKXKXKXKXKXKXKXKXKXKXKXKXKXKXKXKXKXKXKXKXKXKXKXKXKXKXKXKXKXKXKXKXKXKXKXKXKXKXKXKXKXKXKXV.B.m.l.J c b _ ' ` _ , - * * * * * * . X X X . * , < ` | #.$.&.X.k g j.M.$X:X7X8X",
"KXKXKXKXKXKXKXKXKXKXKXKXKXKXKXKXKXKXKXKXKXKXKXKXKXKXKXKXKXKXKXKXKXKXKXKXKXKXKXKXKXKXKXKXKXKXKXKXKXKXKXKXKXKXKXKXKXKXKXKXKXKXKXKXKXKXKXKXKXKXKXKXKXKXKXKXKXKXKXKXKXKXKXKXKXK.B.m.b.j.0.s p % * 2 , = * . X X X X X X X X X X X X * - = , ( ' ` P f s q.j.M.%X>X3X",
"KXKXKXKXKXKXKXKXKXKXKXKXKXKXKXKXKXKXKXKXKXKXKXKXKXKXKXKXKXKXKXKXKXKXKXKXKXKXKXKXKXKXKXKXKXKXKXKXKXKXKXKXKXKXKXKXKXKXKXKXKXKXKXKXKXKXKXKXKXKXKXKXKXKXKXKXKXKXKXKXKXKXKXKXV.B.N.z.k.q.g a 6 O X . * * * X   X                   X X . * * = 1 x v a s g 0.z.B.#X%X",
"KXKXKXKXKXKXKXKXKXKXKXKXKXKXKXKXKXKXKXKXKXKXKXKXKXKXKXKXKXKXKXKXKXKXKXKXKXKXKXKXKXKXKXKXKXKXKXKXKXKXKXKXKXKXKXKXKXKXKXKXKXKXKXKXKXKXKXKXKXKXKXKXKXKXKXKXKXKXKXKXKXKXKXKXz.z.z.j.KXKXKXKXKXKXKXKXKXKXKXKXKXKXKXKXKXKXKXKXKXKXKXKXKXKXKXKXKXp a a KXKXKXKXKXz.b.v.",
"KXKXKXKXKXKXKXKXKXKXKXKXKXKXKXKXKXKXKXKXKXKXKXKXKXKXKXKXKXKXKXKXKXKXKXKXKXKXKXKXKXKXKXKXKXKXKXKXKXKXKXKXKXKXKXKXKXKXKXKXKXKXKXKXKXKXKXKXKXKXKXKXKXKXKXKXKXKXKXKXKXKXKXKXh.h.h.KXKXKXKXKXKXKXKXKXKXKXKXKXKXKXKXKXKXKXKXKXKXKXKXKXKXKXKXKXKXs s s KXKXKXKXKXh.h.h."
};
