/* XPM */
static const char *bos2o0[] = {
/* columns rows colors chars-per-pixel */
"128 128 256 2 ",
"   c #030303",
".  c #0C0C0C",
"X  c #080908",
"o  c #180808",
"O  c #19150C",
"+  c #141414",
"@  c #1C1C1B",
"#  c #191815",
"$  c #0E1310",
"%  c #2B0908",
"&  c #3C0403",
"*  c #360A08",
"=  c #26180C",
"-  c #3A170B",
";  c #231C14",
":  c #261816",
">  c #391816",
",  c #192F15",
"<  c #2C2413",
"1  c #292419",
"2  c #332B13",
"3  c #372818",
"4  c #3B3619",
"5  c #2D2E13",
"6  c #1E2021",
"7  c #232424",
"8  c #2B2B2B",
"9  c #292826",
"0  c #352B28",
"q  c #333333",
"w  c #3C3C3C",
"e  c #3A3736",
"r  c #33332B",
"t  c #440101",
"y  c #4C0201",
"u  c #480B08",
"i  c #540201",
"p  c #5C0303",
"a  c #570B08",
"s  c #47160C",
"d  c #581609",
"f  c #481714",
"g  c #551816",
"h  c #57081B",
"j  c #640101",
"k  c #6B0101",
"l  c #660B09",
"z  c #730101",
"x  c #7C0000",
"c  c #780C09",
"v  c #771609",
"b  c #6A1613",
"n  c #741614",
"m  c #6A130D",
"M  c #462817",
"N  c #44331A",
"B  c #4B381C",
"V  c #553A1B",
"C  c #592611",
"Z  c #67250C",
"A  c #682815",
"S  c #653817",
"D  c #772F0F",
"F  c #6A1232",
"G  c #483623",
"H  c #583C24",
"J  c #453836",
"K  c #512F2E",
"L  c #722E2B",
"P  c #511627",
"I  c #1E4418",
"U  c #25491A",
"Y  c #2F4F1C",
"T  c #2B5B22",
"R  c #36542B",
"E  c #2D6425",
"W  c #346A28",
"Q  c #37772C",
"!  c #397A32",
"~  c #386834",
"^  c #1F4420",
"/  c #4C4C19",
"(  c #6C4815",
")  c #5A4325",
"_  c #4F4C2D",
"`  c #624425",
"'  c #694929",
"]  c #744B29",
"[  c #79522B",
"{  c #795636",
"}  c #69512E",
"|  c #4D6D2C",
" . c #6F6F2D",
".. c #73641B",
"X. c #371B5D",
"o. c #442A49",
"O. c #3C4444",
"+. c #444444",
"@. c #4C4C4C",
"#. c #4A4645",
"$. c #545454",
"%. c #5B5B5B",
"&. c #595557",
"*. c #514E4A",
"=. c #785858",
"-. c #6D4E4A",
";. c #526D4E",
":. c #716652",
">. c #636464",
",. c #6B6B6B",
"<. c #656867",
"1. c #766968",
"2. c #747474",
"3. c #7C7C7C",
"4. c #777778",
"5. c #6E7172",
"6. c #5D5967",
"7. c #830000",
"8. c #8C0100",
"9. c #860C05",
"0. c #930100",
"q. c #9B0101",
"w. c #950B08",
"e. c #891707",
"r. c #961A17",
"t. c #91170D",
"y. c #A40101",
"u. c #AB0201",
"i. c #A70C06",
"p. c #B30101",
"a. c #BC0100",
"s. c #BA0A04",
"d. c #AB1609",
"f. c #852609",
"g. c #972806",
"h. c #883506",
"j. c #963704",
"k. c #8F3017",
"l. c #AD2C0A",
"z. c #882627",
"x. c #9B3536",
"c. c #8D312C",
"v. c #A72E2C",
"b. c #981E23",
"n. c #C70503",
"m. c #D00E0C",
"M. c #E70C0D",
"N. c #D82A26",
"B. c #894618",
"V. c #944E10",
"C. c #AC4B15",
"Z. c #8B6419",
"A. c #A46A19",
"S. c #864528",
"D. c #875934",
"F. c #924D2F",
"G. c #98643B",
"H. c #8D6C2D",
"J. c #A97030",
"K. c #B95227",
"L. c #C56A29",
"P. c #8A5650",
"I. c #8E6D4F",
"U. c #AF7349",
"Y. c #8B756D",
"T. c #A77C7C",
"R. c #A84947",
"E. c #C86055",
"W. c #A43E41",
"Q. c #3B8533",
"!. c #3D8C36",
"~. c #438937",
"^. c #47983B",
"/. c #568D37",
"(. c #6F8E37",
"). c #4EA33F",
"_. c #6AA43D",
"`. c #50934A",
"'. c #6F934C",
"]. c #4DA642",
"[. c #51AC45",
"{. c #57A947",
"}. c #54B549",
"|. c #57B94B",
" X c #5BAB52",
".X c #66A945",
"XX c #6EB34B",
"oX c #758F74",
"OX c #72A86B",
"+X c #5CC854",
"@X c #5BC652",
"#X c #64D85C",
"$X c #6FCA54",
"%X c #6DEB65",
"&X c #6AE562",
"*X c #73F56B",
"=X c #6FF067",
"-X c #68DE60",
";X c #B18E34",
":X c #9B9934",
">X c #CE9139",
",X c #C7AD3B",
"<X c #908276",
"1X c #A98C72",
"2X c #9BA152",
"3X c #C78A54",
"4X c #D0B346",
"5X c #E0BE4A",
"6X c #89D357",
"7X c #A6F169",
"8X c #ADCE5A",
"9X c #D8C54B",
"0X c #DAD155",
"qX c #E8D959",
"wX c #E4CB4E",
"eX c #FCF768",
"rX c #ECDE63",
"tX c #28129C",
"yX c #7A7A8E",
"uX c #4F3B85",
"iX c #807C80",
"pX c #7C8689",
"aX c #848484",
"sX c #8C8C8C",
"dX c #898785",
"fX c #939393",
"gX c #9C9C9C",
"hX c #979898",
"jX c #938F8C",
"kX c #AC918A",
"lX c #8AA986",
"zX c #B1A498",
"xX c #A3A4A4",
"cX c #ACACAC",
"vX c #A8AAA7",
"bX c #B3B3B3",
"nX c #BCBCBC",
"mX c #B7B6B6",
"MX c #B2AFA9",
"NX c #9597A5",
"BX c #C2BDB8",
"VX c #C6C1BD",
"CX c #BEC2C2",
"ZX c #C3C3C3",
"AX c #CCCCCC",
"SX c #C6C7C8",
"DX c #D3D3D3",
"FX c #DCDCDC",
"GX c #D1D8CF",
"HX c #E4E4E4",
"JX c #ECECEC",
"KX c #F3F3F3",
"LX c #FCFCFC",
"PX c #BBC0BA",
"IX c None",
"UX c black",
/* pixels */
"IXIXIXIXIXIXIXIXIXIXIXIXIXIXIXIXIXIXIXIXIXIXIXIXIXIXIXIXIXIXIXIXIXIXIXIXIXIXIXIXIXIXIXIXIXIXIXIXIXIXIXIXIXIXIXIXIXIXIXIXIXIXIXIXx x c z.=.>.#.w.c.=.d.L O.O.$.>.4.aXsXsXdX>.>.3.IXIXFXnXmXnXSXSXDXHXLXLXLXLXLXKXLXLXLXIXIXIXIXIXIXIXIXIXIXIXIXIXIXIXIXIXIXIXIXIX",
"IXIXIXIXIXIXIXIXIXIXIXIXIXIXIXIXIXIXIXIXIXIXIXIXIXIXIXIXIXIXIXIXIXIXIXIXIXIXIXIXIXIXIXIXIXIXIXIXIXIXIXIXIXIXIXIXIXIXIXIXIXIXIXIXz z c z.=.>.#.w.c.=.i.L O.+.$.>.4.aXsXjXsX<.>.aXIXIXFXnXmXZXSXSXDXHXLXLXLXLXKXKXLXKXKXIXIXIXIXIXIXIXIXIXIXIXIXIXIXIXIXIXIXIXIXIX",
"IXIXIXIXIXIXIXIXIXIXIXIXIXIXIXIXIXIXIXIXIXIXIXIXIXIXIXIXIXIXIXIXIXIXIXIXIXIXIXIXIXIXIXIXIXIXIXIXIXIXIXIXIXIXIXIXIXIXIXIXIXIXIXIXz z c z.=.<.*.r.c.=.i.L +.#.*.>.3.sXfXfXsX<.>.aXIXIXDXnXnXSXSXSXDXHXKXLXLXLXKXJXLXJXHXIXIXIXIXIXIXIXIXIXIXIXIXIXIXIXIXIXIXIXIXIX",
"IXIXIXIXIXIXIXIXIXIXIXIXIXIXIXIXIXIXIXIXIXIXIXIXIXIXIXIXIXIXIXIXIXIXIXIXIXIXIXIXIXIXIXIXIXIXIXIXIXIXIXIXIXIXIXIXIXIXIXIXIXIXIXIXk k n c.=.<.&.b.c.-.r.L J K -.=.yXsXhXgXhX2.,.aXIXIXSXnXnXSXAXAXDXFXJXKXKXKXJXHXJXFXAXIXIXIXIXIXIXIXIXIXIXIXIXIXIXIXIXIXIXIXIXIX",
"IXIXIXIXIXIXIXIXIXIXIXIXIXIXIXIXIXIXIXIXIXIXIXIXIXIXIXIXIXIXIXIXIXIXIXIXIXIXIXIXIXIXIXIXIXIXIXIXIXIXIXIXIXIXIXIXIXIXIXIXIXIXIXIXp a b L 1.5.>.c.-.-.b.z.L L c.P.aXhXxXvXgX3.4.sXIXvXbXmXSXDXDXAXAXDXFXHXHXJXHXFXDXSXbXIXIXIXIXIXIXIXIXIXIXIXIXIXIXIXIXIXIXIXIXIX",
"IXIXIXIXIXIXIXIXIXIXIXIXIXIXIXIXIXIXIXIXIXIXIXIXIXIXIXIXIXIXIXIXIXIXIXIXIXIXIXIXIXIXIXIXIXIXIXIXIXIXIXIXIXIXIXIXIXIXIXIXIXIXIX0.a f g -.1.4.1.P.-.&.L z.b.b.b.P.sXxXcXbXvXsX3.hXsXfXgXbXAXFXDXDXAXAXAXDXDXFXDXSXnXvXfXIXIXIXIXIXIXIXIXIXIXIXIXIXIXIXIXIXIXIXIXIX",
"IXIXIXIXIXIXIXIXIXIXIXIXIXIXIXIXIXIXIXIXIXIXIXIXIXIXIXIXIXIXIXIXIXIXIXIXIXIXIXIXIXIXIXIXIXIXIXIXIXIXIXIXIXIXIXIXIXIXIXIXIXIXp.0.u > K -.1.3.Y.P.=.&.L r.d.d.m.R.hXvXmXnXmXhXsXgXfXaXsXbXDXHXFXDXAXSXVXnXZXSXSXnXgXsX4.>.gXnXAXFXHXFXZXIXIXIXIXIXIXIXIXIXIXIXIXIX",
"IXIXIXIXIXIXIXIXIXIXIXIXIXIXIXIXIXIXIXIXIXIXIXIXIXIXIXIXIXIXIXIXIXIXIXIXIXIXIXIXIXIXIXIXIXIXIXIXIXIXIXIXIXIXIXIXIXIXIXIXIXy.u.0.> : J &.,.aXjXY.1.&.#.r.n.m.M.R.gXbXZXSXnXgXfXxXhX4.4.cXFXKXFXDXSXnXbXcXbXmXnXvXaX2.>.>.gXnXAXFXHXFXZXIXIXIXIXIXIXIXIXIXIXIXIXIX",
"IXIXIXIXIXIXIXIXIXIXIXIXIXIXIXIXIXIXIXIXIXIXIXIXIXIXIXIXIXIXIXIXIXIXIXIXIXIXIXIXIXIXIXIXIXIXIXIXIXIXIXIXIXIXIXIXIXIXIXIXIXq.y.9.> 7 e $.<.aXhXsX2.&.*.b.m.n.M.N.kXmXSXAXnXgXfXvXhX4.2.cXHXKXHXFXSXnXvXxXxXvXvXhX2.%.&.>.gXnXDXFXHXFXnXIXIXIXIXIXIXIXIXIXIXIXIXIX",
"IXIXIXIXIXIXIXIXIXIXIXIXIXIXIXIXIXIXIXIXIXIXIXIXIXIXIXIXIXIXIXIXIXIXIXIXIXIXIXIXIXIXIXIXIXIXIXIXIXIXIXIXIXIXIXIXIXIXIXIXIX8.8.c > 7 q @.>.3.gXhXpX>.&.x.m.n.M.N.kXbXSXSXmXhXfXvXgXaX4.bXHXKXHXFXAXmXvXgXfXgXgXaX>.$.$.>.gXZXDXHXJXFXnXIXIXIXIXIXIXIXIXIXIXIXIXIX",
"IXIXIXIXIXIXIXIXIXIXIXIXIXIXIXIXIXIXIXIXIXIXIXIXIXIXIXIXIXIXIXIXIXIXIXIXIXIXIXIXIXIXIXIXIXIXIXIXIXIXIXIXIXIXIXIXIXIXIXIXIXz c m 9 7 q O.&.4.hXxXjX2.%.x.m.a.M.N.E.MXSXSXvXaXaXvXxXsXaXmXHXKXJXHXDXmXcXfXaXfXsX4.%.$.@.>.gXZXDXHXJXFXmXvXIXIXIXIXIXIXIXIXIXIXIXIX",
"IXIXIXIXIXIXIXIXIXIXIXIXIXIXIXIXIXIXIXIXIXIXIXIXIXIXIXIXIXIXIXIXIXIXIXIXIXIXIXIXIXIXIXIXIXIXIXIXIXIXIXIXIXIXIXIXIXIXIXIXIXa a g 0 8 8 q @.5.fXbXxXpX<.P.v.u.n.M.E.zXCXZXhX4.3.vXvXgXhXnXHXKXKXJXDXnXbXfX4.sX3.>.&.$.$.>.gXSXFXJXKXFXbXvXIXIXIXIXIXIXIXIXIXIXIXIX",
"IXIXIXIXIXIXIXIXIXIXIXIXIXIXIXIXIXIXIXIXIXIXIXIXIXIXIXIXIXIXIXIXIXIXIXIXIXIXIXIXIXIXIXIXIXIXIXIXIXIXIXIXIXIXIXIXIXIXIXIXIX* > f 8 8 7 7 +.>.sXmXbXsX2.P.x.w.n.M.N.kXCXmXaX>.4.vXbXvXvXCXFXKXKXKXFXnXnXsX<.3.,.&.&.&.$.>.gXSXFXKXKXFXvXxXIXIXIXIXIXIXIXIXIXIXIXIX",
"IXIXIXIXIXIXIXIXIXIXIXIXIXIXIXIXIXIXIXIXIXIXIXIXIXIXIXIXIXIXIXIXIXIXIXIXIXIXIXIXIXIXIXIXIXIXIXIXIXIXIXIXIXIXIXIXIXIXIXIXIX: : 0 e q 7 @ q &.aXnXnXgX4.Y.P.n p.M.N.kXmXbX4.%.5.vXmXmXmXZXFXJXLXKXFXnXnXfX>.4.>.@.&.&.&.>.gXSXHXLXKXDXvXgXgXIXIXIXIXIXIXIXIXIXIXIX",
"IXIXIXIXIXIXIXIXIXIXIXIXIXIXIXIXIXIXIXIXIXIXIXIXIXIXIXIXIXIXIXIXIXIXIXIXIXIXIXIXIXIXIXIXIXIXIXIXIXIXIXIXIXIXIXIXIXIXIXIXIX# @ 8 +.q 7 + 8 $.3.nXVXxXaXY.P.L i.n.M.T.cXvX,.&.2.vXnXnXnXSXDXJXLXKXFXZXZXhX>.5.&.+.&.&.&.>.gXSXJXLXLXDXgXgXhXIXIXIXIXIXIXIXIXIXIXIX",
"IXIXIXIXIXIXIXIXIXIXIXIXIXIXIXIXIXIXIXIXIXIXIXIXIXIXIXIXIXIXIXIXIXIXIXIXIXIXIXIXIXIXIXIXIXIXIXIXIXIXIXIXIXIXIXIXIXIXIXIXIX6 7 w @.w 7 . 7 +.2.bXZXvXsX<XI.L w.n.M.Y.xXxX<.>.4.xXnXnXnXSXDXJXLXKXFXZXZXgX2.<.@.+.&.&.&.>.gXAXJXLXLXDXhXhXsXIXIXIXIXIXIXIXIXIXIXIX",
"IXIXIXIXIXIXIXIXIXIXIXIXIXIXIXIXIXIXIXIXIXIXIXIXIXIXIXIXIXIXIXIXIXIXIXIXIXIXIXIXIXIXIXIXIXIXIXIXIXIXIXIXIXIXIXIXIXIXIXIX$.7 8 +.&.+.7 . @ w >.vXnXcXhXdXY.-.e.a.M.P.hXgX>.,.aXxXmXnXmXSXDXJXLXKXFXSXZXvX3.>.+.w &.%.&.>.gXAXJXLXLXAXsXjXaXIXIXIXIXIXIXIXIXIXIXIX",
"IXIXIXIXIXIXIXIXIXIXIXIXIXIXIXIXIXIXIXIXIXIXIXIXIXIXIXIXIXIXIXIXIXIXIXIXIXIXIXIXIXIXIXIXIXIXIXIXIXIXIXIXIXIXIXIXIXIXIX&.&.8 q $.>.@.7 X + 8 &.gXmXbXgXjXY.=.n u.m.P.sXhX>.4.hXxXmXmXbXZXDXHXKXJXFXSXZXbXjX>.J w &.%.&.>.gXAXJXLXLXSXaXsX4.$.IXIXIXIXIXIXIXIXIXIX",
"IXIXIXIXIXIXIXIXIXIXIXIXIXIXIXIXIXIXIXIXIXIXIXIXIXIXIXIXIXIXIXIXIXIXIXIXIXIXIXIXIXIXIXIXIXIXIXIXIXIXIXIXIXIXIXIXIXIX&.&.$.q w %.5.&.8 . + 7 +.sXcXbXvXhXsXY.L q.m.-.3.fX<.dXxXxXbXbXvXZXDXHXKXJXFXSXZXnXgX%.w w &.>.%.>.hXAXKXLXKXSX3.aX2.$.IXIXIXIXIXIXIXIXIXIX",
"IXIXIXIXIXIXIXIXIXIXIXIXIXIXIXIXIXIXIXIXIXIXIXIXIXIXIXIXIXIXIXIXIXIXIXIXIXIXIXIXIXIXIXIXIXIXIXIXIXIXIXIXIXIXIXIXIXIX&.&.$.q +.>.4.>.w + + @ w 3.xXcXvXgXhXaXL 8.s.L 5.sX,.fXcXvXbXcXvXZXAXFXJXHXDXSXZXnXvX%.+.+.&.>.%.>.hXAXKXLXKXZX4.4.<.@.IXIXIXIXIXIXIXIXIXIX",
"IXIXIXIXIXIXIXIXIXIXIXIXIXIXIXIXIXIXIXIXIXIXIXIXIXIXIXIXIXIXIXIXIXIXIXIXIXIXIXIXIXIXIXIXIXIXIXIXIXIXIXIXIXIXIXIXIXIX%.&.#.q +.<.3.,.@.@ + # q ,.hXvXcXvXxXsX-.9.i.K <.pX2.gXmXvXbXcXvXnXSXDXHXFXDXSXZXnXvX>.@.@.&.>.>.>.fXSXKXLXJXnX,.,.>.@.IXIXIXIXIXIXIXIXIXIX",
"IXIXIXIXIXIXIXIXIXIXIXIXIXIXIXIXIXIXIXIXIXIXIXIXIXIXIXIXIXIXIXIXIXIXIXIXIXIXIXIXIXIXIXIXIXIXIXIXIXIXIXIXIXIXIXIXIXIX>.&.w q #.<.aX3.%.q @ # 8 %.aXxXbXmXvXfX=.z.w.K %.4.4.vXnXbXbXcXcXnXZXSXFXDXAXAXnXmXxX<.&.&.$.>.>.%.fXSXJXLXJXbX>.>.&.+.IXIXIXIXIXIXIXIXIXIX",
"IXIXIXIXIXIXIXIXIXIXIXIXIXIXIXIXIXIXIXIXIXIXIXIXIXIXIXIXIXIXIXIXIXIXIXIXIXIXIXIXIXIXIXIXIXIXIXIXIXIXIXIXIXIXIXIX@.$.>.&.q q @.<.aXsX2.+.7 # 7 $.4.hXmXnXmXhXY.c.c K $.,.aXcXZXnXmXbXbXnXmXnXDXSXSXAXnXcXgX2.<.>.@.>.<.%.sXZXJXKXHXvX&.&.$.+.q IXIXIXIXIXIXIXIXIX",
"IXIXIXIXIXIXIXIXIXIXIXIXIXIXIXIXIXIXIXIXIXIXIXIXIXIXIXIXIXIXIXIXIXIXIXIXIXIXIXIXIXIXIXIXIXIXIXIXIXIXIXIXIXIXIXIX@.&.<.$.7 8 @.<.sXgXsX&.q # @ +.>.sXmXSXnXgXjXP.l J #.>.fXmXSXSXmXbXnXnXcXcXSXnXZXDXnXvXfX3.3.2.@.<.,.%.sXnXJXKXFXgX@.@.+.w q IXIXIXIXIXIXIXIXIX",
"IXIXIXIXIXIXIXIXIXIXIXIXIXIXIXIXIXIXIXIXIXIXIXIXIXIXIXIXIXIXIXIXIXIXIXIXIXIXIXIXIXIXIXIXIXIXIXIXIXIXIXIXIXIXIXIX@.&.<.@.# 8 @.<.sXxXgX,.w @ # q &.iXbXAXSXxXgXP.a 0 +.%.gXnXAXDXmXbXnXmXxXgXnXmXCXDXnXxXsXaXfXaX@.<.,.%.aXnXHXJXDXfX+.w w w q IXIXIXIXIXIXIXIXIX",
"IXIXIXIXIXIXIXIXIXIXIXIXIXIXIXIXIXIXIXIXIXIXIXIXIXIXIXIXIXIXIXIXIXIXIXIXIXIXIXIXIXIXIXIXIXIXIXIXIXIXIXIXIXIXIX@.$.&.>.@.# 8 @.<.sXvXvXaX#.7 # 8 @.4.cXDXAXvXxX1.f 0 w %.vXSXDXFXnXbXmXcXhXfXmXbXZXFXZXgXaXsXxXfX&.,.,.%.aXnXHXJXSXsXw q q q 8 8 IXIXIXIXIXIXIXIX",
"IXIXIXIXIXIXIXIXIXIXIXIXIXIXIXIXIXIXIXIXIXIXIXIXIXIXIXIXIXIXIXIXIXIXIXIXIXIXIXIXIXIXIXIXIXIXIXIXIXIXIXIXIXIXIX$.&.>.%.+.# 8 @.,.sXcXmXhX&.8 @ 7 w ,.vXAXDXcXxX1.M 0 w >.bXAXFXHXnXcXcXgXaXaXvXbXSXHXSXgXaXhXbXxX>.,.,.%.aXbXFXHXZXaXw 8 8 8 8 7 IXIXIXIXIXIXIXIX",
"IXIXIXIXIXIXIXIXIXIXIXIXIXIXIXIXIXIXIXIXIXIXIXIXIXIXIXIXIXIXIXIXIXIXIXIXIXIXIXIXIXIXIXIXIXIXIXIXIXIXIXIXIXIXIX&.>.<.&.q 7 8 @.,.sXbXZXvX>.q @ @ q >.gXAXDXbXgX1.K 7 e ,.nXDXHXJXnXvXxXsX4.4.gXbXAXHXAXgXaXgXZXmX4.2.<.>.3.cXFXHXnX4.q 7 7 8 9 7 IXIXIXIXIXIXIXIX",
"IXIXIXIXIXIXIXIXIXIXIXIXIXIXIXIXIXIXIXIXIXIXIXIXIXIXIXIXIXIXIXIXIXIXIXIXIXIXIXIXIXIXIXIXIXIXIX&.+.q 8 IXIX#.+.&.,.2.@.8 8 q @.2.fXbXSXnX2.w 7 # 8 &.sXSXFXnXhX1.#.; q 4.SXFXHXJXnXxXhX3.>.<.fXmXDXJXDXxXaXvXAXSXsX2.>.>.4.vXDXFXbX,.r 7 7 7 7 @ IXIXIXIXIXIXIXIX",
"IXIXIXIXIXIXIXIXIXIXIXIXIXIXIXIXIXIXIXIXIXIXIXIXIXIXIXIXIXIXIXIXIXIXIXIXIXIXIXIXIXIXIXIXIXIXIX&.+.q 8 IXIX@.+.%.4.4.+.7 q q @.2.fXbXAXAXaX+.8 + 7 @.aXnXFXZXjX,.&.# q aXDXHXJXKXnXgXsX2.%.>.sXmXFXKXFXvXsXcXFXFXgX4.>.>.4.vXDXDXvX>.8 # # 6 @ @ # IXIXIXIXIXIXIX",
"IXIXIXIXIXIXIXIXIXIXIXIXIXIXIXIXIXIXIXIXIXIXIXIXIXIXIXIXIXIXIXIXIXIXIXIXIXIXIXIXIXIXIXIXIXIXIX&.@.q q IXIX@.+.>.3.3.w 7 q q @.2.sXbXAXFXsX@.8 + 7 +.4.mXFXSXfX2.%.+ q sXDXHXJXKXZXgXsX,.&.>.aXmXHXKXFXcXsXmXHXHXvX4.>.>.2.xXAXDXxX%.7 + # @ @ @ @ IXIXIXIXIXIXIX",
"IXIXIXIXIXIXIXIXIXIXIXIXIXIXIXIXIXIXIXIXIXIXIXIXIXIXIXIXIXIXIXIXIXIXIXIXIXIXIXIXIXIXIXIXIXIXIX%.@.w q IXIX$.@.>.aX3.w 7 q w @.<.sXcXDXFXgX&.8 + @ +.,.cXDXSXhX4.%.+ q fXDXJXJXKXZXxXfX2.>.>.aXbXFXKXHXbXhXnXHXHXvX3.<.>.2.gXAXAXgX&.7 + + 7 @ @ @ IXIXIXIXIXIXIX",
"IXIXIXIXIXIXIXIXIXIXIXIXIXIXIXIXIXIXIXIXIXIXIXIXIXIXIXIXIXIXIXIXIXIXIXIXIXIXIXIXIXIXIXIXIXIXIX%.$.+.w IX,.&.$.<.aX3.+.7 q w @.>.aXcXAXFXvX>.8 # @ w >.xXAXAXxX3.&.+ w fXDXJXJXJXSXcXgX3.,.2.aXcXFXKXHXnXxXZXHXFXxXaX2.<.,.gXSXSXfX@.@ X + 7 @ @ 7 IXIXIXIXIXIXIX",
"IXIXIXIXIXIXIXIXIXIXIXIXIXIXIXIXIXIXIXIXIXIXa.u.H ` h._ IXIXIXIX>.FX@.IXIXIXIXIXIXIXIXHXSXbXsX>.&.@.+.2.4.%.%.,.3.3.@.8 q w @.&.3.vXAXFXbX,.8 @ 7 q &.gXSXDXbXaX$.$ w fXAXHXJXFXSXmXvXsXaX3.aXvXAXJXHXSXcXSXFXAXgXsX3.<.,.gXSXZXsX@.#   + 8 @ @ 7 IXIXIXIXIXIXIX",
"IXIXIXIXIXIXIXIXIXIXIXIXIXIXIXIXIXIXIXIXIXIXa.u.H ` h._ IXIXIXIX>.DX@.IXIXIXIXIXIXIXIXHXSXcXsX>.>.&.@.4.aX<.>.2.3.3.@.8 8 w @.&.4.xXSXFXnX4.8 7 7 q $.sXZXDXnXsX@.. w fXSXHXJXDXSXZXnXgXhXfXsXxXSXHXHXAXnXSXDXZXfXhXaX<.<.hXCXnXaX+.+   + q @ 7 8 IXIXIXIXIXIXIX",
"IXIXIXIXIXIXIXIXIXIXIXIXIXIXIXIXIXIXIXIXIXp.p.u.H S h.) IXIXIX+ >.AX@.IXIXIXIXIXIXIXIXHXZXcXfX>.>.>.&.3.aX2.2.4.4.4.$.q 8 +.@.$.2.gXnXDXSXaX8 8 8 q @.aXmXDXSXfX+.X w fXnXHXHXSXAXAXSXbXvXxXhXgXnXFXHXDXSXAXAXmXsXgXsX<.<.fXnXnX3.w +   @ w 7 7 8 IXIXIXIXIXIXIX",
"IXIXIXIXIXIXIXIXIXIXIXIXIXIXIXIXIXIXIXIXIXi.u.u.S S h.G IXIXIX9 <.CX@.@ IXIXIXIXIXIXIXFXnXvXsX>.<.,.>.aXsX4.4.4.4.2.$.q 8 +.@.$.2.fXbXSXSXsXq 8 8 8 @.4.cXDXDXhXw X w fXnXFXFXZXAXDXAXnXnXbXgXgXbXDXFXDXAXDXAXbXsXgXfX,.<.sXmXmX4.e + X 8 @.8 7 8 IXIXIXIXIXIXIX",
"IXIXIXIXIXIXIXIXIXIXIXIXIXIXIXIXIXIXIXIXIXf.i.u.A A f.B M IXIX+.5.vX@.q IXIXIXIXIXIXDXFXmXxXsX%.<.4.,.sXsXaX3.4.2.<.@.q q @.$.&.2.dXxXZXSXsXw 8 8 q @.2.vXAXDXhX+.X w fXmXDXDXnXAXFXDXSXSXZXcXgXvXSXDXDXDXFXDXbXsXgXsX,.>.sXbXbX2.q + @ w &.q 8 q IXIXIXIXIXIXIX",
"IXIXIXIXIXIXIXIXIXIXIXIXIXIXIXIXIXIXIXIXIXS t.u.n Z v M g IXIX6.yXdX@.+.IXIXIXIXIXIXAXDXcXgXsX&.<.3.4.sXfXsXaX3.,.%.+.q w @.&.>.4.4.sXmXZXhX@.8 7 q @.,.gXSXAXhX+.. w sXcXSXSXmXAXFXFXDXDXDXZXxXgXnXSXAXDXHXDXmXfXhXsX<.>.aXbXcX,.8 + q &.<.w 8 IXIXIXIXIXIXIXIX",
"IXIXIXIXIXIXIXIXIXIXIXIXIXIXIXIXIXIX+ , U / D y.v v v s l w.' yXyX<.@.&.gXJXaXIXIXIXSXAXxXhXsX&.<.aXaXfXhXfXsX3.<.&.w q +.$.>.2.4.,.4.vXnXgX%.q 7 q @.<.fXZXSXhX+.. w sXvXnXnXbXAXHXHXDXHXHXDXvXhXvXmXSXFXJXFXnXgXfXaX<.>.aXvXvX>.8 # @.4.3.+.q IXIXIXIXIXIXIXIX",
"IXIXIXIXIXIXIXIXIXIXIXIXIXIXIXIXIX+ # , U Y S y.9.c c u k w.' NXsX#.@.>.hXJXaX# IXnXZXSXhXsXdX$.>.aXsXfXgXgXfX3.>.@.q q @.&.<.3.3.>.>.gXbXgX,.q 7 w $.>.aXnXZXhX@.. w sXvXmXbXvXAXHXHXFXHXKXHXcXfXgXvXnXFXKXHXSXxXfX3.,.%.3.vXxX>.7 @ %.sXsX$.w IXIXIXIXIXIXIXIX",
"IXIXIXIXIXIXIXIXIXIXIXIXIXIXIXIXIX+ , , Y T V q.8.x k y z w.` NXNXr *.<.fXHX3.+ IXmXZXCXsXsXsX$.<.sXgXgXgXxXhX3.>.+.8 q $.&.,.aXaX%.&.fXvXxX3.w 8 w &.%.3.bXnXhX@.. w sXvXMXvXvXSXFXHXFXHXKXKXnXfXfXgXbXFXKXJXAXvXsX3.,.%.4.xXxX%.7 7 >.hXfX&.+.IXIXIXIXIXIXIXIX",
"IXIXIXIXIXIXIXIXIXIXIXIXIXIXIXIXIX+ , 5 Y Y V 0.8.x j i x 9.H NXpX^ *.<.dXGX5.+ IXbXnXmXaXsXfX$.<.fXxXgXxXvXgX<X>.J 9 8 @.&.5.sXaX>.&.sXgXxXsX@.q w &.%.4.vXnXhX@.. w aXcXcXxXgXnXFXFXDXHXKXLXZXgXsXsXvXFXKXJXDXcXfX3.2.&.4.gXgX%.7 7 >.fXsX&.IXIXIXIXIXIXIXIXIX",
"IXIXIXIXIXIXIXIXIXIXIXIXIXIXIXIXIX# , Y V / V 8.7.z j p x 9.G pXpXT *.%.oXPX>.. IXvXnXcX4.sXgX&.2.gXvXxXvXMXgX<X%.w 7 8 +.&.2.sXaX,.>.aXhXgXfX%.w w $.&.2.xXmXhX@.+ q aXmXbXgXfXbXAXDXSXDXJXLXDXvXsXaXxXDXKXKXFXmXhXaX4.&.,.hXgX%.7 @ &.aXaX&.IXIXIXIXIXIXIXIXIX",
"IXIXIXIXIXIXIXIXIXIXIXIXIXIXIXIXIX, r ) D C C x x k p j 7.9.4 5.oXW | ;.<.lX@.X 7 gXmXvX,.sXvX&.4.xXcXvXcXbXzX<X:.w 7 7 w $.,.aXsX4.2.4.sXgXgX2.@.+.$.&.,.gXmXhX@.+ q 3.ZXnXgXsXxXCXAXnXnXDXLXFXbXsX4.gXDXKXKXHXnXgXfXaX&.>.sXhX>.8 # +.>.,.$.IXIXIXIXIXIXIXIXIX",
"IXIXIXIXIXIXIXIXIXIXIXIXIXIXIXIXIX, Y ' f.v d k z j i k 8.c < ;.`.Q.~ R ;.oXR   7 fXmXgX>.fXbX>.3.vXmXcXbXnXzX<X:.w 7 @ q @.,.aXsXsXaX4.aXhXvXdX%.+.$.&.<.sXbXhX$.+ 8 4.SXZXgXaXfXbXZXvXvXSXKXJXSXfX2.fXAXJXKXHXnXvXgXsX&.%.aXhX>.8 + 8 @.&.@.IXIXIXIXIXIXIXIXIX",
"IXIXIXIXIXIXIXIXIXIXIXIXIXIXIXIXIX, _ ] d.9.l p k p i z 0.x = R `.].W R ~ ;.9   7 sXbXhX>.hXnX>.aXcXnXbXmXBXzX<X:.J 7 # 8 @.<.3.sXgXsX4.3.hXvXgX,.@.@.$.>.aXcXhX$.+ 7 2.DXSXgX4.aXvXmXhXfXmXKXLXDXgX,.sXSXHXKXJXCXvXxXsX&.&.3.fX>.8 . # q @.@.IXIXIXIXIXIXIXIXIX",
"IXIXIXIXIXIXIXIXIXIXIXIXIXIXIXIXIXU _ S.i.8.j i j p y x q.c = U ~.}.W U T W , X 6 aXbXfX%.hXZX>.aXbXnXmXnXBXzX1X:.J 7 + 7 +.>.4.fXxXgX4.3.hXcXvX3.$.@.$.>.3.vXhX&.+ 7 ,.FXDXxX4.aXgXvXaX3.vXKXLXFXxX,.sXSXHXKXJXZXcXxXsX&.&.4.sX>.8 . . 7 O.+.+.IXIXIXIXIXIXIXIX",
"IXIXIXIXIXIXIXIXIXIXIXIXIXIXIXIXIX/ _ c.i.8.j i k p y 7.y.9.- 5 ~.|.E U E W I $ @ aXcXfX>.hXnX>.aXbXZXnXnXVXzX1X:.J 1 + @ w &.4.fXxXgXaXaXgXbXcXsX%.+.@.>.2.hXfX%.+ # >.FXFXcX3.aXhXgX,.,.gXKXLXHXcX4.sXnXFXKXJXZXbXxXaX>.&.<.aX>.q X   # w +.+.IXIXIXIXIXIXIXIX",
"IXIXIXIXIXIXIXIXIXIXIXIXIXIXIXIXIX( ` c.w.8.j y z j u 0.i.w.a 4 ~.@XE U W Q T , @ 3.cXfX>.hXnX>.aXbXSXZXCXBXzX1XI.J 1 # # q *.5.sXxXxXsXsXgXcXbXgX2.w @.%.>.aXsX>.# + %.HXJXnXsXaXfXsX&.&.hXJXLXJXnXaXsXmXDXJXJXZXbXgX4.<.%.%.4.%.q X   + q +.+.IXIXIXIXIXIXIXIX",
"IXIXIXIXIXIXIXIXIXIXIXIXIXIXIXIXs.h.( D 8.x j i 7.l u 0.d.d.c ) `.+XT U Q Q.Q U @ 3.cXhX<.fXbX>.3.bXSXSXZXnXMXkXY.J 1 # + 9 +.<.sXgXxXxXgXxXcXbXvXaXw +.%.%.4.aX,.# X $.HXKXSXhXsXsX4.w @.sXHXLXKXDXfXsXbXAXHXHXZXbXfX<.4.>.&.,.&.q X   + q +.+.IXIXIXIXIXIXIXIX",
"IXIXIXIXIXIXIXIXIXIXIXIXIXIXIXIXn.j.D n x z j i 8.c s q.d.l.w.' `.+XT U Q.^.^.E @ 4.cXhX,.sXvX>.3.cXAXSXZXnXMXzXY.G < < + @ w >.sXgXxXcXvXvXvXbXmXhXq +.%.$.>.4.2.#   @.FXLXDXgXhXsX,.8 w sXFXLXLXHXxXfXvXSXHXHXZXbXsX%.aX<.@.>.&.q X   + q @.+.q IXIXIXIXIXIXIX",
"IXIXIXIXIXIXIXIXIXIXIXIXIXIXIXIXn.l.h.m z z k p 0.c s w.l.l.i.] '.+XU U ^.].[.Q @ 4.vXgX2.sXgX>.4.vXAXSXBXmXcXzXY.4 2 < + + q &.aXfXxXnXnXcXvXcXnXxXq +.%.@.&.2.4.#   +.DXLXFXvXxXfX<.@ q 3.DXKXLXJXcXhXxXSXFXHXZXmXaX&.sX2.+.&.$.q X   @ w @.w 8 IXIXIXIXIXIXIX",
"IXIXIXIXIXIXIXIXIXIXIXIXIXIXIXIXn.l.f.l k x z l q.c M t.l.C.i.S.'.|.U U ^.[.}.Q.@ 4.vXhX4.sXgX>.4.vXAXSXnXbXcXzXY.4 2 < + + 8 $.4.sXxXZXZXmXvXcXnXvXw +.&.@.@.>.,.#   w SXKXFXcXvXhX,.7 8 ,.SXJXLXKXnXhXgXZXFXHXSXnXdX&.gX3.@.$.@.8 . . 8 @.&.w 8 IXIXIXIXIXIXIX",
"IXIXIXIXIXIXIXIXIXIXIXIXIXIXIXIXn.l.e.k z x c b w.v 3 f.V.V.i.S.'.XX, U ^.}.|.~.@ 4.vXfX4.aXfX<.4.xXSXSXnXMXvXkXI.4 2 < # + 7 #.<.aXxXSXAXZXvXvXnXvX+.+.&.@.+.&.%.#   w nXHXFXbXbXvX4.q 8 %.bXHXLXKXnXfXfXnXFXHXDXZXsX>.vXsX$.@.+.8 . # +.<.>.w 7 IXIXIXIXIXIXIX",
"IXIXIXIXIXIXIXIXIXIXIXIXIXIXIXIXn.d.e.z x 8.e.D w.m 2 ( H.Z.t.S.2X'., U ^.|.@X~.@ 4.vXsX4.aXsX,.4.gXSXSXmXMXvX<X{ 3 2 2 ; + 1 J &.4.gXSXFXAXcXvXbXxX@.@.&.@.+.@.@.# X q vXDXAXmXnXbXsX+.8 +.gXFXLXKXZXfXsXnXHXJXFXSXgX2.bXgX&.+.q 7 + 8 %.sX,.w # IXIXIXIXIXIXIX",
"IXIXIXIXIXIXIXIXIXIXIXIXIXIXIXIXIXd.9.x 7.0.t.S.t.l 5 } (.(.e.S.<X'.1 I ^.@X@X~.6 3.vXdX4.3.aX2.4.fXnXZXbXzXxXY.L 2 2 2 < + @ r @.5.gXZXHXDXcXxXvXgX&.@.&.&.+.w q # . q fXnXZXmXSXZXgX%.8 q aXAXLXLXSXsXY.nXHXKXJXDXvXaXnXvX>.w 8 @ + q 4.vX4.w . IXIXIXIXIXIXIX",
"IXIXIXIXIXIXIXIXIXIXIXIXIXIXIXIXIXi.8.7.0.q.r.F.t.d U | .X(.n S.I.:.1 I ^.@X@X~.7 3.xXaX2.4.aX4.2.sXnXnXMXzXgXP.A 2 2 2 < # # 3 w >.hXnXHXFXbXgXgXfX>.$.&.&.+.8 7 # + q aXvXmXmXAXAXbX4.q 7 ,.nXKXLXSXsX4.nXJXLXKXFXcXfXnXcX2.w 9 # + +.sXnXaXq   IXIXIXIXIXIXIX",
"IXIXIXIXIXIXIXIXIXIXIXIXIXIXIXIXIXq.8.7.0.q.k.G.t.d Y | {.'.A S.I.:.1 U ).@X@X~.8 3.xXiX,.4.aXaX4.aXbXnXzX1XjX=.d < 2 2 2 # # < r &.sXnXJXHXmXgXhXsX>.&.&.>.+.8 # # # 8 2.gXvXbXAXDXnXsXw + &.cXJXKXSXsX4.nXJXLXLXHXnXgXnXbX3.+.8 # # @.gXSXaXq   IXIXIXIXIXIXIX",
"IXIXIXIXIXIXIXIXIXIXIXIXIXIXIXIXIX0.9.9.w.t.k.G.f.C E | .X_.D S.D.{ 3 R [.+X@X~.R oXgX3.>.,.aXsX4.3.vXmXzX1X<X-.a - 2 2 2 ; ; < 9 @.3.bXJXJXnXgXfXsX<.&.%.<.@.7 + @ @ 8 >.sXgXvXSXDXnXgX+.+ +.gXHXKXSXsX4.nXJXLXLXJXZXgXbXvXsX&.q @ # @.hXZX4.8   IXIXIXIXIXIXIX",
"IXIXIXIXIXIXIXIXIXIXIXIXIXIXIXIXIX8.e.e.i.k.F.D.f.V ! | _.(.D B.D.} G | |.#X|.~.R oXgX3.$.>.sXfX4.4.xXbXkXI.1.L i s 2 2 2 < < < 1 w ,.vXHXKXSXgXsXaX<.%.>.2.$.8 # 7 7 8 %.3.fXgXZXAXnXvX@.+ q aXDXKXAXfX3.SXKXLXLXJXSXxXgXxXhX2.+.@ # @.sXvX<.7   IXIXIXIXIXIXIX",
"IXIXIXIXIXIXIXIXIXIXIXIXIXIXIXIXi 8.e.j.g.B.H.D.f.( ^. .(.:XB.B.[ ' H  .+X#X|.~.! oXhX3.+.&.fXgX3.4.hXcXkXP.-.K i u - 2 2 < < < ; 8 &.gXHXKXDXgXsXaX>.>.,.3.&.q @ 8 7 8 &.4.aXfXnXSXnXMX%.+ 7 ,.ZXJXAXhXaXSXKXLXLXKXDXxXaXfXgXsX&.7 @ +.4.sX&.@   IXIXIXIXIXIXIX",
"IXIXIXIXIXIXIXIXIXIXIXIXIXIXIXIXi 7.g.j.g.H.(.[ f...{...H.:XV.B.( ) ] '.#X#X}.^.~.oXfX3.q $.hXvXY.2.sXcXkXS.) g i y - 2 2 2 2 < ; 1 +.sXFXKXFXxXsX3.>.>.4.aX>.w 7 8 8 8 $.,.3.sXcXnXmXnX<.@ + &.cXHXSXgXsXAXKXLXLXLXDXgX,.3.vXvX<.8 7 +.>.4.+.+   IXIXIXIXIXIXIX",
"IXIXIXIXIXIXIXIXIXIXIXIXIXIXIXIXi 7.g.V.j. .'.] f. .|...Z.J.V.V.( ) D.2X&X#X}.^.].oXfX4.7 #.hXvX3.<.aXvXT.L G f i i - 2 2 3 3 2 = # q aXAXKXHXxXaX4.>.>.3.sX<.+.7 q 8 8 @.<.4.aXxXbXbXZX4.8 + @.gXFXSXgXsXSXJXLXLXLXFXgX&.,.vXnX3.w 8 +.&.%.q .   IXIXIXIXIXIXIX",
"IXIXIXIXIXIXIXIXIXIXIXIXIXIXIXIXi 7.g.C.V.(..X] f. .$XZ.V.A.A.V.S V D.2X&X#X[.^.{.oXsX4.7 w sXvX3.>.3.cXT.n M u i i - 2 2 4 4 2 = O 8 2.ZXJXHXgX3.2.%.>.3.fX,.+.8 q 8 8 @.,.3.aXgXvXbXSXsXw + w aXSXZXxXfXZXHXKXLXLXHXgX@.&.gXnXsX$.w @.&.&.8 X   IXIXIXIXIXIXIX",
"IXIXIXIXIXIXIXIXIXIXIXIXIXIXIXIXi 7.g.C.V._.{.( e. .$XZ.V.V.A.V.S B  .2X#X+X[.).|.oXsX5.7 q 3.xX4.&.4.bXT.n s u y y - 2 2 N N 3 = O 7 %.cXHXHXgX2.>.&.>.3.hX2.+.9 8 7 7 $.4.sXaXjXgXbXAXgX@.7 q <.vXnXvXhXbXAXJXLXLXFXhXw +.aXmXgX2.&.%.>.%.7 X   IXIXIXIXIXIXIX",
"IXIXIXIXIXIXIXIXIXIXIXIXIXIXIXIXi 7.d.l.F..X.XD e. .$XZ.h.B.A.V.( Y  .XX@X}.].[.|.<XdX>.7 8 >.gX<.@.2.mXkXm u t y u - 2 2 N B N = O @ @.gXFXHXgX<.&.@.&.4.hX4.+.7 8 @ 7 &.aXgXsXaXhXbXDXvX<.w 8 @.sXcXvXgXgXmXFXLXLXFXfXq q ,.xXcXgX3.4.4.>.7     IXIXIXIXIXIXIX",
"IXIXIXIXIXIXIXIXIXIXIXIXIXIXIXIXi 7.s.l.D..X_.h.9. .$XZ.D D A.A.( Y /.XX}.].].}.@XlXaX%.8 7 @.sX%.+.,.nXkXl u t t - 2 2 2 N B N < O # q aXAXHXhX%.+.+.$.2.hX4.+.7 7 + @ &.gXMXgX3.sXmXDXnXaX$.8 q <.xXcXgXaXgXSXLXLXFXsX8 @ @.sXnXnXgXsXsX2.7     IXIXIXIXIXIXIX",
"IXIXIXIXIXIXIXIXIXIXIXIXIXIXIXIXi 8.a.m.D. X_.h.9. .$XZ.D Z A.A.( Y /.{.[.^.].|.+XlXiX&.q 7 w aX&.w <.CXkXj y t t - 2 2 2 B ) B < O O 7 ,.VXHXfX$.w w @.,.hX4.+.7 7 + # >.vXZXvX4.aXbXDXSXgX<.8 @ @.hXbXgX2.3.mXLXLXFXsX7 . q 4.nXFXnXxXhX3.8     IXIXIXIXIXIXIX",
"IXIXIXIXIXIXIXIXIXIXIXIXIXIXIXIXp 8.n.m.:. X(.h.9. .$XH.D Z A.A.( Y ^.[.].^.[.@X+XlX3.$.w 7 8 3.$.e <.nXkXj y t & = 2 2 3 B ) ) 2 = O # %.bXFXjX@.8 q +.<.hX4.@.7 @ X + >.bXAXbX4.4.cXDXDXmX3.8 + w sXmXxX%.>.xXKXLXFXsX7   7 >.nXHXSXcXgX3.8 X   IXIXIXIXIXIXIX",
"IXIXIXIXIXIXIXIXIXIXIXIXIXIXIXIXp 8.n.m.:. X(.g.9...6X;XD Z A.A.Z./ ^.}.[.^.}.+X#XOX4.&.+.7 8 4.&.w <.mXT.p y t & = 2 3 4 B ` ` 3 = O O @.xXFXsX#.7 q w >.fX4.@.8 @ X + <.mXFXnX4.2.vXDXHXSXsXw + w sXnXvX$.@.sXHXLXHXfX7   # $.bXHXAXcXhX4.9 . X IXIXIXIXIXIXIX",
"IXIXIXIXIXIXIXIXIXIXIXIXIXIXIXIXj 8.n.m.'.[. .g.9.H.6X,XS.b V.A.H.| ).|.}.[.|.#X-XoX2.%.+.8 q 4.%.@.,.vXY.p y t & ; 2 4 4 B ' ] N < O O w fXFXfX+.@ 8 w %.jX3.&.q 7 X + ,.nXFXSX4.<.gXDXJXDXgX@.7 w sXnXvX+.w 4.DXLXHXgX7   # +.hXAXZXvXdX>.9 O O IXIXIXIXIXIXIX",
"IXIXIXIXIXIXIXIXIXIXIXIXIXIXIXIXj 8.a.l.'.]. .d.e.Z.8X9XG.n B.J.;X .{.@X+X|.+X-X&XoX,.>.@.q +.4.>.&.2.hXP.i t t & ; 3 N N B ' { B < = O r aXDXfX+.# 7 q &.sX3.%.w 7 X # ,.mXFXDXaX>.sXDXKXFXcX>.w @.fXZXvXw 7 %.nXKXJXvX7   O e 4.cXmXhX4.$.1 = = IXIXIXIXIXIXIX",
"IXIXIXIXIXIXIXIXIXIXIXIXIXIXIXIXk 8.a.l.'.`.} d.g.A.8XrXU.z.k.J.;X:X.X+X#X#X#X%X%XoX<.,.@.+.$.4.2.<.4.dX=.y t t & ; 3 N B B ] D.V 2 = = 9 4.AXhX+.+ 7 q &.aX3.>.+.8 X # 2.mXFXHXsX%.4.DXKXJXnX4.@.&.gXSXcXq + +.vXJXKXbX8   = 0 %.sXxXdX>.+.1 < 2 IXIXIXIXIXIXIX",
"IXIXIXIXIXIXIXIXIXIXIXIXIXIXIXIXz 0.p.l..X!.` s.g.A.9XrX3Xz.n J.,X;XXX#X&X-X&X=X=X'.>.4.&.@.%.4.4.2.2.2.-.y t t & ; 0 G V V [ G.) 3 < < ; >.ZXhX@.+ @ 8 $.aX3.>.@.8 X # 4.bXFXJXfX&.<.AXKXJXSXsX>.>.gXSXbXq X q fXHXKXnX8 o < 1 #.2.fX4.$.q 1 3 N IXIXIXIXIXIXIX",
"IXIXIXIXIXIXIXIXIXIXIXIXIXIXIXIXx 0.u.l..X!.V s.g.J.9XrX3Xc.n ;X,X;XXX+X-X%X%X=X*X`.>.3.%.&.>.2.4.4.,.>.J u t t & ; 0 G V ) D.G.` 4 < < # &.mXgX$.+ # 8 $.3.4.>.@.8 X # 4.cXFXJXgX&.%.ZXKXKXDXgX4.2.vXAXmXw   7 3.FXKXSXq O 3 < e >.dX2.@.9 3 N V IXIXIXIXIXIXIX",
"IXIXIXIXIXIXIXIXIXIXIXIXIXIXIXx 7.y.i.B..XQ.V s.k.;X9X0X3Xx.n ;X5X,XXX@X#X%X=X*X*X;.%.aX>.%.>.<.2.5.>.$.J K y t & ; 0 G H ) D.G.' N 2 < O @.vXgX&.# + 7 @.3.,.&.@.8 X # 4.vXDXJXvX>.&.MXHXKXFXcXaX3.bXDXnX+.X + >.SXKXAX+.3 G < r &.Y.1._ 1 4 ) ' IXIXIXIXIXIXIX",
"IXIXIXIXIXIXIXIXIXIXIXIXIXIXIXx 8.u.d.[ |.Q.C s.k.;X9X3XU.x.b ;XwX,XXX}.|.%X=X=X*X;.&.sX4.>.>.%.>.>.&.w #.-.u t & # 9 4 B ' G.U.' B 3 2 O w fXgX>.@ + 7 @.3.>.@.+.9 X # 4.gXSXJXbX<.@.gXDXKXHXnXhXsXnXFXZX&.+ . @.mXJXDX&.J ) M G -.Y.:._ 3 G } D.IXIXIXIXIXIXIX",
"IXIXIXIXIXIXIXIXIXIXIXIXIXIXIX7.q.p.g. .|.! C s.c.;X5XG.R.W.b ;XwX,XXX].].%X=X=X*X;.&.hXaX<.&.$.&.&.+.8 #.=.g t & = 1 0 B [ G.U.' B 4 2 O q 3.gX,.7 + @ @.4.&.+.w 7 X # 2.hXnXHXnX2.+.aXZXJXJXSXvXgXSXHXSX2.7   q xXJXFX,.*.{ B H { I.:._ 3 ) { G.G.IXIXIXIXIXIX",
"IXIXIXIXIXIXIXIXIXIXIXIXIXIXz 7.y.a.k.| |.! C s.F.2X5X[ R.W.b ;XwX4XXX^.~.%X=X%X*X~ $.hXdX,.&.@.@.@.q @ @.Y.g t & = 1 0 N { G.G.] V N 3 O 8 <.gX4.8 + # +.4.@.q q 7 X # ,.sXbXFXSX3.+.<.cXHXKXDXcXvXDXHXAXaX8   7 hXHXFXaX:.I.) ` { I.D.) G } D.G.G.IXIXIXIXIXIX",
"IXIXIXIXIXIXIXIXIXIXIXIXIXIXz 7.u.n.k.~.}.~ Z s.F.2X5XS c.R.b ;XqX4X$X^.! %X=X%X=X~ @.hXsX,.$.+.+.+.8 + @.dXg t & = ; 9 N D.U.G.] ) B 4 O 7 &.gX3.q + # +.2.+.7 8 6 . # <.aXvXDXAXaX+.&.gXDXKXDXbXvXDXHXDXhXw   + sXFXHXhXY.I.' ' D.I.D.` G } I.G.D.IXIXIXIXIXIX",
"IXIXIXIXIXIXIXIXIXIXIXIXIXIXx 8.u.n.B.~.[.| Z s.D.2X9XZ c.R.n ;XqX9X$X^.Q.%X=X%X=X~ #.sX3.<.$.w w w 9 $ +.Y.g t & = ; 1 N D.G.G.] ) V N O # @.hX3.w + # w <.w @ 7 @ + @ >.4.gXAXDXfX+.@.aXZXHXSXcXvXSXFXDXxX@.+ # sXFXHXvX<XI.{ ] D.G.G.] G } D.G.D.IXIXIXIXIXIX",
"IXIXIXIXIXIXIXIXIXIXIXIXIXIXx 0.p.m.B.!.].| Z d.G.8X9XA z.W.n >XrX9X$X].^.%X=X%X%X~ +.4.,.>.$.w w q 7 $ J Y.g t & % ; 1 M [ G.D.' ) ) B # + w sXaX+.+ # w &.q # # @ # 7 &.2.hXZXDXgX$.@.2.vXSXmXgXgXnXAXAXvX>.8 7 sXFXJXnXkX1XD.[ D.U.U.D.H _ { D.[ IXIXIXIXIXIX",
"IXIXIXIXIXIXIXIXIXIXIXIXIXIX7.q.p.M.B.Q.^.| D l.H.8X0XD z.x.c 4XeX0X$X|.}.=X=X&X&X~ e >.&.&.$.e w q 7 + q -.f t & * = 1 M ' D.{ ` ` ) B ; + q aXaX@.+ # q @.8 + + @ 7 8 @.>.sXmXDXvX>.+.%.sXcXgXsXfXvXnXSXbX3.@.w fXFXKXSXzX1XG.[ D.U.U.G.H G ) ] ' IXIXIXIXIXIX",
"IXIXIXIXIXIXIXIXIXIXIXIXIXk 8.q.p.M.F.Q.~.| h.l.'.7XqXf.z.x.9.4XeX0X6X+X#X*X%X&X&X~ 8 @.w @.&.e q q 7 @ 0 K u t t & = < M H ] ] ) ` ` V ; $ 8 4.3.$.# # 8 w 7 + + 7 8 q w %.aXcXDXmX2.+.@.5.sXaX4.aXsXcXSXmXhX<.@.gXFXKXDXMX1XU.D.D.U.3XU.) 3 M ` ` IXIXIXIXIXIX",
"IXIXIXIXIXIXIXIXIXIXIXIXIXk 8.y.p.M.F.Q ! ..h.j..X7XqXk.b.x.9.4XeXqX6X&X%X*X%X&X#X~ 8 w 8 w $.q q q 7 6 > g t t t & % ; M G ) ' ) ` ` H 1 $ 7 <.4.&.@ # 8 8 @ + . 7 q w q $.4.gXAXnX3.+.+.&.4.<.<.4.4.gXnXmXvXaX>.vXHXLXHXBX1XU.D.D.U.3XU.` ; < B V IXIXIXIXIXIX",
"IXIXIXIXIXIXIXIXIXIXIXIXIXk 0.y.u.M.F.Q Q ( j.V.XX7XrXg.b.x.9.4XeXqX6X&X*X*X%X#X#X~ 9 8 @ e *.q q q 9 7 > y t t t t % ; 3 G H ` ) ` ` ) 1 + @ %.4.%.7 @ 7 7 # . . @ q w 8 @.2.fXZXnXaX@.w @.>.&.&.,.,.sXcXcXcXgX4.cXHXLXJXBX1XU.D.D.U.3XU.' = = M B IXIXIXIXIXIX",
"IXIXIXIXIXIXIXIXIXIXIXIXIXk 0.q.y.M.S.W E ( j.V.XX7XqXl.b.x.9.4XeXqX6X%X*X*X&X#X+X| 8 7 + q @.q 8 8 9 1 > t u t y t * = 3 G H ` ` ` ` ) 3 + @ $.,.>.8 7 7 @ + . . @ 8 q 7 +.>.aXmXmXsX$.w +.&.$.$.>.>.4.gXxXvXxXaXmXHXLXKXVX1XU.F.S.G.3XU.] = % M B IXIXIXIXIXIX",
"IXIXIXIXIXIXIXIXIXIXIXIXj k 0.q.q.m.B.W E ( j.V.XX7XqXl.b.x.c 4XeXqX6X%X*X*X#X+X|.;.q 1 + 8 w r 8 9 1 > u y - u y y * - 3 G H ` ' ` ) ) 3 # # +.>.>.q 7 7 @ + . . + 7 8 7 w &.4.xXcXfX%.+.J &.@.@.&.&.<.aXfXxXxXgXnXJXLXKXVX1XU.F.] D.3X3X{ f * f N IXIXIXIXIXIX",
"IXIXIXIXIXIXIXIXIXIXp p j k 8.0.8.n.k.E T ( j.V.XX7XwXl.b.x.c 4XeXqX6X&X*X=X#X@X}.;.e ; + 7 q 0 9 1 3 f a i > u i y & - 3 G H ' [ ` H ) 4 ; # q &.>.w 8 7 @ + + . + # @ @ q @.<.sXxXfX<.@.+.$.@.@.$.&.%.<.3.fXxXvXSXJXLXKXZXkXU.F.L ] U.3XD.g u s IXIXIXIXIXIXIX",
"IXIXIXIXIXIXIXIXIXIXp p j z 8.7.x p.D E U S j.V.XX7XwXl.v.x.m 4XeXqX6X#X%X%X+X}.].;.J ; # 6 8 0 1 < 3 d j i > f i y t - 3 G H ' { ` G ) G 1 @ 8 @.>.+.q 7 @ + + + . . + # 8 +.%.4.fXfX2.$.+.&.@.@.$.&.$.&.<.aXgXbXAXJXLXKXSXkX3XF.A H I.I.I.A a d IXIXIXIXIXIXIX",
"IXIXIXIXIXIXIXIXIXIXp p j z 7.x z y.D T U S j.V.XX7X5Xl.v.x.l 4XeXqX6X#X-X&X+X}.].;._ ; # @ 7 3 < ; 3 a k p 0 f p i t - M G H ' D.` N ) G 1 @ 7 +.%.@.q 6 @ + + + . X X # 8 w $.<.aXsX4.&.@.&.$.@.$.&.$.@.%.4.fXbXDXJXLXKXZXkXU.x.b M :.I.I.L m l IXIXIXIXIXIXIX",
"IXIXIXIXIXIXIXIXIXIXp p j z 7.z k 0.A T 4 D g.B.XX7X5Xl.v.x.m 4XeX0X$X@X+X#X@X{. X;.J = # : > M - = > l k j M f p i y u M N H ' { H M H N 3 : @ w &.@.q @ # + + + .   X # 8 w @.&.2.aX2.%.$.%.&.&.%.<.&.@.&.>.aXcXAXJXLXKXZXjXU.c.d M { I.=.L n l IXIXIXIXIXIXIX",
"IXIXIXIXIXIXIXIXIXIXj p j z x k j 0.C U M D g.( .X6X5XK.v.v.c 4XeX0X$X}.}.+X|. XOX;.e % = : > g s - s p k k g f i i y u f M B ) ] S M B M > < @ q @.+.8 # # + + + .   X @ 8 w +.@.>.4.<.%.%.>.>.<.4.pX,.$.$.&.2.gXSXHXLXKXSXjXU.c.a - } 1.6.L c j IXIXIXIXIXIXIX",
"IXIXIXIXIXIXIXIXIXp j j j z z j p 8.d 5 C v f.( .X6X5XL.K.b.9.4XeX0XXX].].@X|. X<X;.0 % % * a d a u s p k z g a i p i y s f M B ` C g C f s M : 8 O.O.9 + # # # + + X . @ 8 w +.+.&.>.%.>.>.,.2.pXfXgXaX>.$.@.&.aXnXHXLXKXSXjXI.D u - ) 6.uXL c j IXIXIXIXIXIXIX",
"IXIXIXIXIXIXIXIXIXp k j k z k i i 7.d < v e.f.D _.6X5X>XK.i.9.>XrX9XXX!.Q.}.}. XlX%.> * * u l l p a a i j z m a i p i y u s M N B C a s s s C 1 8 q q 6 $ + # # # + . $ 7 q w w w +.&.$.%.5.4.aXhXcXnXxX4.&.J +.,.vXFXKXKXSXjXP.A y u H $.tXF c j j x 0.q.IXIXIX",
"IXIXIXIXIXIXIXIXIXp k k k z j y i 7.u = 9.t.v D /.6X9X5XL.y.0.>XqX4X.X! W [.[.OXvX$.= & & p x c k j a i j x c j i p p i u u - 3 M d j u u d Z 1 7 9 8 # . + # # # # + + 7 q w w q w +.+.&.4.3.sXxXSXAXnXsX>.w q &.gXDXKXKXSXdX{ g t u V X.tXF c j j x 0.q.IXIXIX",
"IXIXIXIXIXIXIXIXIXp k k k k p y i x u % q.r.n D /.2X4XwXL.y.q.>XqX4X.XQ E ].).OXvX*.% t t j 7.x z k p i j x x j i j j i y t - < 3 d j y t a Z 3 ; ; 9 # . + # @ @ @ + # 7 q e q 9 8 w e &.2.4.sXvXAXFXSXgX,.w 8 @.sXSXJXJXSXdX} s t t M X.tXF c j k x 0.q.IXIXIX",
"IXIXIXIXIXIXIXIXp p k k j k p y i x u % y.r.D D | .X4XwXL.q.y.>XwX,X.X! E ].^.'.gXJ & y y k 7.x x z j p k x 7.k p j j p y t * - s a j t t a Z > : : : O o O : : : : # # 6 8 q 8 @ 7 8 8 @.<.2.aXvXSXFXDXbXaX@.q +.4.mXFXJXZX<X_ s t t s X.tXF c k k 7.0.y.IXIXIX",
"IXIXIXIXIXIXIXIXp p k j j k i y i z & % u.r.k.h.| _.,X9XL.q.y.>XwX,X_.Q.Q ].~.;.Y.K & i i z 7.x x z k k z 7.7.k p k z j y t & - s l j t & y d > = = : % o % % : : : % : @ 7 8 7 + # 7 7 +.&.>.4.hXnXFXFXSXgX>.+.w >.xXDXHXCX3._ s t t s o.X.F c z z 7.q.y.u.IXIX",
"IXIXIXIXIXp a p p p j j j j i y i k * % u.r.k.h./ /.2X4XK.q.u.>XwX,X_.!.!.[.! _ =.C y p j z x z z x z x x 7.7.z j z x k i t t u a j p t & y d - % % * % % % % * * * * % # @ 7 @ + + @ @ q @.&.<.aXvXAXHXFXbXaX&.w $.sXZXHXnX4._ > t y u P X.b x z x 8.q.u.p.p.p.",
"IXIXIXIXp p a p p p j p p p i i p k * % y.k.B.h./ ! 2X,XC.0.u.>X9X,X_.^.^.[.W 4 K b p j k z z k z x x 7.7.7.7.z k x 7.z i t t i l k p t t t y & * & * & & & & & & * & % + + # + X . + # 8 w +.&.2.fXnXHXJXSXxX,.w +.2.bXFXmX2.w s y y i h F c x x 7.8.q.u.p.p.p.",
"IXIXIXIXp p p p p p p p p p i i j l * % q.k.S.j.4 Q XX,XC.0.u.L.4X;X_.^.].[.E = g j k j z x z k z x x 8.8.7.x z z 7.8.x p y y p z k i t t t y t t t t & & & & & & & t & o $ $ .   X + + @ 8 q @.>.3.bXFXKXFXnXaX+.w %.xXDXbX<.e u y y i l c z x x 7.0.y.p.p.p.p.",
"IXIXIXIXp p p p p p p p p p i p k c * % 0.k.S.B.Y Q .X:XV.8.p.L.,X;X(.^.).).R % y j z k x x z z x 7.7.0.0.x x x x 8.8.x p y y j z k p y y y y y y t t t t t t t t t t & o . X X   X . + # 6 8 +.&.,.gXDXJXHXSXfX$.q $.sXSXvX>.J u i i p k x x x 7.8.0.y.p.p.p.p.",
"IXIXIXIXi a p p p p p j j j p j x 9.* % z D ] ( Y Q {.:XB.c s.K.;X:X .| /./.B & y j z z 7.8.x x 8.8.7.0.0.x x 7.7.8.8.x p i i j z k p i i i i i i y y y y t t t t t t & o . X X X X $ + # # 6 w @.&.sXnXFXHXDXvX>.w +.3.mXgX%.K a j j j z 7.x x 7.8.0.y.p.p.p.p.",
"IXIXIXt i a p p p p j j j j j z 8.0.u o p A ' ..| Q.[.:X..v s.K.:X:X .} | | M t y k z x 8.0.8.8.0.q.7.q.0.x x 8.8.8.7.z j i p j k j p p j j j j p i y y y y t t t t t & % . X X . . $ # # + # q +.@.4.vXSXFXDXmX3.+.w <.vXsX*.g l k k k x 8.7.x 7.8.0.y.p.p.p.p.",
"p a y t i a p p p p j k k k j x q.y.i o & C `  .| ^.}._.| Z n.C.(.(.( S ` V d i i k x 7.0.q.0.q.y.y.IXIXIXIXIX0.0.8.7.z j p p j k j j k z z z k j p i i i y t t t t t & * o X X $ $ + @ @ + $ q O.w >.sXbXDXDXZXhX$.w &.hXpX#.b z z z x 7.8.7.7.IXIXIXIXIXIXIXIX",
"p a y t i a a p p j l k k k k 7.y.p.p . % M _ /.^.].[._.| C n.k. ./.S m Z Z l j j k x 8.q.y.q.y.u.p.IXIXIXIXIXq.q.8.x z j j j j j j k z x x x z k p p i i y y t t t t t & o X X + # # @ @ + . q w 8 @.4.gXZXDXAXvX%.w @.aX5.J n x 7.7.7.7.8.7.7.IXIXIXIXIXIXIXIX",
"l a y t y a a a p p l k z z k 7.u.p.l $ O 3 _ ~.).].[.).W C n.k.| | Z k l l k k k z x 8.q.y.y.u.p.a.IXIXIXIXIXy.q.8.x k j j j j p j k x 7.7.7.x z j p p p i y y y y y t t % . . # @ @ 7 : # X 0 e 7 +.>.aXbXSXDXnX<.e w 4.>.K c 8.8.8.8.8.8.8.IXIXIXIXIXIXIXIXIX",
"l a y t y i i i p a p j k z z 8.u.p.l , , 4 | ^.].].].^.R Z n.r.` | Z z k k z z k x 7.8.y.u.u.p.a.n.IXIXIXIXIXIXy.8.x k k j k j p j z x 7.7.7.7.z k j j j p i i y y y y i & o % : : : > : = o 0 0 ; w &.4.gXnXAXnX5.w e <.%.K 9.8.8.8.8.8.8.8.IXIXIXIXIXIXIXIXIX",
"p a y t y y i i i i a p j k z 8.q.u.Z ^ ^ R | ^.].].^.| / v n.r.S / m z z z z x z 7.8.0.y.u.u.p.a.IXIXIXIXIXIXIXy.8.x k k k k j p j z x x 7.7.7.x z k k j j j p i i i i p t * * * > > > > * % f M @ w &.<.aXvXZXnX4.w q %.$.G 9.0.8.8.8.8.8.8.IXIXIXIXIXIXIXIXIX",
"IXIXIXt y y y y y i i i p k c 9.w.q.A T E ~ ~.].].^.~.| V e.n.i.D S c x z z x x x 8.0.IXIXIXIXIXIXIXIXIXIXIXIXIXIXIXIXIXIXIXIXIXIXk z x x x x x x z z k k z k j j p p j j i y t u u u u u u t g f @ +.&.%.,.fXbXbX4.+.q &.@.0 c IXIXIXIXIXIXIXIXIXIXIXIXIXIXIXIX",
"IXIXIXIXt y y y y y y y i l m c 9.0.S ! Q.~.^.].).^.! / A w.n.i.e.Z c x x x x x 7.q.y.IXIXIXIXIXIXIXIXIXIXIXIXIXIXIXIXIXIXIXIXIXIXz x z z z z x x x z z z x x z k j j k z j p p p a p p p p i l f 6 +.&.&.&.3.xXvX3.@.q @.+.0 IXIXIXIXIXIXIXIXIXIXIXIXIXIXIXIXIX",
"IXIXIXIXt t t t t t t t i l m n c 7.` ^.^.^.^.].^.~.Q Y v u.n.p.w.v x x x x x 7.8.y.u.IXIXIXIXIXIXIXIXIXIXIXIXIXIXIXIXIXIXIXIXIXIXx x z k k k x x x x x x 7.7.x k k k z z z k j j k k k k j j k a 7 @.&.@.+.<.fXgX4.$.q +.w 8 IXIXIXIXIXIXIXIXIXIXIXIXIXIXIXIXIX",
"IXIXIXIXt t t t t t t t y l n n n 9.' ].[.^.^.].^.Q.W 4 v p.a.a.q.7.x x x x x 7.8.y.p.IXIXIXIXIXIXIXIXIXIXIXIXIXIXIXIXIXIXIXIXIXIXx x z k j k x x x x x 7.8.8.7.z z z z x x x z z z z z z z z z a 7 @.&.+.q %.aXsX4.$.q w w 8 IXIXIXIXIXIXIXIXIXIXIXIXIXIXIXIXIX",
"IXIXIXIXt t t t t t t t y l n n n e.} [.}.^.^.].^.Q E 4 9.a.a.a.y.7.7.7.7.7.7.7.8.u.IXIXIXIXIXIXIXIXIXIXIXIXIXIXIXIXIXIXIXIXIXIXIXIXx z k j k x 7.7.7.7.7.8.8.7.z z z z x 7.x z z z z z z z z x a 7 @.&.+.8 $.,.4.,.@.q w q 8 IXIXIXIXIXIXIXIXIXIXIXIXIXIXIXIXIX",
"IXIXIXIXIXt t t t t t & y l n n n f. .}.}.^.~.^.~.W T 4 9.a.a.a.y.7.7.7.7.7.7.7.8.u.IXIXIXIXIXIXIXIXIXIXIXIXIXIXIXIXIXIXIXIXIXIXIXIXx z k j j x 7.7.7.7.7.8.0.7.z z z x 7.7.7.x x x x x x x x x a 7 @.&.+.8 @.%.>.%.+.8 q q IXIXIXIXIXIXIXIXIXIXIXIXIXIXIXIXIXIX",
"IXIXIXIXIXIXIXIXIXIXIXIXIXIXIXIXIXc. .}.}.^.Q.^.Q.E Y IXIXIXIXIXIXIXIXIXIXIXIXIXIXIXIXIXIXIXIXIXIXIXIXIXIXIXIXIXIXIXIXIXIXIXIXIXIXIXIXIXIXIXIXIXIXIXIXIXIXIXIXIXIXIXIXIXIXIXIXIXIXIXIXIXIXIXIXIXIXIXIXIXIXIX+.@.$.$.+.8 q q IXIXIXIXIXIXIXIXIXIXIXIXIXIXIXIXIXIX",
"IXIXIXIXIXIXIXIXIXIXIXIXIXIXIXIXIXS. .}.}.~.Q ~.Q.E U IXIXIXIXIXIXIXIXIXIXIXIXIXIXIXIXIXIXIXIXIXIXIXIXIXIXIXIXIXIXIXIXIXIXIXIXIXIXIXIXIXIXIXIXIXIXIXIXIXIXIXIXIXIXIXIXIXIXIXIXIXIXIXIXIXIXIXIXIXIXIXIXIXIXIXw O.+.+.w 8 q q IXIXIXIXIXIXIXIXIXIXIXIXIXIXIXIXIXIX",
"IXIXIXIXIXIXIXIXIXIXIXIXIXIXIXIXIXD.(.[.[.Q.W ~.Q E U IXIXIXIXIXIXIXIXIXIXIXIXIXIXIXIXIXIXIXIXIXIXIXIXIXIXIXIXIXIXIXIXIXIXIXIXIXIXIXIXIXIXIXIXIXIXIXIXIXIXIXIXIXIXIXIXIXIXIXIXIXIXIXIXIXIXIXIXIXIXIXIXIXIXIXq q q w q 8 8 q IXIXIXIXIXIXIXIXIXIXIXIXIXIXIXIXIXIX",
"IXIXIXIXIXIXIXIXIXIXIXIXIXIXIXIXIXD.(.].^.Q E Q.Q T I IXIXIXIXIXIXIXIXIXIXIXIXIXIXIXIXIXIXIXIXIXIXIXIXIXIXIXIXIXIXIXIXIXIXIXIXIXIXIXIXIXIXIXIXIXIXIXIXIXIXIXIXIXIXIXIXIXIXIXIXIXIXIXIXIXIXIXIXIXIXIXIXIXIXIXIX8 8 w q 8 8 IXIXIXIXIXIXIXIXIXIXIXIXIXIXIXIXIXIXIX",
"IXIXIXIXIXIXIXIXIXIXIXIXIXIXIXIXIXG. .~.~.Q E ! Q T I IXIXIXIXIXIXIXIXIXIXIXIXIXIXIXIXIXIXIXIXIXIXIXIXIXIXIXIXIXIXIXIXIXIXIXIXIXIXIXIXIXIXIXIXIXIXIXIXIXIXIXIXIXIXIXIXIXIXIXIXIXIXIXIXIXIXIXIXIXIXIXIXIXIXIXIX8 8 q q 8 8 IXIXIXIXIXIXIXIXIXIXIXIXIXIXIXIXIXIXIX",
"IXIXIXIXIXIXIXIXIXIXIXIXIXIXIXIXIXIX| Q Q W IXIXIXIXIXIXIXIXIXIXIXIXIXIXIXIXIXIXIXIXIXIXIXIXIXIXIXIXIXIXIXIXIXIXIXIXIXIXIXIXIXIXIXIXIXIXIXIXIXIXIXIXIXIXIXIXIXIXIXIXIXIXIXIXIXIXIXIXIXIXIXIXIXIXIXIXIXIXIXIXIXIXIXIXIXIXIXIXIXIXIXIXIXIXIXIXIXIXIXIXIXIXIXIXIXIX",
"IXIXIXIXIXIXIXIXIXIXIXIXIXIXIXIXIXIX| E E E IXIXIXIXIXIXIXIXIXIXIXIXIXIXIXIXIXIXIXIXIXIXIXIXIXIXIXIXIXIXIXIXIXIXIXIXIXIXIXIXIXIXIXIXIXIXIXIXIXIXIXIXIXIXIXIXIXIXIXIXIXIXIXIXIXIXIXIXIXIXIXIXIXIXIXIXIXIXIXIXIXIXIXIXIXIXIXIXIXIXIXIXIXIXIXIXIXIXIXIXIXIXIXIXIXIX",
"IXIXIXIXIXIXIXIXIXIXIXIXIXIXIXIXIXIXY U U IXIXIXIXIXIXIXIXIXIXIXIXIXIXIXIXIXIXIXIXIXIXIXIXIXIXIXIXIXIXIXIXIXIXIXIXIXIXIXIXIXIXIXIXIXIXIXIXIXIXIXIXIXIXIXIXIXIXIXIXIXIXIXIXIXIXIXIXIXIXIXIXIXIXIXIXIXIXIXIXIXIXIXIXIXIXIXIXIXIXIXIXIXIXIXIXIXIXIXIXIXIXIXIXIXIXIX",
"IXIXIXIXIXIXIXIXIXIXIXIXIXIXIXIXIXIXU U U IXIXIXIXIXIXIXIXIXIXIXIXIXIXIXIXIXIXIXIXIXIXIXIXIXIXIXIXIXIXIXIXIXIXIXIXIXIXIXIXIXIXIXIXIXIXIXIXIXIXIXIXIXIXIXIXIXIXIXIXIXIXIXIXIXIXIXIXIXIXIXIXIXIXIXIXIXIXIXIXIXIXIXIXIXIXIXIXIXIXIXIXIXIXIXIXIXIXIXIXIXIXIXIXIXIXIX",
"IXIXIXIXIXIXIXIXIXIXIXIXIXIXIXIXIXIXI I I IXIXIXIXIXIXIXIXIXIXIXIXIXIXIXIXIXIXIXIXIXIXIXIXIXIXIXIXIXIXIXIXIXIXIXIXIXIXIXIXIXIXIXIXIXIXIXIXIXIXIXIXIXIXIXIXIXIXIXIXIXIXIXIXIXIXIXIXIXIXIXIXIXIXIXIXIXIXIXIXIXIXIXIXIXIXIXIXIXIXIXIXIXIXIXIXIXIXIXIXIXIXIXIXIXIXIX",
"IXIXIXIXIXIXIXIXIXIXIXIXIXIXIXIXIXIX, , , IXIXIXIXIXIXIXIXIXIXIXIXIXIXIXIXIXIXIXIXIXIXIXIXIXIXIXIXIXIXIXIXIXIXIXIXIXIXIXIXIXIXIXIXIXIXIXIXIXIXIXIXIXIXIXIXIXIXIXIXIXIXIXIXIXIXIXIXIXIXIXIXIXIXIXIXIXIXIXIXIXIXIXIXIXIXIXIXIXIXIXIXIXIXIXIXIXIXIXIXIXIXIXIXIXIXIX"
};
