/* XPM */
static const char *bos2d5[] = {
/* columns rows colors chars-per-pixel */
"128 128 248 2 ",
"   c #141414",
".  c #1B1B1B",
"X  c #191918",
"o  c #0D110C",
"O  c #390B0B",
"+  c #271C18",
"@  c #381917",
"#  c #31180C",
"$  c #15280C",
"%  c #193712",
"&  c #142B0F",
"*  c #28221B",
"=  c #382717",
"-  c #2A3014",
";  c #1E2122",
":  c #242424",
">  c #2C2C2C",
",  c #282827",
"<  c #362A28",
"1  c #37322C",
"2  c #2E3233",
"3  c #343434",
"4  c #3B3B3B",
"5  c #383838",
"6  c #293329",
"7  c #1B1E21",
"8  c #4A0807",
"9  c #580403",
"0  c #471717",
"q  c #551616",
"w  c #431109",
"e  c #680303",
"r  c #780303",
"t  c #6F1717",
"y  c #432D19",
"u  c #49341B",
"i  c #543C1E",
"p  c #55371B",
"a  c #542C0F",
"s  c #742B01",
"d  c #742B01",
"f  c #7B3301",
"g  c #793607",
"h  c #693616",
"j  c #6D340F",
"k  c #452525",
"l  c #473727",
"z  c #593D21",
"x  c #553B23",
"c  c #473A37",
"v  c #563838",
"b  c #572525",
"n  c #6F2D2B",
"m  c #1E4215",
"M  c #224918",
"N  c #28561D",
"B  c #2B5C21",
"V  c #344C30",
"C  c #326926",
"Z  c #38772C",
"A  c #326827",
"S  c #6A4417",
"D  c #784615",
"F  c #7A5316",
"G  c #5A4124",
"H  c #49423B",
"J  c #544639",
"K  c #504B2C",
"L  c #644425",
"P  c #6D4A29",
"I  c #684628",
"U  c #734D2B",
"Y  c #784828",
"T  c #7B522E",
"R  c #7C5433",
"E  c #6A4E37",
"W  c #726E2C",
"Q  c #4E521F",
"!  c #3A3B45",
"~  c #3E4243",
"^  c #434444",
"/  c #4B4B4B",
"(  c #484847",
")  c #564A47",
"_  c #58524B",
"`  c #535454",
"'  c #5C5C5C",
"]  c #585857",
"[  c #4D5352",
"{  c #675A57",
"}  c #70534A",
"|  c #4E644B",
" . c #736555",
".. c #5B5D62",
"X. c #5C6261",
"o. c #636363",
"O. c #6B6B6B",
"+. c #676968",
"@. c #766B67",
"#. c #737474",
"$. c #7B7B7B",
"%. c #767979",
"&. c #71726F",
"*. c #403F41",
"=. c #880404",
"-. c #980404",
";. c #871414",
":. c #961616",
">. c #AC0101",
",. c #A50707",
"<. c #B40101",
"1. c #BA0303",
"2. c #B01818",
"3. c #823C05",
"4. c #803807",
"5. c #8F2A2A",
"6. c #AF3232",
"7. c #C30101",
"8. c #CB0404",
"9. c #D40101",
"0. c #DA0404",
"q. c #D61818",
"w. c #EB0000",
"e. c #E50303",
"r. c #F30101",
"t. c #FC0000",
"y. c #F30C0C",
"u. c #ED1414",
"i. c #D12C2C",
"p. c #894509",
"a. c #8D4B0B",
"s. c #874307",
"d. c #904D0C",
"f. c #94520D",
"g. c #9A590E",
"h. c #9B5C13",
"j. c #955712",
"k. c #864E15",
"l. c #9D6216",
"z. c #8B6217",
"x. c #A16415",
"c. c #A66C19",
"v. c #AA741D",
"b. c #AD781D",
"n. c #B17A1E",
"m. c #85562A",
"M. c #835631",
"N. c #8B5B35",
"B. c #865936",
"V. c #925E37",
"C. c #854C2A",
"Z. c #9B653C",
"A. c #96633A",
"S. c #91712F",
"D. c #AA7823",
"F. c #B17E21",
"G. c #A2683E",
"H. c #A6732E",
"J. c #A15F10",
"K. c #91574F",
"L. c #8F7051",
"P. c #A86C42",
"I. c #B57548",
"U. c #A8754E",
"Y. c #867A77",
"T. c #8F726A",
"R. c #A66F6C",
"E. c #B24B4B",
"W. c #C74C4C",
"Q. c #C37C4E",
"!. c #C86767",
"~. c #3D8331",
"^. c #3D812E",
"/. c #47983B",
"(. c #418B35",
"). c #51AD46",
"_. c #5CC552",
"`. c #64D75B",
"'. c #6DE964",
"]. c #B58424",
"[. c #B98A28",
"{. c #BE922B",
"}. c #B38D35",
"|. c #AD9D3B",
" X c #C2972D",
".X c #C49D31",
"XX c #C28F25",
"oX c #CAA637",
"OX c #D3B33E",
"+X c #D0AF3B",
"@X c #AC8E4F",
"#X c #8F8475",
"$X c #A99270",
"%X c #B09E5C",
"&X c #CD8354",
"*X c #D7BA43",
"=X c #C8B049",
"-X c #DDC449",
";X c #DBCD52",
":X c #E1CA4C",
">X c #E8D654",
",X c #E8D552",
"<X c #F1E55C",
"1X c #EFE25B",
"2X c #FAF669",
"3X c #F4EC6A",
"4X c #D4CB6E",
"5X c #2A2A95",
"6X c #70718C",
"7X c #3838C5",
"8X c #7E8384",
"9X c #838484",
"0X c #8C8C8C",
"qX c #878887",
"wX c #939494",
"eX c #9B9B9B",
"rX c #979899",
"tX c #918F8E",
"yX c #A8958D",
"uX c #AFA692",
"iX c #9596A4",
"pX c #9CA2A2",
"aX c #A3A3A3",
"sX c #ABACAC",
"dX c #A7A8A7",
"fX c #B3B4B4",
"gX c #BBBCBC",
"hX c #B8B8B7",
"jX c #B3B1AC",
"kX c #C6B9AC",
"lX c #C3B78F",
"zX c #CECBB6",
"xX c #E9E781",
"cX c #BCBEC2",
"vX c #BFC8C8",
"bX c #C3C3C3",
"nX c #CCCCCC",
"mX c #C8C7C6",
"MX c #D3D3D4",
"NX c #DBDBDB",
"BX c #D6D6D9",
"VX c #D1CCC9",
"CX c #E4E4E4",
"ZX c #EDEDED",
"AX c #F0F0F0",
"SX c #DFDFE0",
"DX c None",
"FX c black",
/* pixels */
"DXDXDXDXDXDXDXDXDXDXDXDXDXDXDXDXDXDXDXDXDXDXDXDXDXDXDXDXDXDXDXDXDXDXDXt.t.r.r.e.0.8.1.>.;.n o.O.#.$.9X0X0XwXwXwXwXeXeXaXaXdXsXfXfXsXdXaXaXeXeXeXeXwX0X9X$.#.+.} 5.-.>.7.9.e.r.r.t.t.DXDXDXDXDXDXDXDXDXDXDXDXDXDXDXDXDXDXDXDXDXDXDXDXDXDXDXDXDXDXDXDXDXDXDXDXDXDX",
"DXDXDXDXDXDXDXDXDXDXDXDXDXDXDXDXDXDXDXDXDXDXDXDXDXDXDXDXDXDXDXDXDXDXDXt.r.e.0.7.<.,.:.:.5.} &.%.9X0XwXeXeXaXaXaXaXdXfXfXgXgXbXbXbXgXgXfXfXsXsXdXaXeXeXwX0X9X%.@.} 5.:.-.>.1.9.e.r.t.t.DXDXDXDXDXDXDXDXDXDXDXDXDXDXDXDXDXDXDXDXDXDXDXDXDXDXDXDXDXDXDXDXDXDXDXDXDX",
"DXDXDXDXDXDXDXDXDXDXDXDXDXDXDXDXDXDXDXDXDXDXDXDXDXDXDXDXDXDXDXDXDXt.t.r.e.8.>.=.e e n } @.$.9XtXwXaXdXfXgXgXbXbXbXnXMXBXNXNXNXNXNXNXBXMXnXmXmXbXgXsXaXaXaXeXwXqX#.{ v q e r -.<.0.r.r.t.t.DXDXDXDXDXDXDXDXDXDXDXDXDXDXDXDXDXDXDXDXDXDXDXDXDXDXDXDXDXDXDXDXDXDXDX",
"DXDXDXDXDXDXDXDXDXDXDXDXDXDXDXDXDXDXDXDXDXDXDXDXDXDXDXDXDXDXDXT.i.y.w.0.1.:.n n v v { #.9X0XwXaXdXfXgXcXmXnXnXMXBXNXCXCXCXZXCXCXCXCXCXNXBXMXMXnXmXgXfXsXdXaXeXwX8XO.] v b b t ;.>.8.e.r.q.E.DXDXDXDXDXDXDXDXDXDXDXDXDXDXDXDXDXDXDXDXDXDXDXDXDXDXDXDXDXDXDXDXDXDX",
"DXDXDXDXDXDXDXDXDXDXDXDXDXDXDXDXDXDXDXDX9X9X9X9X9X9X$.%.#.#.%.T.E.q.0.<.=.n ) ' o.O.$.9XwXeXaXsXgXbXmXmXnXMXBXNXNXCXCXZXZXZXZXZXZXAXZXCXNXNXBXMXnXmXgXfXsXdXaXeX0X$.o.] ( ^ c b r -.8.e.i.K.Y.$.9X0XeXsXfXfXfXfXfXDXDXDXDXDXDXDXDXDXDXDXDXDXDXDXDXDXDXDXDXDXDXDX",
"DXDXDXDXDXDXDXDXDXDXDXDXDXDXDXDX%.0XfXgXfXfXfXfXdXeXwX9X$.T.E.i.q.0.7.-.e b ) ' +.#.8X0XeXaXsXfXbXmXnXnXMXMXBXNXCXCXZXAXAXAXAXAXAXAXZXZXCXSXNXBXnXnXbXgXfXfXdXeX0X$.O.] ( ~ 4 k 9 r >.9.q.i.6.R.9XrXsXgXnXnXMXMXnXnXnXgXdXeXDXDXDXDXDXDXDXDXDXDXDXDXDXDXDXDXDXDX",
"DXDXDXDXDXDXDXDXDXDXDXDXDXDXDX#.$.eXgXnXNXCXNXNXnXgXaXwX9XK.i.r.r.9.>.=.q b ) ' +.#.9XwXeXdXfXgXbXnXnXMXMXBXNXNXCXCXZXAXAXAXAXAXZXAXZXZXCXCXNXBXnXnXmXbXgXfXsXaXwX9X&.' ( ^ 4 k q e -.7.e.r.u.W.0XpXhXnXNXCXCXCXCXNXMXgXsXaXeXDXDXDXDXDXDXDXDXDXDXDXDXDXDXDXDXDX",
"DXDXDXDXDXDXDXDXDXDXDXDXDX' O.9XeXfXnXNXCXZXCXCXBXgXdXrX0XR.i.r.e.7.,.n ) ) ' o.#.$.0XrXaXdXsXgXbXnXnXMXBXNXNXCXCXCXZXAXAXAXAXAXZXZXZXZXCXCXNXBXnXnXmXbXgXfXsXaXwX0X%.o.` ( ^ 4 l b ;.<.0.r.u.W.tXdXgXnXNXCXAXAXCXCXNXnXgXdXwX$.DXDXDXDXDXDXDXDXDXDXDXDXDXDXDXDX",
"DXDXDXDXDXDXDXDXDXDXDXDX' o.%.wXsXmXBXCXCXCXCXCXBXbXsXpX0XR.i.r.e.1.:.n ] X.o.O.$.9X0XeXaXaXsXfXbXnXnXMXBXBXNXCXCXCXZXZXAXAXAXAXZXZXZXCXCXCXNXMXnXmXbXbXgXfXsXaXwX0X$.+.' / ( ~ 4 c t >.9.r.u.W.yXdXhXnXNXCXZXZXZXCXCXBXmXsXwX$.O.DXDXDXDXDXDXDXDXDXDXDXDXDXDXDX",
"DXDXDXDXDXDXDXDXDXDX( ` o.%.0XaXfXmXMXNXNXCXNXNXnXgXsXpX0XR.i.r.e.7.:.n _ X.O.$.9X0XtXwXeXaXsXfXbXnXnXMXMXMXBXNXCXCXCXCXZXAXAXAXZXCXCXCXCXNXBXnXmXbXgXgXgXfXsXaXwX9X%.O.' ` ( 4 3 k t >.9.r.u.W.yXdXfXbXMXNXCXCXCXCXNXMXbXsXwX%.' ( 4 DXDXDXDXDXDXDXDXDXDXDXDXDX",
"DXDXDXDXDXDXDXDXDXDX/ ' O.0XeXdXfXbXnXMXNXNXMXnXgXfXaXwX$.K.i.r.e.7.:.n ( ] O.$.9X0XwXeXaXaXsXfXgXmXnXMXMXMXBXNXCXCXCXCXCXZXZXZXCXCXCXSXNXNXBXnXnXmXbXgXfXfXdXeXwX9X%.O.' ` ( 4 2 k t >.0.r.u.W.tXrXdXfXbXnXBXNXNXBXnXbXsXeX9XO.' ( 4 DXDXDXDXDXDXDXDXDXDXDXDXDX",
"DXDXDXDXDXDXDXDXDXDX] o.%.wXaXdXfXgXmXnXMXnXmXgXsXeXwX8XO.K.q.r.w.8.-.b c / o.%.9XwXeXaXaXdXsXfXfXgXnXMXMXMXBXNXCXCXCXCXCXCXCXCXCXSXNXNXNXNXBXMXnXnXbXgXfXsXaXeX0X9X%.O.' ` ( 5 > < t <.0.r.u.E.Y.qXwXaXsXfXgXmXmXgXfXaX0X$.#.o.] ( 4 5 DXDXDXDXDXDXDXDXDXDXDXDX",
"DXDXDXDXDXDXDXDXDX( ` o.%.0XeXaXdXfXfXgXgXgXfXdXeX0X$.O.' } q.w.w.9.,.t 5 ( X.&.$.0XwXeXaXaXsXsXfXgXmXnXMXMXBXNXNXNXCXCXCXCXCXCXNXNXBXBXBXBXMXnXnXbXgXfXsXaXeXwX9X$.O.o.' / ^ 3 > k ;.7.e.r.u.6.@.%.8X0XwXeXaXaXaXaXeX0X$.#.O.o.] ( 4 5 > DXDXDXDXDXDXDXDXDXDXDX",
"DXDXDXDXDXDXDXDX4 ^ / ' O.$.0XwXeXaXaXaXaXaXeXwX0X$.O.' / n 2.e.r.0.,.t 1 ~ ' O.%.9X0XwXeXaXdXsXfXfXgXmXnXMXBXBXNXNXNXNXNXNXNXNXNXBXMXMXMXMXnXnXbXgXfXsXaXeXwX0X$.O.o.' ] ( 4 2 > 0 ;.8.e.w.0.6.{ +.&.%.$.$.9X9X9X9X$.#.O.o.{ ' ` ( 4 3 > : DXDXDXDXDXDXDXDXDXDX",
"DXDXDXDXDXDXDXDX5 4 ( ] o.O.#.$.$.9XqX0X0X9X8X%.O.o.] ( 4 n 2.e.r.e.1.t 1 4 [ ' O.%.9X0XwXaXdXsXfXfXgXgXbXnXnXMXBXBXBXBXBXBXBXBXBXBXMXMXnXnXmXbXgXfXsXdXaXeX0X9X#.O.o.' ] ( 4 2 : 0 ;.9.r.r.q.5.) ] ' o.o.o.o.o.o.' ' ] ` / / ( ( 4 4 3 > > DXDXDXDXDXDXDXDXDXDX",
"DXDXDXDXDXDXDX4 4 ^ ( / ` ] ' ' o.o.O.O.O.O.o.' ] / ^ 5 3 b ,.e.r.e.1.t > 2 ^ ` ' O.%.9X0XwXaXdXsXfXfXfXgXbXmXnXnXnXnXnXnXnXMXMXMXMXMXnXnXmXbXgXfXdXaXaXeX0X9X%.O.o.' ] / ( 4 > ; @ =.9.w.w.8.5.v ( / [ ` ` / ( ( ( ( ( ( ( ( ( ( ^ ^ 4 4 5 DXDXDXDXDXDXDXDXDXDX",
"DXDXDXDXDX^ ( / ` ` / ( ( ^ ^ ( ( / ` ] ` / ( ( 4 4 5 2 > q -.9.e.0.,.t , > 5 ^ / ] o.#.$.qXwXeXaXaXdXdXfXgXgXbXbXmXbXbXbXmXmXnXnXnXnXnXbXgXgXfXsXaXeXwX0X9X%.O.o.' ` / ^ 4 3 , ; @ =.8.e.e.8.;.c 4 ! ^ ^ ( ^ 4 4 ^ ( ( ( ( / ` ' ' ' ' ` ( 4 3 DXDXDXDXDXDXDXDX",
"DXDXDXDXDX^ ( ` o.o.O.O.o.o.O.O.#.#.O.o.] ( ^ 4 5 3 > > > b :.7.9.8.,.q : ; > 5 4 ^ / ' o.#.$.9X0XwXeXaXdXsXfXgXgXgXgXgXgXgXbXbXbXmXmXbXgXgXfXsXaXeXwX0X9X%.O.' ] ` ( 4 5 3 > ; 7 @ r 7.9.8.1.n v ~ ~ ^ ( / ` ` ] ' o.O.O.#.%.$.$.$.$.O.o./ 4 3 > DXDXDXDXDXDXDX",
"DXDXDXDXDX( ( ] +.%.0XwXeXaXfXgXgXfXaX0X#.' / ( 4 5 3 2 5 b ;.>.1.7.-.q + ; : > > 5 4 ( ] o.O.#.$.9X0XwXeXaXdXfXfXfXfXgXgXgXgXgXgXgXgXfXfXfXdXaXeXwX0X9X$.O.o.' ` / ^ 4 2 > : ; . @ r <.7.<.-.n ] ] ` ] o.O.#.%.9X0XeXaXdXsXsXdXaXwXqX#.' ( 4 2 DXDXDXDXDXDXDXDX",
"DXDXDXDXDXDX( ( / ' O.$.9XwXaXfXcXmXmXgXeX0X$.O.' ` ( ( ( v t -.>.<.>.-.t q 1 5 ^ ` o.O.%.9X9X9X%.$.9X0XwXaXaXdXsXsXfXfXgXgXgXfXfXfXfXsXsXaXeXwX0X9X$.%.#.%.Y.9X$.#.o.' / 4 2 k t ;.,.>.>.-.:.5.@.#.#.%.9X0XwXeXdXgXnXnXnXbXfXaXwX$.o.` ^ 5 3 DXDXDXDXDXDXDXDXDX",
"DXDXDXDXDXDXDXDX> 3 4 ( ` { &.9XwXfXmXmXgXdXeX0X$.O.' ` / v t r =.-.<.9.0.:.n ( ' O.$.9XwXaXaXeX9X$.$.9X0XeXeXaXaXdXdXsXfXfXfXfXfXsXdXaXaXeXwX0X9X$.%.#.%.0XeXaXeX0X9X%.o._ v n 8.0.7.>.-.=.t } @.$.9X0XwXpXdXfXgXnXBXBXmXfXeX9XO._ 4 > : . DXDXDXDXDXDXDXDXDXDX",
"DXDXDXDXDXDXDXDXDX, 1 1 l c H / ' &.9X9X9X$.#.+.' ` ( ^ 4 1 @ w e =.>.7.9.8.2.5.v ( ~ / ' $.wXeXeXwX9X%.$.0XwXwXeXeXaXaXdXsXsXsXdXaXeXeXwX0X9X$.$.#.%.9X0XwXwX0XO.[ ( ~ v n 2.8.9.9.<.-.r q 0 c / ] ' o.O.%.$.9XtXeXpXwX9X#.o._ H l 1 * DXDXDXDXDXDXDXDXDXDXDXDX",
"DXDXDXDXDXDXDXDXDXDXy y y y = < 1 4 ^ ( ( ( ( ^ H 4 3 1 , : * + w e =.-.<.9.0.7.t 0 @ @ < ) O.0XaXaX$.o.o.#.$.9X0XwXeXeXaXaXaXaXeXeXwX0X9X$.%.#.O.o.#.0XeXwX%.' c @ + @ q ,.9.0.7.>.-.r 9 @ : , 1 1 4 H ^ ( _ ` ' o.o.' ( c l y y y y DXDXDXDXDXDXDXDXDXDXDXDXDX",
"DXDXDXDXDXDXDXDXDXDXy u y y y y y l l l l l l x x l = = = = * # O 9 e r =.,.1.1.>.-.=.r e 0 4 o.0X0XO./ / ' O.%.$.9X9X0XtXwXwX0X0X9X9X$.#.O.o.o.' ] o.9XwX%.( < q r =.-.,.<.1.>.-.=.e 9 8 # * = = = = < l G K l l J J K l l u y y y y DXDXDXDXDXDXDXDXDXDXDXDXDX",
"DXDXDXDXDXDXDXDXDXDXG z z i i i z G G x u u z I L u y u i u = # O w 8 9 e r =.-.>.<.>.-.r w : / %.$.] 4 4 ( ] o.O.#.%.$.$.9X9X$.$.%.O.o.o.' ] / ( ^ / O.$.X.3 + 9 =.>.<.<.,.=.r e e 9 8 O # = y i u y y z I L p u p z z z i i i i z z DXDXDXDXDXDXDXDXDXDXDXDXDX",
"DXDXDXDXDXDXDXDXDXDXT T U I I U U U U P L I T B.M.L x G P L u = # @ O 8 9 9 9 e e r r r 9 O , ^ o.o.^ > > 5 ^ [ ' ' o.o.O.O.#.#.O.o.' ] ` / ( 4 5 > 4 ] O.] 3 + 8 e r r r e 9 9 9 8 w @ # = y i I L z x U B.B.U L I P U U U P I P U T DXDXDXDXDXDXDXDXDXDXDXDXDX",
"DXDXDXDXDXDXDXDXDXDXZ.A.M.P U B.N.B.M.T T B.A.P.A.U G P M.U x = = = # # O O O w 0 0 q q 0 < 3 ~ ( ^ 1 : : > 5 ^ ( ` ` ] ' ' o.o.' ] / ( ( ^ 4 5 > : > 4 ( ( 4 1 k q q q w w O O O O @ = = = y L M.T L L B.G.G.N.M.T M.B.N.N.T P T N.A.DXDXDXDXDXDXDXDXDXDXDXDXDX",
"DXDXDXDXDXDXDXDXDXDXI.P.B.P U A.P.Z.B.B.A.G.I.I.P.T P T A.B.L y = = = * * : : , > < 1 1 5 c ^ 4 > : . . . : > 5 4 ( ( / / ` / / ( ( ^ 4 4 5 3 > : ; . : > 5 4 ^ 4 3 3 1 < , : : : * * = = = x T A.N.P P A.I.I.P.Z.V.B.V.G.Z.M.P T Z.I.I.DXDXDXDXDXDXDXDXDXDXDXDX",
"DXDXDXDXDXDXDXDXDXG.P.P.B.P T G.I.P.N.V.P.I.Q.&XI.B.U N.P.G.T z y = = * . 7 ; ; ; ; : : : > > : . X     X . : > 5 4 4 ^ ( ( ( ^ ^ 4 4 5 3 > : . X     X . : > > , : : : ; ; ; ; . * * = y u I V.P.Z.T T Z.Q.&XQ.I.Z.B.A.I.I.N.P T A.P.P.Z.DXDXDXDXDXDXDXDXDXDXDX",
"DXDXDXDXDXDXDXDXZ.Z.G.Z.T P T P.Q.P.N.V.I.&X&X&XI.V.M.A.I.P.B.L u = * + . . . : : : : > > > > 3 5 5 3 > 3 5 5 3 > 3 5 4 4 ^ 4 4 4 5 5 > > : > > > > > 3 5 3 3 > > > > : : : : . . + + = y z U Z.I.P.N.B.G.Q.&X&XQ.G.B.A.I.I.A.P U N.Z.Z.Z.Z.DXDXDXDXDXDXDXDXDXDX",
"DXDXDXDXDXDXDXDXG.Z.A.N.U P M.I.Q.G.M.B.I.&X&XQ.P.V.N.Z.I.P.T i y = = + : , 3 4 / ' o.O.#.$.9X0XwXwXwX0XwXtX$./ > : > 3 5 5 5 5 3 1 > : . 3 X.9X0X9X9X0XwX0X9X$.%.O.o.' ` ( 5 > : * * = y u L A.I.P.N.B.G.I.&X&X&XZ.T N.I.Q.A.U P M.N.Z.G.G.DXDXDXDXDXDXDXDXDXDX",
"DXDXDXDXDXDXDXDXZ.N.T U P U B.G.P.V.U B.I.&XQ.P.Z.A.V.Z.Z.N.P i y = = * > 3 ^ ` o.%.9XwXeXdXfXbXnXMXnXnXMXMXsXO.5 : > > > > > > > > : : : ( 0XmXnXmXbXmXnXbXgXsXaXwX0X$.O.' ( 4 > , * = = u G T Z.Z.A.A.A.P.I.&XQ.A.U M.G.P.V.Y P P U B.A.Z.DXDXDXDXDXDXDXDXDXDX",
"DXDXDXDXDXDXDXDXM.U z x I T B.B.T U P M.P.I.Z.B.B.Z.P.A.T P L G i DXDX> > 4 ( ` ' o.#.9X0XeXaXsXgXbXnXnXBXNXgX9X` 5 : : : : : : : 7 : > 4 o.aXMXNXnXmXbXgXfXaXeXwX0X$.O.' ] ( 4 3 > , DXDXz G L U B.Z.P.N.M.N.P.I.V.U P Y T B.B.U z p L T M.DXDXDXDXDXDXDXDXDXDX",
"DXDXDXDXDXDXDXG L z y y L B.B.P L L U M.Z.G.B.U T A.G.B.L i G L P DXDX> > 5 ^ ( / ] o.O.$.9X0XwXaXfXgXmXMXNXbXwX' 4 :     X X X X   X > ( #.dXMXNXnXbXfXsXeXwX9X$.%.O.' / ( ( 4 3 > DXDXDXL L z G U A.G.B.U T A.P.L.L. . .L.T.$X#XT. . .L.L.T.DXDXDXDXDXDXDXDXDX",
"DXDXDX/ ( 4 4 l x u = y L M.T I z I T B.V.N.T U U B.N.U z i G I P DXDX: : > 5 4 ^ ( ` ' o.O.%.9XwXaXsXfXbXnXfX0X' 4 > X X X X . . . : 3 / #.aXbXmXgXfXaXeX0X$.&.O.o.] ( ( 4 4 3 > : DXDXDXP L z i L M.N.T P U B.L.T.0XwXeXaXjXzXmXmXkXsXeXtXqX%.o.` ( DXDXDXDXDX",
"DX[ ..+.o.' _ J l y = = z U P z x L T M.T T U P P P P G i i G I DXDXDXX . : > 5 4 ^ ( ] ' o.O.$.9XwXaXaXeX0X$.O.o.o.o.O.O.#.%.$.%.O.o.o.o.o.%.9XwXaXaXeX0X$.#.O.o.' ` ( ^ 4 3 > : X DXDXDXDXL i i z L P E E }  . .#.8X8X8X0XwXeXpXaXeX0X$.#.O.o.] [ / / DXDXDXDX",
") ] @.#X9X#X&.{ J l = = u z i y y z P U L G L L G i u u i i DXDXDXDXDX    . > 3 4 ^ ( ` ' o.O.#.$.9X0X0XO./ ( ' &.0XaXfXmXMXBXMXnXgXsXwX$.o./ ( ' $.0X0X$.%.O.o.' ] / ( 4 5 > : X   DXDXDXDXDXi i i u l J ` ' o.o.o.{ { { { ] ' ' ] ` ( ( ( ) ) ) ) ) ( ( DXDXDX",
"S.S.S.U.$XyXwX%._ c = # = y y = = p I L i u u x u = = = i G DXDXDXDXDXDXDXX : > 3 4 ^ ( ` ' ' o.O.o.' ] / ( ] #.tXpXsXjXhXgXgXgXgXfXsXdXeX9Xo.( ( ` ' o.O.o.o.' ] / ( ^ 4 > : . X DXDXDXDXDXDXi x x c c H ^ ~ ~ c n 5.2.2.5.n c 4 4 4 2 > b t :.:.:.n l 2 DXDXDX",
"oX.X X{.@X$XyX9Xo.( , + + = = # # y z z y = = = = * + = u i DXDXDXDXDXDXDXDXX : > 3 4 4 ( / ` ] ] ( 4 3 4 ] O.qXrXiXiXiXwXwXwXwXtXyXyXyXeXwX$.' ( 5 5 ^ ` ] ] ` ( ^ 4 5 > : X X DXDXDXDXDXDXDXDXG K H ^ 4 3 > > k ;.8.e.e.8.5.v ( ( ( 4 1 b ,.9.0.8.,.t 0 k DXDX",
"OX*X:X>X;X=X%X#X@.[ > X X * * + # = u y # #   X + * , < DXDXDXDXDXDXDXDXDXDX  X : > 3 5 4 ( ( ( 4 5 > 3 ( o.%.$.6X6X7X7X6X%.$.$.T.W.i.W.T.$.%.O.] 4 > 3 4 ^ ( ( ^ 4 5 > : .     DXDXDXDXDXDXDXDXDXDXH 4 4 5 5 4 v 2.e.r.r.q.6.@.$.9X9X&.' n 2.0.e.0.0.8.2.6.T.%.",
"oX*X>X3X<X:XoX@XL.{ H 5 4 ( / ( J _  .{ ) H 4 5 5 4 4 4 DXDXDXDXDXDXDXDXDXDX    . : : > 3 5 4 3 > > > 5 ( ' o.o...5X5X5X5X..X.X.} 2.0.2.} ' o.o.` 4 > > > > 5 4 5 > > : . X   DXDXDXDXDXDXDXDXDXDXDX4 5 3 5 ~ ] } 6.y.t.r.q.W.yXdXfXfXeX9XK.6.2.8.e.r.t.y.W.T.qX",
"].{.+X>X1X>X-X{.H.M.} o.$.rXeXrXeXjXbXzXjXeX0X9X#.o.] / ( ( DXDXDXDXDXDXDXDXDXDXX . . . : : : : : : > 5 4 4 ^ H ! ! ! ! ! ^ ^ ^ v ;.,.;.v ~ ~ ^ 4 4 3 : : : : : : : . . . X DXDXDXDXDXDXDXDXDXDX( V 5 > > > / #.R.W.y.t.w.q.!.jXbXMXnXhXeX9X@.} 2.0.r.t.u.W.yXpX",
"h.c.[.oX*X-X*X Xc.m. .#.rXgXgXdXaXgXBXBXbXsXeX0X$.o.` ( ^ ^ DXDXDXDXDXDXDXDXDXDX          X X X . : > > > > > > > > > > > 2 2 2 < q q q < > > > > > > : . X X X           DXDXDXDXDXDXDXDXDXDX^ ^ 4 2 > > 5 ` $.R.W.y.r.e.q.!.jXvXnXmXfXeX8X+.{ 5.8.e.r.u.W.yXpX",
"p.d.l.b.[. X XF.x.m.} &.eXbXgXwX9XeXfXfXaXwX9X#.o.` ( ^ 4 4 DXDXDXDXDXDXDXDXDXDX            X . : : : : , > > > > > > 2 3 3 5 5 3 1 < < > > > > > : : : : . X             DXDXDXDXDXDXDXDXDXDX4 4 5 > > 3 ( ' %.T.W.y.w.9.2.E.yXsXsXdXeX9X%.+.} 5.1.0.r.u.W.Y.qX",
"R R m.j.l.v.v.c.l.N. .$.aXmXgX0XO.O.$.$.#.O.X.] / ( ^ ( ( ( DXDXDXDXDXDXDXDXDXX : : > > > 3 5 5 4 5 3 > 5 ^ ( [ ] ' o.#.%.$.9X$.$.#.O.o.' ` / ( 4 3 > 3 4 4 5 5 3 > > : : .   DXDXDXDXDXDXDXDX/ ( 4 3 > 4 [ X.&.T.6.y.e.7.2.K.Y.tXwXwX9X%.+.' ) n -.7.e.y.6.T.%.",
"#.@.} C.a.f.j.g.j.V.T.0XsXmXfX$.' ` ] ] ' ' ' ' ] ` / ` ] ] DXDXDXDXDXDXDXDX  . > 4 ( / ] o.o.o.' ` ( ( ` o.#.$.0XwXaXfXgXmXnXnXbXgXsXeX0X9X%.O.' ( ( ( ] ' o.o.' ` ( ^ 5 : X   DXDXDXDXDXDXDX' ] ( 4 5 ( ] X.+. .6.0.0.1.:.n { &.%.$.&.o.] / v n =.<.e.y.6.@.O.",
"0X9XY.L.B.k.3.4.3.m.#XaXcXmXdX#./ ` o.%.0XwXeXeX0X$.o.' ] ` DXDXDXDXDXDXDXDX: > ^ ' O.$.0XeXaXwX9X#.O.O.%.9XwXeXdXfXmXMXNXNXNXNXNXBXnXgXsXaXeX0X$.O.O.O.$.0XaXaXwX9X#.o./ 5 : X DXDXDXDXDXDXDX` [ ( 4 4 ^ / [ [ } 6.0.9.>.=.b c / ` ' ` ( ^ 5 1 q =.>.9.0.6.} X.",
"eXeXwX0X@.U j j j B.yXgXbXgXeXO.` o.9XeXgXnXnXbXsX0X#.' / ( DXDXDXDXDXDXDXDX: 3 ( ' &.9XwXsXgXdXwX$.%.#.$.0XwXeXaXfXgXmXnXnXnXnXnXmXbXfXdXaXeXwX9X%.#.$.9XeXfXfXaX0X$.o.` 4 > 3 DXDXDXDXDXDXDX( ( ^ 4 5 4 ^ ) ) 5.2.8.1.-.e 0 < 2 4 4 4 5 > , + q r >.8.8.5.) [ ",
"sXdXaXeXY.{ J c J @.dXmXcXdX0X+.' $.aXbXNXCXBXgXaX$.o./ ^ 4 DXDXDXDXDXDXDXDX: > 4 ( ` o.#.9XwX0X$.O.' ] ' o.O.%.$.9X0X0X0X0X0X0X0X0X0X9X8X$.#.O.o.] ' o.#.9X0X0X$.O.' ` ( 4 4 ` $.wXDXDXDXDXDX4 4 4 3 3 2 1 n 2.8.8.>.-.e 9 O + : > > : : . X + O e -.7.8.5.v ( ",
"bXgXgXdX0XX.( ! / #.sXnXfXqXO.' o.9XfXMXSXSXnXsX0XO.[ 4 3 > DXDXDXDXDXDXDX> : : > 3 4 ( ` o.O.o.' / ^ 4 4 ^ ( / _ ` ] ] ] ] ] ] ] ] ] ] ` / ( ( *.4 4 ( ] ' o.o.' / ( ( ^ ^ ( o.$.wXeXDXDXDXDX> > > > > , > b ,.8.<.=.e 8 w @ , > > > : : . X + O 9 =.7.8.;.c 2 ",
"MXnXbXfX0X' 4 5 ( #.fXnXeXo./ ( ' 9XsXmXnXmXsX0X#.] 4 > : . DXDXDXDXDX( ^ 5 > : > > 3 4 ^ ( ( ^ 4 3 > : : > > > > > > > 3 3 3 3 3 > > > > > > > > : > > 5 4 ( ( ( ( ( / ` ] o.O.$.0XeXdXfXDXDXX . : : : : : q =.-.=.9 w k 5 c ( ( ( ( 4 3 > : + O 9 =.1.7.;.< : ",
"gXhXfXaX$.` 4 4 / %.sXzXyX} J H ` &.tXaXdXaXwX$.' ^ > : . DXDXDXDXDX( ` ] ' ' o.O.&.#.O.o.] ( 4 > : : : : > > > 3 5 4 ( / ] ] ] ` ( ^ 4 3 > > > : : : : > 5 ^ ] O.$.9X0X0X0X9X$.#.$.wXdXgXmXwX( : X ; : q t ;.-.-.t q c ( ' O.$.$.$.#.o.] ( 5 < @ 9 r >.1.,.;.t ",
"wXwX0X9XO.( 5 ^ ' 9XdXjX$XH.k.E _ ' O.%.$.$.%.o./ 3 . X DXDXDXDXDX4 ( ] O.9XwXdXfXgXgXfXaX9Xo.( 5 > : > 3 4 ^ ( ` ' O.$.0XwXeXwX0X9X#.o.] / ( 4 5 > > > > ^ ' $.eXgXnXnXmXfXeX$.o.O.0XdXgXmXsXO.> X + 0 ;.8.8.<.-.n ) ] O.$.rXdXfXdXaX0X$.o./ 5 0 8 e -.<.7.8.8.",
"#.O.O.O.` 5 > / %.0XpXeX$XH.c.H.S. .` ` ] ] / 4 > : X X DXDXDXDXDX4 ^ ` o.$.wXsXmXMXBXMXnXfXeX$.` 4 3 5 ^ ] o.%.0XeXsXgXmXnXMXnXmXgXsXaX0X$.O.] ( 4 5 4 ` O.wXfXnXBXNXBXmXdX0XO.` ] %.eXfXgXhX0XDX8 ;.,.1.7.<.-.r n ] O.8XwXsXgXmXmXgXaX9XO.] c k 8 9 r -.<.7.9.",
"] ` ` / 4 > > ] 9XwXwXqX@X].[..X{.S.E J H c 1 * X X X DXDXDXDXDX5 5 4 ( ] O.9XeXfXnXMXNXNXNXnXdX$.' ^ 4 ( ' #.0XaXfXnXNXCXCXCXCXNXBXnXgXaX0X%.' / ^ ( ' $.eXbXBXNXBXnXbXsX0X#.] ( ( o.0XaXfXgXvXDXDX0.9.7.>.=.e q v { #.9XeXsXgXmXmXgXaX9XO.' ( k 8 8 e r -.<.7.",
"/ ( ^ 5 > > 5 o.0XtX6X&.L.}.oX*X-XoXH.m.F h y * X X DXDXDXDXDX5 5 5 5 5 4 / o.%.wXaXgXnXNXCXCXnXdX9X' 4 4 ( ] O.9XwXdXgXmXnXnXmXbXfXdXwX$.O.] ( ^ ( ' 9XaXgXnXnXmXgXdXeX9Xo./ ^ 4 ( ' %.0XdXgXvXkX!.i.7.>.=.e 0 < c ] +.%.9XwXaXdXsXaX0X#.o.` ( 1 < w 9 r -.<.7.",
"^ 4 3 : : > ^ o.9X#X@. .S.|.OX:X:X+X[.c.f.g a * . DXDXDXDXDX4 4 ^ ^ 4 5 3 4 ( ' O.9XeXsXbXnXBXMXbXaX#.( 5 3 4 ( ' #.9XwXeXaXaXeXwX0X$.O.] ( 4 5 4 / O.wXfXgXfXsXpX0X$.O.' ^ 3 2 2 4 ( ' %.wXdXhXfXR.6.>.=.e 8 @ 2 ~ ` ' O.%.9X0XwXwX0X$.o.] / ^ 3 > @ 8 r -.>.<.",
"3 3 : ; , 4 / o.&.@.N.l.].oX*X-X*XoX].x.s.f s DXDXDXDXDXDXDX` ` ] ' ` ^ 5 5 4 ( ` o.%.9XrXdXfXgXgXdX9Xo.^ > : 3 ^ / ' o.O.O.O.o.o.' ` ^ 5 > > 3 ( ' %.0XwXwX9X%.O.' ` ^ 5 > : ; : > 5 ^ ' #.0XpXdXR.5.=.r 9 8 < 3 ~ / ' o.#.$.0X0X0X9X#.o.` ( ^ 5 1 @ 8 9 r =.-.",
". : : : 3 ( ' ..' } m.x.].oXOXOXoX{.b.j.3.s d DXDXDXDXDXDXDXo.O.O.#.+.E x l 1 3 4 ( ] o.O.$.9XwXeXeX0X$.' 5 , : > 3 4 ^ ^ ^ ^ ^ 4 5 3 > : : > 4 / O.%.$.#.o.] ( ~ 5 > , : = y u p u 1 3 ~ ] O.qXwXT.5.r e 9 O < 2 4 ( [ ' O.9XeXaXaXeX0X%.O.' / ~ 5 < 8 9 e e e ",
"o   ; 3 ( ] ' ' _ E m.l.F.{.oX.X{.].x.d.g s s DXDXDXDXDXDXDX$.$.9X9XT.B.D a = > > 3 4 ^ ( / ] o.O.$.9X9XO./ 4 > ; . : : > > > : : : . . : > 5 ^ ] O.O.' / 4 3 > : * + * = S j.h.h.k.i < 3 ! ] #.9X .n 9 9 8 O + > 3 4 ^ / o.9XdXgXgXhXdXwX$.O.' ( 4 < 8 9 9 9 8 ",
"o   : ^ ` ' ' _ I Y l.v.F.[.[.].v.x.f.s.f s s DXDXDXDXDXDXDXwXwXrXwX#XA.d.D S p = : ; , > > 2 4 ( ' o.O.o.] ( > .   X X X X X X X     X . > 4 / ] ] ` ! 2 : 7 * = p S P m.}..X X[.D.z.S x 1 ! ..&.{ k O O @ @ : : > 5 *.( ' #.qXwXwX0X9X#.o.] ( *.5 < # O O O DX",
"o   3 / ' ] _ U s.f.x.v.b.v.c.x.j.d.s.3.f s DXDXDXDXDXDXDXDXaXaXdXaX$XP.l.J.l.k.i = * * * * * , 3 4 ^ ( / ` ( 3 .                     X . > ^ / ( 4 3 , * + * = S l.F.{.oX-X>X:X+X{.n.l.D u 1 / { / 1 . : , , , : , 3 4 ^ ( ` ' ' ' ] [ ( ^ 4 3 3 2 : X o DXDXDX",
"DXDX^ ] _ L h g s.p.f.f.g.f.f.d.p.3.f f s DXDXDXDXDXDXDX' %.wXdXfXsXuX@XD.b.].].H.S.F D h j a y < > > 2 4 ~ 4 2 : . . . X DXDXDXDXDXDX. : > 5 4 5 > < y h j S F D..X+X-X,X<X2X1X-XoX{.v.j.D h J _ ' X.] V 6 % % % 6 6 6 6 6 V V V V V V V M 6 6 6 6 % & $ DXDXDX",
"DXDX+.o.{ U D D D D D D D D D D D j j h DXDXDXDXDXDXDXDX' &.tXdXsXuX$X@X].{.oX+X+XoX X].v.x.f.S u = = = < l l 1 > > : : DXDXDXDXDXDXDXDX: : > 1 > < y j p.d.g.c.{.+X-X,X>X<X3X1X:X+X XF.x.f.D z H ' $.$.| M % M N B B B N M M M M N B N M M B B B N M m % DXDXDX",
"O.&.%.$.Y.Y.T.@.{ } ) J J c c J J ) } { DXDXDXDXDXDXDXDXo.#.tXaX$XU.H.]. X+X-X,X,X:X:X-X*X.X].c.z.D j j j j p v c 3 : . DXDXDXDXDXDXDXDX. : > 3 l a s f s.d.j.c.].oX+X*X-X:X:X-X-X+X.XF.x.f.D p 5 [ O.&.| B N C Z /.).)./.(.C N N B B N N C /.)./.Z C N M DXDXDX",
"o.O.$.0X0X9X$.%.#.o./ 4 5 5 5 4 ^ [ ' X.] DXDXDXDXDXDXDXo.%.wXeX$XH.c.[.oX-X>X1X<X<X3X3X>X-XoX[.v.h.a.3.f f j E ` ~ : X DXDXDXDXDXDXDXDXX : 2 4 x j d f 3.s.d.h.v.].{..XoX+X+X+X+XoX XF.x.f.g a u J { +.| A C ^./.).`.`.`._./.Z C C C C Z /._.`.)./.Z C B DXDXDX",
"' ' #.9X$.O.o.O.$.o.4 : : > 3 5 4 ( ` ] / ( DXDXDXDXDXDXO.$.wXaX$XH.]..X*X-X>X<X3X2X2X2X3X,X*X.X].c.l.j.3.f j } o./ > X DXDXDXDXDXDXDXDXDXDX! H x j s s s f 3.a.j.l.c.F.].{..X.X.X X[.F.x.f.3.f j z _ ' | Z Z (.)._.'.'.'.'._.).(.Z C ^./.).`.`._.).(.Z Z DXDXDX",
"o.o.O.#.o./ ~ ( ` ( > X X ; : : > 3 4 ^ ( / / DXDXDXDXDX$.0XpXsX$X}.[.oX*X:X>X<X2X2X2X2X<X,X*XoX[.v.l.f.3.f h  .&.` > X DXDXDXDXDXDXDXDXDXDX2 3 c E U h d s f 3.s.d.j.x.c.v.F.F.F.F.v.c.h.a.3.f s h J [ | Z Z ~./.)._.`.'.'._.)./.Z C ~.).)._._.)./.~.Z Z DXDXDX",
"O.O.O.o.` 5 > > > > : : : : : : . : > 4 ( ] ' DXDXDXDXDX0XeXsXhX$X}.].oX*X:X>X<X2X2X2X<X>X-X*X.X].c.j.s.f s h  .#.] > X DXDXDXDXDXDXDXDXDXDXX : 4 ' { U d s s f g s.d.j.j.h.h.h.h.h.h.j.f.p.3.f d h J ( A C Z Z Z (./.)._._.).).(.Z C ^./.).)./.(.Z Z Z Z DXDXDX",
"%.%.$.$.O.^ 3 ( ' o.' ] ' o.` 5 > 4 ` ' ' X.o.DXDXDXDXDXwXaXcXmXlX}.].{.oX*X,X<X2X2X2X<X,X*XoX[.v.h.f.p.f s j } O.` > X DXDXDXDXDXDXDXDXDXDXDXDX4 ( ) z s s s s g s.p.a.a.a.a.a.a.a.d.a.s.3.f f d h v ^ V B N B C Z ^./.).).)./.(.C B Z /./.(.Z Z B B N N DXDXDX",
"#.$.0XeX9X' ( O.0XwX9X$.9XwX$.] ^ ] %.%.O.' ' DXDXDXDX0XeXaXjXkX$X}.].{.oX*X,X<X2X2X3X>X-X+X{.F.x.j.a.s.3.g Y  .o.[ > X DXDXDXDXDXDXDXDXDXDXDXDXDX5 l z j g s s f 3.s.3.s.s.s.s.s.s.s.3.g s s s s h c V V M m M N B C ^././.)./.~.C B Z /./.^.C B N M M m DXDXDX",
"o.O.0XaXeX%.o.9XeXwX$.O.9XrX0XO.' O.$.#.' ( 4 DXDXDX` $.eXyX$XZ.H.D.]..XOX-X>X>X<X1X>X:X*X.X].v.x.f.3.g M.T.Y.@.{ ` DXDXDXDXDXDXDXDXDXDXDXDXDXDXDXDXDX_ } P j s s f f f f 3.s.3.f f f f s s s s s a l 3 6 % % m M N C Z (./././.~.C C Z (.(.Z C N M m % % DXDXDX",
"( ] #.wXwX0X9XwXeX0XO.' #.0X0X%.O.$.9X%.` 5 > DXDX( ` $.aXuXP.d.g.b.{.oXOX-X>X>X>X>X:X*XoX[.v.x.j.a.f g K.tXwX#.] / DXDXDXDXDXDXDXDXDXDXDXDXDXDXDXDXDX] ] ) I h j s d d s f f f s s d s g Y Y Y h z 1 , ; & % % m M N C Z ^.~.~.Z C C Z ^.Z C N M m % % & DXDXDX",
"> 5 ( ' %.wXaXaX0X#.] ( ' $.$.O.O.9XwX$.` 3 : DXDX( ' 9XfXuXU.h.c.[. X.XoX*X,X>X>X>X-XoX{.v.l.f.a.3.f g K.qXqXo.( 4 DXDXDXDXDXDXDXDXDXDXDXDXDXDXDXDXDX4 c / { } P d s s s s s s s s d d T T.Y.#.{ ( 3 : & & % % % % % M N N C C C N N B C B M % % % % % & DXDXDX",
". : > 5 [ #.9X%.o.` ( ( ' #.O.' ' #.0X%.( > . DXDX/ ' 0XgXkX@Xx.c.]. X.XoX-X>X>X>X:X*XoX[.v.h.d.s.3.f d R Y.$.` 5 > DXDXDXDXDXDXDXDXDXDXDXDXDXDXDXDX` ` ' O.qXtX#XR.U.U.U.L.L.L.K.B.R U } @.#.+.[ 4 , * Q W Q - $ $ & % % m M M M M M M M M % $ $ & M Q W DXDXDX",
"X . . . > 4 4 5 > 3 ^ / ' o.' ( ^ ' O.o.4 . DXDXDX] o.wXbXkX@Xl.x.v.[.oX*X:X>X>X:X*X+XoX[.v.j.d.s.3.f g R @.O./ > : DXDXDXDXDXDXDXDXDXDXDXDXDXDXDX/ ] o.$.wXsXbXmXVXVXVXmXzXhXsXeXtX#X#.+.' / ^ 5 : X - S.=X|.Q $ $ $ $ & % % % % % % % % & $ $ $ $ Q |.;XDXDXDX",
"DXX X X . . : . X ; > 5 4 4 4 > > 4 ( ^ 3 DXDXDXDX' O.rXmXkX@Xl.x.v.]..X+X*X-X:X-X*XoX{.F.l.d.s.3.k.V.L.T.&.+.[ DXDXDXDXDXDXDXDXDXDXDXDXDXDXDX> 3 5 4 ( ' #.0XrXpXpXpXeXwXwX0X9X$.$.qX0X9X%.o.` 4 > . * K W S.S.W Q $ o $ $ $ $ $ $ $ $ $ $ o $ Q W }.=XDXDXDXDX",
"DXDXDXX X         X . : : . . . . : : > DXDXDXDXDX' O.eXmXkX@Xh.J.v.F.[. XoX+X*X*X+X.X].c.f.p.f s C.#XdXwX#.' DXDXDXDXDXDXDXDXDXDXDXDXDXDXDX5 5 3 5 4 ( ] o.#.$.$.$.%.O.O.o.o.o.{ O.9XwXeXtX$.o.( 5 : X   X K }.|.W - $ - - - - - - $ - - $ $ - W oX*XDXDXDXDXDX",
"DXDXDXDXDXDXDXDXDXDXDXDXDXDXDXDXDXDXDXDXDXDXDXDXDX` o.wXcXkXU.f.f.l.c.b.]. XoXoX.X[.].c.h.d.s.f s C.yXfXrXO._ DXDXDXDXDXDXDXDXDXDXDXDXDXDXDX( / ' O.9XwXdXfXgXbXbXgXgXjXdXeXwX0X0X0XwXwXwX0X%.' ( 3 : X     * DXDXD.z.F F F F D S S D F F F F z.H.DXDXDXDXDXDXDX",
"DXDXDXDXDXDXDXDXDXDXDXDXDXDXDXDXDXDXDXDXDXDXDXDXDX^ ] 9XjXuXP.a.a.j.l.c.v.].{.[.].v.x.j.f.a.s.f s C.yXgXrXo.( DXDXDXDXDXDXDXDXDXDXDXDXDXDXDX( ] O.9XeXfXbXnXnXMXMXnXnXbXgXsXaXeXwX0X9X$.%.O.o./ 4 > ; X     o DXDXDXF.F.F.n.c.x.h.h.x.c.n.F.F.F.DXDXDXDXDXDXDXDX",
"DXDXDXDXDXDXDXDXDXDXDXDXDXDXDXDXDXDXDXDXDXDXDXDXDX5 ( &.eXyXL.a.a.j.h.h.x.v.F.F.c.l.f.a.s.s.s.f s C.yXzXeXo.( DXDXDXDXDXDXDXDXDXDXDXDXDXX : 3 4 / ' O.$.9X0X0X0X0X0X9X9X$.%.O.o.' ] / / ( ( ^ 4 > : . X X DXDXDXDXDXDXDXDXDXDXDXDXDXDXDXDXDXDXDXDXDXDXDXDXDXDXDX",
"DXDXDXDXDXDXDXDXDXDXDXDXDXDXDXDXDXDXDXDXDXDXDXDXDX> 4 ' 9XY.N.s.p.f.f.f.f.h.l.l.j.f.a.s.s.3.3.f s C.$XjX0X] 4 DXDXDXDXDXDXDXDXDXDXDXDXDX: > 4 ( ' #.$.0XwXeXeXeXwX0X9X9X$.$.#.O.o.] ( ^ 4 3 > > : . X X DXDXDXDXDXDXDXDXDXDXDXDXDXDXDXDXDXDXDXDXDXDXDXDXDXDXDXDX",
"DXDXDXDXDXDXDXDXDXDXDXDXDXDXDXDXDXDXDXDXDXDXDXDXDX: 2 / o. .M.p.s.s.s.s.s.s.a.a.s.s.p.s.3.f s s s Y T.0XO.4 : DXDXDXDXDXDXDXDXDXDXDXDXDX3 4 / o.9XaXfXmXnXBXNXBXnXgXfXdXaXpXeXwX0X$.o._ 4 > : 7 . X     DXDXDXDXDXDXDXDXDXDXDXDXDXDXDXDXDXDXDXDXDXDXDXDXDXDXDXDX",
"DXDXDXDXDXDXDXDXDXDXDXDXDXDXDXDXDXDXDXDXDXDXDXDXDX. : 5 ( _ E U D g f f f f 3.3.f f f f f s s h T }  .' ^ , X DXDXDXDXDXDXDXDXDXDXDXDXDX> 3 4 / o.$.0XeXaXdXsXdXaXeXtX0X9X9X9X9X$.#.o.] ( 3 : . X     DXDXDXDXDXDXDXDXDXDXDXDXDXDXDXDXDXDXDXDXDXDXDXDXDXDXDXDXDX",
"DXDXDXDXDXDXDXDXDXDXDXDXDXDXDXDXDXDXDXDXDXDXDXDXDXX . : > 4 / _ E j g g g p.k.k.s.g g g g g j R @.O.[ 3 : X   DXDXDXDXDXDXDXDXDXDXDXDXDX. . : > 5 ( ` ' o.#.$.$.#.+.o.o.o.O.O.o.' ' ' ] ( 4 > .     DXDXDXDXDXDXDXDXDXDXDXDXDXDXDXDXDXDXDXDXDXDXDXDXDXDXDXDXDXDX",
"DXDXDXDXDXDXDXDXDXDXDXDXDXDXDXDXDXDXDXDXDXDXDXDXDX. : : > 5 ^ ` {  .T.T.$XyXuXuXyX$XT.T.L. .} { X.` 4 : X     DXDXDXDXDXDXDXDXDXDXDXDXDXX . > 5 ( ' #.0XeXaXsXdXeXwX0X0X0X0X0X$.O.' ` ( 4 3 : .     DXDXDXDXDXDXDXDXDXDXDXDXDXDXDXDXDXDXDXDXDXDXDXDXDXDXDXDXDXDX",
"DXDXDXDXDXDXDXDXDXDXDXDXDXDXDXDXDXDXDXDXDXDXDXDXDX: > > 3 4 4 / o.$.rXjXmXMXNXNXMXbXsXeXqX$.O.' ( 4 , .       DXDXDXDXDXDXDXDXDXDXDXDXDXX : > 4 ` O.9XeXfXgXmXmXgXdXaXaXeXeXeX0X$.o.` 4 3 > : X     DXDXDXDXDXDXDXDXDXDXDXDXDXDXDXDXDXDXDXDXDXDXDXDXDXDXDXDXDXDX",
"DXDXDXDXDXDXDXDXDXDXDXDXDXDXDXDXDXDXDXDXDXDXDXDXDX5 5 4 ^ ( ( / ' &.9XeXsXgXbXbXgXsXeXqX%.o.] ( 5 , .     DXDXDXDXDXDXDXDXDXDXDXDXDXDXDX  X : > 5 ^ / ' O.$.9X0X9X$.%.#.#.#.#.%.$.#.' ( 3 : . X DXDXDXDXDXDXDXDXDXDXDXDXDXDXDXDXDXDXDXDXDXDXDXDXDXDXDXDXDXDXDXDX",
"DXDXDXDXDXDXDXDXDXDXDXDXDXDXDXDXDXDXDXDXDXDXDXDXDX5 4 ^ / ` ] ' O.%.0XeXdXfXgXbXgXfXaX0X$.o.` 4 3 : .   DXDXDXDXDXDXDXDXDXDXDXDXDXDXDXDX    . : > 5 ^ [ { #.9X9X9X$.#.O.o.' ] ' O.O.' ( 5 : X DXDXDXDXDXDXDXDXDXDXDXDXDXDXDXDXDXDXDXDXDXDXDXDXDXDXDXDXDXDXDXDXDX",
"DXDXDXDXDXDXDXDXDXDXDXDXDXDXDXDXDXDXDXDXDXDXDXDXDX> 5 ^ ` ' o.O.$.wXaXsXgXnXBXNXBXnXgXdXwX%.' ( 4 3 DXDXDXDXDXDXDXDXDXDXDXDXDXDXDXDXDXDXDXDX: > 5 ( ' #.qXaXfXgXfXdXeX0X$.o.` ( / / / ( 4 : X DXDXDXDXDXDXDXDXDXDXDXDXDXDXDXDXDXDXDXDXDXDXDXDXDXDXDXDXDXDXDXDXDX",
"DXDXDXDXDXDXDXDXDXDXDXDXDXDXDXDXDXDXDXDXDXDXDXDXDX> > 4 ( ` ' o.O.%.9X0XeXdXfXbXmXmXgXaXwX%.' ( 4 3 DXDXDXDXDXDXDXDXDXDXDXDXDXDXDXDXDXDXDXDX: : > 4 / ' O.9XwXeXwX0X9X$.O.O.o.] ( 4 ^ ^ 5 :   DXDXDXDXDXDXDXDXDXDXDXDXDXDXDXDXDXDXDXDXDXDXDXDXDXDXDXDXDXDXDXDXDX",
"DXDXDXDXDXDXDXDXDXDXDXDXDXDXDXDXDXDXDXDXDXDXDXDXDX: > 3 4 4 ( ( ( ( ` ' O.$.0XeXdXsXdXeX0X&.' ( 5 3 DXDXDXDXDXDXDXDXDXDXDXDXDXDXDXDXDXDXDXDXX . : : > 4 ^ / ] ' ] ` / ( ` o.#.o.( 4 4 5 > .   DXDXDXDXDXDXDXDXDXDXDXDXDXDXDXDXDXDXDXDXDXDXDXDXDXDXDXDXDXDXDXDXDX",
"DXDXDXDXDXDXDXDXDXDXDXDXDXDXDXDXDXDXDXDXDXDXDXDXDX. : : > 5 4 ( / ` ' O.$.wXaXfXgXbXgXdXwX$.O.] ( 4 4 4 DXDXDXDXDXDXDXDXDXDXDXDXDXDXDXDXDXDX    X : 3 ( o.#.$.$.#.o.` ^ 4 ( ` ` ( ^ 5 > : X   DXDXDXDXDXDXDXDXDXDXDXDXDXDXDXDXDXDXDXDXDXDXDXDXDXDXDXDXDXDXDXDXDX",
"DXDXDXDXDXDXDXDXDXDXDXDXDXDXDXDXDXDXDXDXDXDXDXDXDXX . : : 3 4 ( ' o.%.9XwXaXfXmXnXnXmXfXpX0X#.{ ` ( 4 4 4 DXDXDXDXDXDXDXDXDXDXDXDXDXDXDXDXDX    . > ( O.0XaXfXfXaX0XO./ 4 3 3 4 ^ ^ 5 : .     DXDXDXDXDXDXDXDXDXDXDXDXDXDXDXDXDXDXDXDXDXDXDXDXDXDXDXDXDXDXDXDXDX",
"DXDXDXDXDXDXDXDXDXDXDXDXDXDXDXDXDXDXDXDXDXDXDXDXDXX . : > 5 ( ` o.O.%.$.9X0XwXeXaXaXaXwXqX%.o.` ( 4 3 > > DXDXDXDXDXDXDXDXDXDXDXDXDXDXDXDXDXDXDX4 / o.$.eXfXnXMXmXsX0XO.( 5 > > 4 4 > : X DXDXDXDXDXDXDXDXDXDXDXDXDXDXDXDXDXDXDXDXDXDXDXDXDXDXDXDXDXDXDXDXDXDXDX",
"DXDXDXDXDXDXDXDXDXDXDXDXDXDXDXDXDXDXDXDXDXDXDXDXDXX . : > 4 ( ] ' o.O.O.O.#.%.$.9X0X0X0X9X%.o.] ( 4 3 > : DXDXDXDXDXDXDXDXDXDXDXDXDXDXDXDXDXDXDXDX' o.$.wXsXmXnXbXfXwX#.] 4 : > 3 3 : X   DXDXDXDXDXDXDXDXDXDXDXDXDXDXDXDXDXDXDXDXDXDXDXDXDXDXDXDXDXDXDXDXDXDXDX",
"DXDXDXDXDXDXDXDXDXDXDXDXDXDXDXDXDXDXDXDXDXDXDXDXDXX . : > 5 ( / ` ] ] ` ` ' O.%.9XwXeXaXaXwX9X#.' ( 4 > : : : DXDXDXDXDXDXDXDXDXDXDXDXDXDXDXDXDXDX( ` o.$.0XaXaXeX0X$.o.( 5 : : > > :     DXDXDXDXDXDXDXDXDXDXDXDXDXDXDXDXDXDXDXDXDXDXDXDXDXDXDXDXDXDXDXDXDXDXDX",
"DXDXDXDXDXDXDXDXDXDXDXDXDXDXDXDXDXDXDXDXDXDXDXDXDX  X : > 3 4 ^ ( ( ( ( ` o.%.0XeXsXgXbXbXfXaX0X%.' ( 4 > : : DXDXDXDXDXDXDXDXDXDXDXDXDXDXDXDXDXDX^ / o.$.wXaXdXaXwX$.o./ 4 > : > : .     DXDXDXDXDXDXDXDXDXDXDXDXDXDXDXDXDXDXDXDXDXDXDXDXDXDXDXDXDXDXDXDXDXDXDX",
"DXDXDXDXDXDXDXDXDXDXDXDXDXDXDXDXDXDXDXDXDXDXDXDXDX    X : > > 3 5 4 ^ ` o.$.wXsXbXMXNXNXNXnXgXaX0X#.' ( 5 > : DXDXDXDXDXDXDXDXDXDXDXDXDXDXDXDXDXDX^ ] %.eXfXmXnXmXfXeX%.] ^ 3 > > > : : : DXDXDXDXDXDXDXDXDXDXDXDXDXDXDXDXDXDXDXDXDXDXDXDXDXDXDXDXDXDXDXDXDXDXDX",
"DXDXDXDXDXDXDXDXDXDXDXDXDXDXDXDXDXDXDXDXDXDXDXDXDXDX  X . : : > 3 4 / o.$.0XeXsXbXMXBXBXMXbXfXeX9X#.' ( 4 > : DXDXDXDXDXDXDXDXDXDXDXDXDXDXDXDXDXDX( ' 0XfXnXNXNXNXnXdX9Xo./ ^ ^ ( / ] ] ] DXDXDXDXDXDXDXDXDXDXDXDXDXDXDXDXDXDXDXDXDXDXDXDXDXDXDXDXDXDXDXDXDXDXDX",
"DXDXDXDXDXDXDXDXDXDXDXDXDXDXDXDXDXDXDXDXDXDXDXDXDXDXDXDXX . : : 3 ( ' #.9X0X0XeXsXgXbXgXfXaXwX9X%.o.' / 4 > : DXDXDXDXDXDXDXDXDXDXDXDXDXDXDXDXDXDX' O.wXbXBXNXCXNXnXsX0XO.] / ] O.$.0XwXeXDXDXDXDXDXDXDXDXDXDXDXDXDXDXDXDXDXDXDXDXDXDXDXDXDXDXDXDXDXDXDXDXDXDXDX",
"DXDXDXDXDXDXDXDXDXDXDXDXDXDXDXDXDXDXDXDXDXDXDXDXDXDXDXDXX . : > 4 / ' o.O.#.#.$.0XwXaXaXaXwX$.#.o.' ' ` ^ > : DXDXDXDXDXDXDXDXDXDXDXDXDXDXDXDXfXwX$.$.tXdXhXbXmXcXfXrX%.o.` / ' #.9XeXsXhXbXnXDXDXDXDXDXDXDXDXDXDXDXDXDXDXDXDXDXDXDXDXDXDXDXDXDXDXDXDXDXDXDXDXDX",
"DXDXDXDXDXDXDXDXDXDXDXDXDXDXDXDXDXDXDXDXDXDXDXDXDXDXDXDXX . : > 4 / ` ` ` ' o.#.9XwXeXdXaXwX9X#.o.' ] ` 4 > : DXDXDXDXDXDXDXDXDXDXDXDXDXDXDXfXdXeX9X#XqXyXuXjXkXjXuX#X+.` ( ^ ` O.9XeXsXgXgXbXgXDXDXDXDXDXDXDXDXDXDXDXDXDXDXDXDXDXDXDXDXDXDXDXDXDXDXDXDXDXDXDXDX",
"DXDXDXDXDXDXDXDXDXDXDXDXDXDXDXDXDXDXDXDXDXDXDXDXDXDXDXDXX . : > 5 *.^ 4 ^ ] O.0XaXgXnXBXMXbXdXwX$.O.` ^ 3 > : DXDXDXDXDXDXDXDXDXDXDXDXDXgXfXaXwX6XO.&.%X4X4XxXxX3X4X%X .( 4 4 ( ' %.9XwXaXdXdXaXeXDXDXDXDXDXDXDXDXDXDXDXDXDXDXDXDXDXDXDXDXDXDXDXDXDXDXDXDXDXDXDX",
"DXDXDXDXDXDXDXDXDXDXDXDXDXDXDXDXDXDXDXDXDXDXDXDXDXDXDXDXX : > 3 3 5 5 5 4 ] %.wXsXmXBXNXNXmXfXeX9XO.` 4 > : : DXDXDXDXDXDXDXDXDXDXDXDXDXsXaX0X%.o.]  .@X-X1X<X<X>X-X@X_ 4 > > 5 ( ' O.$.9X0X0X0X0XtXDXDXDXDXDXDXDXDXDXDXDXDXDXDXDXDXDXDXDXDXDXDXDXDXDXDXDXDXDXDX",
"DXDXDXDXDXDXDXDXDXDXDXDXDXDXDXDXDXDXDXDXDXDXDXDXDXDXDXDXDXDX> > > > > 5 ( ' %.9XwXeXdXfXfXaXwX9X$.+.] ( 3 : X DXDXDXDXDXDXDXDXDXDXDXDXDX0X9XO.' / ^ J S.oXOX-X*XoX[.m.K > ; : , 5 ( ` o.o.o.+.O.#.9XeXaXDXDXDXDXDXDXDXDXDXDXDXDXDXDXDXDXDXDXDXDXDXDXDXDXDXDXDXDX",
"DXDXDXDXDXDXDXDXDXDXDXDXDXDXDXDXDXDXDXDXDXDXDXDXDXDXDXDXDXDX> : : : > 5 ( ] o.O.O.O.O.#.#.O.o.' ' ] / ( 4 : DXDXDXDXDXDXDXDXDXDXDXDXDX6X%.O.` ~ 3 3 K T F. X.X X].l.D = . X X . : > 5 ^ ( ( / ] o.#X$XuXDXDXDXDXDXDXDXDXDXDXDXDXDXDXDXDXDXDXDXDXDXDXDXDXDXDXDXDX",
"DXDXDXDXDXDXDXDXDXDXDXDXDXDXDXDXDXDXDXDXDXDXDXDXDXDXDXDXDXDX. . X . : 5 ( ( / ( c 4 4 4 4 4 5 4 4 4 ^ ^ ^ DXDXDXDXDXDXDXDXDXDXDXDXrXtX#X+.` 4 > , , 1 S j.c.b.v.l.p.a #           X . : > > 5 ( ] L.%X*XDXDXDXDXDXDXDXDXDXDXDXDXDXDXDXDXDXDXDXDXDXDXDXDXDXDXDXDX",
"DXDXDXDXDXDXDXDXDXDXDXDXDXDXDXDXDXDXDXDXDXDXDXDXDXDXDXDXDXDXX X X X : 3 4 4 5 5 4 4 ( ( ( 4 5 3 3 3 5 4 4 DXDXDXDXDXDXDXDXDXDXDXDX4X%X#X_ 4 > : : : * = a S k.k.j a # X               X . : , 3 H W }.oXOX>XDXDXDXDXDXDXDXDXDXDXDXDXDXDXDXDXDXDXDXDXDXDXDXDXDXDX",
"DXDXDXDXDXDXDXDXDXDXDXDXDXDXDXDXDXDXDXDXDXDXDXDXDXDXDXDXDXDXX X X X : > 3 > > 5 / o.%.$.$.o./ 4 > > > > > DXDXDXDXDXDXDXDXDXDXDXDX1X;X@XE 1 > : : . X     y j g a X                       X . : 1 G z.].+X:X>XDXDXDXDXDXDXDXDXDXDXDXDXDXDXDXDXDXDXDXDXDXDXDXDXDX",
"DXDXDXDXDXDXDXDXDXDXDXDXDXDXDXDXDXDXDXDXDXDXDXDXDXDXDXDXDXDX    X X . : > > > ( %.eXfXbXfXeX$.] 5 : : : : DXDXDXDXDXDXDXDXDXDXDXDX,X-X|.S.S l , : DXDXDXDXDXDXDXDXDXDXDXDXDXDXDXDXDXDXDX  X . ; , l D l.[.oX*XDXDXDXDXDXDXDXDXDXDXDXDXDXDXDXDXDXDXDXDXDXDXDXDXDX",
"DXDXDXDXDXDXDXDXDXDXDXDXDXDXDXDXDXDXDXDXDXDXDXDXDXDXDXDXDXDX      X . . : > 5 ' 0XgXBXNXMXfXwXo.4 : : : DXDXDXDXDXDXDXDXDXDXDXDXDX+XoX[.x.k.p < DXDXDXDXDXDXDXDXDXDXDXDXDXDXDXDXDXDXDXDXDXX . ; , y j p.c.].{.DXDXDXDXDXDXDXDXDXDXDXDXDXDXDXDXDXDXDXDXDXDXDXDXDX",
"DXDXDXDXDXDXDXDXDXDXDXDXDXDXDXDXDXDXDXDXDXDXDXDXDXDXDXDXDXDX      X X X : > 4 ' 0XsXbXmXcXdX0Xo.4 : : DXDXDXDXDXDXDXDXDXDXDXDXDXDXv.c.j.s.f j DXDXDXDXDXDXDXDXDXDXDXDXDXDXDXDXDXDXDXDXDXDXDXDXDXDXDXs g d.x.c.DXDXDXDXDXDXDXDXDXDXDXDXDXDXDXDXDXDXDXDXDXDXDXDXDX",
"DXDXDXDXDXDXDXDXDXDXDXDXDXDXDXDXDXDXDXDXDXDXDXDXDXDXDXDXDXDXDX    X X X 7 > 4 ` #.0XwXeXwX9XO._ 3 : DXDXDXDXDXDXDXDXDXDXDXDXDXDXDXa.s.3.f s DXDXDXDXDXDXDXDXDXDXDXDXDXDXDXDXDXDXDXDXDXDXDXDXDXDXDXDXDXf 3.s.a.DXDXDXDXDXDXDXDXDXDXDXDXDXDXDXDXDXDXDXDXDXDXDXDXDX",
"DXDXDXDXDXDXDXDXDXDXDXDXDXDXDXDXDXDXDXDXDXDXDXDXDXDXDXDXDXDXDXDX    X . : > 4 ( ' o.o.o.' ] ( 4 > : DXDXDXDXDXDXDXDXDXDXDXDXDXDXDXf f s DXDXDXDXDXDXDXDXDXDXDXDXDXDXDXDXDXDXDXDXDXDXDXDXDXDXDXDXDXDXDXDXf f f DXDXDXDXDXDXDXDXDXDXDXDXDXDXDXDXDXDXDXDXDXDXDXDXDX",
"DXDXDXDXDXDXDXDXDXDXDXDXDXDXDXDXDXDXDXDXDXDXDXDXDXDXDXDXDXDXDXDX: X X : 5 ( ] o.%.$.$.O.' ( 4 > : > ( DXDXDXDXDXDXDXDXDXDXDXDXDXDXDXDXDXDXDXDXDXDXDXDXDXDXDXDXDXDXDXDXDXDXDXDXDXDXDXDXDXDXDXDXDXDXDXDXDXDXDXDXDXDXDXDXDXDXDXDXDXDXDXDXDXDXDXDXDXDXDXDXDXDXDXDXDX",
"DXDXDXDXDXDXDXDXDXDXDXDXDXDXDXDXDXDXDXDXDXDXDXDXDXDXDXDXDXDX/ ( 5 : : 4 / O.9XeXdXsXaXwX$.' ^ 3 > 4 ' %.$.DXDXDXDXDXDXDXDXDXDXDXDXDXDXDXDXDXDXDXDXDXDXDXDXDXDXDXDXDXDXDXDXDXDXDXDXDXDXDXDXDXDXDXDXDXDXDXDXDXDXDXDXDXDXDXDXDXDXDXDXDXDXDXDXDXDXDXDXDXDXDXDXDXDXDX",
"DXDXDXDXDXDXDXDXDXDXDXDXDXDXDXDXDXDXDXDXDXDXDXDXDXDXsXgXgXaX$.o.] ( / o.9XeXfXbXnXMXnXgXaX9XO.` ^ / #.0XwXDXDXDXDXDXDXDXDXDXDXDXDXDXDXDXDXDXDXDXDXDXDXDXDXDXDXDXDXDXDXDXDXDXDXDXDXDXDXDXDXDXDXDXDXDXDXDXDXDXDXDXDXDXDXDXDXDXDXDXDXDXDXDXDXDXDXDXDXDXDXDXDXDXDXDX",
"DXDXDXDXDXDXDXDXDXDXDXDXDXDXDXDXDXDXDXDXDXDXDXDXDXaXaXsXfXsXeX9XO.' o.9XeXfXnXBXSXCXNXnXgXaX0XO.] ' $.eXaXDXDXDXDXDXDXDXDXDXDXDXDXDXDXDXDXDXDXDXDXDXDXDXDXDXDXDXDXDXDXDXDXDXDXDXDXDXDXDXDXDXDXDXDXDXDXDXDXDXDXDXDXDXDXDXDXDXDXDXDXDXDXDXDXDXDXDXDXDXDXDXDXDXDXDX",
"DXDXDXDXDXDXDXDXDXDXDXDXDXDXDXDXDXDXDXDXDXDXDXsXaXeXwXeXaXeXwX9XO.' ' $.wXsXcXnXMXBXMXmXgXaXwX#.' ' %.wXdXbXnXDXDXDXDXDXDXDXDXDXDXDXDXDXDXDXDXDXDXDXDXDXDXDXDXDXDXDXDXDXDXDXDXDXDXDXDXDXDXDXDXDXDXDXDXDXDXDXDXDXDXDXDXDXDXDXDXDXDXDXDXDXDXDXDXDXDXDXDXDXDXDXDXDX",
"DXDXDXDXDXDXDXDXDXDXDXDXDXDXDXDXDXDXDXDXDXDXuXeXwX9X%.$.9X9X$.#.' ( ` +.9XyXjXzXzXzXzXzXjXeXqXO.] ` o.$.eXjXgXgXDXDXDXDXDXDXDXDXDXDXDXDXDXDXDXDXDXDXDXDXDXDXDXDXDXDXDXDXDXDXDXDXDXDXDXDXDXDXDXDXDXDXDXDXDXDXDXDXDXDXDXDXDXDXDXDXDXDXDXDXDXDXDXDXDXDXDXDXDXDXDXDX",
"DXDXDXDXDXDXDXDXDXDXDXDXDXDXDXDXDXDXDXDX.X}.@X#X#.o.] ' o.o.o.' ( 4 4 ` @.$X4X3X3X2X3X1X4X$X#.' ( ( ` o.%.0XeXdXfXfXDXDXDXDXDXDXDXDXDXDXDXDXDXDXDXDXDXDXDXDXDXDXDXDXDXDXDXDXDXDXDXDXDXDXDXDXDXDXDXDXDXDXDXDXDXDXDXDXDXDXDXDXDXDXDXDXDXDXDXDXDXDXDXDXDXDXDXDXDXDX",
"DXDXDXDXDXDXDXDXDXDXDXDXDXDXDXDXDXDXDXoX].D.S. .] ( 4 4 4 ^ 4 4 3 > 2 ^ ] @X=X:X<X3X1X-X|.L.` ~ 3 3 4 ( ] O.#XyXuXlXDXDXDXDXDXDXDXDXDXDXDXDXDXDXDXDXDXDXDXDXDXDXDXDXDXDXDXDXDXDXDXDXDXDXDXDXDXDXDXDXDXDXDXDXDXDXDXDXDXDXDXDXDXDXDXDXDXDXDXDXDXDXDXDXDXDXDXDXDXDX",
"DXDXDXDXDXDXDXDXDXDXDXDXDXDXDXDXDXDX*X.Xc.k.I J ~ 2 : : : . . . . . : 3 ( R H. X-X,X*X{.S.I 3 , 7 : , 3 4 /  .@X=X*XDXDXDXDXDXDXDXDXDXDXDXDXDXDXDXDXDXDXDXDXDXDXDXDXDXDXDXDXDXDXDXDXDXDXDXDXDXDXDXDXDXDXDXDXDXDXDXDXDXDXDXDXDXDXDXDXDXDXDXDXDXDXDXDXDXDXDXDXDXDX",
"DXDXDXDXDXDXDXDXDXDXDXDXDXDXDXDXDXDX[.D.f.g a < , 7 X               . > 5 L k.c.{.oX[.x.D u * X     X * , 2 J S.].XXDXDXDXDXDXDXDXDXDXDXDXDXDXDXDXDXDXDXDXDXDXDXDXDXDXDXDXDXDXDXDXDXDXDXDXDXDXDXDXDXDXDXDXDXDXDXDXDXDXDXDXDXDXDXDXDXDXDXDXDXDXDXDXDXDXDXDXDXDXDX",
"DXDXDXDXDXDXDXDXDXDXDXDXDXDXDXDXDXDXj.d.3.s a + X                   X : 1 p D f.x.c.x.a.j =             X ; < S f.h.DXDXDXDXDXDXDXDXDXDXDXDXDXDXDXDXDXDXDXDXDXDXDXDXDXDXDXDXDXDXDXDXDXDXDXDXDXDXDXDXDXDXDXDXDXDXDXDXDXDXDXDXDXDXDXDXDXDXDXDXDXDXDXDXDXDXDXDXDXDX",
"DXDXDXDXDXDXDXDXDXDXDXDXDXDXDXDXDXDXg f f DXDXDXDXDXDXDXDXDXDXDXDXDXDXDXDXDXDXDXs.s.s.DXDXDXDXDXDXDXDXDXDXDXDXj g 3.DXDXDXDXDXDXDXDXDXDXDXDXDXDXDXDXDXDXDXDXDXDXDXDXDXDXDXDXDXDXDXDXDXDXDXDXDXDXDXDXDXDXDXDXDXDXDXDXDXDXDXDXDXDXDXDXDXDXDXDXDXDXDXDXDXDXDXDXDXDX",
"DXDXDXDXDXDXDXDXDXDXDXDXDXDXDXDXDXs s s DXDXDXDXDXDXDXDXDXDXDXDXDXDXDXDXDXDXDXDXs s s DXDXDXDXDXDXDXDXDXDXDXDXs s s DXDXDXDXDXDXDXDXDXDXDXDXDXDXDXDXDXDXDXDXDXDXDXDXDXDXDXDXDXDXDXDXDXDXDXDXDXDXDXDXDXDXDXDXDXDXDXDXDXDXDXDXDXDXDXDXDXDXDXDXDXDXDXDXDXDXDXDXDXDX"
};
