/* XPM */
static const char *bos2d6[] = {
/* columns rows colors chars-per-pixel */
"128 128 249 2 ",
"   c #141414",
".  c #1B1B1B",
"X  c #1A1814",
"o  c #111212",
"O  c #380A0B",
"+  c #241B18",
"@  c #381616",
"#  c #2F140C",
"$  c #15270C",
"%  c #1A2717",
"&  c #1C3B13",
"*  c #193513",
"=  c #16300E",
"-  c #2B230E",
";  c #2A2518",
":  c #332A13",
">  c #382C16",
",  c #343114",
"<  c #1C1E21",
"1  c #231F20",
"2  c #1E2122",
"3  c #242424",
"4  c #2C2C2C",
"5  c #292625",
"6  c #372927",
"7  c #3A3528",
"8  c #2E3132",
"9  c #343434",
"0  c #3B3B3C",
"q  c #383636",
"w  c #2B322B",
"e  c #490606",
"r  c #5C0202",
"t  c #550404",
"y  c #441818",
"u  c #541815",
"i  c #670303",
"p  c #740101",
"a  c #790404",
"s  c #6F1818",
"d  c #423219",
"f  c #4A381B",
"g  c #563B1C",
"h  c #502C10",
"j  c #6C2703",
"k  c #742B01",
"l  c #722800",
"z  c #7B3402",
"x  c #783305",
"c  c #6B370F",
"v  c #462828",
"b  c #543C22",
"n  c #463A39",
"m  c #52332D",
"M  c #6F2F2F",
"N  c #1E4116",
"B  c #234919",
"V  c #28551D",
"C  c #374C19",
"Z  c #2C5D21",
"A  c #304B2C",
"S  c #2E6222",
"D  c #336A26",
"F  c #38752B",
"G  c #3C7732",
"H  c #724A17",
"J  c #5B4223",
"K  c #47443C",
"L  c #544832",
"P  c #664625",
"I  c #774A28",
"U  c #79522D",
"Y  c #705531",
"T  c #71652F",
"R  c #54531E",
"E  c #3E3F40",
"W  c #3D4142",
"Q  c #434343",
"!  c #4C4C4C",
"~  c #484747",
"^  c #554B4A",
"/  c #4E5151",
"(  c #535353",
")  c #5B5B5C",
"_  c #585858",
"`  c #53534A",
"'  c #744848",
"]  c #6D5550",
"[  c #6E6659",
"{  c #565769",
"}  c #5C6363",
"|  c #646464",
" . c #6B6B6B",
".. c #676868",
"X. c #766A6A",
"o. c #747474",
"O. c #7C7C7C",
"+. c #777778",
"@. c #6F7270",
"#. c #567454",
"$. c #4E3F41",
"%. c #840101",
"&. c #8B0101",
"*. c #860C0C",
"=. c #930101",
"-. c #9C0101",
";. c #960C0C",
":. c #911616",
">. c #A40101",
",. c #AB0000",
"<. c #AC0B0B",
"1. c #B30101",
"2. c #BA0303",
"3. c #A91919",
"4. c #823C04",
"5. c #803904",
"6. c #883435",
"7. c #912D2D",
"8. c #B12E2E",
"9. c #C70202",
"0. c #D30000",
"q. c #DC0101",
"w. c #D70D0D",
"e. c #D01717",
"r. c #E90303",
"t. c #F40404",
"y. c #EC1616",
"u. c #CF2D2D",
"i. c #E52A2A",
"p. c #894508",
"a. c #8D4A0B",
"s. c #864307",
"d. c #93520E",
"f. c #99560E",
"g. c #9B5C13",
"h. c #955711",
"j. c #8C5011",
"k. c #9D6216",
"l. c #A46918",
"z. c #AA731C",
"x. c #AE791F",
"c. c #B3771B",
"v. c #8C5B34",
"b. c #845632",
"n. c #88542F",
"m. c #98633A",
"M. c #906E2B",
"N. c #AB7829",
"B. c #8E504C",
"V. c #AD4E4E",
"C. c #8E6E53",
"Z. c #A76C42",
"A. c #B67548",
"S. c #AC7549",
"D. c #8F746F",
"F. c #A87970",
"G. c #CC4F4F",
"H. c #C37C4E",
"J. c #C46D6D",
"K. c #833F40",
"L. c #3D8432",
"P. c #438C36",
"I. c #46963A",
"U. c #579839",
"Y. c #4CA13F",
"T. c #609539",
"R. c #52AD46",
"E. c #57B94C",
"W. c #50A945",
"Q. c #5D9C53",
"!. c #5DC853",
"~. c #5FD157",
"^. c #64D75B",
"/. c #61CF57",
"(. c #6BE663",
"). c #72F66B",
"_. c #B78826",
"`. c #B69130",
"'. c #9B9338",
"]. c #C2992E",
"[. c #C49D31",
"{. c #CBA737",
"}. c #D1B23D",
"|. c #D1AF3B",
" X c #AF9150",
".X c #908678",
"XX c #AB8E73",
"oX c #A2A252",
"OX c #CB8855",
"+X c #D7BB43",
"@X c #CBB449",
"#X c #D9BD59",
"$X c #DCC449",
"%X c #D4CE56",
"&X c #E3CC4D",
"*X c #E8D754",
"=X c #EBD754",
"-X c #F1E55D",
";X c #EEE15B",
":X c #FAF669",
">X c #F6F46C",
",X c #DAD571",
"<X c #A5C554",
"1X c #777886",
"2X c #4B4BAA",
"3X c #3B3BBB",
"4X c #7E8182",
"5X c #838383",
"6X c #8B8B8B",
"7X c #888787",
"8X c #968C89",
"9X c #8E9292",
"0X c #949494",
"qX c #9B9B9B",
"wX c #989797",
"eX c #91908D",
"rX c #A69A98",
"tX c #AB928D",
"yX c #AFA497",
"uX c #9698A8",
"iX c #9EA2A3",
"pX c #A3A4A4",
"aX c #ABABAB",
"sX c #A7A9A9",
"dX c #B6ACA9",
"fX c #ADB2B3",
"gX c #B4B4B4",
"hX c #BBBCBC",
"jX c #B6B8B7",
"kX c #B4B1AC",
"lX c #C4B9B3",
"zX c #E58E90",
"xX c #CBC4B2",
"cX c #CDCC94",
"vX c #B9B9C2",
"bX c #BBC1C1",
"nX c #C4C4C4",
"mX c #CBCBCB",
"MX c #C7C7C8",
"NX c #D3D3D3",
"BX c #DCDCDC",
"VX c #D7DCDC",
"CX c #D0CFCD",
"ZX c #E4E4E4",
"AX c #ECECEC",
"SX c #F0F0F0",
"DX c #DCE0E1",
"FX c None",
"GX c black",
/* pixels */
"FXFXFXFXFXFXFXFXFXFXFXFXFXFXFXFXFXFXFXq.0.9.2.,.-.&.%.p p p p a &.:.B.8XsXgXhXnXmXCXNXmXmXMXMXMXMXMXnXhXjXaXpX0X5Xo...} ) ' 8.w.t.t.t.t.r.r.q.q.q.0.9.2.,.,.,.,.,.,.,.>.>.>.>.FXFXFXFXFXFXFXFXFXFXFXFXFXFXFXFXFXFXFXFXFXFXFXFXFXFXFXFXFXFXFXFXFXFXFXFXFXFXFXFXFX",
"FXFXFXFXFXFXFXFXFXFXFXFXFXFXFXFXFXFX1.1.,.>.=.&.*.:.M 6.6.6.6.6.B.V.F.rXgXhXnXmXmXNXNXmXmXMXMXmXmXMXnXhXjXfXpX8XF.V.B.B.6.7.3.9.0.0.0.0.9.1.,.,.,.,.>.=.&.%.%.&.&.=.-.>.>.>.,.,.FXFXFXFXFXFXFXFXFXFXFXFXFXFXFXFXFXFXFXFXFXFXFXFXFXFXFXFXFXFXFXFXFXFXFXFXFXFXFXFX",
"FXFXFXFXFXFXFXFXFXFXFXFXFXr.q.9.1.-.&.p i r r t M ' X.7XwXrXdXdXlXlXlXMXmXmXNXNXNXNXNXmXmXmXmXmXmXMXnXhXjXaXrXF.G.y.r.r.w.9.1.-.=.=.=.=.%.p i i i i i r r r r r i p &.=.-.>.>.>.>.>.FXFXFXFXFXFXFXFXFXFXFXFXFXFXFXFXFXFXFXFXFXFXFXFXFXFXFXFXFXFXFXFXFXFXFXFXFXFX",
"FXFXFXFXFXFXFXFXFXFXFX0.9.1.,.-.&.p i u v m m m ] D.wXaXhXMXNXVXDXDXBXVXVXVXVXVXNXNXNXmXmXmXMXMXnXbXjXgXyXJ.G.u.y.r.r.0.1.>.:.s M M M M M ' ' ' ' ' ' ' ] ] ' ' ' B.B.B.B.B.B.6.7.6.M m FXFXFXFXFXFXFXFXFXFXFXFXFXFXFXFXFXFXFXFXFXFXFXFXFXFXFXFXFXFXFXFXFXFXFXFX",
"FXFXFXFXFXFXFXFXFX0.0.2.>.%.p r t e v n ^ ) ..+.6XpXgXnXNXVXZXAXAXAXAXZXZXZXZXBXVXNXNXNXmXmXnXhXjXaXpXtXJ.u.y.t.q.9.1.=.a s m ^ | ..o.O.5X6X0XwXqXrXsXaXaXaXpXrXqXwX0X0X0XeX7XD.X.| ) / ~ ~ FXFXFXFXFXFXFXFXFXFXFXFXFXFXFXFXFXFXFXFXFXFXFXFXFXFXFXFXFXFXFXFXFXFX",
"FXFXFXFXFXFXFXr.0.2.>.=.p i t y y v n ! ) ..O.6XqXfXnXCXBXZXAXAXSXSXAXAXAXAXZXZXBXNXNXCXmXMXbXgXsXtXJ.G.i.y.r.0.1.=.a s m n _ ..o.4X7X9XqXsXgXhXbXMXmXNXNXCXMXhXhXgXfXaXsXpXqX0X6XO. .) _ ! ~ ~ _ |  .FXFXFXFXFXFXFXFXFXFXFXFXFXFXFXFXFXFXFXFXFXFXFXFXFXFXFXFXFX",
"FXFXFXFXFXFXq.0.2.-.p i t e y v n ~ / _ | o.5XwXsXjXMXNXZXAXAXAXAXAXAXAXAXAXZXZXBXNXNXmXMXlXkXyXF.G.i.t.t.q.9.>.*.i u m ^ )  .O.5X6XwXqXsXhXnXmXNXBXZXZXZXBXNXmXmXMXnXhXgXaXsXpXwX6X5Xo.| ) ( ! ( ) | | FXFXFXFXFXFXFXFXFXFXFXFXFXFXFXFXFXFXFXFXFXFXFXFXFXFXFXFX",
"FXFXFXFXr.0.2.,.=.p r e y @ 6 n ~ ( ) |  .O.6XqXaXhXMXNXBXZXAXAXAXAXAXAXZXZXZXBXNXNXmXnXhXdXtXG.i.y.t.r.0.,.&.a u m n ^ )  .O.6XwXqXpXsXjXnXmXNXBXZXAXAXZXZXVXNXmXMXnXhXjXgXaXaXsXqX0X5X+...| ) ! ~ ~ ( ..O.6X6X0X0XFXFXFXFXFXFXFXFXFXFXFXFXFXFXFXFXFXFXFXFXFXFX",
"FXFXFXq.0.9.>.%.i u u v v q W ! _ ) | ..+.5X0XpXgXhXMXNXVXZXZXZXZXZXZXZXZXBXVXNXNXmXnXbXfXrXJ.i.t.t.r.0.<.:.s m n ~ ( ) ..+.5X6XwXqXsXaXjXnXmXNXBXZXZXZXZXZXVXNXmXMXhXhXjXgXgXaXaXsXwX6XO.+...) ! 0 0 (  .5X0XwXwXwXwXFXFXFXFXFXFXFXFXFXFXFXFXFXFXFXFXFXFXFXFXFX",
"FXFXFX9.9.,.%.i u m ^ ^ ! ~ ~ ( ) | ..o.O.6XwXsXgXhXmXNXNXBXBXBXBXBXBXBXVXNXNXmXmXMXhXgXsXtXJ.i.t.r.0.1.3.B.[ | ) _ ) | ..+.O.6X0XwXqXsXgXhXmXNXVXBXDXZXBXBXVXNXmXnXhXjXgXaXaXsXsXpXwX6XO.+...| ( ~ ~ ) O.6XwXiXpXpXpXiXqXFXFXFXFXFXFXFXFXFXFXFXFXFXFXFXFXFXFXFX",
"FXFX0.9.,.=.p t e v Q ! ! ~ ! _ | .. .+.O.6XwXpXaXhXnXmXNXNXVXVXVXNXNXNXNXNXmXMXnXhXdXtXJ.G.u.y.r.0.,.=.7.B.+.+. .| } |  .o.O.5X6X6XwXqXsXjXhXMXmXmXNXNXNXCXmXMXnXjXgXsXsXsXsXsXpXqX0X6XO.+. .| ) ! ~ ( ) ..O.6XqXpXqXqXqXpXFXFXFXFXFXFXFXFXFXFXFXFXFXFXFXFXFXFX",
"t.r.q.2.>.%.i t e @ 6 q W ~ ( ) |  .o.O.5X7X0XwXpXaXjXnXmXNXNXNXNXNXNXmXmXmXmXMXhXfXtXJ.i.t.t.t.q.2.=.a M ] o.+.@.| | | .. .+.O.5X6X0XwXqXsXaXgXjXhXhXhXhXhXhXjXaXsXpXqXqXqXqXwXwX0X6X5XO.+.@.| ) ( ~ 0 q q ! o.6XwXwXwXqXpXsXaXFXFXFXFXFXFXFXFXFXFXFXFXFXFXFXFX",
"t.r.0.1.=.a s m n q 9 q W ~ ( ) ) |  .+.O.5X6XwXqXsXgXhXnXmXmXmXmXmXmXmXmXmXMXbXgXsXtXG.i.t.t.q.9.3.7.' ] ) ) | | | | | | ..o.O.5X6X0XwXqXpXsXsXsXsXsXaXaXsXsXpXqXwXwX0X0X6X6X6X7X5XO.O.+.o. ...| _ ~ 0 9 4 Q ) O.6XwXsXsXsXsXsXFXFXFXFXFXFXFXFXFXFXFXFXFXFXFXFX",
"r.q.9.>.%.s M ] _ ~ 0 q Q ~ ( _ ) ) | o.O.5X6X0XwXpXsXgXhXnXMXmXmXmXmXMXMXnXhXjXaXiX8XV.i.r.r.0.2.8.B.o. ._ ! ! _ | | | | | o.O.5X5X6X0XwXwXwXwXwXwXwXqXqXwXwX0X6X6X6X5X5XO.O.O.+.o. .........| ) _ ! Q q q 0 ( | O.0XpXaXaXaXaXaXFXFXFXFXFXFXFXFXFXFXFXFXFXFXFX",
"0.9.1.-.%.s M ^ / ~ 0 q 0 ~ ! ( _ ) |  .O.5X5X6XwXqXpXsXjXhXhXnXnXMXMXnXhXhXjXaXiXwXD.V.u.q.0.9.<.7.B.X.| ( ~ ~ _ | | | ) | ..o.+.O.O.5X5X6X6X6X6X6X0X0X0X6X6X5X5X5XO.O.+. .....| | | ) ) ) ) ) _ ( ~ 0 q 9 q ~ ( )  .O.6XqXaXjXgXaXsXFXFXFXFXFXFXFXFXFXFXFXFXFX",
"1.1.,.-.&.s M n Q 0 q q q Q ~ ! ( ) |  .+.O.5X6X6XwXqXsXaXgXjXhXhXhXhXhXjXgXsXpXqX0XD.V.8.9.9.2.<.7.B.X.} / ~ ~ ( ) ) ) ) ) | .. . .o.+.O.O.O.5X5X5X5X5X5X5XO.O.+.o. ...| | ) ) _ _ _ ( ( ( _ ( ! ~ Q q 9 4 9 q Q Q ~ ! | 5XpXaXgXaXaXaXFXFXFXFXFXFXFXFXFXFXFXFX",
"=.=.-.>.>.*.s v 9 8 9 9 9 q 0 ~ ( ) | .. .+.O.5X6X6XwXqXsXsXaXgXaXaXaXaXsXsXsXiXqX9XD.B.3.1.1.1.<.8.B.X.../ Q 0 Q ! ( _ _ ) ) ) | | | .. . .o.o.o.+.+.+.o.o. .| | ) ) _ ( ( / ! ! ~ ~ ~ ~ ~ ~ ~ ~ Q q 9 4 5 4 4 9 4 4 4 Q | 5XwXsXaXjXjXFXFXFXFXFXFXFXFXFXFXFXFX",
"&.&.-.,.,.;.s 6 4 8 4 8 8 9 q ~ ( ) | |  .o.O.5X5X6X0XwXqXsXsXsXsXsXsXpXpXqXwX0X0X9XD.B.:.=.>.,.<.8.D.5Xo./ q 9 q 0 Q ~ ~ ! ! ! ( ( _ _ ) ) ) |  .+.O.O.O.O.O.+. .| ) ( ~ ~ Q Q 0 0 0 Q Q Q Q 0 q q 9 4 3 3 4 9 q 4 .   . q _ o.0XaXhXnXFXFXFXFXFXFXFXFXFXFXFXFX",
"&.&.-.,.,.;.s 6 8 8 8 9 9 q 0 ~ _ ) |  .o.+.O.5X5X6X6X0XwXqXpXpXpXpXpXpXwX0X7X5X6X0X7XB.s %.=.,.2.8.F.8X+./ 8 3 4 9 9 q q q 0 0 0 0 0 Q Q ~ ( | O.6XwXqXpXpXpXwX6XO. .) ! Q q q 9 9 q q q q q 9 4 4 4 3 . 2 4 Q ! Q 4       3 ~ O.sXnXmXFXFXFXFXFXFXFXFXFXFXFXFX",
"p p &.>.1.;.s 6 4 4 4 9 0 ~ ) o.5X0XwXwXwX0X6X5X5X6X6X0XwXqXqXqXqXqXpXqXwX6X5X5XwXsXrXD.M p %.-.<.7.B.| _ W 4 4 4 4 4 4 4 4 4 4 4 4 9 q Q ( | O.qXgXnXmXmXmXMXnXjXsXwX5Xo.) ! 0 9 4 4 4 4 4 3 3 3 3 3 .   . 4 ~ _ | | ) ~ 4 . q  .pXhXmXFXFXFXFXFXFXFXFXFXFXFXFX",
"r i p -.,.;.s v 5 3 4 9 Q ) o.6XsXjXhXhXgXsXwX6X6X6X6X0XwXqXqXqXqXqXrXqXwX6X5X6XsXnXlXF.M i p %.&.s u v 9 8 4 4 8 9 4 3 3 3 3 4 9 q 0 ~ _ ..1XqXhXmXVXBXBXVXNXNXmXnXjXsX0XO.| ( 0 9 4 4 3 3 . . . . .     . 3 0 _ +.wXsX0X| q Q o.qXjXhXFXFXFXFXFXFXFXFXFXFXFXFX",
"e t i p &.-.;.;.:.u 6 8 W ! _ ) } @.4X0XqXpXqXwXwX6X6X6X0XwXwXwXwXwXwXwX0X6X5X6XsXbXkXD.M r r i p a a s u @ 5 4 9 0 Q Q Q ~ ! _ |  .O.5X6X0XwXqXpXsXaXaXaXsXsXpXqXwX0X6X5XO.o.| ( ~ Q q q 4 4 3 3 3 . .     . 3 q ) 6XsXsX6XO.O.5XwXqXpXFXFXFXFXFXFXFXFXFXFXFXFX",
"e e t r p &.,.9.<.:.u v m m m v 6 6 n ) o.5XwXqXwX6X5X5X6X0X0X0X0X0X0X0X6X5X5X6XiXgXsXD.M e e e r p %.&.i y + 5 9 ~ ! _ ) | o.O.6XwXpXsXqXwX6X5X+. . . . ...| | ) ) ) | | | | ) ) ( ! ~ K q 9 4 4 3 3 .     . 3 q ! ..5XwXqXpXqX0X6X5X5XFXFXFXFXFXFXFXFXFXFXFXFX",
"FXFXFXe t r p %.&.;.;.;.;.;.;.;.*.a u v n ) 4X0X0X5X+.+.O.5X6X6X6X6X6X6X5XO.+.O.0XiXwXO.( m y e t r i i t @ + 5 8 0 ! )  .O.5X6X6X7X5X+...) ! Q q q 9 4 4 4 4 4 4 4 4 4 4 9 q q q 0 0 0 0 q 4 4 3 3 .       4 ! | | _ ! ) +.6X6X5Xo...| FXFXFXFXFXFXFXFXFXFXFXFX",
"FXFXFXO O O e r i a =.-.>.>.>.-.=.p t # + W | O.O.+. .o.O.5X5X5X5X5X5XO.O.+.o.+.5X6X6X4X.._ n y O e e e y 6 6 9 8 9 0 ! ) |  . ...} _ ~ 0 9 5 ; ; + X X X X X X X X X X X X + ; 5 4 4 4 4 4 3 3 . . . . 3 4 ! +.6XO.( q q ) +.+.| ( ~ ~ FXFXFXFXFXFXFXFXFXFXFXFX",
"FXFXFX    # O e e t r r r i i r r e O # . 8 ~ ) | .. .+.O.O.O.O.O.O.O.O.+.o. . .+.O.5X5XO.o._ n 5 + + 5 6 Q ! ~ q 3 3 4 9 q q q 9 4 4 5 ; ; : > > > > : - : > > > : - - : : ; + X X . . . X         . 4 Q ) +.0XqX5X) Q 0 ( | ) ~ q 4 3 FXFXFXFXFXFXFXFXFXFXFXFX",
"FXFXFXo     # # O O O O O O O O O # # + 3 q ~ _ ) | ..o.+.+.+.o.@. . . . ......... . .o.o. .) ! W q q 0 Q ! ( ! Q 9 4 5 5 ; ; ; ; ; ; ; > d f f f f f f f f f f f d d d > > : - + X X X X X X X X + 4 q ! | 5XwXsX0X .! ~ ! _ ! q 4 3 . FXFXFXFXFXFXFXFXFXFXFXFX",
"FXFXFX      . + 3 3 3 3 3 3 + + + + 3 4 q Q ! _ ) } | | ......| | | | | | | | | ) ) ) _ _ ( _ _ _ _ ( ( ( ! ! ! ! ~ K n d d d d f d d f b P P P J J P P I P P J J J J g f d > > : : : : : - - - ; 9 q Q ! ) O.wXsXqXO.| _ ( ! ~ q 4 4 3 FXFXFXFXFXFXFXFXFXFXFXFX",
"FXFXFX        . . . 2 3 2 2 2 2 2 3 4 9 q 0 Q ~ ! ( _ _ ) ) ) ) ) ) ) ) ) ) ) ) _ ( / ! ~ ~ ~ ~ ~ ~ ~ ~ Q Q Q Q Q Q K m b f f f g P I U U I U b.v.v.b.U I U U b.U P J b f f d > > : > > > : : : ; 4 9 q ~ _ o.6XpXsXwX5Xo.) ~ Q ~ ! ! ( FXFXFXFXFXFXFXFXFXFXFXFX",
"FXFXFX              . . 3 4 9 q 0 0 0 q q q q q q Q ~ ~ ~ ! ! ! ! ! ! ! ! ! ! ! ~ ~ ~ ~ Q Q Q ~ ~ ~ ! ! ( _ ) _ / ~ ~ L J P J J P U m.m.m.b.b.m.A.H.Z.v.U b.m.Z.m.U J b b b f d > > > > > > : : ; ; 3 4 q ~ | O.0XpXsXpX6X| ~ ~ ( | .. .FXFXFXFXFXFXFXFXFXFXFXFX",
"FXFXFXFXFX            3 Q | +.5X7X5X ._ Q q 4 4 4 q 0 0 Q Q Q Q Q Q Q Q Q Q Q Q 0 q q 4 4 q _ O.wXsXsXsXaXjXjXaXiX0XD.C.U I I I U m.S.A.Z.v.v.Z.OXOXA.m.b.v.m.Z.m.U P J J J b f d > > d > > : - + X . 3 4 q ! | +.5XwXwX6X .( ~ ( ) ) ) FXFXFXFXFXFXFXFXFXFXFXFX",
"FXFXFXFXFXFXFX      . 9 _ O.wXsXaXsX0X+.) Q 4 3 3 4 9 q q q q q q q q q q q q q 9 4 4 9 q ( O.sXmXVXVXBXZXZXZXVXCXhXyXXXC.b.U U b.Z.A.H.S.m.v.Z.OXOXA.Z.v.v.Z.S.m.b.P J J P J g d d d d > > : - X X   . 3 4 q ~ ) ..+.O.O...) ( ! ! ~ ~ FXFXFXFXFXFXFXFXFXFXFXFX",
"FXFXFXFXFXFXFXFXFXq 0 ~ )  .O.6XwXqXpXwX6X| q . X 3 4 4 8 9 9 9 9 9 9 9 9 4 4 4 3 2 4 ( O.wXaXhXnXmXmXmXmXmXmXMXnXhXyXXXS.m.n.b.v.Z.H.H.S.m.v.Z.H.OXA.Z.v.m.Z.A.Z.b.P P P P P g d d d d d > : - + X       . 3 q Q ~ ( ) ) ) ) ) ! ~ 0 0 FXFXFXFXFXFXFXFXFXFXFXFX",
"FXFXFXFXFXFXFXFXFX~ ~ ~ ( ) | o.5X6XwXpXwX+.! 9 3 3 3 3 3 4 4 3 3 3 3 3 3 3 3 .   . 4 ) 6XgXhXhXhXhXhXhXhXhXjXgXfXsXrXXXS.m.v.b.v.Z.H.H.S.m.v.Z.H.OXA.Z.v.m.S.A.Z.v.P P P P P g d d d d d > : - + X         . 3 4 q q Q ~ ( _ ( ~ 0 q q FXFXFXFXFXFXFXFXFXFXFXFX",
"FXFXFXFXFXFXFXFXFXq q q 0 ~ ! ) ..+.5X6X6XO..._ Q 4 3 . 3 3 3 3 3 3 3 3 3 3 3 . . . 4 ( 5XqXsXsXsXaXaXaXaXsXsXpXqX0X.XD.Z.m.v.b.v.Z.H.H.S.m.v.Z.H.OXA.Z.v.m.Z.A.Z.b.P P P P P g d d d d d > : - - FXFXFX      . . 3 4 q 0 Q ~ Q q 9 9 4 FXFXFXFXFXFXFXFXFXFXFXFX",
"FXFXFXFXFXFXFXFXFX3 3 3 4 9 q Q ~ _ ) | ......} ( Q q 9 q Q ! )  .+.O.O.O.o.| _ ~ 0 0 ! | +.5X6X0XwXwXwXwXwXwX6X7XO.D.C.C.v.b.U b.m.A.H.Z.v.b.m.A.OXA.m.b.v.m.Z.m.U P J J J b f d d d d d > : - - FXFXFXFX        . 3 4 4 9 q q 9 4 4 4 FXFXFXFXFXFXFXFXFXFXFXFX",
"FXFXFXFXFXFXFXFXFX    . . 3 3 4 4 q 0 ~ ! ( _ ) ( ! ~ ! _ | O.qXhXmXVXBXNXMXaXwXO.| _ ! ~ ! ) ..+.O.O.5X5X5XO.O.o...[ ] Y U I I U m.Z.S.m.b.b.m.Z.S.Z.v.b.b.m.m.v.U J g g g f d d > d d > > : - - FXFXFXFXFXFX      . . 3 3 4 4 4 4 3 3 FXFXFXFXFXFXFXFXFXFXFXFX",
"FXFXFXFXFXFXFXFXFXFXFX  . . . 3 3 4 9 q Q ~ ! ! ! ~ ~ ( } +.9XsXnXNXDXZXBXCXhXpXeXO..._ ~ ~ ~ ( ) | | ......| | ) ) ( ^ L L P U U b.b.b.v.v.v.v.v.v.v.v.m.v.U U I P J g f d > > > > > > : : - - - FXFXFXFXFXFX          . . 3 3 3 3 . . FXFXFXFXFXFXFXFXFXFXFXFX",
"FXFXFXFXFXFXFXFXFXFXFXFX. . . . 3 3 4 q q 0 Q Q Q Q ~ ^ [ D.8XrXgXnXmXCXMXvXuXuX7X1Xo.| ( ~ Q Q Q ~ ! ( _ _ ( ! ~ ~ Q q q n L U U I P P U m.m.b.I I U v.m.b.P J g g J g d > : : : : - - - - - - - FXFXFXFXFXFX              . . . . . FXFXFXFXFXFXFXFXFXFXFXFXFX",
"FXFXFXFXFXFXFXFXFXFXFXFX      . . 3 3 4 9 q q q q 0 n M 8.u.G.F.rXsXfXfXuX2X3X3X2X1X .| _ ~ 0 9 4 4 q q 0 0 0 0 q 9 4 4 4 6 m P P P g J I b.n.U P g J I I P g d d f f f > : : : : : - - - - - - - FXFXFXFXFXFXFXFXFX              FXFXFXFXFXFXFXFXFXFXFXFXFXFXFX",
"FXFXFXFXFXFXFXFXFXFXFXFXFX      X . 3 3 4 4 4 4 4 8 n s <.q.e.V.D.6X9X6X1X2X3X3X2X{ | } _ ~ 0 9 4 3 4 4 4 4 4 4 3 3 2 2 3 5 7 L L L Y ] [ C.C.C.C.X.X.C.C.[ ] ` ` L L L L L n n n 7 7 7 6 : - - - FXFXFXFXFXFXFXFXFXFX          FXFXFXFXFXFXFXFXFXFXFXFXFXFXFXFX",
"FXFXFXFXFXFXFXFXFXFXFXFXFXFXFX      . . . . . . 3 4 6 u *.-.:.6.] | .. ...{ { { { _ _ _ ( ~ Q q q 4 4 3 3 3 4 3 3 . . . 3 4 0 ! ) ..O.eXrXkXxXmXCXCXCXxXlXkXpXwXeX6X5XD.o. ...} ) _ ( ` ~ q > - - FXFXFXFXFXFXFXFXFXFXFXFXFXFXFXFXFXFXFXFXFXFXFXFXFXFXFXFXFXFXFX",
"FXFXFXFXFXFXFXFXFXFXFXFXFXFXFXFX                . 3 5 6 u s s m n ~ ~ ~ ~ ~ K K K E E E 0 q q 9 4 4 4 4 q ~ ( ( ~ Q n M s s 7.6.K.] X.O.9XiXaXlXzXzXzXzXzXzX8X5X4X4XO.+.@...| } ) _ _ _ ! K 7 7 K | FXFXFXFXFXFXFXFXFXFXFXFXFXFXFXFXFXFXFXFXFXFXFXFXFXFXFXFXFXFX",
"FXFXFXFXFXFXFXFXFXFXFXFXFXFXFXFX        .       . 3 3 8 q n n n n Q Q Q n 0 q q q q q q q q 9 4 4 4 8 q _ +.6X9X4Xo.B.8.w.r.q.9.<.7.' ( } ..X.B.u.y.y.y.y.e.6.^ / / ( ( ( ( ( / ` ` ( ( ( ! ~ ` | 5X0XwXFXFXFXFXFXFXFXFXFXFXFXFXFXFXFXFXFXFXFXFXFXFXFXFXFXFXFXFX",
"FXFXFXFXFXFXFXFXFXFXFXFXFXFX. 3 4 9 0 Q ~ Q q q q Q ! ) ..+.O.5X5X6X6X0X0X0X6X6X5X5XO.O.o. ...| ) _ ! ( ..6XpXiX9X5XC.u.y.t.q.9.<.7.] ..o.O.D.B.3.9.0.r.t.q.e.3.7.M ^ ( ) | |  .o.O.O.O.O.+.o.o.O.5X5X6X0XwXFXFXFXFXFXFXFXFXFXFXFXFXFXFXFXFXFXFXFXFXFXFXFXFXFXFX",
"FXFXFXFXFXFXFXFXFXFXFXFXFX  . 4 q ~ ) .. .| _ ( _ }  .5XwXsXjXhXMXmXVXDXZXBXVXNXmXMXhXjXsXpXqXwX6XO.| )  .6XwXqX8XD.V.8.w.0.2.>.:.B.D.0XiXiXrXD.7.-.,.9.q.r.t.t.e.6.] }  .+.O.6XwXiXsXsXsXsXqXwX6X5XO.5X6XwXwXFXFXFXFXFXFXFXFXFXFXFXFXFXFXFXFXFXFXFXFXFXFXFXFXFX",
"FXFXFXFXFXFXFXFXFXFXFXFXo   . 3 q Q ( ) | ) ! ~ ! ) o.5XwXsXjXhXMXNXVXZXZXBXVXNXmXnXjXfXsXqXwX6XO...) ( } o.5XD.V.u.u.e.9.2.>.&.:.B.8XaXbXnXkXF.6.p %.>.2.0.t.t.e.B.X.@.@.+.1X6XwXpXaXhXnXMXMXhXsX0X5X6XwXwXqXwXwXFXFXFXFXFXFXFXFXFXFXFXFXFXFXFXFXFXFXFXFXFXFXFX",
"FXFXFXFXFXFXFXFXFXFXFXFX    . 3 4 q Q ! ( ~ q q W / | o.4X6XwXpXaXjXbXMXMXnXhXgXsXiXwX0X6X5XO. .| ( ~ Q ! ) ..B.8.w.r.0.2.>.*.s M C.rXjXMXmXlXtXB.M s *.-.1.0.q.e.8.B.C.X.+.O.4X6XwXsXgXbXmXNXmXhXsXwXwXwXwXwXqXqXqXFXFXFXFXFXFXFXFXFXFXFXFXFXFXFXFXFXFXFXFXFXFX",
"FXFXFXFXFXFXFXFXFXFXFXFX      . 3 4 q 0 0 q 4 4 4 q Q ! ) ..o.O.O.6X0XwXwXwX6X5XO.o...| | ) _ ! ~ q 9 4 9 W ^ M 3.9.9.2.-.*.M M ] o.eXpXfXjXjXaXrXD.B.M p %.>.2.9.w.e.8.V.D.O.O.O.5X6XwXpXfXhXhXhXhXgXsXwX0XwXqXsXsXFXFXFXFXFXFXFXFXFXFXFXFXFXFXFXFXFXFXFXFXFXFX",
"FXFXFXFXFXFXFXFXFXFXFXFXFX    . . 3 4 4 4 4 3 . 2 3 4 4 q 0 ~ ! ( ) | | | | ) ) ( ~ Q 0 q q 9 4 4 3 3 3 3 4 q m :.<.1.-.%.s M ^ } @.4X6X0XwXqXiXqXeXX.M u i a =.,.9.0.e.8.V.V.V.V.V.V.V.F.F.rXpXsXfXfXsXwX9X9XwXwXqXsXFXFXFXFXFXFXFXFXFXFXFXFXFXFXFXFXFXFXFXFXFX",
"FXFXFXFXFXFXFXFXFXFXFXFXFXFXFX. . . 3 3 3 3 .       . . . . 3 4 q q 0 Q Q Q Q 0 q 9 4 4 3 3 . . . . . . 2 3 4 v s ;.=.%.p i v n / ) ..@.o.+.+.o.@...) ! n m u i p &.-.,.9.w.w.y.r.y.y.y.i.V.C.D.6X0XwXwX0XeX7XO.O.6XpXjXnXFXFXFXFXFXFXFXFXFXFXFXFXFXFXFXFXFXFXFX",
"FXFXFXFXFXFXFXFXFXFXFXFXFXFX3 3 3 3 3 3 3 . .   . . 3 4 q 0 ~ ( ) |  .o.+.+.+.o...| ) ( ! Q q 4 3 3 3 4 9 E ~ m s a p p i t y n W ~ ! ( ( ( ( ( ! ! ~ W 0 q 6 y e r p %.=.,.1.9.9.0.q.q.q.e.8.8.V.V.G.G.G.G.V.] | o.6XqXsXFXFXFXFXFXFXFXFXFXFXFXFXFXFXFXFXFXFXFX",
"FXFXFXFXFXFXFXFXFXFXFXFXFX3 4 9 q 0 0 0 q 4 3 3 3 4 q ~ )  .1X6XwXsXjXhXnXnXhXjXsXpXwX6XO. .) ~ 0 q q 0 ! | @.[ M i i r t e @ 6 9 9 q q q q q 0 W Q E 0 0 q q q 6 y t t r i i p %.=.-.,.1.2.9.9.q.q.r.t.t.r.3.6.' )  .O.4XFXFXFXFXFXFXFXFXFXFXFXFXFXFXFXFXFXFXFX",
"FXFXFXFXFXFXFXFXFXFXFXFXq q ~ ) +.5X6X5XO. .) ~ 0 q q ~ ) +.6XpXgXnXNXVXBXVXmXnXjXsX0X5Xo.| _ ~ ~ ~ ! ) @.6X0XD.M t t e e e @ + 3 5 4 4 9 q 0 ~ ( ) ) | | | ) ) ( ^ n m v y y e r i i p p %.&.=.=.-.>.,.2.2.1.3.:.M ' ) | o.5XFXFXFXFXFXFXFXFXFXFXFXFXFXFXFXFXFX",
"FXFXFXFXFXFXFXFXFXFXFXFX~ ! ) O.sXhXMXMXhXsX0X+.) 0 9 q ! ..5XwXaXnXmXNXNXmXnXgXrX6XO...) ( ~ ~ ~ ( | +.6XpXsX8XB.M u e e O # + . 2 3 4 q Q ! ) ..o.O.5X5X5X5X5XO.O.o.| ( Q q @ e e e e e e t t r r i i p %.&.-.-.:.M n / ..O.5X.XFXFXFXFXFXFXFXFXFXFXFXFXFXFXFX",
"FXFXFXFXFXFXFXFXFXFXFXFXFX)  .6XgXmXNXVXNXmXhXqXO.( q 9 q ~ ) +.6XqXsXgXaXsXwX5X+.| _ ~ Q q q 0 ~ ) +.6XqXsXaXpX8XD.] M e O # + . 3 4 9 Q ( ) ..+.4X5X6X0XwXqXsXsXsXsXwX5X@.) Q 6 @ + + + + @ @ @ e e e t r r i i t y 6 0 ~ _ #.Q.E.~.FXFXFXFXFXFXFXFXFXFXFXFXFX",
"FXFXFXFXFXFXFXFXFXFXFXFX( ) ..O.wXaXhXnXMXMXhXsX6X| Q 9 4 9 0 ( | o.O.5X5XO. .| ( ~ q 9 9 9 q 0 ~ ) +.5X6X0X0X0X9X5XX.$.y # # . . 2 5 8 W / ) ..+.O.5X6X0XqXsXaXjXhXhXjXsX0XO.| ! q 4 3 % 2 3 3 + @ O O O O O e e @ @ 3 8 A ! #.Q.E.!./.FXFXFXFXFXFXFXFXFXFXFXFX",
"FXFXFXFXFXFXFXFXFXFXq 0 Q ~ ! ) | o.O.6X0XwXqXwX5X ._ 0 4 3 3 9 0 ~ ! ( ( ( ! ~ q 4 4 4 4 9 q ~ ! _ ) | | | | | ) _ ~ 0 6 5 3 3 3 3 3 4 9 W ! ) | @.O.O.5X9XwXpXsXgXjXjXaXsXwX5X ._ Q 8 3 3 3 3 3 3 5 5 5 6 5 5 5 1 1 3 w D P.Y.R.E.!.!.!.~.FXFXFXFXFXFXFXFXFXFX",
"FXFXFXFXFXFXFXFXFX! ! ~ Q q q 0 Q ~ ( ) ..o.O.O.o.| _ Q 4 . . 3 4 4 9 q q q q 9 4 3 3 3 3 4 9 q 0 Q Q W W E q 9 8 8 q L T T T T Y Y P J L q q Q ! ) | ..o.O.5X6X0XwXpXsXsXpXwX6X5X .) Q 9 4 3 3 3 3 3 3 5 5 5 3 3 3 w A Z G I.W.R.E.E.!.!.!.!.^.FXFXFXFXFXFXFXFX",
"FXFXFXFXFXFXFXFXFX ...) ~ 9 3 4 4 9 0 K ~ ! _ ) ) _ ! 0 4 3 . . . 2 3 3 4 3 3 3 3 . . . . . 3 3 4 4 4 5 5 5 ; + . ; J T `.@X+X@X@X{.`.`.T L 4 4 q 0 ~ ( ) | |  .+.O.5X6X6X0X0X6X6XO..._ Q q 4 3 . . . . . . . . % w A D G P.I.W.W.R.R.R.R.E.!.^.^.(.FXFXFXFXFXFX",
"FXFXFXFXFXFXFXFXFX0X6XO._ q 3 . < 2 3 4 8 q E ~ ~ ~ Q q 4 3 . .     . . . . . .               . . ; d h g J H H Y T '.[.$X=X;X;X;X;X*X@X'.L < < 3 4 q 0 ~ ! ( _ ) ..o.+.O.O.O.5XO.+.| _ ~ q 4 3 3 . . X X   % * & Z F P.I.I.I.I.P.P.P.P.P.I.R.!./.^.(.(.FXFXFXFX",
"FXFXFXFXFXFXFXFXFXgXsX0X..0 3 ; ; ; > 6 7 7 9 q q q 9 8 4 3 3 . X                           o o X : c s.d.l.x._.{.+X$X&X*X-X>X:X:X:X:X;XoXT 7 3 3 3 5 4 q q 0 Q ~ _ ) | | | | | | | _ ! Q q 4 3 3 . . X X X * V D L.I.R.R.W.I.P.L.G F D D F P.W.E./.(.(.).FXFXFX",
"FXFXFXFXFXFXFXFXFXnXjXiX+.! n J P U M.M.M.P 7 3 < < 2 < < < < < < 3 3 3 3 3 3 3 . .           o X : c s.f.l.x.`.{.+X&X;X>X:X:X:X:X:X:X>X%X@X'.T 7 . . < 3 3 4 4 q q 0 Q ~ ~ ~ ~ ~ Q 0 q 9 4 3 . . X   X % B Z G I.R.E.!.!.E.W.I.L.F Z B B B Z G I.E./.(.(.FXFXFX",
"FXFXFXFXFXFXFXFXFXmXMXaX7X| ` T '.`.[.{.[.'.Y J 7 > > > > > > > 6 7 n Q ~ Q q 9 4 3 .           X : c s.d.k.z._.[.|.$X*X-X:X:X:X:X:X:X:X:X-X&XoXT J ; + . . . 3 3 3 4 4 4 4 4 4 4 4 3 3 3 % % % X X % * B Z F P.W.E./.^.^./.E.W.P.D V & $ $ & Z G Y.!.^.(.FXFXFX",
"FXFXFXFXFXFXFXFXFXNXCXhXqX+.X.oX@X&X&X&X$X+X{.`.'.M.k.h.j.j.H H H I ] X.o.| ( Q 9 3 .       o o X : c s.a.f.l.x._.[.|.+X$X&X*X=X;X-X-X;X;X;X*X$X@X'.T d X o X . . . % 2 2 3 2 < . % % * * = = * * & B V S D G P.W.E.!.^.^.^.!.R.P.F V & = $ * B S I.E.^.(.FXFXFX",
"FXFXFXFXFXFXFXFXFXNXmXhXrX.X XoX%X-X-X;X*X*X&X+X|.[._.x.l.l.f.a.a.n.D.wXwX5X..( 0 4 .       o o X : h z s.a.d.l.x._.].{.|.+X$X&X*X*X*X*X*X*X&X&X&X+X`.T f : + . . X X X % % % % % % * * * * * * & B V V S F G P.I.R.!./.^.^.!.E.I.G S B & * N V D I.E.^.(.).FXFX",
"FXFXFXFXFXFXFXFXFXMXnXdXXX X`.+X;X:X:X-X*X&X$X+X}.{.]._.z.k.d.p.a.m.XXdXjXiX5X..! q 3 .         X # h k z 4.p.d.l.x._.`.].{.|.+X+X+X+X+X+X+X+X+X+X+X{._.k.H d +   o $ $ $ = * & & & N N & & * * & N B V V S F L.I.Y.R.E.!.!.!.E.Y.P.F Z B B V D L.Y.E.~.(.).).).",
"FXFXFXFXFXFXFXFXFXfXaXyXXX X{.&X-X:X:X-X*X&X$X+X}.{.[._.z.k.d.p.a.m.XXlXMXaX6X .( q 4 ; .       X # h j k z z s.a.g.l.z.x._._.].[.{.{.|.}.+X+X+X+X+X|.[._.l.H g > - = = * N B B V V V V B B & & & & & B V V D F L.P.Y.R.E.E.E.R.Y.P.F C , , C D L.Y.E.!.^.(.).).",
"FXFXFXFXFXFXFXFXFXuXwXtXXX@X$X=X>X:X:X-X*X&X$X+X}.{.]._.z.g.d.p.p.m.XXxXmXfX6X..( 0 4 3 . . X   X # h j l l k z 5.s.a.d.g.l.z.x._._.`.[.{.}.+X+X+X+X}.{.]._.z.h.H f & * N B V V Z S S S Z V B N & & & N B V Z S F G P.I.W.W.R.W.I.P.D d y y f F I.Y.R.!./.(.(.).",
"FXFXFXFXFXFXFXBXnXiX9X.XoX@X$X=X>X:X:X-X*X&X$X+X}.{.]._.z.g.a.4.4.v.XXxXMXaX5X| ! q 4 3 . . X     + @ FXk l l z z 4.p.p.a.d.g.l.z.x._._.].{.{.}.+X+X}.{.[._.c.k.H f ; % * & B V S D D D D S Z V B B B B B V V V Z D F L.P.I.I.I.L.D C : e u U oX<X<XR.Y.R.!.^.(.",
"FXFXFXFXFXFXZXBXMXpX.XD. X@X&X;X:X:X>X-X*X&X$X+X|.{.]._.z.g.p.z x n.XXlXhXpXO.| ~ q 3 2 . . X     o FXFXFXl k z z 4.s.s.s.p.a.d.g.l.l.x._._.].{.{.|.{.{.`._.l.h.H d ; X % = & B V Z S D D D D S S V V V V V V V V Z S D G L.P.L.D V B - O h M.%X-X%X'.T.U.R.E.!.",
"FXFXFXFXFXFXDXNXlXXXZ.N.`.+X*X-X:X:X:X-X*X*X$X+X{.]._.z.g.a.4.z x n.F.dXfX0Xo._ Q 9 3 2 . .       o FXFXFXk l k k x z 5.s.p.p.a.d.d.g.l.z.x._._._._._._._.x.k.a.c d + . . ; ; * * & B V S D D F F D D D D D S S Z S S S F G L.G D V B = $ , M.@X;X*X$XoX'.T.P.L.",
"FXFXFXFXFXFXCXMXdXXXN.x.[.$X;X-X:X:X-X=X*X$X+X}.[._.z.k.d.p.5.k x n.D.rXpX6X..( 0 9 3 3 . .       o FXFXFXk l l l l k z z 4.s.s.p.a.d.h.k.l.z.z.z.z.l.z.l.g.d.s.c : X   . < % % % % * & B Z Z S S D D D F F F D D S S S D F G F D V B * = , T `.+X$X|.`.'.T S Z ",
"FXFXFXFXFXFXjXgXyX XN._.{.&X=X;X;X=X*X&X+X}.{.[._.x.k.h.a.p.5.k x n.C.rXqX5X..( 0 9 3 3 . .       o FXFXFXk l l l l k k k z z s.p.p.p.a.d.g.k.k.k.g.g.d.a.a.p.s.c > X   X . . . ; 3 3 3 ; * & & B V V S D F F F F D D S S D F F D S V N & , R M._._.c.k.H C & * ",
"FXFXFXFXFXFXqXwXXX X_._.{.$X&X*X&X&X$X+X|.{.]._.x.l.g.d.p.4.z l l I C.8X0XO.} ! q 4 3 . .           FXFXFXFXl l k k l l l k z z 5.4.s.p.a.d.d.d.d.d.a.p.s.4.z z H ' | | } _ ! ~ ~ Q 0 q q 8 w w & B V V V Z Z Z Z Z Z Z S S S S S S V B N & C R H j.j.a.H f * = ",
"FXFXFXFXFXFX7X5X.XC.N._.].}.+X+X+X+X}.{.].`._.x.z.l.g.a.4.z l k x I C.7X7Xo.) ~ q 4 3 .             FXFXFXFXFXFXk k k k l k k k x z 4.s.s.s.s.p.p.s.s.s.s.z x x B.tXxXMXgXwX6XO...| ) _ ! ~ 0 q q FXFXFX& & & N B B B V V V V V V V V B B & * = - h H s.p.FXFXFX",
"FXFXFXFXFXFX+.+.D.C.N._.].{.{.|.|.{.[.`._.x.z.l.k.h.d.s.z x c B.C..X8XeX5X..( 0 4 3 . .         FXFXFXFXFXFXFXFXk k l l l l l l k x z z z z z z z z z k z j.C.F.tXdXhXgXqX5Xo.| _ ! ~ Q 0 9 4 4 5 FXFXFXFXFXFXFXFX& & & & & & & & N & & * * $ $ $ - h FXFXFXFXFX",
"FXFXFXFXFXFX....[ C.N.x._.`.`.].`.`._.x.z.l.k.g.d.a.s.z k x n.XXkXhXsX0XO.) ~ q 4 3 .         FXFXFXFXFXFXFXFXFXl k l l l l k k l l l l l l l l l k x x j.C.tXkXjXsX0X5X+...) ( ~ 0 q 9 4 3 3 . . FXFXFXFXFXFXFXFXFX$ $ $ $ $ $ = = = = $ $ $ $ $ $ FXFXFXFXFXFX",
"FXFXFXFXFXFX_ ) ] T k.l.l.z.z.z.z.z.l.g.d.d.d.a.s.5.z k l x n.XXaXfXqX5X..( 0 4 3 . .         FXFXFXFXFXFXFXFXFXFXFXFXl l l l l l l l l l l l j j k n.C.XXtXwX0X6X5XO.O.5X6X5XO...) ( ~ q q 8 4 4 FXFXFXFXFXFXFXFXFXFXFXFXFXFXFXFXFXFXFXFXFXFXFXFXFXFXFXFXFXFXFX",
"FXFXFXFXFXFX~ ~ L I j.d.d.h.h.h.h.d.a.s.4.4.4.4.z z k l l k n.D.rXpX6Xo.) ~ q 4 3 . .         FXFXFXFXFXFXFXFXFXFXFXFXP c c I n.n.n.n.n.n.n.n.n.I n.C.8XpXqX5X . .@.O.6XqXsXsXqX6XO...) ! ~ 0 q q FXFXFXFXFXFXFXFXFXFXFXFXFXFXFXFXFXFXFXFXFXFXFXFXFXFXFXFXFXFXFX",
"FXFXFXFXFXFX9 q m g c z 4.p.a.a.a.p.4.z x k x x k k l l l k I D.wXwX4X| ( Q 9 3 . .           FXFXFXFXFXFXFXFXFXFX) ) [ [ D..XtXyXdXlXlXlXdXyXrX8X.XD.+.o...| )  .5XwXsXjXhXhXsX0X5Xo.| _ ! ~ Q Q FXFXFXFXFXFXFXFXFXFXFXFXFXFXFXFXFXFXFXFXFXFXFXFXFXFXFXFXFXFXFX",
"FXFXFXFXFXFX4 4 6 h j k z z z z z z k l l l l l l l l x I b.C.D.eX7X@._ ~ q 4 3 .           FXFXFXFXFXFXFXFXFXFX~ ! ( _ | @.4X0XiXpXsXsXsXpXqX9X5X+...) _ ( _ )  .7XqXsXfXaXsXwX7X+...) ! ~ 0 q q FXFXFXFXFXFXFXFXFXFXFXFXFXFXFXFXFXFXFXFXFXFXFXFXFXFXFXFXFXFXFX",
"FXFXFXFXFXFX2 3 > h j k k k k x x x k k k k k k l l x I C.8XeX6X5Xo.) ~ q 4 3 .         FXFXFXFXFXFXFXFXFXFXFXFX0 0 Q ~ ~ / _ ) ) ) ) _ ( ! ~ ~ 0 0 0 Q ~ ( _ |  .O.6X6X6X5X5X+. .| ( ~ q 9 4 4 4 FXFXFXFXFXFXFXFXFXFXFXFXFXFXFXFXFXFXFXFXFXFXFXFXFXFXFXFXFXFXFX",
"FXFXFXFXFXFXFXFX6 d g M Y B.C.C.F.F.F.F.C.C.C.B.B.B.B.C.D.5X4X+...) ~ q 4 3 .           FXFXFXFXFXFXFXFXFXFXFX_ ..+.O.7X6X0X0X0X6X7XO.o.| ! Q q 4 4 4 q q ~ ! _ ) | ......| ) ) ( ~ Q q q 4 4 FXFXFXFXFXFXFXFXFXFXFXFXFXFXFXFXFXFXFXFXFXFXFXFXFXFXFXFXFXFXFXFXFX",
"FXFXFXFXFXFXFXFXFX0 K ` ..7XrXgXnXMXnXhXaXrXeX5X.X5XD.+.@.| ) _ ~ Q q 4 3 .             FXFXFXFXFXFXFXFXFXQ ~ | 5XsXbXmXNXVXNXNXmXMXhXaX0X+.) ~ 0 q 8 4 9 q q Q ~ ~ ~ ! ~ ~ ~ Q 0 q q 9 4 4 FXFXFXFXFXFXFXFXFXFXFXFXFXFXFXFXFXFXFXFXFXFXFXFXFXFXFXFXFXFXFXFXFXFX",
"FXFXFXFXFXFXFX4 9 9 q ~ _ @.1X6XwXwX9X5XO.@...| } ) ) ) ) ) ( Q 9 3 3 . .           FXFXFXFXFXFXFXFXFX4 0 ( | o.5X6XwXsXsXaXaXsXsXsXsXpXqXwX6X+.| ! 0 9 4 4 4 4 9 q 0 0 0 0 q q q 9 4 3 3 3 FXFXFXFXFXFXFXFXFXFXFXFXFXFXFXFXFXFXFXFXFXFXFXFXFXFXFXFXFXFXFXFXFXFX",
"FXFXFXFXFXFX9 9 q Q ~ _ |  .O.O.O.O.@.| ) ( ~ ~ 0 q q 0 ~ ~ Q 9 3 .               FXFXFXFXFXFXFXFXFXQ ~ ) +.6X0X6X6X6X6X6X6X5X5XO.O.O.5X6XwXwX6X+.| ! 0 4 3 3 3 4 4 9 q q q 9 9 4 4 3 . . FXFXFXFXFXFXFXFXFXFXFXFXFXFXFXFXFXFXFXFXFXFXFXFXFXFXFXFXFXFXFXFXFXFXFX",
"FXFXFXFXFXFX0 ~ (  .7XqXsXjXhXhXhXgXpX0X5Xo.) ! Q q 9 4 4 4 4 4 4 3 .             FXFXFXFXFXFX0 ~ | O.0XsXhXmXmXmXnXhXhXgXsXwX6XO.| _ ! ( ) | .. ...) ! 0 9 4 3 3 3 4 4 4 4 3 3 . . . FXFXFXFXFXFXFXFXFXFXFXFXFXFXFXFXFXFXFXFXFXFXFXFXFXFXFXFXFXFXFXFXFXFXFXFXFX",
"FXFXFXFXFXFXQ ! ) O.wXaXhXmXmXNXmXmXnXjXsX0XO..._ ~ q 4 3 . . 3 3 3 .           FXFXFXFXFXFXFXq ~ ) O.qXgXhXmXmXmXMXhXgXsXwX0X5X+.| ( ~ Q 0 Q ! ) ) ) ! ~ q 4 3 3 . . . . . . .     FXFXFXFXFXFXFXFXFXFXFXFXFXFXFXFXFXFXFXFXFXFXFXFXFXFXFXFXFXFXFXFXFXFXFXFXFXFX",
"FXFXFX4 9 q 0 ~ _ ..O.6XwXpXaXgXjXhXhXjXgXsXqX0XO.} ~ q 4 3 3 . . . . . . . FXFXFXFXFXFXFXFXFXq Q ! )  .O.5X6X0X0X0X5X+.| | ..o.o.+.+...) ~ q q 0 Q ~ ~ Q q 4 3 . .             FXFXFXFXFXFXFXFXFXFXFXFXFXFXFXFXFXFXFXFXFXFXFXFXFXFXFXFXFXFXFXFXFXFXFXFXFXFXFXFX",
"FXFXFX3 5 4 q Q ! )  .O.5X0XwXwXwXwXwXwXwXqXqXwX6Xo.| ( ~ 0 9 4 3 . . .   FXFXFXFXFXFXFXFXFX| ..o.O.5X0XwXwXqXwXwX0X5Xo.) _ ( ( ) |  . .) ~ 0 q 9 4 9 q q 9 4 3 .           FXFXFXFXFXFXFXFXFXFXFXFXFXFXFXFXFXFXFXFXFXFXFXFXFXFXFXFXFXFXFXFXFXFXFXFXFXFXFXFXFXFX",
"FXFXFX. . 3 4 q ! ) o.5X6XwXwX0X5XO.O.+.+.O.5X7X5XO.o...| _ ! Q q 4 3 .   FXFXFXFXFXFXFX_ | O.wXsXhXMXmXmXmXnXhXgXsXwX5X+.| ! 0 0 ~ ( _ _ ! ~ q 4 . . 3 3 3 . . .       FXFXFXFXFXFXFXFXFXFXFXFXFXFXFXFXFXFXFXFXFXFXFXFXFXFXFXFXFXFXFXFXFXFXFXFXFXFXFXFXFXFXFXFX",
"FXFXFX3 3 9 Q ( | O.wXsXjXhXlXhXgXsX0XO.o. . . . .o. ...| ) ( ~ 0 q 4 3 3 FXFXFXFXFXFXFX+.O.5X6X0XqXsXsXsXqXwX6X6X5X5XO.O.+...) ( ~ Q Q Q ~ Q q 3 . . . . . .         FXFXFXFXFXFXFXFXFXFXFXFXFXFXFXFXFXFXFXFXFXFXFXFXFXFXFXFXFXFXFXFXFXFXFXFXFXFXFXFXFXFXFXFXFX",
"FXFXFX4 8 0 ! | O.wXaXnXCXVXBXZXBXNXhXqX5Xo.| ) ) ) ) ) ) _ ! ~ 0 q 9 9 4 FXFXFXFXFXFXFX6X6X5XO.O.5X5X6X5X+. .| ) _ ) | o.+.+.o...( 0 9 9 q q 4 3 .               FXFXFXFXFXFXFXFXFXFXFXFXFXFXFXFXFXFXFXFXFXFXFXFXFXFXFXFXFXFXFXFXFXFXFXFXFXFXFXFXFXFXFXFXFXFXFX",
"FXFXFX3 4 q Q _ ..5XwXsXjXnXmXNXBXVXNXnXaX0XO.| ( ~ 0 q 0 Q 0 q q 9 9 9 9 FXFXFXFXFXFXFX .+.5XwXsXaXjXjXsXwX5X .( 0 q q Q ! ) | | _ ~ q 9 4 3 3 . .           FXFXFXFXFXFXFXFXFXFXFXFXFXFXFXFXFXFXFXFXFXFXFXFXFXFXFXFXFXFXFXFXFXFXFXFXFXFXFXFXFXFXFXFXFXFXFXFXFX",
"FXFXFX4 9 q ~ )  .5XwXsXaXgXhXhXMXMXmXmXnXaX0X+.) Q 9 4 4 9 9 4 4 4 4 4 4 FXFXFXFXFXFX( ) | O.wXaXhXhXhXjXsXwX5X| ! q 4 4 4 q ~ ! ! ~ 0 9 3 . X . .         FXFXFXFXFXFXFXFXFXFXFXFXFXFXFXFXFXFXFXFXFXFXFXFXFXFXFXFXFXFXFXFXFXFXFXFXFXFXFXFXFXFXFXFXFXFXFXFXFXFX",
"FXFXFXQ ~ _ ..5XwXsXhXnXMXnXhXsXqXwXpXgXjXgXsXwXO.) Q 9 4 4 3 3 3 3 3 3 3 FXFXFXFXQ ~ _ | ..o.O.O.5X6X6X0XwXwX0X6XO...~ 9 3 3 3 4 q q q 4 .           FXFXFXFXFXFXFXFXFXFXFXFXFXFXFXFXFXFXFXFXFXFXFXFXFXFXFXFXFXFXFXFXFXFXFXFXFXFXFXFXFXFXFXFXFXFXFXFXFXFXFXFXFX",
"FXFXFX0 ~ ( | O.0XsXhXMXmXCXmXjXsXwXwXwXqXqXwX0XO.| ( Q q 4 3 . . . . . . FXFXFXFXQ Q ~ ! _ _ _ ) ) ) ) | .. .o.+.+..._ Q 9 3 . . 3 4 4 3 .         FXFXFXFXFXFXFXFXFXFXFXFXFXFXFXFXFXFXFXFXFXFXFXFXFXFXFXFXFXFXFXFXFXFXFXFXFXFXFXFXFXFXFXFXFXFXFXFXFXFXFXFXFXFX",
"FXFXFX9 q 0 ~ )  .6XpXjXMXNXNXNXmXhXsX6XO.+.+.o. .| ) ( ~ q 4 3           FXFXFXFX0 q q 9 9 q Q ~ ~ ~ Q 0 q 9 q q Q ~ ! ! ~ q 3 . . . . .       FXFXFXFXFXFXFXFXFXFXFXFXFXFXFXFXFXFXFXFXFXFXFXFXFXFXFXFXFXFXFXFXFXFXFXFXFXFXFXFXFXFXFXFXFXFXFXFXFXFXFXFXFXFXFXFX",
"FXFXFX4 4 9 q ~ )  .4X6XwXpXsXgXjXgXsX0X5Xo.| ) _ _ _ ! ~ 0 9 3 . .       FXFXFXFX4 9 9 q Q ( |  . .| ( Q 4 3 . 3 3 4 q Q Q q 3 . . .       FXFXFXFXFXFXFXFXFXFXFXFXFXFXFXFXFXFXFXFXFXFXFXFXFXFXFXFXFXFXFXFXFXFXFXFXFXFXFXFXFXFXFXFXFXFXFXFXFXFXFXFXFXFXFXFXFXFX",
"FXFXFX9 q q Q ! _ | @.+.+.O.O.5X6XwXwXwX6X+.) ! ~ Q Q Q 0 q 9 4 3 . .     FXFXFXFX3 4 q ! | 5XqXsXpX6XO.) Q 4 . . . . 3 4 4 4 3 3 .       FXFXFXFXFXFXFXFXFXFXFXFXFXFXFXFXFXFXFXFXFXFXFXFXFXFXFXFXFXFXFXFXFXFXFXFXFXFXFXFXFXFXFXFXFXFXFXFXFXFXFXFXFXFXFXFXFXFXFX",
"FXFXFX! ( ) ..O.6XwXsXsXpXwX6X5X+.o.+.O.+...) ! ~ q 9 9 8 4 4 3 3 . . FXFXFXFXFXFX4 q ! ..6XsXhXmXMXjXqX5X} Q 4 3 .   . . . . 3 < . . FXFXFXFXFXFXFXFXFXFXFXFXFXFXFXFXFXFXFXFXFXFXFXFXFXFXFXFXFXFXFXFXFXFXFXFXFXFXFXFXFXFXFXFXFXFXFXFXFXFXFXFXFXFXFXFXFXFXFXFXFX",
"FXFXFX) |  .5XwXsXhXMXmXMXhXsX6X+.| ) ) ) ) ) ( ~ q 4 3 3 3 3 . . . FXFXFXFXFXFXFX4 q ( +.0XaXnXmXmXhXsX6X .! q 4 .           . . . FXFXFXFXFXFXFXFXFXFXFXFXFXFXFXFXFXFXFXFXFXFXFXFXFXFXFXFXFXFXFXFXFXFXFXFXFXFXFXFXFXFXFXFXFXFXFXFXFXFXFXFXFXFXFXFXFXFXFXFXFXFX",
"FXFXFX( _ ) | +.5XwXsXjXhXjXgXpX0XO..._ ! ! ( ( ~ 0 9 4 3 . . .     FXFXFXFXFXFXFX3 8 Q ) o.5XwXpXpXwX6X+.) ~ 9 3 .             . . FXFXFXFXFXFXFXFXFXFXFXFXFXFXFXFXFXFXFXFXFXFXFXFXFXFXFXFXFXFXFXFXFXFXFXFXFXFXFXFXFXFXFXFXFXFXFXFXFXFXFXFXFXFXFXFXFXFXFXFXFXFX",
"FXFXFXQ Q Q ~ ! _ | +.5X6X0XwXwX0X6Xo.) ~ ~ ~ ~ ~ 0 q 4 3 . X       FXFXFXFXFXFX3 3 3 4 0 ~ ) | .. ...| _ ~ q 4 3 . . 3 4 4 4 4 4 3 FXFXFXFXFXFXFXFXFXFXFXFXFXFXFXFXFXFXFXFXFXFXFXFXFXFXFXFXFXFXFXFXFXFXFXFXFXFXFXFXFXFXFXFXFXFXFXFXFXFXFXFXFXFXFXFXFXFXFXFXFXFX",
"FXFXFX4 4 4 4 3 4 9 0 ~ ! _ )  .O.O.o.| _ ~ Q 0 q q q 4 3 . .       FXFXGXFX0 q 4 3 . . 3 3 4 9 q q q q q 4 4 4 4 9 0 ! ) ) _ ~ ~ ~ FXFXFXFXFXFXFXFXFXFXFXFXFXFXFXFXFXFXFXFXFXFXFXFXFXFXFXFXFXFXFXFXFXFXFXFXFXFXFXFXFXFXFXFXFXFXFXFXFXFXFXFXFXFXFXFXFXFXFXFXFXFX",
"FXFXFX3 3 3 3 3 4 9 0 0 0 q 0 ! ) | | | ) ( ~ 0 q 9 4 4 3 3 . .   . FXFXE E 0 q 8 3 3 . 3 3 3 3 3 5 3 3 3 5 4 q 0 ! ) | o.+.o. . . . .FXFXFXFXFXFXFXFXFXFXFXFXFXFXFXFXFXFXFXFXFXFXFXFXFXFXFXFXFXFXFXFXFXFXFXFXFXFXFXFXFXFXFXFXFXFXFXFXFXFXFXFXFXFXFXFXFXFXFXFXFX",
"FXFXFX. . 3 4 q Q _ | | ( 0 q q q Q ! ) ) ) ! ~ q 4 3 3 3 3 3 FXFXFX~ ~ ~ ~ ~ Q q q q q 0 0 0 q 9 4 3 3 3 4 q ~ ) |  .o.+.O.5X6X6X5X+...) ! ~ Q FXFXFXFXFXFXFXFXFXFXFXFXFXFXFXFXFXFXFXFXFXFXFXFXFXFXFXFXFXFXFXFXFXFXFXFXFXFXFXFXFXFXFXFXFXFXFXFXFXFXFXFXFXFXFXFX",
"FXFXFXFXFXq ~ ) ..5XwX0X+.) ~ q 9 9 q ~ ! ! ! ~ 0 9 3 3 3 3 . FXFXFX5X+.o.@...| | |  .+.5X7X4Xo..._ Q q 9 q 0 ~ )  .+.+.+.O.5X6X0X6X5XO.+. .| ) ( ~ FXFXFXFXFXFXFXFXFXFXFXFXFXFXFXFXFXFXFXFXFXFXFXFXFXFXFXFXFXFXFXFXFXFXFXFXFXFXFXFXFXFXFXFXFXFXFXFXFXFXFXFXFXFX",
"FXFXFXFXFXFX .+.5XpXjXgXwXO.) ~ 9 3 3 4 q Q ~ ~ Q q 4 3 . . . FXFXFXdXrXwX6XQ.Q.7XwXyXkXxXxXkXrX8Xo.) ! Q q q Q ( | ...... .+.O.5X5X5X5X5X4X+.| ( ~ K FXFXFXFXFXFXFXFXFXFXFXFXFXFXFXFXFXFXFXFXFXFXFXFXFXFXFXFXFXFXFXFXFXFXFXFXFXFXFXFXFXFXFXFXFXFXFXFXFXFXFXFXFX",
"FXFXFXFXFXFX.. .O.wXaXaXpX6Xo.( q 3 . 3 3 9 0 ~ Q q 4 3 3 . X FXFXFX X X XC.[ X.XX,XcXcX,X#X XS.m.] ] _ ~ 0 9 9 q Q ~ ~ ~ ~ ! ( _ ) | | | ..| _ ~ Q Y M.`.FXFXFXFXFXFXFXFXFXFXFXFXFXFXFXFXFXFXFXFXFXFXFXFXFXFXFXFXFXFXFXFXFXFXFXFXFXFXFXFXFXFXFXFXFXFXFXFXFXFXFX",
"FXFXFXFXFXFX_ ) ..O.0XqXwX0X5X| Q 4 3 . 3 4 q q q q 4 3 < . X FXFXFXc.z.M.Y L ] oX,X:X-X$X{.x.f.s.H L ` ~ q 4 3 3 3 4 5 4 4 4 4 9 q 0 Q ~ ~ ~ W 0 n Y M._._.FXFXFXFXFXFXFXFXFXFXFXFXFXFXFXFXFXFXFXFXFXFXFXFXFXFXFXFXFXFXFXFXFXFXFXFXFXFXFXFXFXFXFXFXFXFXFXFXFXFX",
"FXFXFXFXFXFXQ ~ ! ) o.5X6X0X6Xo.) Q 9 4 3 3 4 4 4 4 3 3 .     FXFXFXl.l.j.g 7 L '.%X:X=X|._.k.p.x c m n q 4 3 . . . . . . . . . 3 3 3 3 4 4 8 8 4 6 b H h.k.z.x.x.FXFXFXFXFXFXFXFXFXFXFXFXFXFXFXFXFXFXFXFXFXFXFXFXFXFXFXFXFXFXFXFXFXFXFXFXFXFXFXFXFXFXFXFXFXFXFX",
"FXFXFXFXFXFXq q Q ~ _ |  .+.+...) ! 0 q 4 4 3 3 3 3 . . . .   FXFXFXd.a.H h > L oX%X*X+X_.g.a.z k h m q 8 5 .                   . . . . . 3 3 3 3 5 d c s.d.g.l.l.FXFXFXFXFXFXFXFXFXFXFXFXFXFXFXFXFXFXFXFXFXFXFXFXFXFXFXFXFXFXFXFXFXFXFXFXFXFXFXFXFXFXFXFXFXFXFX",
"FXFXFXFXFXFXq q q q 0 Q ~ ~ ! ! ! ! ~ 0 q 9 4 3 . .   . . 3 3 FXFXFXz z k j FXFXFX$X|._.h.x l FXFXFXFXFXFXFXFXFXFXFXFXFXFXFXFXFXFXFXFXFXFXFXFXFXFXFXFXFXFXFXa.a.a.FXFXFXFXFXFXFXFXFXFXFXFXFXFXFXFXFXFXFXFXFXFXFXFXFXFXFXFXFXFXFXFXFXFXFXFXFXFXFXFXFXFXFXFXFXFXFX",
"FXFXFXFXFXFX4 4 5 3 3 3 3 4 4 q W ~ ~ ~ 0 q 4 3 . . . . 3 3 4 q K FXFXFXFXFXFXFXFX_._.l.a.FXFXFXFXFXFXFXFXFXFXFXFXFXFXFXFXFXFXFXFXFXFXFXFXFXFXFXFXFXFXFXFXFXFXFXFXFXFXFXFXFXFXFXFXFXFXFXFXFXFXFXFXFXFXFXFXFXFXFXFXFXFXFXFXFXFXFXFXFXFXFXFXFXFXFXFXFXFXFXFXFXFXFX",
"FXFXFXFXFXFX. . . . . . . ; 3 4 9 q 0 Q Q q 4 3 . . . 3 3 4 q Q ! ` FXFXFXFXFXFXFXg.g.g.FXFXFXFXFXFXFXFXFXFXFXFXFXFXFXFXFXFXFXFXFXFXFXFXFXFXFXFXFXFXFXFXFXFXFXFXFXFXFXFXFXFXFXFXFXFXFXFXFXFXFXFXFXFXFXFXFXFXFXFXFXFXFXFXFXFXFXFXFXFXFXFXFXFXFXFXFXFXFXFXFXFXFXFX",
"FXFXFXFXFXFX3 4 9 0 ~ ~ Q q 9 9 9 9 9 9 4 4 3 . . . . 3 4 0 ~ ) | ......FXFXFXFXFXFXFXFXFXFXFXFXFXFXFXFXFXFXFXFXFXFXFXFXFXFXFXFXFXFXFXFXFXFXFXFXFXFXFXFXFXFXFXFXFXFXFXFXFXFXFXFXFXFXFXFXFXFXFXFXFXFXFXFXFXFXFXFXFXFXFXFXFXFXFXFXFXFXFXFXFXFXFXFXFXFXFXFXFXFXFXFX",
"FXFXFXFXFXFX~ ! )  .4X5X+.| _ ! Q q 9 4 3 3 . . . . 3 4 q ~ )  .O.5X+. ...| FXFXFXFXFXFXFXFXFXFXFXFXFXFXFXFXFXFXFXFXFXFXFXFXFXFXFXFXFXFXFXFXFXFXFXFXFXFXFXFXFXFXFXFXFXFXFXFXFXFXFXFXFXFXFXFXFXFXFXFXFXFXFXFXFXFXFXFXFXFXFXFXFXFXFXFXFXFXFXFXFXFXFXFXFXFXFXFXFXFX",
"FXFXFXFXFXFX7X6XqXfXbXbXaXwX6XO...) ( Q q 4 4 3 3 3 4 q Q ( | +.5X6X5XO.O.o...| FXFXFXFXFXFXFXFXFXFXFXFXFXFXFXFXFXFXFXFXFXFXFXFXFXFXFXFXFXFXFXFXFXFXFXFXFXFXFXFXFXFXFXFXFXFXFXFXFXFXFXFXFXFXFXFXFXFXFXFXFXFXFXFXFXFXFXFXFXFXFXFXFXFXFXFXFXFXFXFXFXFXFXFXFXFXFXFX",
"FXFXFXFXFXFXcXcXcXxXxXxXlXjXaXpX0X5Xo.) ! Q q 4 4 4 9 q ~ ( )  .O.O.O.+.o...| | ..FXFXFXFXFXFXFXFXFXFXFXFXFXFXFXFXFXFXFXFXFXFXFXFXFXFXFXFXFXFXFXFXFXFXFXFXFXFXFXFXFXFXFXFXFXFXFXFXFXFXFXFXFXFXFXFXFXFXFXFXFXFXFXFXFXFXFXFXFXFXFXFXFXFXFXFXFXFXFXFXFXFXFXFXFXFXFX",
"FXFXFXFXFXFX>X>X,X#XOX XyXlXhXjXaXqX6XO.| ( 0 9 4 9 q q Q ~ ! _ ) ) ) ( _ ) | | o.O.+.| ~ 0 q FXFXFXFXFXFXFXFXFXFXFXFXFXFXFXFXFXFXFXFXFXFXFXFXFXFXFXFXFXFXFXFXFXFXFXFXFXFXFXFXFXFXFXFXFXFXFXFXFXFXFXFXFXFXFXFXFXFXFXFXFXFXFXFXFXFXFXFXFXFXFXFXFXFXFXFXFXFXFXFXFX",
"FXFXFXFXFX:X-X=X$X].z.M. XrXsXiXwX6XO...) ~ q 4 3 4 4 4 9 q q 0 0 0 0 q 0 ~ _ ) | ..| ] L J P n.FXFXFXFXFXFXFXFXFXFXFXFXFXFXFXFXFXFXFXFXFXFXFXFXFXFXFXFXFXFXFXFXFXFXFXFXFXFXFXFXFXFXFXFXFXFXFXFXFXFXFXFXFXFXFXFXFXFXFXFXFXFXFXFXFXFXFXFXFXFXFXFXFXFXFXFXFXFXFXFX",
"FXFXFX:X:X-X$X{._.l.d.j.B.X.+.@.| ) ( ~ q 9 3 . . . . . 3 3 3 3 3 3 3 4 9 0 ~ ! ! ~ K J H p.h.l.x.x.FXFXFXFXFXFXFXFXFXFXFXFXFXFXFXFXFXFXFXFXFXFXFXFXFXFXFXFXFXFXFXFXFXFXFXFXFXFXFXFXFXFXFXFXFXFXFXFXFXFXFXFXFXFXFXFXFXFXFXFXFXFXFXFXFXFXFXFXFXFXFXFXFXFXFXFXFXFX",
"FXFXFX;X*X$X[.x.g.p.5.c P ^ ( ! Q q 9 4 3 3 .           . . . . . . . . 3 4 q q 8 4 6 h c z p.d.g.l.z.x.FXFXFXFXFXFXFXFXFXFXFXFXFXFXFXFXFXFXFXFXFXFXFXFXFXFXFXFXFXFXFXFXFXFXFXFXFXFXFXFXFXFXFXFXFXFXFXFXFXFXFXFXFXFXFXFXFXFXFXFXFXFXFXFXFXFXFXFXFXFXFXFXFXFXFXFX",
"FXFXFX+X|.[.x.d.4.z k j g m q 9 4 3 3 . . .                         . . . 3 3 3 . X + @ j k z 4.p.h.l.z.x.FXFXFXFXFXFXFXFXFXFXFXFXFXFXFXFXFXFXFXFXFXFXFXFXFXFXFXFXFXFXFXFXFXFXFXFXFXFXFXFXFXFXFXFXFXFXFXFXFXFXFXFXFXFXFXFXFXFXFXFXFXFXFXFXFXFXFXFXFXFXFXFXFXFXFX",
"FXFXFXx.x.z.l.FXFXFXFXFXc c h h FXFXFXFXFXFXFXFXFXFXFXFXFXFXFXFXFXFXFXFXFXFXFXFXFXFXFXFXFXFXFXFXFXa.d.d.d.FXFXFXFXFXFXFXFXFXFXFXFXFXFXFXFXFXFXFXFXFXFXFXFXFXFXFXFXFXFXFXFXFXFXFXFXFXFXFXFXFXFXFXFXFXFXFXFXFXFXFXFXFXFXFXFXFXFXFXFXFXFXFXFXFXFXFXFXFXFXFXFXFXFXFX",
"FXFXFXg.g.g.FXFXFXFXFXFXl l l l FXFXFXFXFXFXFXFXFXFXFXFXFXFXFXFXFXFXFXFXFXFXFXFXFXFXFXFXFXFXFXFXFXFXs.s.s.FXFXFXFXFXFXFXFXFXFXFXFXFXFXFXFXFXFXFXFXFXFXFXFXFXFXFXFXFXFXFXFXFXFXFXFXFXFXFXFXFXFXFXFXFXFXFXFXFXFXFXFXFXFXFXFXFXFXFXFXFXFXFXFXFXFXFXFXFXFXFXFXFXFXFX"
};
