/* XPM */
static const char *bos2b5[] = {
/* columns rows colors chars-per-pixel */
"128 128 250 2 ",
"   c #141515",
".  c #1C1C1C",
"X  c #181817",
"o  c #0C0F0A",
"O  c #390B0B",
"+  c #271B17",
"@  c #371916",
"#  c #31180C",
"$  c #15280C",
"%  c #1A3712",
"&  c #132B0F",
"*  c #29221B",
"=  c #382617",
"-  c #2A3014",
";  c #1D2122",
":  c #242424",
">  c #2B2C2C",
",  c #282726",
"<  c #362A28",
"1  c #37312C",
"2  c #2E3333",
"3  c #333334",
"4  c #3B3C3C",
"5  c #383837",
"6  c #293627",
"7  c #1D1F20",
"8  c #4A0807",
"9  c #580303",
"0  c #461717",
"q  c #561717",
"w  c #431109",
"e  c #680303",
"r  c #780202",
"t  c #6D1616",
"y  c #432D1A",
"u  c #452D17",
"i  c #49341B",
"p  c #543C1E",
"a  c #58381A",
"s  c #552D0D",
"d  c #742B01",
"f  c #752B00",
"g  c #7B3302",
"h  c #793608",
"j  c #693916",
"k  c #6D330E",
"l  c #482727",
"z  c #473828",
"x  c #593D21",
"c  c #553B21",
"v  c #463B38",
"b  c #563938",
"n  c #5A2424",
"m  c #6F2F2D",
"M  c #1E4215",
"N  c #224918",
"B  c #28561D",
"V  c #2B5D21",
"C  c #354D2F",
"Z  c #2E6222",
"A  c #326A26",
"S  c #38762C",
"D  c #3C7F30",
"F  c #784717",
"G  c #755016",
"H  c #5A4124",
"J  c #4A433B",
"K  c #564537",
"L  c #56502F",
"P  c #644425",
"I  c #6D4A29",
"U  c #684627",
"Y  c #734D2B",
"T  c #784625",
"R  c #7A532D",
"E  c #7C5334",
"W  c #6C4E35",
"Q  c #706E2D",
"!  c #4D511E",
"~  c #3B3C43",
"^  c #313150",
"/  c #3D4242",
"(  c #434343",
")  c #4B4B4B",
"_  c #474847",
"`  c #554A47",
"'  c #58524B",
"]  c #545454",
"[  c #5B5C5C",
"{  c #585857",
"}  c #4E5254",
"|  c #685A56",
" . c #6E514A",
".. c #69635A",
"X. c #7A6751",
"o. c #5C5D61",
"O. c #5E6362",
"+. c #636363",
"@. c #6B6B6B",
"#. c #676868",
"$. c #766A66",
"%. c #6C7272",
"&. c #737373",
"*. c #7B7C7C",
"=. c #767979",
"-. c #73716E",
";. c #5E605E",
":. c #403F41",
">. c #880404",
",. c #970404",
"<. c #891515",
"1. c #951818",
"2. c #AC0101",
"3. c #A50606",
"4. c #B40101",
"5. c #BA0202",
"6. c #B01818",
"7. c #823C04",
"8. c #813805",
"9. c #8D2A2A",
"0. c #AF3232",
"q. c #C30101",
"w. c #CC0202",
"e. c #C80B0B",
"r. c #D40101",
"t. c #D90404",
"y. c #D61818",
"u. c #EC0000",
"i. c #E50303",
"p. c #F30101",
"a. c #FC0000",
"s. c #F30C0C",
"d. c #ED1414",
"f. c #D12C2C",
"g. c #894609",
"h. c #8D4A0B",
"j. c #874307",
"k. c #95540D",
"l. c #854B16",
"z. c #9B5B12",
"x. c #955712",
"c. c #8D5110",
"v. c #9C6116",
"b. c #81631A",
"n. c #A36817",
"m. c #AB741C",
"M. c #AD781E",
"N. c #B17B1E",
"B. c #865628",
"V. c #835631",
"C. c #8B5B35",
"Z. c #865935",
"A. c #925E37",
"S. c #8F5624",
"D. c #9B653C",
"F. c #966239",
"G. c #94702F",
"H. c #A97924",
"J. c #B27E21",
"K. c #A2693D",
"L. c #A67435",
"P. c #90574E",
"I. c #8E6E52",
"U. c #A86C42",
"Y. c #B57548",
"T. c #A7744F",
"R. c #857A77",
"E. c #90736A",
"W. c #AB5858",
"Q. c #C74C4C",
"!. c #C37C4E",
"~. c #C76161",
"^. c #3D8331",
"/. c #3D812F",
"(. c #47983B",
"). c #418B35",
"_. c #51AD46",
"`. c #5CC552",
"'. c #64D75B",
"]. c #6DE964",
"[. c #B78826",
"{. c #BE932B",
"}. c #B59034",
"|. c #AA9B39",
" X c #C2982E",
".X c #C49D31",
"XX c #CDAB3A",
"oX c #C9A435",
"OX c #D2B33E",
"+X c #D0AE3A",
"@X c #AE9151",
"#X c #908672",
"$X c #AC8F74",
"%X c #AA9E64",
"&X c #CD8354",
"*X c #D7BB43",
"=X c #C8B448",
"-X c #C2B96E",
";X c #DDC449",
":X c #D9CB55",
">X c #E2CB4C",
",X c #E9D854",
"<X c #E7D24F",
"1X c #F1E65C",
"2X c #F4EC62",
"3X c #FAF769",
"4X c #F3EF77",
"5X c #DDD36D",
"6X c #2A2A95",
"7X c #7C7D81",
"8X c #5959A2",
"9X c #3838C5",
"0X c #7E8384",
"qX c #838484",
"wX c #8C8C8C",
"eX c #878888",
"rX c #939393",
"tX c #9B9B9C",
"yX c #979898",
"uX c #938F8D",
"iX c #A8958D",
"pX c #B2A993",
"aX c #9CA2A2",
"sX c #A3A3A4",
"dX c #ABABAC",
"fX c #A6A8A7",
"gX c #B3B3B3",
"hX c #BCBCBC",
"jX c #B8B9B7",
"kX c #B3B0AD",
"lX c #9494A4",
"zX c #C3BBB3",
"xX c #C1AA89",
"cX c #CDCAB4",
"vX c #E9E983",
"bX c #BDBEC1",
"nX c #C4C4C4",
"mX c #CCCCCC",
"MX c #C8C6C6",
"NX c #D4D4D4",
"BX c #DBDBDB",
"VX c #D5D6D8",
"CX c #D0CDCD",
"ZX c #E3E3E3",
"AX c #ECECEC",
"SX c #F0F0F0",
"DX c #DFDFE0",
"FX c #BFC0C1",
"GX c None",
"HX c black",
/* pixels */
"GXGXGXGXGXGXGXGXGXGXGXGXGXGXGXGXGXGXGXGXGXGXGXGXGXGXGXGXGXGXGXGXGXGXGXa.a.p.p.i.t.w.5.2.<.m +.%.*.qXwXrXtXtXtXtXtXsXfXdXgXgXdXdXfXsXtXtXtXrXrXrXwXwXqX*.=.%.#. .9.,.2.q.r.i.p.p.a.a.GXGXGXGXGXGXGXGXGXGXGXGXGXGXGXGXGXGXGXGXGXGXGXGXGXGXGXGXGXGXGXGXGXGXGXGXGXGX",
"GXGXGXGXGXGXGXGXGXGXGXGXGXGXGXGXGXGXGXGXGXGXGXGXGXGXGXGXGXGXGXGXGXGXGXa.p.i.t.q.4.3.,.<.9. .&.0XeXuXrXtXsXfXdXdXdXgXhXhXhXnXnXhXhXgXgXdXfXsXsXsXsXtXrXwXqX*.&.$. .9.1.,.2.5.r.i.p.a.a.GXGXGXGXGXGXGXGXGXGXGXGXGXGXGXGXGXGXGXGXGXGXGXGXGXGXGXGXGXGXGXGXGXGXGXGXGX",
"GXGXGXGXGXGXGXGXGXGXGXGXGXGXGXGXGXGXGXGXGXGXGXGXGXGXGXGXGXGXGXGXGXa.a.p.i.w.2.>.e e n  .$.R.wXtXtXsXsXfXgXhXnXMXMXmXNXVXBXBXBXBXBXBXVXmXMXnXnXnXhXgXdXsXtXrXwXqX=.$.b t e r ,.5.t.p.a.a.a.GXGXGXGXGXGXGXGXGXGXGXGXGXGXGXGXGXGXGXGXGXGXGXGXGXGXGXGXGXGXGXGXGXGXGX",
"GXGXGXGXGXGXGXGXGXGXGXGXGXGXGXGXGXGXGXGXGXGXGXGXGXGXGXGXGXGXGXE.f.s.u.t.5.,.t q l l ` +.=.wXtXsXsXdXgXgXhXmXmXNXVXBXZXZXZXZXZXAXAXZXZXZXBXNXNXmXmXnXhXgXkXsXtXrXeX*.#.` b m m <.3.w.i.p.y.W.GXGXGXGXGXGXGXGXGXGXGXGXGXGXGXGXGXGXGXGXGXGXGXGXGXGXGXGXGXGXGXGXGXGX",
"GXGXGXGXGXGXGXGXGXGXGXGXGXGXGXGXGXGXGXGXqXqXqXqXqXqX*.=.&.&.=.E.Q.y.t.4.>.t l v _ ) [ -.qXrXtXsXfXgXhXhXMXmXVXBXBXZXZXAXAXAXAXAXAXSXAXZXZXBXVXNXmXmXMXnXhXgXsXtXrXwXR.&.#.[ { m t ,.w.i.f.P.R.*.qXwXtXdXgXgXgXgXgXGXGXGXGXGXGXGXGXGXGXGXGXGXGXGXGXGXGXGXGXGXGXGX",
"GXGXGXGXGXGXGXGXGXGXGXGXGXGXGXGX=.wXgXhXgXgXgXgXfXtXrXqX*.E.W.f.y.t.q.,.e q v / _ } +.=.wXrXsXdXgXhXnXMXmXNXVXBXZXZXAXSXSXSXSXSXSXSXSXAXZXZXBXVXNXNXmXmXnXhXgXsXtXrXqX=.@.O.{ b t r 2.r.y.f.0.W.qXyXdXhXMXCXNXNXmXmXmXhXfXtXGXGXGXGXGXGXGXGXGXGXGXGXGXGXGXGXGXGX",
"GXGXGXGXGXGXGXGXGXGXGXGXGXGXGX&.*.tXhXmXBXZXBXBXmXhXsXrXqXP.f.p.u.r.2.r q 0 5 / _ ] +.*.wXtXsXgXhXnXMXMXmXNXVXBXZXZXAXSXSXAXSXSXAXAXAXAXZXZXBXVXVXVXNXmXMXhXgXdXsXtXwX*.@.+.{ b q e ,.q.i.p.d.Q.uXaXjXmXBXZXZXZXZXBXNXhXdXsXtXGXGXGXGXGXGXGXGXGXGXGXGXGXGXGXGXGX",
"GXGXGXGXGXGXGXGXGXGXGXGXGX[ @.qXtXgXmXBXZXAXZXZXVXhXfXyXwXW.f.p.i.q.,.t l 5 v _ ) [ @.qXrXtXfXgXhXnXMXmXmXNXVXBXZXAXAXSXSXAXSXSXAXAXAXAXZXZXBXBXVXVXNXmXMXhXgXfXsXtXrXqX=.@.| { ` b <.4.t.p.d.Q.uXfXhXmXBXZXSXSXZXZXBXmXhXfXrX*.GXGXGXGXGXGXGXGXGXGXGXGXGXGXGXGX",
"GXGXGXGXGXGXGXGXGXGXGXGX[ +.=.rXdXMXVXZXZXZXZXZXVXnXdXaXwXW.f.p.i.5.<.n 4 ~ ( _ ] +.&.qXrXtXsXgXhXhXnXMXmXmXVXBXZXZXAXAXAXAXSXAXAXAXAXAXZXZXZXBXVXVXNXmXMXhXgXfXsXtXrXwX*.&.@.O.[ ` 9.2.r.p.d.~.iXfXjXmXBXZXAXAXAXZXZXVXMXdXrX*.@.GXGXGXGXGXGXGXGXGXGXGXGXGXGXGX",
"GXGXGXGXGXGXGXGXGXGX_ ] +.=.wXsXgXMXNXBXBXZXBXBXmXFXkXaXwXW.f.p.i.q.,.q 3 5 ( ) { +.&.*.wXtXsXdXgXhXhXnXMXmXNXBXZXZXZXZXAXAXSXSXAXZXZXZXZXZXBXVXNXNXNXmXMXhXgXfXsXtXrXwXqX*.=.#.{ ` <.2.r.p.d.~.iXfXgXnXNXBXZXZXZXZXBXNXnXdXrX=.[ _ 4 GXGXGXGXGXGXGXGXGXGXGXGXGX",
"GXGXGXGXGXGXGXGXGXGX) [ @.wXtXfXgXnXmXNXBXBXNXmXhXgXsXrX*.P.f.p.i.q.,.q 1 5 ( ) [ +.&.*.wXtXsXdXgXhXhXnXMXmXNXBXBXZXZXZXZXAXAXAXZXZXZXZXZXZXBXVXNXNXNXmXnXhXgXfXsXtXtXrXwXqX&.O.) b <.4.r.p.d.Q.uXyXfXgXnXmXVXBXBXVXmXnXdXtXqX@.[ _ 4 GXGXGXGXGXGXGXGXGXGXGXGXGX",
"GXGXGXGXGXGXGXGXGXGX{ +.=.rXsXfXgXhXMXmXNXmXMXhXdXtXrX0X@.P.y.p.u.w.,.q > 2 4 _ { +.@.*.qXrXtXfXdXgXhXMXmXCXVXBXBXBXBXBXZXZXZXZXZXZXZXZXZXBXBXVXNXNXmXnXhXgXdXfXfXsXtXrXwX*.@.{ _ l <.5.t.p.d.0.R.eXrXsXdXgXhXMXMXhXgXsXuX*.&.+.{ _ 4 5 GXGXGXGXGXGXGXGXGXGXGXGX",
"GXGXGXGXGXGXGXGXGX_ ] +.=.wXtXsXfXgXjXhXhXhXgXfXtXwX*.@.[  .y.u.u.r.3.q > 2 4 _ ] [ @.&.*.wXtXsXfXgXhXhXMXmXNXVXVXVXVXBXBXZXZXZXZXZXZXZXBXBXVXVXNXmXmXhXgXgXdXfXsXtXtXrXqX*.+.} ~ l <.e.i.p.d.0.$.=.0XwXrXtXsXsXsXsXtXwX*.&.@.+.{ _ 4 5 > GXGXGXGXGXGXGXGXGXGXGX",
"GXGXGXGXGXGXGXGX4 ( ) [ @.*.wXrXtXsXsXsXsXsXtXrXwX*.@.[ ) m 6.i.p.t.3.t , > 5 ( ) [ +.@.=.qXrXtXsXfXgXgXhXMXmXmXNXNXNXVXBXBXBXBXBXBXBXBXBXBXVXNXmXmXnXhXgXgXdXsXtXrXwXqX*.&.+.) 4 l <.e.i.u.t.0.| #.%.=.*.*.qXqXqXqX*.&.@.+.[ [ ] _ 4 3 > : GXGXGXGXGXGXGXGXGXGX",
"GXGXGXGXGXGXGXGX5 4 _ { +.@.&.*.*.qXeXwXwXqX0X=.@.+.{ _ 4 m 6.i.p.i.4.q : > 5 ( ) [ [ +.@.*.qXrXtXsXfXgXjXhXMXmXmXmXNXNXVXVXVXVXVXVXVXVXVXVXNXmXMXzXhXgXgXgXdXsXtXrXqX*.&.+.{ _ 2 l <.r.u.p.y.9.` { [ +.+.+.+.+.+.[ [ { ] ) ) _ _ 4 4 3 > > GXGXGXGXGXGXGXGXGXGX",
"GXGXGXGXGXGXGX4 4 ( _ ) ] { [ [ +.+.@.@.@.@.+.[ ] ) ( 5 3 n 3.i.p.i.4.q + : 3 v _ ] [ [ +.&.*.wXrXtXsXfXdXhXhXnXMXmXmXNXNXNXNXNXmXmXmXmXmXmXmXnXhXgXgXgXdXfXsXtXrXqX*.&.+.{ _ 5 2 l <.r.u.u.e.9.b _ ) } ] ] ) _ _ _ _ _ _ _ _ _ _ ( ( 4 4 5 GXGXGXGXGXGXGXGXGXGX",
"GXGXGXGXGX( _ ) ] ] ) _ _ ( ( _ _ ) ] { ] ) _ _ 4 4 5 2 > q ,.r.i.t.2.q + ; > 5 ( _ ) { [ +.&.*.wXrXrXtXsXgXhXhXnXMXmXmXmXmXMXMXnXnXnXnXnXnXhXhXgXdXfXsXsXtXrXwXqX=.@.[ ] _ 4 2 , 0 <.e.i.i.e.<.v 5 ~ ( _ _ ( 4 4 ( _ _ _ _ ) ] [ [ [ [ ] _ 4 3 GXGXGXGXGXGXGXGX",
"GXGXGXGXGX( _ ] +.+.@.@.+.+.@.@.&.&.@.+.{ _ ( 4 5 3 > > > n <.q.r.w.3.q . ; , > 5 4 _ ) { [ +.&.*.eXwXrXtXfXgXgXhXzXnXMXnXnXnXhXhXhXhXhXhXhXgXgXfXsXtXtXrXwXqX=.@.+.{ _ 4 4 3 > ; @ <.q.r.w.4.m b / / _ _ ) } } { [ +.@.@.&.=.*.*.*.*.@.+.) 4 3 > GXGXGXGXGXGXGX",
"GXGXGXGXGX_ _ { #.=.wXrXtXsXgXhXhXgXsXwX&.[ ) _ 4 5 3 2 5 n <.2.5.q.,.q + . : , > 5 4 _ ] { [ +.=.*.qXwXrXtXsXdXgXgXhXhXhXhXhXhXhXhXhXgXgXgXdXfXsXtXrXqX*.=.@.+.[ ] _ 4 3 > > : . @ r 4.q.4.,.m { { ] { +.@.&.=.qXwXtXsXfXdXdXfXsXrXeX&.[ _ 4 2 GXGXGXGXGXGXGXGX",
"GXGXGXGXGXGX_ _ ) [ @.*.qXrXsXgXFXMXMXhXtXwX*.@.[ ] _ _ _ b t ,.2.4.2.,.t q < 2 _ { +.@.=.*.qX*.=.=.*.qXwXrXtXsXfXdXgXgXgXgXjXhXhXgXgXgXdXdXfXsXtXrXqX*.=.*.qXqX*.&.+.[ ) / 3 l t <.3.4.2.3.<.9.$.&.&.=.qXwXrXtXfXhXmXmXmXnXgXsXrX*.+.] ( 5 3 GXGXGXGXGXGXGXGXGX",
"GXGXGXGXGXGXGXGX> 3 4 _ ] | -.qXrXgXMXMXhXfXtXwX*.@.[ ] ) b t r >.,.5.r.t.1.m _ [ @.*.qXrXsXsXrX*.&.&.*.*.qXwXrXtXsXfXdXdXgXgXgXgXdXfXfXsXsXsXtXrXwX*.*.*.wXsXsXtXwXqX=.+.) b t e.t.q.2.,.>.t  .-.*.qXwXrXsXfXgXhXmXVXVXMXgXtXqX@.) 4 > : . GXGXGXGXGXGXGXGXGXGX",
"GXGXGXGXGXGXGXGXGX, 1 1 z v J ) [ %.qXqXqX*.&.#.[ ] _ ( 4 1 @ w e >.2.q.r.e.6.9.b _ / ) [ *.rXrXrXwX*.&.=.*.qXwXwXrXtXsXfXdXdXdXdXfXsXsXtXtXrXwXqX=.*.wXtXtXtXwX@.} _ / b m 6.e.r.r.4.,.r q 0 v ) { [ +.@.=.*.qXwXtXaXrXqX&...' J z 1 * GXGXGXGXGXGXGXGXGXGXGXGX",
"GXGXGXGXGXGXGXGXGXGXy y y y = < 1 4 ( _ _ _ _ ( J 4 3 1 , : * + w e >.,.4.r.t.e.t 0 @ @ < ` @.qXtXtX*.@.@.@.=.*.*.qXwXrXtXsXsXsXsXtXtXrXrXwXqX*.@.+.@.rXfXtX*.[ v @ + @ q 3.r.t.q.2.,.r 9 @ : , 1 5 4 J ( _ ' ' [ ..+.[ _ v z y y y y GXGXGXGXGXGXGXGXGXGXGXGXGX",
"GXGXGXGXGXGXGXGXGXGXy i y y y y y z z z z z z c z z = = = = * # O 9 e r >.3.5.5.2.,.>.r t 0 4 O.wXwX&.[ { [ +.+.@.=.*.qXwXwXrXrXrXwXwXqXqX*.@.+.{ _ { *.rX*.) < q r >.,.3.4.5.2.,.>.e 9 8 # * = = = = < z H K z z J K K z z i y y y y GXGXGXGXGXGXGXGXGXGXGXGXGX",
"GXGXGXGXGXGXGXGXGXGXH x x p p p x H H c i i x U P i y i p i = # O w 8 9 e r >.,.2.4.2.,.r w : ) =.*.[ _ ( _ ] { [ +.@.&.=.*.qXqX*.*.=.&.&.@.[ ) ( 5 ( @.*.O.3 + 9 >.2.4.4.3.>.r e e 9 8 O # = u p i y u x U P a i a c x x p p p p x H GXGXGXGXGXGXGXGXGXGXGXGXGX",
"GXGXGXGXGXGXGXGXGXGXR R Y U U Y Y Y Y I P U R Z.V.P c H U P i = @ @ O 8 9 9 9 e e r r r 9 O , _ +.+._ 3 3 4 ( _ ) { [ +.@.&.&.&.@.+.+.[ [ { _ 4 3 > 5 { @.{ 3 + 8 e r r r e 9 9 9 8 w @ @ = = p U P c c Y Z.Z.Y P U I Y Y Y I U I Y R GXGXGXGXGXGXGXGXGXGXGXGXGX",
"GXGXGXGXGXGXGXGXGXGXD.F.V.I Y Z.C.C.V.R R Z.F.U.F.Y H I V.Y c = = = @ # O O O w 0 0 q q 0 < 3 / _ _ 3 : : 3 4 4 ( _ ) ] [ [ +.[ [ [ ] ] ) _ 4 3 : : : 4 _ _ 4 1 l q q q w w O O O O @ = = = u P V.R P P Z.K.K.C.V.R V.Z.C.Z.R I R C.F.GXGXGXGXGXGXGXGXGXGXGXGXGX",
"GXGXGXGXGXGXGXGXGXGXY.U.Z.I Y F.U.D.Z.Z.F.K.Y.Y.U.R U R F.Z.P y = = = * * : : , > < 1 1 5 v ( 4 3 : : . : > 3 5 4 4 ( _ _ ) ) ) ) ) _ _ ( 4 3 > : . . : > 3 4 ( 4 5 1 1 < , : : : * * = = = c R F.C.I I F.Y.Y.U.D.A.Z.A.K.D.V.U R D.Y.Y.GXGXGXGXGXGXGXGXGXGXGXGX",
"GXGXGXGXGXGXGXGXGXK.U.U.Z.I R K.Y.U.C.A.U.Y.!.&XY.Z.Y C.U.K.R x u = = * . 7 ; ; ; ; : : : > > : . X X X X . : > > 5 4 4 v ( _ _ _ _ ( 4 5 3 > : X X X X X : > > , : : : ; ; ; ; ; * * = u i U A.U.D.R R D.!.&X!.Y.D.Z.F.Y.Y.C.I R F.U.U.D.GXGXGXGXGXGXGXGXGXGXGX",
"GXGXGXGXGXGXGXGXD.D.K.D.R U R U.!.U.C.A.Y.&X&X&XY.A.V.F.Y.U.Z.P i = * + . . . : : : : > > > > 3 5 5 3 > > > > > : > 3 5 4 4 4 ( 4 4 5 3 > 3 3 5 3 > > 3 5 5 3 > > > > : : : : . . + + = u x Y D.Y.U.C.Z.K.!.&X&X!.K.Z.F.Y.Y.F.I Y C.D.D.D.D.GXGXGXGXGXGXGXGXGXGX",
"GXGXGXGXGXGXGXGXK.D.F.C.Y I V.Y.!.K.V.Z.Y.&X&X!.U.A.C.D.Y.U.R p u = = + : , 3 4 ) [ +.@.&.*.qXwXrXrXwXqXwXwX=._ : . > > 3 3 5 5 5 5 3 > : 4 +.wXrXwXwXrXrXrXwX*.=.@.+.[ ] _ 5 > : * * = u i P F.Y.U.C.Z.K.Y.&X&X&XD.R C.Y.!.F.Y I V.C.D.K.K.GXGXGXGXGXGXGXGXGXGX",
"GXGXGXGXGXGXGXGXD.C.R Y I Y Z.K.U.A.Y Z.Y.&X!.U.D.F.A.D.D.C.I p y = = * > 3 ( ] +.&.qXrXtXfXgXhXMXmXnXnXmXmXdX@.> 7 : : > > > > > > > : > ) wXMXNXmXmXmXmXMXhXdXsXrXwX*.@.[ _ 4 > , * = = i H R D.D.F.F.F.U.Y.&X!.F.Y V.K.U.A.R I I Y Z.F.D.GXGXGXGXGXGXGXGXGXGX",
"GXGXGXGXGXGXGXGXV.Y x c U R Z.Z.R Y I V.U.Y.D.Z.Z.D.U.F.R I P H p GXGX> > 4 _ ] [ +.&.qXwXtXsXdXhXnXMXmXVXBXhXqX) 3 : . : : : : : : : > ( @.sXNXBXNXmXMXhXgXfXtXrXwX*.@.[ { _ 4 3 > , GXGXx H P Y Z.D.U.A.V.A.U.Y.A.Y I Y R Z.Z.Y x a P R V.GXGXGXGXGXGXGXGXGXGX",
"GXGXGXGXGXGXGXH P x u u P Z.Z.Y P P Y V.D.K.Z.Y R F.K.Z.P p H P U GXGX> > 5 ( _ ) { +.@.*.qXwXyXsXgXhXMXNXBXnXwX[ 4 : X X X X X   X X > ) =.dXVXBXmXhXgXdXtXrXqX*.=.@.[ ) _ _ 4 3 > GXGXGXP P x H Y F.K.Z.Y R F.U.I.I.X.X.I.E.$X#XE.$.X.I.I.E.GXGXGXGXGXGXGXGXGX",
"GXGXGX) _ 4 4 z c i = u P V.R U x U R Z.A.C.R Y Y Z.C.Y x p H U I GXGX: : > 5 4 ( _ ] [ +.@.=.qXrXsXfXgXnXmXgXwX[ 4 > . . . . X X X 7 3 ) &.sXnXMXhXgXsXtXwX*.-.@.+.{ _ _ 4 4 3 > : GXGXGXI P x p P V.C.R I Y Z.I.E.wXrXtXsXkXcXMXMXzXdXtXuXeX=.+.] _ GXGXGXGXGX",
"GX} o.#.+.[ ' K z y = = x Y I c c P R V.R R Y I I I I H p p H U GXGXGXX . : > 5 4 ( _ { [ +.@.*.qXrXsXsXtXwX*.@.+.+.+.@.&.=.*.=.&.@.+.+.+.+.=.qXrXsXsXtXwX*.&.@.+.[ ] _ ( 4 3 > : X GXGXGXGXP p p c P I W W  .X.X.-.0X0X0XwXrXtXaXsXyXwX*.&.@.+.{ } ) ) GXGXGXGX",
"` { $.#XqX#X-.| K z = = i x c y y x I Y P H P P H p i i p p GXGXGXGXGX  X . > 3 4 ( _ ] [ +.@.&.*.qXwXwX@.) _ [ %.wXsXgXMXNXVXNXmXhXdXrX*.+.) _ [ *.wXwX*.=.@.+.[ { ) _ 4 5 > : X X GXGXGXGXGXp p p i z J ] [ +.+.+.| | | | { [ [ { ] _ _ _ ` ` ` ` ` _ _ GXGXGX",
"G.G.L.T.#XuXrX=.' v = # = y u = = a U P p i i c z = = = p H GXGXGXGXGXGXGXX : > 3 4 ( _ ] [ [ +.@.+.[ { ) _ { &.uXaXdXkXjXhXhXhXhXgXdXfXtXqX+._ _ ] [ +.@.+.+.[ { ) _ ( 4 > : . X GXGXGXGXGXGXp c c v v J ( / / v m 9.6.6.9.m v 4 4 4 2 > l t 1.1.1.m l 2 GXGXGX",
"oX.X X{.@X$XiXqX+._ , + + = = # # u x x y = = = = * + = i p GXGXGXGXGXGXGXGXX : > 3 4 4 _ ) ] { { ) 4 3 4 ] @.eXyXlXlXlXrXrXrXrXuXiXiXiXtXrX*.[ _ 5 5 ( ] { { ] _ ( 4 5 > : X X GXGXGXGXGXGXGXGXH K J ( 4 3 > > l <.w.i.i.e.9.b _ _ _ 5 3 n 3.r.t.w.3.t 0 l GXGX",
"OX*X>X,X:X=X@X#X-.} > X X * * + # = y y # +   X + * , < GXGXGXGXGXGXGXGXGXGXX X : > 3 5 4 _ _ _ 4 5 > 3 _ +.=.*.7X8X9X9X8X=.*.*.E.Q.f.Q.E.*.=.@.{ 4 > 3 4 ( _ _ ( 4 5 > : . X   GXGXGXGXGXGXGXGXGXGXJ 4 4 5 5 4 b 6.i.p.p.y.0.$.*.qXqX%.[ m 6.t.i.t.t.w.6.0.E.=.",
"XX*X,X2X1X>XoX@XI.| J 5 4 _ ) _ K ' ..| ` J 4 5 5 4 4 4 GXGXGXGXGXGXGXGXGXGX  X . : : > 3 5 4 3 > > > 5 _ [ +...o.6X6X6X6Xo.O.O. .6.t.6. .[ +.+.] 4 > > > > 5 4 5 > > : . X X GXGXGXGXGXGXGXGXGXGXGX4 5 3 5 / {  .0.s.a.p.y.Q.iXfXgXgXtXqXP.0.6.e.i.p.a.s.Q.E.eX",
"[.{.OX,X1X,X;X{.G.V. .+.7XyXtXyXtXkXnXcXkXtXuXqX&.+.{ ) _ _ GXGXGXGXGXGXGXGXGXGXX . . . : : : : : : > 5 4 4 ( J ~ ~ ^ ^ ~ ( _ _ b <.3.<.b / / ( 4 4 3 : : : : : : : . . . X GXGXGXGXGXGXGXGXGXGX_ C 5 > > > ) &.E.Q.s.a.p.y.~.kXnXCXCXhXtXqX$. .6.t.p.a.d.Q.iXaX",
"z.n.[.XX*X;X*X Xn.B.X.&.yXhXhXfXsXhXVXVXnXdXtXwX*.+.] _ ( ( GXGXGXGXGXGXGXGXGXGXX X X X X X X X . : > > > > > > > > > > > 2 2 2 < q q q < > > > > > > : . X X X X X X X X GXGXGXGXGXGXGXGXGXGX( ( 4 2 > > 5 } *.E.Q.s.p.i.y.~.kXnXmXMXgXtX0X#.| 9.e.i.p.d.Q.iXaX",
"g.c.v.M.[. X{.J.n.B. .-.tXnXhXrXqXtXgXgXsXrXqX&.+.] _ ( 4 4 GXGXGXGXGXGXGXGXGXGXX X X X X X X . : : : : , > > > > > > > 3 5 5 5 3 1 < < > > > > > : : : : . X X X X X X X GXGXGXGXGXGXGXGXGXGX4 4 5 > > 3 _ [ &.E.Q.s.u.r.e.W.iXdXdXfXtXeX=.#. .9.5.t.p.d.Q.E.eX",
"E E B.x.v.m.m.n.v.C.X.*.sXMXhXwX@.@.*.*.&.@.| { ) _ ( _ _ _ GXGXGXGXGXGXGXGXGXX : : > > 3 3 5 5 4 5 3 > 5 ( _ ] { [ +.&.=.*.#X*.*.&.@.+.[ ] ) _ 4 3 > 3 4 4 5 5 3 > > : : . X GXGXGXGXGXGXGXGX) _ 4 3 > 4 ] O.%.E.0.s.i.q.6.P.R.uXrXrXqX=.#.[ ` m ,.q.u.s.0.E.=.",
"&.$.X.B.c.k.x.k.x.A.E.wXdXMXgX*.[ ] { { [ [ [ [ { ] ) ] { { GXGXGXGXGXGXGXGXX . > 4 _ ) [ +.+.+.[ ] _ _ ] +.&.*.wXrXsXgXhXMXmXmXnXhXdXtXwXqX=.@.[ _ _ _ { [ +.+.[ ] _ ( 5 : X   GXGXGXGXGXGXGX[ { _ 4 5 _ { O.#.X.0.t.t.5.,.m | %.=.*.%.+.{ ) b n >.4.i.s.0.$.%.",
"wXqXR.I.Z.l.7.8.7.B.#XsXbXMXfX&.) ] +.=.wXrXtXtXwX*.+.[ { ] GXGXGXGXGXGXGXGX. > ( { +.=.wXtXsXrXqX&.@.@.=.qXrXtXfXgXMXCXBXBXBXBXBXVXmXhXdXsXtXwX*.@.@.@.*.wXsXsXrX*.@.o.) 5 : . GXGXGXGXGXGXGX] ) _ 4 4 ( ) } }  .0.t.r.2.>.n v ) { [ ] _ / 5 1 q >.2.r.t.0. .O.",
"tXtXrXwX$.W k k k Z.iXhXnXhXtX@.] +.qXtXhXmXmXnXdXwX&.[ ) _ GXGXGXGXGXGXGX4 > 5 _ [ @.qXrXdXhXfXrX*.=.&.*.wXrXtXsXgXhXnXMXmXmXmXmXMXnXgXfXsXtXrXqX=.&.*.qXtXgXgXsXwX=.+.] 4 > : GXGXGXGXGXGXGX_ _ ( 4 5 4 ( ` ` 9.6.e.5.,.e 0 > 2 4 4 4 5 > : + q r 2.w.e.9. .} ",
"dXfXsXtXR.| K v K $.fXMXFXfXwX#.[ *.sXnXBXZXVXhXsX*.+.) ( 4 GXGXGXGXGXyXwX+.( 5 4 ) { +.&.qXrXwX*.@.[ { [ +.@.=.*.qXwXwXwXwXwXwXwXwXwXqXR.*.&.@.+.{ [ +.&.qXwXwX*.@.[ ) 4 3 > : GXGXGXGXGXGXGX4 4 4 3 3 2 1 m 6.e.e.2.,.e 9 O + : > > : : . X + O e ,.q.e.9.b _ ",
"nXhXhXfXwXO._ ~ ) &.kXmXgXeX@.[ +.qXgXNXDXDXmXdXwX@.} 4 3 > GXGXGXGXtXrXwX&.] ( ( _ _ ) { +.@.+.[ ) ( 4 4 ( _ ) ] ] { { { { { { { { { { ] ) _ _ ( 4 4 _ { +.+.+.[ ) ( 5 > : : : GXGXGXGXGXGXGX> > > > > > > n 3.w.4.>.e 8 0 @ , > > > : : . X + O 9 >.q.e.<.z 2 ",
"NXmXnXgXwX[ 4 5 _ &.gXmXtX+.) _ [ qXkXMXmXMXdXwX&.{ 4 > : X GXGXGXdXsXrXqX=.+.[ { ] _ _ _ _ _ ( 4 3 > : : > > > > > > > 3 3 3 3 3 > > > > > > > > : > > 5 4 _ _ _ 4 5 > > : : 3 4 _ GXGXGXGXGX. . : : : : : q >.,.>.9 w l 5 :._ _ _ _ 4 3 > : + O 9 >.5.e.<.< : ",
"hXjXgXsX*.] 4 4 ) =.dXcXiXX.K J } %.uXsXfXsXrX*.[ ( > . . GXGXhXnXgXsXqX=.=.*.qXwXwXwXqX=.[ _ 4 > : : : : > > > 3 5 4 _ ) ] { { ] _ ( 4 3 > > > : : : : > 3 ( ) [ @.&.&.@.@.+.[ [ ] _ GXGXGXGXX X . ; : q t >.,.,.t q z _ [ @.*.*.*.&.+.{ _ 5 < @ 9 r 2.5.3.<.t ",
"rXrXwXqX@._ 5 ( [ qXfXkX$XG.B.W ' [ @.=.*.*.=.+.) 3 . o GXGXmXMXnXgXtX=.+.&.wXsXhXmXmXMXkXwX@.) 5 > : > 3 4 ( _ ] [ @.*.wXrXtXtXrXqX=.+.{ ) _ 4 5 > > : > 4 { &.rXdXhXhXhXgXsXwX=.+.) 4 4 GXGXGX. . : 0 <.e.w.4.,.m ` { @.*.yXfXgXfXsXwX*.+.) 5 0 8 e ,.4.q.w.w.",
"&.@.@.@.] 5 > ) =.wXaXtX$XH.m.G.G.X.] } { { ) 4 > : X o GXGXmXnXgXsXwX+.) [ *.tXhXNXBXBXNXhXsXqX[ _ 4 5 4 ) | &.qXtXfXgXnXmXmXNXmXnXgXsXrXqX@.[ _ 4 3 5 _ +.wXdXnXmXVXVXmXhXsXwX&.[ _ 4 5 GXGXGXGXq <.3.5.q.4.,.r m { @.0XrXdXhXMXMXhXsXqX@.{ v l 8 9 r ,.4.q.r.",
"{ ] ] ) 4 > > { qXrXuX#X@X[.[..X{.G.W J J v 1 * X X . GXGXGXMXhXfXrX=.{ ( _ +.qXtXhXmXNXVXVXmXgXwX@.] ( _ { @.qXtXgXnXmXBXBXZXZXZXBXNXnXdXrX*.@.] :.4 ) @.rXhXBXBXBXVXmXhXsXwX&.[ _ ( 4 5 GXGXGXGXGXi.r.q.2.>.e q b | &.qXtXfXhXMXMXhXsXqX@.[ _ l 8 8 e r ,.4.q.",
") _ ( 5 > > 5 +.wXuX7X-.I.}.oX*X;XoXG.B.G F u +   GXGXGXgXnXhXgXtXqX+.) 4 4 _ [ =.wXsXgXnXmXmXMXgXrX@.) ( _ ) [ =.wXsXgXhXMXmXmXmXnXgXsXwX=.+.) 4 4 _ @.rXhXVXZXBXNXMXgXtXqX@.{ ( 4 5 5 5 5 5 GXGXGXr.q.2.>.e 0 < v { @.=.qXrXsXfXdXsXwX&.+.] _ 1 < w 9 r ,.4.q.",
"( 4 3 : : > ( +.qX#X$.X.L.}.OX>X>X+X[.n.k.h s *   GXGXGXhXgXdXtXqX@.] / 3 2 2 4 ) +.=.eXyXsXgXhXgXsX*.[ _ 4 5 4 ) +.=.qXrXtXaXsXtXrXwX*.@.{ ( 5 3 4 [ wXgXmXVXVXmXhXsXwX*.+.] ( 5 3 4 ( ( J 4 GXGXGX4.2.>.e 8 @ 2 / ] [ @.=.qXwXrXrXwX*.+.{ ) ( 3 > @ 8 r ,.2.4.",
"3 3 : : , 4 ) +.&.$.C.G.[.XX*X;X*XoX[.n.j.g d GXGXGXGXGXdXsXrX*.+.) 4 > : : ; : 2 4 _ { +.&.*.wXrXrX*.@.] 4 > > 3 4 _ { [ +.@.@.@.+.+.{ _ 4 > : 5 ] =.tXgXhXhXdXsXuX*.@.[ ) ( 4 5 4 ) [ [ { ] GXGXGX,.>.r 9 8 < 3 / ) [ +.&.*.wXwXwXqX&.+.] _ ( 5 1 @ 8 9 r >.,.",
". : : : 3 _ [ o.[  .B.n.[.oXOXOXXX{.M.x.7.f d GXGXGXGXGXtXrX*.+._ 5 1 z i i i y * : , 3 4 _ ] ..@.=.*.&.[ ( 3 > : : > 3 4 4 ( ( ( ( 4 5 > > : > _ @.qXrXtXtXwXqX=.@.[ ) ( 5 3 1 z K | -.&.@.+.GXGXGXr r e 9 O < 2 4 _ } [ @.qXtXsXsXtXwX=.@.[ ) / 5 < 8 9 e e e ",
"o   7 3 _ { [ [ ' W B.v.J.{..X.X XJ.n.h.h f d GXGXGXGXGXwX*.+._ 5 1 z F x.z.z.G i * . * : , > 4 _ { +.@.+.) 4 > : + . . : : > > > > : : . : 2 ( [ *.qX*.&.+.[ ] ) _ 4 5 > > , u k l.I.#XeXqX*.GXGXGX9 9 9 8 O + > 3 4 _ ) +.qXfXhXhXjXsXrX*.@.[ _ 4 < 8 9 9 9 8 ",
"o   : ( ] [ [ ' U T z.m.J.[.[.[.m.n.k.j.g d d GXGXGXtXwX*.#.) 5 z p G v.J. X.X}.G.R U a i * 7 ; , 3 _ { [ ] _ 5 : X X X X X X X X X X X X : 4 ) [ +.+.[ ] _ 3 > > > : ; : y a F g.S.I.uXyXyXrXGXGXGXO O O @ @ : : > 5 :._ [ &.eXrXrXwXqX&.+.{ _ :.5 > # O O O GX",
"o X 3 ) { ' ' Y l.k.n.m.M.m.m.n.x.h.j.7.g d GXGXGXsXtXeX&.{ 4 1 a c.m.[.oX*X<X<X*X.X[.m.l.p * + * , 1 4 _ ) _ 5 : . X           X X X X X : 4 } ] _ _ ~ 4 1 , * * * * * y G z.n.z.G.#XtXfXfXsXGXGXGXo   . > > , , > 3 4 J _ ] [ ;.[ { } _ ( 4 3 3 2 : X o GXGXGX",
"GXGX_ { ' P j h j.g.k.k.k.k.k.h.g.7.g f f GXGXGXGXyXwX=.[ ` x j l.n.[..XOX,X2X2X,X>X*XoX[.b.F j k s = > 2 4 4 > : : GXGXGXGXGXGXGX. . . : > 5 / 4 3 2 > > = s k k F G b.G.H.[.N.m.L.$XdXgXdXsXqX+._ GXGX& % % % % 6 6 6 6 6 C C C C C C C N 6 6 6 6 % & $ GXGXGX",
"GXGX#.+.| W F F F F F F F F F F F j j j GXGXGXGXGXwXqX#.) K j g.z.m.[.oX*X,X2X2X1X,X>X*XoXJ.z.k.h.h s = , 1 > > : : GXGXGXGXGXGXGX: : : > 2 1 z 1 < = = = a l.z.n.H.[..XXXXXXX X[.}.%XiXfXdXtX*.+.[ GXGX% % M N B V V V B N N N N B V B N N V V V B N M % GXGXGX",
"@.@.=.*.R.R.E.$.|  .` K K v v J K `  .| GXGXGXGXGX*.=.[ ~ z j j.z.m.[.oX*X;X;X>X;X;X*XXX{.H.z.k.h.7.k s i 1 2 : . . GXGXGXGXGXGXGXX . > 4 v c k k s k k l.v.H.{.XX*X>X>X<X<X>X*XoX{.H.L.@XiXtX0X+.;.GXGXM N B A D (._._.(.).A B B V V B B A (._.(.S Z B N GXGXGX",
"+.@.*.wXwXqX*.=.&.+.) 4 5 5 5 4 ( } [ O.{ GXGXGXqX=.#.' z a k j.x.m.[.oX+XOXOXXXXXoX X[.H.n.x.g.7.g f d a v 5 > . GXGXGXGXGXGXGXGXX . 3 ) ' j d f 8.j.k.n.J. XOX<X1X2X2X2X1X,X>X*X.XN.n.T.iXtXqX@.+.GXGXB Z A /.(._.'.'.'.`.(.D A A A A S (.`.'._.(.D A Z GXGXGX",
"[ [ &.qX*.@.+.@.*.+.4 : : > 3 5 4 _ ] ] ) ) @.qXeX%.| K k d h j.x.m.[.{..XoX.X X[.[.m.n.x.k.j.7.g f f d a v / GXGXGXGXGXGXGXGXGXGXX : 4 [ ..I h 8.h.z.n.M.{.XX;X1X3X3X3X3X2X,X<X;XXX{.J.@XiXtXeX&.@.GXGXA S D )._.`.].].].].`._.).S A /.(._.'.].`._.).S S GXGXGX",
"+.+.@.&.+.) / _ ] _ > X X 7 : : > 3 4 J _ ] @.qX7X#.' x k f 8.j.x.n.m.H.J.J.J.M.m.n.z.k.h.7.g g f k T W K 1 3 GXGXGXGXGXGXGXGXGXGXX : / +.$.Y h g h.x.n.J. X+X;X,X2X3X3X3X2X,X<X;XOX X[.@XpXfXrXqX*.GXGXS S D ).(._.`.'.].].`._.(.S A ^._._.`.`._.(./.S S GXGXGX",
"@.@.@.+.] 5 > > > > : : : : : : . : > 5 _ [ @.*.&.o.` c k g 8.j.h.x.x.z.z.z.z.z.z.x.k.g.7.g f d d j  ...) > X GXGXGXGXGXGXGXGXGXGXX : ( @.$.E h g 7.h.v.M.{.XX*X>X,X2X3X3X2X,X<X;XXX{.[.@XpXjXsXuXwXGXGXA S S S S ).(._.`.`._._.).S A /.(._._.(.).S S A S GXGXGX",
"=.=.*.*.@.( 3 _ [ +.[ { [ +.] 5 > 4 ] [ [ +.@.=.@.{ _ c k f g g j.h.h.h.h.h.h.h.h.h.h.j.7.g d f f k K ) ( > GXGXGXGXGXGXGXGXGXGXGXX : ~ +.$.Y d f 8.h.x.n.[. XOX;X,X2X3X3X2X,X>XOX.X[.[.%XzXMXgXyXrXGXGXGXB V V Z S /.(._._._.(.).A Z S (.(.).D S Z V B B GXGXGX",
"&.*.wXtXqX[ _ @.wXrXqX*.qXrX*.{ ( { =.*.@.[ +.&.#.] v c k f f f g 7.7.7.j.j.j.j.j.7.j.7.7.g d d k j z 5 GXGXGXGXGXGXGXGXGXGXGXGXGXX : ~ [ ..E F h 7.j.h.z.m.[.oX*X,X1X3X3X2X,X;XXX X[.[.@XxXzXdXtXyXGXGX% M M N B Z A /.(.(._.(.^.A V S (.(.D A V B N N M GXGXGX",
"+.@.wXsXtX=.+.qXtXrX*.@.qXyXwX@.[ @.*.&.{ _ { +.[ _ 1 i d f f d f g g g g 7.j.7.h g g g f f d j W  .` GXGXGXGXGXGXGXGXGXGXGXGXGXGXGXGX_ [ #.R.E.I.F h j.x.n.M.{.XX;X,X,X1X1X,X>X*XXX{.J.H.K.T.$XsXrX#.C 6 % % M N B A S ).(.(.(.^.A A D ).).S A B N M % % GXGXGX",
"_ { &.rXrXwXqXrXtXwX@.[ &.wXwX=.@.*.qX=.} 4 ( ] ) 4 1 z j j T T h d d d d g g g f d d d d k j W ' { GXGXGXGXGXGXGXGXGXGXGXGXGXGXGXGXGXGX) O.eXtXE.T g 7.k.z.n.J. X+X;X<X,X,X,X>X*XXX X[.n.k.S.$XkXyX#.( 6 % % % M N B Z S /.^.^.S A A S /.S Z B N M % & & GXGXGX",
"> 5 _ [ =.rXsXsXwX&.{ _ [ *.*.@.@.R.rXqX] 5 3 4 5 > > v ' $.R.R.P.h d d d f f f f f d d k W | ] _ 4 GXGXGXGXGXGXGXGXGXGXGXGXGXGXGXGXGXGX4 ] =.uXE.T f g j.k.x.n.[..X*X<X,X,X,X;XXX.X X{.N.n.G.$XjXaX@._ 6 % & % % % % N B B Z A Z B B Z A V N % % % % & & GXGXGX",
". : > 5 ) &.qX=.+.] _ _ [ &.@.[ [ &.wX=._ > : > : . : 3 _ [ %.=.X.W E Z.P.I.I.I.T.T.T.T.E.uXuX*.+.] ] GXGXGXGXGXGXGXGXGXGXGXGXGXGXGXGXGX3 ( #.qXI.j f g j.h.x.n.J. XOX;X<X,X,X>XOXoX X{.M.n.L.$XzXfX&.' Q Q ! - & $ & % % M N N N N N N N N % $ $ & N ! Q GXGXGX",
"X . . . > 4 4 5 > 3 ( ) [ +.[ _ ( [ @.+.4 . X . X X   : 1 4 _ { +.-.R.wXrXfXkXzXnXMXCXCXmXMXhXsXqX&.[ } _ GXGXGXGXGXGXGXGXGXGXGXGXGXGXGX: 4 o.=.X.T h g j.h.x.n.J. XXX*X;X<X,X<X;XXX X[.n.v.L.pXcXdX&...@X=X|.! $ $ $ $ & % % % % % % % % % $ $ $ $ ! |.:XGXGXGX",
"GXX X X . . : . X : > 5 4 4 4 > > 4 _ _ 5 X X X X X X : 5 _ [ @.*.wXwX0X*.0XeXuXrXyXtXaXaXtXrX*.@.] ( 4 3 > GXGXGXGXGXGXGXGXGXGXGXGXGXGXGX4 [ -.R.E.I.B.h 7.g.x.m.[..XOX*X;X;X;XOXoX{.J.n.z.L.xXMXgX7X#.#X:X=X|.Q ! $ $ $ $ $ $ & & $ $ $ $ $ $ ! Q |.=XGXGXGXGX",
"GXGXGXX X X X     X . : : . . X . : : > GXGXGX  X X . > v { &.eXrXtXwX=.+.o.+.+.#.@.&.*.*.*.*.@.[ ) ( 5 5 5 5 GXGXGXGXGXGXGXGXGXGXGXGXGXGXGX[ +.qXsXiXI.h f 8.h.v.m.{.oXOX*X*XXXoX X[.M.n.z.L.xXCXgX7X+.GXGXGX;X|.Q - $ - - - - - - - - - $ $ - Q oX*XGXGXGXGXGX",
"GXGXGXGXGXGXGXGXGXGXGXGXGXGXGXGXGXGXGXGXGXGXGX  X X . > 4 ] @.qXwXrXrXwXwXwXrXtXsXdXgXhXhXnXhXhXdXtXwX*.+.{ ) GXGXGXGXGXGXGXGXGXGXGXGXGXGXGX) [ 0XdXdXI.h f 8.h.x.n.m.[.{..XoX.X{.[.m.n.z.h.S.$XcXdX=.{ GXGXGXGXGXG.b.G G G G G F F G G G G G b.H.GXGXGXGXGXGXGX",
"GXGXGXGXGXGXGXGXGXGXGXGXGXGXGXGXGXGXGXGXGXGXGX  X X . : 3 ( [ @.&.&.*.qXwXrXtXfXgXbXMXmXmXNXmXmXmXhXsXwX=.[ ) ( GXGXGXGXGXGXGXGXGXGXGXGXGXGX( ] *.gXkXI.h f 8.g.h.x.v.m.M.[.{.[.J.m.n.z.h.g.S.$XkXyX#._ GXGXGXGXGXGXN.N.J.M.m.n.z.z.n.m.M.N.N.N.GXGXGXGXGXGXGXGX",
"GXGXGXGXGXGXGXGXGXGXGXGXGXGXGXGXGXGXGXGXGXGXGXGXGXX . : > 3 4 _ _ _ ) ] { +.@.&.*.qXqXqXwXwXwXwXqX*.&.+.{ _ 5 > . GXGXGXGXGXGXGXGXGXGXGXGXGX( ) 7XjXzXT.h f 8.g.j.h.k.x.n.m.J.M.n.v.z.x.k.g.S.E.tXqX{ 4 GXGXGXGXGXGXGXGXGXGXGXGXGXGXGXGXGXGXGXGXGXGXGXGXGXGXGXGX",
"GXGXGXGXGXGXGXGXGXGXGXGXGXGXGXGXGXGXGXGXGXGXGXGXGXX X . : : > 3 5 4 _ ) [ +.@.=.*.*.qXwXrXrXtXtXrXwXqX*.+.] ( 3 : : GXGXGXGXGXGXGXGXGXGXGXGX3 ( %.sXpXI.h f g 7.j.j.g.h.x.z.n.v.x.k.k.k.h.g.l.I.qX%._ 3 GXGXGXGXGXGXGXGXGXGXGXGXGXGXGXGXGXGXGXGXGXGXGXGXGXGXGXGX",
"GXGXGXGXGXGXGXGXGXGXGXGXGXGXGXGXGXGXGXGXGXGXGXGXGXX X X X . : > 5 _ [ -.qXuXtXtXsXsXdXhXMXNXVXVXNXmXhXdXrX&.[ ( 5 3 GXGXGXGXGXGXGXGXGXGXGXGX: > ] qX#XP.h d f g 7.j.g.j.j.j.h.j.j.j.j.j.g.j.l.X.$.[ 4 > GXGXGXGXGXGXGXGXGXGXGXGXGXGXGXGXGXGXGXGXGXGXGXGXGXGXGXGX",
"GXGXGXGXGXGXGXGXGXGXGXGXGXGXGXGXGXGXGXGXGXGXGXGXGXGX  X X X : > 4 ) [ @.=.*.qXwXqXqXwXrXtXfXdXdXsXtXrXqX@.{ ( 5 > > GXGXGXGXGXGXGXGXGXGXGXGXX . 5 ] ..| E T h f f g g g g g 8.8.g g g g h T W ' ) ~ > : GXGXGXGXGXGXGXGXGXGXGXGXGXGXGXGXGXGXGXGXGXGXGXGXGXGXGXGX",
"GXGXGXGXGXGXGXGXGXGXGXGXGXGXGXGXGXGXGXGXGXGXGXGXGXGXGXGX  X : 3 ( ] [ [ [ +.@.@.+.+.+.+.@.=.*.=.@.+.[ ) 4 > : : . X GXGXGXGXGXGXGXGXGXGXGXGX  X . > ~ o.-.X.T h h h h h h l.l.l.h h h h U  .] _ 5 > : . GXGXGXGXGXGXGXGXGXGXGXGXGXGXGXGXGXGXGXGXGXGXGXGXGXGXGXGX",
"GXGXGXGXGXGXGXGXGXGXGXGXGXGXGXGXGXGXGXGXGXGXGXGXGXGXGXGX  X : > 4 ( ) { +.=.qXwXwXwXwXrXtXsXdXfXsXrX*.@.] 4 > : . X GXGXGXGXGXGXGXGXGXGXGXGX    X . > _ [ ..| X.I.I.E.$X$XpXxXpXiX$XE.I.| ' _ 4 > : : . GXGXGXGXGXGXGXGXGXGXGXGXGXGXGXGXGXGXGXGXGXGXGXGXGXGXGXGX",
"GXGXGXGXGXGXGXGXGXGXGXGXGXGXGXGXGXGXGXGXGXGXGXGXGXGXGXGX  X . : > 4 _ [ &.qXrXtXtXtXsXfXgXhXMXnXhXsXwX=.[ _ 5 : . X GXGXGXGXGXGXGXGXGXGXGXGX    X   : 2 ( ] +.=.qXwXsXhXmXVXBXBXmXhXsXwX-.{ _ 4 5 > > : GXGXGXGXGXGXGXGXGXGXGXGXGXGXGXGXGXGXGXGXGXGXGXGXGXGXGXGX",
"GXGXGXGXGXGXGXGXGXGXGXGXGXGXGXGXGXGXGXGXGXGXGXGXGXGXGXGXGXGXX : > 4 ) @.*.*.&.&.&.&.=.*.*.qXwXqX=.+.{ _ 4 3 > . X   GXGXGXGXGXGXGXGXGXGXGXGXGXGX  X X : > 4 ) [ @.*.rXfXgXFXnXbXgXsXuX*.+.{ _ _ ( 4 4 5 GXGXGXGXGXGXGXGXGXGXGXGXGXGXGXGXGXGXGXGXGXGXGXGXGXGXGXGX",
"GXGXGXGXGXGXGXGXGXGXGXGXGXGXGXGXGXGXGXGXGXGXGXGXGXGXGXGXGXGXX . > 4 ] +.@.+.[ { [ @.@.=.*.qXqX*.+.{ _ 4 3 > : X X GXGXGXGXGXGXGXGXGXGXGXGXGXGXGXGX  X : > 5 _ [ @.qXrXfXhXhXnXhXdXsXrX*.@.+.{ ] ) _ 4 4 GXGXGXGXGXGXGXGXGXGXGXGXGXGXGXGXGXGXGXGXGXGXGXGXGXGXGXGX",
"GXGXGXGXGXGXGXGXGXGXGXGXGXGXGXGXGXGXGXGXGXGXGXGXGXGXGXGXGXGXX . > ( ) ) ) _ ) [ @.qXrXsXgXhXhXdXrX*.+.] 4 > : GXGXGXGXGXGXGXGXGXGXGXGXGXGXGXGXGXGXGXGX> 5 ( { @.qXtXgXmXVXBXVXmXnXgXsXtXqX=.+.[ { _ 4 3 GXGXGXGXGXGXGXGXGXGXGXGXGXGXGXGXGXGXGXGXGXGXGXGXGXGXGXGX",
"GXGXGXGXGXGXGXGXGXGXGXGXGXGXGXGXGXGXGXGXGXGXGXGXGXGXGXGXGXGXX . > 4 ( v ( ) [ +.@.&.*.qXrXtXtXwX=.+.{ _ 5 > : GXGXGXGXGXGXGXGXGXGXGXGXGXGXGXGXGXGXGXGX3 5 ( ] @.qXtXgXnXMXMXhXgXsXrXwX*.&.+.[ { ) ( 5 > GXGXGXGXGXGXGXGXGXGXGXGXGXGXGXGXGXGXGXGXGXGXGXGXGXGXGXGX",
"GXGXGXGXGXGXGXGXGXGXGXGXGXGXGXGXGXGXGXGXGXGXGXGXGXGXGXGXGXGX  X : 3 4 4 ( [ @.@.[ ) ) ] ] { { ] _ 4 3 > : . X GXGXGXGXGXGXGXGXGXGXGXGXGXGXGXGXGXGXGXGX> 3 4 ) +.*.rXsXdXdXsXrXqX=.+.[ ) _ _ _ ( 4 5 > > GXGXGXGXGXGXGXGXGXGXGXGXGXGXGXGXGXGXGXGXGXGXGXGXGXGXGXGX",
"GXGXGXGXGXGXGXGXGXGXGXGXGXGXGXGXGXGXGXGXGXGXGXGXGXGXGXGXGXGX  X . , 3 4 _ ) { ] _ 4 _ [ @.=.*.=.@.{ 4 > . X X GXGXGXGXGXGXGXGXGXGXGXGXGXGXGXGXGXGXGX4 4 ( ) [ &.wXsXgXnXnXhXfXtXeX=.+.{ ) _ ( 4 3 > : : GXGXGXGXGXGXGXGXGXGXGXGXGXGXGXGXGXGXGXGXGXGXGXGXGXGXGXGX",
"GXGXGXGXGXGXGXGXGXGXGXGXGXGXGXGXGXGXGXGXGXGXGXGXGXGXGXGXGXGX  X X : > 4 _ 4 3 3 5 ( [ *.rXdXgXdXtX*.{ 5 : X   GXGXGXGXGXGXGXGXGXGXGXGXGXGXGXGXGXGX4 4 ( _ { @.*.rXfXhXmXmXmXhXdXtXwX*.@.[ ] _ 5 > : . . GXGXGXGXGXGXGXGXGXGXGXGXGXGXGXGXGXGXGXGXGXGXGXGXGXGXGXGX",
"GXGXGXGXGXGXGXGXGXGXGXGXGXGXGXGXGXGXGXGXGXGXGXGXGXGXGXGXGXGXGXGXX . : 3 4 3 > > ( [ *.tXhXmXNXnXfXwX@.{ ( GXGXGXGXGXGXGXGXGXGXGXGXGXGXGXGXGXGXGXGX> 3 5 ( ) [ @.*.rXtXsXsXsXtXrXwXqX*.&.+.[ ) 4 > : . X GXGXGXGXGXGXGXGXGXGXGXGXGXGXGXGXGXGXGXGXGXGXGXGXGXGXGXGX",
"GXGXGXGXGXGXGXGXGXGXGXGXGXGXGXGXGXGXGXGXGXGXGXGXGXGXGXGXGXGXGXGXGXX 7 > 3 > : > _ +.qXsXhXmXmXhXsXqX@.+.[ GXGXGXGXGXGXGXGXGXGXGXGXGXGXGXGXGXGXGX: : > 5 ( ) [ @.*.wXwXwXwXqX*.&.@.@.@.@.+.[ } ( 3 : . X GXGXGXGXGXGXGXGXGXGXGXGXGXGXGXGXGXGXGXGXGXGXGXGXGXGXGXGX",
"GXGXGXGXGXGXGXGXGXGXGXGXGXGXGXGXGXGXGXGXGXGXGXGXGXGXGXGXGXGXGXGXGXX X : > > : > ( { @.qXrXsXsXtXqX@.[ ) _ GXGXGXGXGXGXGXGXGXGXGXGXGXGXGXGXGXGX: : > 3 ( ] +.*.wXtXsXsXtXwX*.@.+.{ ] ] { { ] _ 4 3 : . X GXGXGXGXGXGXGXGXGXGXGXGXGXGXGXGXGXGXGXGXGXGXGXGXGXGXGXGX",
"GXGXGXGXGXGXGXGXGXGXGXGXGXGXGXGXGXGXGXGXGXGXGXGXGXGXGXGXGXGXGXGXGXX X : > > : 3 ( { @.eXtXsXfXtXwX&.{ _ 4 GXGXGXGXGXGXGXGXGXGXGXGXGXGXGXGXGX: : > 3 ( ] @.qXtXdXhXMXnXgXsXrXqX@.[ ) _ _ _ ( 4 5 > : . X GXGXGXGXGXGXGXGXGXGXGXGXGXGXGXGXGXGXGXGXGXGXGXGXGXGXGXGX",
"GXGXGXGXGXGXGXGXGXGXGXGXGXGXGXGXGXGXGXGXGXGXGXGXGXGXGXGXGXGXGXGXGX: : : > > > 4 ) +.qXfXhXmXmXhXfXwX+._ 4 GXGXGXGXGXGXGXGXGXGXGXGXGXGXGXGXGX: > 3 4 ) +.*.tXgXMXVXBXBXVXmXhXsXwX@.[ _ 4 5 5 1 > : . X X GXGXGXGXGXGXGXGXGXGXGXGXGXGXGXGXGXGXGXGXGXGXGXGXGXGXGXGX",
"GXGXGXGXGXGXGXGXGXGXGXGXGXGXGXGXGXGXGXGXGXGXGXGXGXGXGXGXGXGXGXGXGX[ { ] _ ( 4 _ [ &.rXhXNXBXBXVXnXsX&.] ( GXGXGXGXGXGXGXGXGXGXGXGXGXGXGXGXGX: > 3 ( { +.*.rXsXhXmXVXBXVXmXjXsXrXqX@.{ ( 5 > : : : . X GXGXGXGXGXGXGXGXGXGXGXGXGXGXGXGXGXGXGXGXGXGXGXGXGXGXGXGXGX",
"GXGXGXGXGXGXGXGXGXGXGXGXGXGXGXGXGXGXGXGXGXGXGXGXGXGXGXGXGXGXGXGXGXrXwXqX&.[ ] ] +.*.tXhXVXBXZXBXmXdX*.[ { GXGXGXGXGXGXGXGXGXGXGXGXGXGXGXGXGX: > 5 _ { +.@.*.wXtXdXhXnXhXgXsXrXwXwX*.+.) 4 > : . . X GXGXGXGXGXGXGXGXGXGXGXGXGXGXGXGXGXGXGXGXGXGXGXGXGXGXGXGXGXGX",
"GXGXGXGXGXGXGXGXGXGXGXGXGXGXGXGXGXGXGXGXGXGXGXGXGXGXGXGXGXGXGXMXhXgXsXrX*.+.] ) [ @.eXfXhXMXMXbXdXyXqX=.qXsXGXGXGXGXGXGXGXGXGXGXGXGXGXGXGXGX: > 5 _ { [ [ @.*.qXtXsXsXtXrXqX=.&.@.@.+.{ ( 3 : . . X GXGXGXGXGXGXGXGXGXGXGXGXGXGXGXGXGXGXGXGXGXGXGXGXGXGXGXGXGXGX",
"GXGXGXGXGXGXGXGXGXGXGXGXGXGXGXGXGXGXGXGXGXGXGXGXGXGXGXGXGXGXhXnXhXgXsXwX*.[ _ ( ) [ =.iXpXkXjXkXpXuX#X*.wXsXdXGXGXGXGXGXGXGXGXGXGXGXGXGXGXGX: > 5 _ { [ [ @.*.wXtXfXsXrXwX*.@.[ { ] ] ] _ 3 : . . X GXGXGXGXGXGXGXGXGXGXGXGXGXGXGXGXGXGXGXGXGXGXGXGXGXGXGXGXGXGX",
"GXGXGXGXGXGXGXGXGXGXGXGXGXGXGXGXGXGXGXGXGXGXGXGXGXGXGXGXtXtXfXfXsXtXwX*.@.] 4 4 ~ ' #X-X5X4XvX4X5X-X#X@.&.wXtXfXgXGXGXGXGXGXGXGXGXGXGXGXGXGX: : > 4 _ [ =.wXsXgXmXVXVXMXgXrX*.+._ 4 ( ( 4 3 > : . X GXGXGXGXGXGXGXGXGXGXGXGXGXGXGXGXGXGXGXGXGXGXGXGXGXGXGXGXGXGX",
"GXGXGXGXGXGXGXGXGXGXGXGXGXGXGXGXGXGXGXGXGXGXGXGXGXGXGXrXwXwXwXwXqXqX=.+.{ ( 3 > 2 J I.=X<X1X2X1X<X=XI.{ [ @.qXyXsXdXGXGXGXGXGXGXGXGXGXGXGXGX. : > 3 _ +.*.rXfXhXNXBXBXmXhXsXqX+._ 4 5 5 5 3 > : . GXGXGXGXGXGXGXGXGXGXGXGXGXGXGXGXGXGXGXGXGXGXGXGXGXGXGXGXGXGXGX",
"GXGXGXGXGXGXGXGXGXGXGXGXGXGXGXGXGXGXGXGXGXGXGXGXGXfXsXwX*.@.@.+.+.+.[ _ 4 > : 7 : 1 I H..XOX;X*X+X}.Q ( ( ] +.*.wXwXGXGXGXGXGXGXGXGXGXGXGXGXX . > 4 ) [ &.*.wXtXfXgXkXsXtXwX*.@.) 4 3 > > > > > GXGXGXGXGXGXGXGXGXGXGXGXGXGXGXGXGXGXGXGXGXGXGXGXGXGXGXGXGXGXGXGX",
"GXGXGXGXGXGXGXGXGXGXGXGXGXGXGXGXGXGXGXGXGXGXGXGXGXpX-X#X-.[ } _ _ _ 4 3 : . X   X * a c.m.{..X X[.G.U 5 3 4 _ [ &.*.eXGXGXGXGXGXGXGXGXGXGXGXGX. > ( _ ] [ [ +.+.@.&.&.@.@.@.@.[ ) ( 3 : : : : GXGXGXGXGXGXGXGXGXGXGXGXGXGXGXGXGXGXGXGXGXGXGXGXGXGXGXGXGXGXGXGXGX",
"GXGXGXGXGXGXGXGXGXGXGXGXGXGXGXGXGXGXGXGXGXGXGXGXGX*X=X@X..} ~ 3 > > : X X X X     X u h k.n.M.m.v.l.c , : > 3 _ [ &.wXrXGXGXGXGXGXGXGXGXGXGXGXGXGX( ( ( 4 4 4 5 4 4 4 4 4 _ _ ) _ 4 > : X . . GXGXGXGXGXGXGXGXGXGXGXGXGXGXGXGXGXGXGXGXGXGXGXGXGXGXGXGXGXGXGXGXGX",
"GXGXGXGXGXGXGXGXGXGXGXGXGXGXGXGXGXGXGXGXGXGXGXGX>X+X{.G.` 4 > : . X X               + = s F c.F a u * * ; : > 3 _ X.%X-XGXGXGXGXGXGXGXGXGXGXGXGXGX4 5 3 1 3 5 4 _ _ _ ( 4 4 5 4 4 4 > . X X X GXGXGXGXGXGXGXGXGXGXGXGXGXGXGXGXGXGXGXGXGXGXGXGXGXGXGXGXGXGXGXGXGX",
"GXGXGXGXGXGXGXGXGXGXGXGXGXGXGXGXGXGXGXGXGXGXGX,X*X XH.Y z , ; X X X                     # k h s + X   . 7 : , > v G.=X,XGXGXGXGXGXGXGXGXGXGXGXGXGX> > > > 5 _ [ @.*.*.@.[ ( > > 3 3 : . X X X GXGXGXGXGXGXGXGXGXGXGXGXGXGXGXGXGXGXGXGXGXGXGXGXGXGXGXGXGXGXGXGXGX",
"GXGXGXGXGXGXGXGXGXGXGXGXGXGXGXGXGXGXGXGXGXGXGXOX.XM.c.j 1 : 7 X X GXGXGXGXGXGXGXGXGXGXGXGXGXGXGXGXGXGXGX; : < c R }.=X>XGXGXGXGXGXGXGXGXGXGXGXGXGX: : : > _ @.wXfXhXhXfXwX[ 4 > > : : . X X X GXGXGXGXGXGXGXGXGXGXGXGXGXGXGXGXGXGXGXGXGXGXGXGXGXGXGXGXGXGXGXGXGX",
"GXGXGXGXGXGXGXGXGXGXGXGXGXGXGXGXGXGXGXGXGXGXGX[.M.x.h s < : 7 . GXGXGXGXGXGXGXGXGXGXGXGXGXGXGXGXGXGXGXGXGX: z F x.H. XXXGXGXGXGXGXGXGXGXGXGXGXGXGX: : : > ) *.sXMXBXBXmXsX&.( > : : . . X X   GXGXGXGXGXGXGXGXGXGXGXGXGXGXGXGXGXGXGXGXGXGXGXGXGXGXGXGXGXGXGXGXGX",
"GXGXGXGXGXGXGXGXGXGXGXGXGXGXGXGXGXGXGXGXGXGXGXn.x.j.g d GXGXGXGXGXGXGXGXGXGXGXGXGXGXGXGXGXGXGXGXGXGXGXGXGXGXGXk h h.n.m.GXGXGXGXGXGXGXGXGXGXGXGXGXGXGX: > _ =.tXgXMXMXhXtX&._ 3 : . X X X X   GXGXGXGXGXGXGXGXGXGXGXGXGXGXGXGXGXGXGXGXGXGXGXGXGXGXGXGXGXGXGXGXGX",
"GXGXGXGXGXGXGXGXGXGXGXGXGXGXGXGXGXGXGXGXGXGXGXh.j.g f GXGXGXGXGXGXGXGXGXGXGXGXGXGXGXGXGXGXGXGXGXGXGXGXGXGXGXGXGXf h j.j.GXGXGXGXGXGXGXGXGXGXGXGXGXGXGX7 > ( +.*.wXrXyXrX*.+._ 3 : . X X X     GXGXGXGXGXGXGXGXGXGXGXGXGXGXGXGXGXGXGXGXGXGXGXGXGXGXGXGXGXGXGXGXGX",
"GXGXGXGXGXGXGXGXGXGXGXGXGXGXGXGXGXGXGXGXGXGXGXg g GXGXGXGXGXGXGXGXGXGXGXGXGXGXGXGXGXGXGXGXGXGXGXGXGXGXGXGXGXGXGXGXGXg g GXGXGXGXGXGXGXGXGXGXGXGXGXGXGX: : 3 ( ) [ +.+.+.[ ) 4 3 > : X X   GXGXGXGXGXGXGXGXGXGXGXGXGXGXGXGXGXGXGXGXGXGXGXGXGXGXGXGXGXGXGXGXGXGXGX",
"GXGXGXGXGXGXGXGXGXGXGXGXGXGXGXGXGXGXGXGXGXGXGXGXGXGXGXGXGXGXGXGXGXGXGXGXGXGXGXGXGXGXGXGXGXGXGXGXGXGXGXGXGXGXGXGXGXGXGXGXGXGXGXGXGXGXGXGXGXGXGXGXGXGX[ 5 : > 5 ( { +.=.*.*.@.[ ) 4 > . X . > GXGXGXGXGXGXGXGXGXGXGXGXGXGXGXGXGXGXGXGXGXGXGXGXGXGXGXGXGXGXGXGXGXGX",
"GXGXGXGXGXGXGXGXGXGXGXGXGXGXGXGXGXGXGXGXGXGXGXGXGXGXGXGXGXGXGXGXGXGXGXGXGXGXGXGXGXGXGXGXGXGXGXGXGXGXGXGXGXGXGXGXGXGXGXGXGXGXGXGXGXGXGXGXGXGXGXGXGX*.@._ 2 > 4 ) @.wXtXdXdXsXwX=.[ _ > : > 4 _ GXGXGXGXGXGXGXGXGXGXGXGXGXGXGXGXGXGXGXGXGXGXGXGXGXGXGXGXGXGXGXGXGX",
"GXGXGXGXGXGXGXGXGXGXGXGXGXGXGXGXGXGXGXGXGXGXGXGXGXGXGXGXGXGXGXGXGXGXGXGXGXGXGXGXGXGXGXGXGXGXGXGXGXGXGXGXGXGXGXGXGXGXGXGXGXGXGXGXGXGXGXGXGXGXGXGXGXrXqX[ _ _ [ =.rXdXnXmXNXmXhXsXwX&.{ _ _ [ &.rXgXhXgXdXGXGXGXGXGXGXGXGXGXGXGXGXGXGXGXGXGXGXGXGXGXGXGXGXGXGXGXGX",
"GXGXGXGXGXGXGXGXGXGXGXGXGXGXGXGXGXGXGXGXGXGXGXGXGXGXGXGXGXGXGXGXGXGXGXGXGXGXGXGXGXGXGXGXGXGXGXGXGXGXGXGXGXGXGXGXGXGXGXGXGXGXGXGXGXGXGXGXGXGXGXGXGXsXwX@.{ ;.*.yXgXMXVXDXZXBXNXbXfXrX&.[ +.=.wXsXgXgXfXsXsXGXGXGXGXGXGXGXGXGXGXGXGXGXGXGXGXGXGXGXGXGXGXGXGXGXGXGX",
"GXGXGXGXGXGXGXGXGXGXGXGXGXGXGXGXGXGXGXGXGXGXGXGXGXGXGXGXGXGXGXGXGXGXGXGXGXGXGXGXGXGXGXGXGXGXGXGXGXGXGXGXGXGXGXGXGXGXGXGXGXGXGXGXGXGXGXGXGXGXGXmXgXtXqX#.{ +.qXtXgXnXmXVXVXNXMXgXsXeX@.{ [ =.wXtXsXtXrXrXtXfXGXGXGXGXGXGXGXGXGXGXGXGXGXGXGXGXGXGXGXGXGXGXGXGXGXGX",
"GXGXGXGXGXGXGXGXGXGXGXGXGXGXGXGXGXGXGXGXGXGXGXGXGXGXGXGXGXGXGXGXGXGXGXGXGXGXGXGXGXGXGXGXGXGXGXGXGXGXGXGXGXGXGXGXGXGXGXGXGXGXGXGXGXGXGXGXGXGXhXhXsXwX&.[ ] [ *.rXpXcXcXcXcXcXcXpXuX=.[ _ ] @.*.qXqXqX*.*.wXtXiXGXGXGXGXGXGXGXGXGXGXGXGXGXGXGXGXGXGXGXGXGXGXGXGXGX",
"GXGXGXGXGXGXGXGXGXGXGXGXGXGXGXGXGXGXGXGXGXGXGXGXGXGXGXGXGXGXGXGXGXGXGXGXGXGXGXGXGXGXGXGXGXGXGXGXGXGXGXGXGXGXGXGXGXGXGXGXGXGXGXGXGXGXGXGXgXdXsXrXqX@.[ _ ( } #.#X-X5X4X4X4X4X5X-X#XO._ 4 ( ] [ +.+.[ { [ @.*.#X@X.XGXGXGXGXGXGXGXGXGXGXGXGXGXGXGXGXGXGXGXGXGXGXGX",
"GXGXGXGXGXGXGXGXGXGXGXGXGXGXGXGXGXGXGXGXGXGXGXGXGXGXGXGXGXGXGXGXGXGXGXGXGXGXGXGXGXGXGXGXGXGXGXGXGXGXGXGXGXGXGXGXGXGXGXGXGXGXGXGXGXGXGXGXxXpX#X&.O.) ( 5 3 4 ) ..@X=X<X1X2X<X*X@XX.) 5 > > 5 4 4 4 4 4 / } ..X.G.J. XGXGXGXGXGXGXGXGXGXGXGXGXGXGXGXGXGXGXGXGXGXGX",
"GXGXGXGXGXGXGXGXGXGXGXGXGXGXGXGXGXGXGXGXGXGXGXGXGXGXGXGXGXGXGXGXGXGXGXGXGXGXGXGXGXGXGXGXGXGXGXGXGXGXGXGXGXGXGXGXGXGXGXGXGXGXGXGXGXGXGXGX*X=XI.' ( 5 > : . : > v R H.oX>X>XXX[.G.L 4 > * . . . . . : : > 5 _ K F x.[.XX*XGXGXGXGXGXGXGXGXGXGXGXGXGXGXGXGXGXGXGXGX",
"GXGXGXGXGXGXGXGXGXGXGXGXGXGXGXGXGXGXGXGXGXGXGXGXGXGXGXGXGXGXGXGXGXGXGXGXGXGXGXGXGXGXGXGXGXGXGXGXGXGXGXGXGXGXGXGXGXGXGXGXGXGXGXGXGXGXGXGX[.H.W 5 > : . X X   . * j x.M. X.XJ.z.G z 3 : X X X X X X X X . : > y k j.n.[.{.GXGXGXGXGXGXGXGXGXGXGXGXGXGXGXGXGXGXGXGX",
"GXGXGXGXGXGXGXGXGXGXGXGXGXGXGXGXGXGXGXGXGXGXGXGXGXGXGXGXGXGXGXGXGXGXGXGXGXGXGXGXGXGXGXGXGXGXGXGXGXGXGXGXGXGXGXGXGXGXGXGXGXGXGXGXGXGXGXGXx.l.p , . X           + s j.z.n.m.z.g.j z > 7 X               X   . = s g j.k.x.GXGXGXGXGXGXGXGXGXGXGXGXGXGXGXGXGXGXGXGX",
"GXGXGXGXGXGXGXGXGXGXGXGXGXGXGXGXGXGXGXGXGXGXGXGXGXGXGXGXGXGXGXGXGXGXGXGXGXGXGXGXGXGXGXGXGXGXGXGXGXGXGXGXGXGXGXGXGXGXGXGXGXGXGXGXGXGXGXGXh h k GXGXGXGXGXGXGXGXGXGXGXj.j.j.j.GXGXGXGXGXGXGXGXGXGXGXGXGXGXGXGXGXGXGXg h h GXGXGXGXGXGXGXGXGXGXGXGXGXGXGXGXGXGXGXGX",
"GXGXGXGXGXGXGXGXGXGXGXGXGXGXGXGXGXGXGXGXGXGXGXGXGXGXGXGXGXGXGXGXGXGXGXGXGXGXGXGXGXGXGXGXGXGXGXGXGXGXGXGXGXGXGXGXGXGXGXGXGXGXGXGXGXGXGXGXd d GXGXGXGXGXGXGXGXGXGXGXGXGXd d GXGXGXGXGXGXGXGXGXGXGXGXGXGXGXGXGXGXGXGXd d d GXGXGXGXGXGXGXGXGXGXGXGXGXGXGXGXGXGXGXGX"
};
