/* XPM */
static const char *bos2e7[] = {
/* columns rows colors chars-per-pixel */
"128 128 255 2 ",
"   c #0D0D0D",
".  c #050708",
"X  c #0D1909",
"o  c #19150D",
"O  c #0E1112",
"+  c #141414",
"@  c #1C1C1C",
"#  c #191716",
"$  c #120E0E",
"%  c #390909",
"&  c #231A0D",
"*  c #261A0D",
"=  c #241A14",
"-  c #331917",
";  c #2F110A",
":  c #14280C",
">  c #1C3A14",
",  c #182D11",
"<  c #282217",
"1  c #3D2B1A",
"2  c #362715",
"3  c #2B3212",
"4  c #1A1A2A",
"5  c #1D2121",
"6  c #232323",
"7  c #2B2B2B",
"8  c #292827",
"9  c #372A26",
"0  c #333334",
"q  c #3B3C3C",
"w  c #3A3636",
"e  c #30322D",
"r  c #440202",
"t  c #4B0101",
"y  c #490C09",
"u  c #540101",
"i  c #5A0403",
"p  c #4B1818",
"a  c #501910",
"s  c #690202",
"d  c #760101",
"f  c #781819",
"g  c #641714",
"h  c #4A240A",
"j  c #562507",
"k  c #432E1B",
"l  c #48351C",
"z  c #523B1D",
"x  c #4F3510",
"c  c #682905",
"v  c #742B00",
"b  c #752B00",
"n  c #7B3403",
"m  c #6B3510",
"M  c #483725",
"N  c #573C21",
"B  c #483936",
"V  c #512D2D",
"C  c #703631",
"Z  c #1E4819",
"A  c #234819",
"S  c #27551E",
"D  c #334D19",
"F  c #2A5A21",
"G  c #384C33",
"H  c #2D6324",
"J  c #336828",
"K  c #38772C",
"L  c #3B7C31",
"P  c #4E4D17",
"I  c #6F4C12",
"U  c #5C4223",
"Y  c #504638",
"T  c #684727",
"R  c #754C2A",
"E  c #7A522D",
"W  c #6F5231",
"Q  c #4F6C2A",
"!  c #6F6D29",
"~  c #5F631C",
"^  c #353550",
"/  c #3E4343",
"(  c #434343",
")  c #4C4C4C",
"_  c #494748",
"`  c #535353",
"'  c #5C5C5C",
"]  c #575858",
"[  c #54504C",
"{  c #645C59",
"}  c #704E4A",
"|  c #5F6363",
" . c #646464",
".. c #6B6C6C",
"X. c #696766",
"o. c #737474",
"O. c #7C7B7C",
"+. c #7B7675",
"@. c #736D6C",
"#. c #5E635D",
"$. c #403F40",
"%. c #830101",
"&. c #890404",
"*. c #9C0101",
"=. c #950201",
"-. c #8F1614",
";. c #AB0101",
":. c #A40303",
">. c #B70303",
",. c #AB1818",
"<. c #823C05",
"1. c #813E0D",
"2. c #853416",
"3. c #92302F",
"4. c #AB2D2D",
"5. c #C30202",
"6. c #CB0404",
"7. c #D40000",
"8. c #DB0202",
"9. c #D01414",
"0. c #E40000",
"q. c #EB0101",
"w. c #F80101",
"e. c #EB1A1A",
"r. c #CD3535",
"t. c #EE2C2C",
"y. c #8A4508",
"u. c #8D4B0B",
"i. c #864307",
"p. c #914E0C",
"a. c #94520E",
"s. c #875716",
"d. c #9B5B13",
"f. c #985712",
"g. c #8A4B13",
"h. c #9E6215",
"j. c #9B701E",
"k. c #A56B19",
"l. c #A26617",
"z. c #AB741D",
"x. c #AE7A1F",
"c. c #875833",
"v. c #8D542A",
"b. c #A74D35",
"n. c #98633A",
"m. c #8E702E",
"M. c #B17E21",
"N. c #AB752E",
"B. c #8C554C",
"V. c #A84E4D",
"C. c #906B50",
"Z. c #A86D42",
"A. c #B57447",
"S. c #A77754",
"D. c #8D7370",
"F. c #A6716B",
"G. c #D25252",
"H. c #E74D4D",
"J. c #D96E6E",
"K. c #3D8432",
"L. c #3B802F",
"P. c #428C36",
"I. c #47963B",
"U. c #528B34",
"Y. c #698C36",
"T. c #4BA13F",
"R. c #4DA442",
"E. c #51AA44",
"W. c #56B74B",
"Q. c #4FB146",
"!. c #748F6F",
"~. c #62B155",
"^. c #5CC351",
"/. c #5ECA55",
"(. c #5AC14F",
"). c #63D45A",
"_. c #65DB5D",
"`. c #65D65A",
"'. c #67CD55",
"]. c #6AE462",
"[. c #6DEB65",
"{. c #67E964",
"}. c #72F56A",
"|. c #75FC6E",
" X c #7CF368",
".X c #75F469",
"XX c #67E25F",
"oX c #B78726",
"OX c #BD922B",
"+X c #B08E32",
"@X c #9A9935",
"#X c #C2982E",
"$X c #C59D34",
"%X c #C0863B",
"&X c #CAA838",
"*X c #D2B13D",
"=X c #8C8578",
"-X c #B0935A",
";X c #D6B942",
":X c #CCB649",
">X c #C88D6F",
",X c #C69246",
"<X c #91EB63",
"1X c #A5D655",
"2X c #DBC44A",
"3X c #D0CD51",
"4X c #E3CC4D",
"5X c #E9D855",
"6X c #E6D350",
"7X c #F1E45C",
"8X c #F4EB63",
"9X c #FBF668",
"0X c #FEFD70",
"qX c #D5E562",
"wX c #474AAB",
"eX c #7E8484",
"rX c #838383",
"tX c #8B8B8C",
"yX c #898888",
"uX c #949494",
"iX c #9C9C9C",
"pX c #979A9A",
"aX c #948D8A",
"sX c #A69A98",
"dX c #B1958F",
"fX c #9CA2A4",
"gX c #A3A3A4",
"hX c #ABABAB",
"jX c #A7A8A8",
"kX c #B3B3B3",
"lX c #BCBCBC",
"zX c #B6B8B7",
"xX c #B1B0AF",
"cX c #ADA19B",
"vX c #CF8F8F",
"bX c #D0B3AE",
"nX c #E8AEAE",
"mX c #DF9C97",
"MX c #D3C7B9",
"NX c #BEC2C2",
"BX c #C3C3C3",
"VX c #CBCBCB",
"CX c #C8C8C7",
"ZX c #D3D4D4",
"AX c #DBDBDB",
"SX c #D7D8D8",
"DX c #D2CFCE",
"FX c #DBE2E2",
"GX c #E3E3E3",
"HX c #EBECEC",
"JX c #E5EAEA",
"KX c #EDF1F1",
"LX c #E3D4D5",
"PX c #B8B9C8",
"IX c None",
/* pixels */
"IXIXIXIXIXIXIXIXIXIXIXIXIXIXIXIXIXIXIXIXIXIXIXIXIXIXIXIXIXIXIXw.w.w.q.0.q.q.q.0.0.0.0.0.0.q.w.w.IXIXIXIXIXIXIXIXIXIXIXIXIXIXIXIXIXIXIXIXIXIXIXIXIXIXIXIXIXIXIXIXIXIXIXIXIXIXIXIXIXIXIXIXIXIXIXIXIXIXIXIXIXIXIXIXIXIXIXIXIXIXIXIXIXIXIXIXIXIXIXIXIXIXIXIXIXIXIXIX",
"IXIXIXIXIXIXIXIXIXIXIXIXIXIXIXIXIXIXIXIXIXIXIXIXIXIXIXIXIXIXq.0.7.6.r.H.H.H.H.H.H.H.r.r.4.9.7.7.IXIXIXIXIXIXIXIXIXIXIXIXIXIXIXIXIXIXIXIXIXIXIXIXIXIXIXIXIXIXIXIXIXIXIXIXIXIXIXIXIXIXIXIXIXIXIXIXIXIXIXIXIXIXIXIXIXIXIXIXIXIXIXIXIXIXIXIXIXIXIXIXIXIXIXIXIXIXIXIX",
"IXIXIXIXIXIXIXIXIXIXIXIXIXIXIXIXIXIXIXIXIXq.q.8.7.5.7.w.w.q.7.>.*.-.F.bXDXLXLXLXDXbXcXaXD.} -.*.5.8.q.q.IXIXIXIXIXIXIXIXIXIXIXIXIXIXIXIXIXIXIXIXIXIXIXIXIXIXIXIXIXIXIXIXIXIXIXIXIXIXIXIXIXIXIXIXIXIXIXIXIXIXIXIXIXIXIXIXIXIXIXIXIXIXIXIXIXIXIXIXIXIXIXIXIXIXIXIX",
"IXIXIXIXIXIXIXIXIXIXIXIXIXIXIXIXIXIXIXIX9.G.G.G.r.9.q.w.0.6.,.V.F.F.bXGXJXJXKXKXJXFXVXzXfXD.} C 3.,.>.5.7.IXIXIXIXIXIXIXIXIXIXIXIXIXIXIXIXIXIXIXIXIXIXIXIXIXIXIXIXIXIXIXIXIXIXIXIXIXIXIXIXIXIXIXIXIXIXIXIXIXIXIXIXIXIXIXIXIXIXIXIXIXIXIXIXIXIXIXIXIXIXIXIXIXIXIX",
"IXIXIXIXIXIXIXIXIXIXIXIXIXIXIXIXIXe.e.9.r.vXBXBXvXe.w.q.6.,.V.gXBXAXJXHXHXHXHXHXHXHXGXZXBXgXO.X.{ C f *.>.7.8.IXIXIXIXIXIXIXIXIXIXIXIXIXIXIXIXIXIXIXIXIXIXIXIXIXIXIXIXIXIXIXIXIXIXIXIXIXIXIXIXIXIXIXIXIXIXIXIXIXIXIXIXIXIXIXIXIXIXIXIXIXIXIXIXIXIXIXIXIXIXIXIXIX",
"IXIXIXIXIXIXIXIXIXIXIXIXIXIXw.q.9.G.vXvXmXDXFXSXmXe.0.>.4.F.sXNXSXJXHXHXHXKXHXHXHXGXAXVXBXhXyX..` B V g %.*.;.>.7.0.0.IXIXIXIXIXIXIXIXIXIXIXIXIXIXIXIXIXIXIXIXIXIXIXIXIXIXIXIXIXIXIXIXIXIXIXIXIXIXIXIXIXIXIXIXIXIXIXIXIXIXIXIXIXIXIXIXIXIXIXIXIXIXIXIXIXIXIXIXIX",
"IXIXIXIXIXIXIXIXIXIXIXIXIXw.w.e.G.vXSXJXHXHXLXnXJ.e.5.-.B.iXzXCXAXGXGXGXHXHXGXGXAXZXVXlXkXiXrXX._ ( _ V a s %.*.>.6.7.IXIXIXIXIXIXIXIXIXIXIXIXIXIXIXIXIXIXIXIXIXIXIXIXIXIXIXIXIXIXIXIXIXIXIXIXIXIXIXIXIXIXIXIXIXIXIXIXIXIXIXIXIXIXIXIXIXIXIXIXIXIXIXIXIXIXIXIXIX",
"IXIXIXIXIXIXIXIXIXIXIXIXw.q.9.G.bXDXGXKXKXHXnXH.e.6.,.} D.gXzXCXZXAXGXGXGXAXZXZXVXCXlXhXpXeXX.` $.` +.{ B p i s %.*.>.5.6.IXIXIXIXIXIXIXIXIXIXIXIXIXIXIXIXIXIXIXIXIXIXIXIXIXIXIXIXIXIXIXIXIXIXIXIXIXIXIXIXIXIXIXIXIXIXIXIXIXIXIXIXIXIXIXIXIXIXIXIXIXIXIXIXIXIXIX",
"IXIXIXIXIXIXIXIXIXIXIXw.w.7.,.dXSXJXHXHXKXKXnXt.8.:.3.X.eXgXkXBXVXZXZXZXZXZXCXBXBXzXhXpX+.X.` `  .rXgXrX) 9 % y a s &.4.G.vXIXIXIXIXIXIXIXIXIXIXIXIXIXIXIXIXIXIXIXIXIXIXIXIXIXIXIXIXIXIXIXIXIXIXIXIXIXIXIXIXIXIXIXIXIXIXIXIXIXIXIXIXIXIXIXIXIXIXIXIXIXIXIXIXIXIX",
"IXIXIXIXIXIXIXIXIXIXIXq.8.;.-.dXAXHXHXKXHXGXmXt.5.%.g { O.pXhXzXBXCXCXCXBXBXzXzXhXgXtX+.X.] ] +.gXzXlXuX' 0 = e B p g F.bXAXHXHXHXHXHXHXHXHXGXIXIXIXIXIXIXIXIXIXIXIXIXIXIXIXIXIXIXIXIXIXIXIXIXIXIXIXIXIXIXIXIXIXIXIXIXIXIXIXIXIXIXIXIXIXIXIXIXIXIXIXIXIXIXIXIXIX",
"IXIXIXIXIXIXIXIXIXIXIX7.>.4.F.bXGXHXHXKXLXmXH.9.;.s p [ o.uXgXhXzXzXzXkXhXhXgXiXuXrX+.o.O.yXiXzXVXBXgXO.` 0 8 q ` } D.xXSXFXGXHXKXHXHXHXGXGXGXGXIXIXIXIXIXIXIXIXIXIXIXIXIXIXIXIXIXIXIXIXIXIXIXIXIXIXIXIXIXIXIXIXIXIXIXIXIXIXIXIXIXIXIXIXIXIXIXIXIXIXIXIXIXIXIXIX",
"IXIXIXIXIXIXIXIXIXIXq.5.*.F.kXDXAXGXJXJXnXt.q.6.*.i p _ X.yXiXgXgXgXgXiXpXuXyXrX+.o.o.rXgXBXZXAXZXhX+.` q 7 e ) o.iXzXDXAXAXAXHXHXHXHXGXAXAXAXAXGXGXGXGXIXIXIXIXIXIXIXIXIXIXIXIXIXIXIXIXIXIXIXIXIXIXIXIXIXIXIXIXIXIXIXIXIXIXIXIXIXIXIXIXIXIXIXIXIXIXIXIXIXIXIXIX",
"IXIXIXIXIXIXIXIXIXIX0.>.&.F.zXDXSXAXFXJXnXt.0.>.&.p w ( ' +.yXpXpXpXuXyXO.o.X.X...rXgXlXVXZXBXhXyXX.) w 0 7 w #.tXzXZXAXAXSXAXGXHXHXGXZXBXBXBXZXAXGXAXAXAXAXIXIXIXIXIXIXIXIXIXIXIXIXIXIXIXIXIXIXIXIXIXIXIXIXIXIXIXIXIXIXIXIXIXIXIXIXIXIXIXIXIXIXIXIXIXIXIXIXIXIX",
"IXIXIXIXIXIXIXIXIXq.7.,.3.D.zXVXZXSXAXAXnXt.8.;.f B q q ` X.+.rXrXrX+.o.X.] ` ] +.iXBXZXBXxXuX@.[ Y B B B Y [ +.gXBXAXAXAXZXZXAXGXGXZXBXzXzXlXVXAXGXAXAXAXAXAXIXIXIXIXIXIXIXIXIXIXIXIXIXIXIXIXIXIXIXIXIXIXIXIXIXIXIXIXIXIXIXIXIXIXIXIXIXIXIXIXIXIXIXIXIXIXIXIXIX",
"IXIXIXIXIXIXIXIXw.0.6.4.D.sXzXCXZXZXZXZXmXt.7.:.f B q w ( `  .X.X. .' ] ) ( ) X.iXlXzXgXO.' _ Y T W E c.n.Z.S.=XhXCXAXAXZXVXVXVXVXCXBXkXkXzXBXAXGXHXHXGXGXAXAXAXAXAXAXAXIXIXIXIXIXIXIXIXIXIXIXIXIXIXIXIXIXIXIXIXIXIXIXIXIXIXIXIXIXIXIXIXIXIXIXIXIXIXIXIXIXIXIXIX",
"IXIXIXIXIXIXIXIXw.8.>.V.iXhXlXCXZXZXDXVXvXr.5.*.f B q 7 0 ( ) ` ` ) _ $.q ( | rXgXhXtXX._ e 8 M R c.n.Z.Z.A.,X>XcXCXAXAXZXZXCXBXzXhXgXgXhXkXBXVXAXGXGXHXGXGXAXAXAXAXAXGXGXIXIXIXIXIXIXIXIXIXIXIXIXIXIXIXIXIXIXIXIXIXIXIXIXIXIXIXIXIXIXIXIXIXIXIXIXIXIXIXIXIXIXIX",
"IXIXIXIXIXIXIXIXq.7.>.V.sXkXNXCXVXVXVXVXvXr.>.=.f [ / 6 6 0 q q q q 0 7 q ` rXiXtX.._ e 1 1 k U E n.Z.Z.Z.Z.A.A.>XbXAXAXAXZXCXzXgXuXyXuXiXjXhXhXzXBXZXGXHXHXGXAXZXZXAXGXGXGXIXIXIXIXIXIXIXIXIXIXIXIXIXIXIXIXIXIXIXIXIXIXIXIXIXIXIXIXIXIXIXIXIXIXIXIXIXIXIXIXIXIX",
"IXIXIXIXIXIXIXIX0.7.>.V.sXzXNXCXCXCXCXCXdX4.:.*.-.} ( 6 @ 8 7 7 7 7 6 7 ) ..tXuXX.Y 8 < k z T R R c.n.Z.A.Z.n.N.A.>XbXCXVXVXBXhXiXO.o.o.o.+...X...rXhXCXGXHXHXGXZXZXZXAXAXAXAXIXIXIXIXIXIXIXIXIXIXIXIXIXIXIXIXIXIXIXIXIXIXIXIXIXIXIXIXIXIXIXIXIXIXIXIXIXIXIXIXIX",
"IXIXIXIXIXIXIXIX7.5.>.V.sXkXlXBXCXCXCXBXdX4.*.:.-.} ) 7 @ 6 6 6 6 6 6 7 ' O.rX..q < < 1 z R c.c.E E c.n.A.Z.n.n.n.A.>XdXxXkXxXgXuX+. .` _ q 7 6 7 ( ..iXBXGXHXHXAXDXCXBXzXzXBXAXJXHXIXIXIXIXIXIXIXIXIXIXIXIXIXIXIXIXIXIXIXIXIXIXIXIXIXIXIXIXIXIXIXIXIXIXIXIXIXIX",
"IXIXIXIXIXIXIXIX5.5.>.V.uXhXzXBXCXCXCXBXdX3.*.;.4.@. .( 7 5 @ @ @ @ 6 w ] X.] Y 8 < 1 l U T c.c.c.c.E c.n.Z.A.n.c.n.Z.-X>XaXuXuXyXO.X.) w 6 + . . + 7 ` yXkXCXZXZXBXhXrX' X.pXlXZXGXGXIXIXIXIXIXIXIXIXIXIXIXIXIXIXIXIXIXIXIXIXIXIXIXIXIXIXIXIXIXIXIXIXIXIXIXIXIX",
"IXIXIXIXIXIXIXIX;.>.>.V.yXfXkXlXBXBXBXBXdX3.=.;.4.D.o.] q 6 @ @ @ 6 0 ( ) ) 0 < < 2 l U T T T E c.c.R T R n.Z.Z.n.c.c.n.Z.D.D.D.D.O.o.` q 7 6 6 6 7 w ` O.gXBXVXZXBXgXO.) ` rXhXBXAXGXGXIXIXIXIXIXIXIXIXIXIXIXIXIXIXIXIXIXIXIXIXIXIXIXIXIXIXIXIXIXIXIXIXIXIXIXIX",
"IXIXIXIXIXIXIXIX=.:.>.3.D.pXhXzXlXbXBXBXdX3.&.;.4.@.o.| ( 6 @ 6 7 0 _ ` ( 7 @ # & 2 k N T T U U T E c.R U R c.n.A.n.c.R E C.S.C.C.+.o.X. . .X.+.yXiXgXkXBXZXFXGXGXGXZXBXxXhXzXlXlXCXAXGXSXIXIXIXIXIXIXIXIXIXIXIXIXIXIXIXIXIXIXIXIXIXIXIXIXIXIXIXIXIXIXIXIXIXIXIX",
"IXIXIXIXIXIXIXIX%.=.:.3.O.iXzXBXBXBXNXBXdXC d *.,.3.B.+.X.) w 6 6 0 ( ( 0 < # o < 2 1 M T T T U U T E R T T T c.n.n.n.E R c.n.n.C.aXtXo.X.o.eXpXhXBXZXAXGXHXHXKXKXKXHXGXAXZXCXlXkXzXBXBXzXgXIXIXIXIXIXIXIXIXIXIXIXIXIXIXIXIXIXIXIXIXIXIXIXIXIXIXIXIXIXIXIXIXIXIX",
"IXIXIXIXIXIXIXIXs &.:.3.+.fXlXVXZXCXBXCXsXC s =.:.>.b.aXuXrX` 6 @ 6 6 6 @ @ = < 2 1 1 k k N T T T U T R c.W U U R n.A.Z.n.E E c.S.bXkXo.` ' X.+.uXhXlXVXSXGXHXHXHXHXGXAXZXBXlXhXiXpXpXtXrX+...IXIXIXIXIXIXQ.W.W.^.`.XX_.].[.}.|.|.|.|.IXIXIXIXIXIXIXIXIXIXIXIXIX",
"IXIXIXIXIXIXIXIXi s &.-.V.B.o.eXpXzXCXCXxXD.C -.*.5.4.X...| ) w 6 + + + @ @ = * 2 1 k k k l N T T T U T R W T N N R n.Z.Z.n.c.E S.CXCXeX] ) ) ' +.tXiXhXzXBXVXZXZXZXCXBXzXhXiXyX+.X.' X.+.rXuXuXIXIXIXIX].`.).).`.].].].].].].[.[.}.|.|.IXIXIXIXIXIXIXIXIXIXIXIX",
"IXIXIXIXIXIXIXIXu u s *.>.g < 6 ) iXDXCXzXhXD.f %.;.-.V 7 8 w _ 0 @ @ @ @ < o & * 2 1 M k k k N T T U N N T R T l l U c.Z.Z.n.E C.MXVXuX ._ q _ ` X.+.yXpXiXgXhXhXhXgXpXtXO...' ) ( _ ' rXiXkXgXuX~.).XX[.[.]._._.].[.[.[.]._.)._.[.}.|.|.|.|.|.}.[.[.[.IXIXIXIX",
"IXIXIXIXIXIXIXIXIXt u d &.d i ; 0 uXVXlXkXxXD.g i d &.d g i p 0 ) ] _ 7 6 @ # o & * 2 1 k k k k l z U U U N N N z l l T E n.n.c.S.MXVXiXo.' _ w w $.) ' ..+.+.+.o.X. .] ` ) q w q ] rXiXhXfXtX!.!.~._.[.[._.^.R.R.^._.[.}.}.[._.)./.`.[.}.|.|.|.}.[.[.]._.IXIXIX",
"IXIXIXIXIXIXIXIXIXIXr t s d d % 7 rXzXkXhXhXyXC a i d %.%.d r = ` O. .q 6 @ @ @ o o * < 2 1 k 1 1 k z N N l k l l l l z U E c.c.S.bXlXtXO.O.X.` ) ) ` ] ] ] ` ) ( q w q q ( ( ) ] O.gXzXhXyX#.L R.(._.[.].^.I.J J P.W.).[.}.}.].).W.(.).[.|.|.|.}.[.).^././.IXIX",
"IXIXIXIXIXIXIXIXIXIX- % t u u ; 7 ..iXgXgXhXiX+.} a t u u u % # _ ..` 0 6 6 @ @ + o o & * * 2 1 l k k k k l M k 1 k N T E R T R C.sXpXX...pXhXzXkXgXpXrX .) q 7 7 7 e B ' O.iXhXfXpXyX+.X.` G Q T.W.)._./.E.L A > A K I.(.].[.[._./.W.W.).}.}.}.[.).I.L E.^.W.W.",
"IXIXIXIXIXIXIXIXIXIX6 - % p V B ) ..rXiXgXgXgXuX@.V p p V V 9 7 / ` ( 7 8 6 @ @ + + o o o & * 2 1 1 2 2 1 k k k 1 k N T R T U } D.=Xo.) ] rXgXzXBXBXzXhXtX+.X.X. .X.X.+.tXgXzXzXfXrXX.[ q e e J P.W././.^.Q.P.H A , > F K.R.^.`._.)./.(.).].[.[.[.).I.L I.E.R.I.",
"IXIXIXIXIXIXIXIXIXIX@ = 8 _ X.O.rX+.+.uXgXgXiXtXO.{ { { X.X.{ ) q 0 7 7 6 6 @ @ + + + + o & & & * < 1 1 1 1 2 1 k l l U z l Y aXpX@.` ) ) ] X.o.yXgXzXBXBXCXVXVXCXBXBXlXzXhXpXO. .` ) q 6 > A H L R.W.^.^.)./.W.K.> X : A F K.E./._._._._.].[.[.[._.W.R.I.P.K J ",
"IXIXIXIXIXIXIXIXIXIX@ 5 7 / ] X.o.X...eXtXuXtXyXO.o.X. .| ' ` _ w 6 @ @ @ @ + +       $ o o o o o * < 2 2 2 1 k l z z z l 2 B =XtX' `  ...+.+.+.O.rXuXiXpXiXgXgXgXgXpXyXO.o. .) ( q q 0 6 , Z S F K.I.R.E.(.).).W.P.J H F F J K.R.^.`.].].].].].).(.R.P.K H A > ",
"IXIXIXIXIXIXIXIXIXIXIX6 6 7 0 q ( ` ' X.o.+.O.O.+.o. .) _ q w 0 7 7 6 6 7 7 6 6 6 5 @ @ @ @ + # o o o * * 2 1 k M N U z l 1 M  .X.) ` O.iXhXhXiXtXrX+...X.' ' ' | ' ` ( w w ( _ ) ) _ $.w e > > A F K L P.I.Q.^.).)./.W.I.L J J K.E.^._._._.).^.Q.I.K F S A , , ",
"IXIXIXIXIXIXIXIXIXIXIX@ @ @ 6 6 7 q _ `  .X.......X.] ) q 0 7 6 0 ( ` ..rXpXuXtXrX+... .` $.0 6 # o o o & * * 2 1 k l l M { X.] ) _ ' yXhXBXCXBXzXhXhXgXiXuXrX+.+.o...| ] | eXpXfXiXtXO.X.Y , : , > A S F H K K.I.R.Q.Q.R.I.P.K.P.R.W.^.^.W.E.I.K H Z A x I I I ",
"IXIXIXIXIXIXIXIXIXIXIXIX+ @ 6 7 0 ( ) ) ) ` ] ] ] ` ) ( w 7 0 ( ] +.pXkXZXGXGXZXBXkXgXtX+.] ( 7 @ + + o o & = < * 2 1 1 M o.O.) w (  .tXkXCXZXAXAXZXZXZXZXCXzXjXiXaXD.F.D.F.vXbXnXbXxXjXpX#.> , > A S S A > 3 3 D Q Q U.U.P.K.K.K.P.I.I.I.P.L H D D 3 3 I p.d.d.",
"IXIXIXIXIXIXIXIXIXIXIXIXIX6 7 q ` +.+._ 7 w q ( ( ( q 0 6 7 ` tXxXBXZXAXGXAXZXBXxXiXuXrX..] ( 0 6 @ +   $ 8 w 8 & * 2 2 M ] ' q 7 q ' yXhXBXVXZXAXAXAXAXAXSXVXNXzXdXG.e.e.t.t.t.t.G.D.iXhX!.H H L P.P.K.K x y y a g m I ~ D Z S F H J J J H Z A P I I s.h.k.IXIX",
"IXIXIXIXIXIXIXIXIXIXIXIXIX7 7 q ] rXtXX._ 7 6 7 7 7 6 6 7 ) rXBXAXGXGXGXAXCXlXhXiXyXO.o. .` ( 0 8 @ +     7 ( B e < * * 2 B / 7 7 q ] rXiXhXzXBXBXCXVXCXbXmXmXvXvXJ.e.w.w.w.w.q.0.,.} eXhX!.K K.Q.(.^.W.R.Q m s d d %.<.I x P P P ~ Q Y.! Q ~ P I l.l.k.z.M.IXIX",
"IXIXIXIXIXIXIXIXIXIXIXIXIX@ 6 7 ( X.rXiXrXq + @ @ @ @ @ ) uXzXZXAXZXZXCXBXzXgXiXtXrX+.X.] ) q w 7 @ +     @ w ` ' w & & = 8 7 6 7 q ` o.rXtXpXiXgXgXjXsXG.e.e.e.e.e.0.0.8.7.6.>.;.-.B X.uX!.K P.^._.].[._.^.Y.m %.=.=.IXIXs.s.j.x.+X&X3X2X&XOX+XoXx.z.z.IXIXIXIX",
"IXIXIXIXIXIXIXIXIXIXIXIXIX+ @ 6 0 ) ..pXiXo.) 6   + 7 ` yXzXZXZXZXCXBXlXhXgXpXyXrX+...' ) ( q 0 8 @ +     + 6 q _ w & < 6 < @ @ 7 q ) ' X.o.+.O.eXrXF.G.e.w.w.0.7.6.>.>.;.*.=.%.d g B #.+.#.J P.^.].}.|.}.[.'.Y.I &.=.IXIXIXz.oX#X&X4X8X7X4X;X&XOXM.x.IXIXIXIXIX",
"IXIXIXIXIXIXIXIXIXIXIXIXIX+ + + 6 w ` +.uXhXyXq + @ ) pXzXVXZXDXCXlXzXhXgXpXyXrX+.o. .` _ q 0 7 6 @ + + + @ 6 6 @ IXIXw e = + # 6 0 ( ) ` ` '  .X.@.4.q.w.0.7.>.:.=.%.d s i t t t p [ ' ] ) J K.E.).[.|.|.}.].).Y.2.-.IXIXIXIX#X&X;X5X9X8X5X4X;XOXM.IXIXIXIXIXIX",
"IXIXIXIXIXIXIXIXIXIXIXIXIXIXIX+ @ 6 q ` o.tXuX+. .` ..iXzXBXBXBXzXkXgXiXuXrXO.+... .` ) ( w 7 6 6 @ + @ 7 )  .) IXIXIXg p = O + @ 7 w q / / / _ C 4.9.0.7.>.*.&.d s s u % - - - 9 B [ [ _ G F J P.W.`.[.}.|.}.{.'.:X,XIXIXIXIXIXIXIXIXIXIXIXIXIXIXIXIXIXIXIXIXIX",
"IXIXIXIXIXIXIXIXIXIXIXIXIXIXIX+ + @ 6 w ` @.uXkXhXyXeXyXpXgXgXhXgXiXtXrXO.+...X.' ` ) / w 7 6 6 @ + + 6 q X.rXIXIXIXIXs u % = + + 5 8 e w V V V -.8.7.>.*.d s u t r r % = 5 6 e q ( _ $.w e > A J P.W.`.[.}.}.}.<XqX9XIXIXIXIXIXIXIXIXIXIXIXIXIXIXIXIXIXIXIXIXIX",
"IXIXIXIXIXIXIXIXIXIXIXIXIXIXIX+ + + @ @ q X.iXBXCXfXeX#.' ..+.rXrXO.+...X. .] ` ) _ q w 7 6 6 @ + + + @ 0 ) X.IXIXIXIXu u s i * + @ 5 5 p ,.9.9.6.>.:.%.s u % ; = = = = 6 6 7 e 0 w w 0 7 5 : , A K T.^._.].[.[.<X3X5X9X:Xm s f IXIXIXIXIXIXIXIXIXIXIXIXIXIXIXIX",
"IXIXIXIXIXIXIXIXIXIXIXIXIXIXIXIX+ + + + 7 ] tXPXbXvXB._ q ( `  .X. .' ] ` ) _ ( q q w 7 6 @ @ + + + + + @ 0 _ IXIXIXIXt u s s y y y a a &.7.q.7.>.=.d u t % o + # @ @ @ 6 6 7 7 7 7 7 7 6 @ X X , S K.R.^.)._.]. X1X3X8X4XN.2.f f IXIXIXIXIXIXIXIXIXIXIXIXIXIXIX",
"IXIXIXIXIXIXIXIXIXIXIXIXIXIXIXIXIX+ + + 4 wXwXfX>Xt.,.B e 6 0 ( ) ) ) _ ( q w 0 0 7 7 6 @ @ + + + + + + + 6 7 IXIXIXIXr t i d %.=.;.>.5.6.5.>.=.d i u r ; o + + + + @ @ @ @ 6 6 8 6 6 6 @ # + X : Z H K.E.W./.).]. X<XqX7X5X,X2.f 3.IXIXIXIXIXIXIXIXIXIXIXIXIXIX",
"IXIXIXIXIXIXIXIXIXIXIXIXIXIXIXIXIXIX+ O 4 ^ wXO.V.9.,.V 7 @ @ 7 0 w w w 0 7 7 7 6 6 6 @ @ + + + + + @ 7 q w 6 IXIXIXIXIXt u s d =.:.>.>.;.=.d s u r % ; $   O     O + + + + @ @ @ @ @ + + + + X X , A H P.T.Q.W./.{. X<XqX7X;XN.v.3.3.IXIXIXIXIXIXIXIXIXIXIXIXIX",
"IXIXIXIXIXIXIXIXIXIXIXIXIXIXIXIXIXIXIXO 4 0 _ ` C -.f B 8 + + @ 6 6 8 6 6 6 6 6 @ @ @ @ + + + + + + 6 (  .X.IXIXIXIXIXIXIXr t u s s d s s u t t r r ; o O                   + +         + +     X X : A H L.P.I.E./.].|.<X3X2X4X,X3.3.V.IXIXIXIXIXIXIXIXIXIXIXIX",
"IXIXIXIXIXIXIXIXIXIXIXIXIXIXIXIXIXIXIXIX@ 7 0 0 9 p - 6 @ +     + + + + + + + + + + + + + + + + + + 6 q ] IXIXIXIXIXIXIXIXIXr t t u u t t r % - - 9 _ ' ( IXIXIXIXIXIXIXIXIXIXIXIXIXIXIXIXIXIXIXIXX X , > S H K P.E./.{. X<X1X4X;X+Xb.4.3.IXIXIXIXIXIXIXIXIXIXIX",
"IXIXIXIXIXIXIXIXIXIXIXIXIXIXIXIXIXIXIXIXIX7 7 7 7 7 7 7 0 w w w 7 6 7 w w 0 0 7 7 6 6 @ @ @ @ @ + + @ 7 q IXIXIXIXIXIXIXIXIXIXr r r r r r r % 6 8 w  .yXiXIXIXIXIXIXIXIXIXIXIXIXIXIXIXIXIXIXIXIXIXIXX X : , > A H K.R.^._.[.<X3X;X;X%Xb.b.IXIXIXIXIXIXIXIXIXIXIX",
"IXIXIXIXIXIXIXIXIXIXIXIXIXIXIXIXIXIXIX7 w q ( _ ) ] X.+.rXiXhXhXyX..tXhXhXgXpXrX+.X.` ) ( q 0 7 6 + + + @ IXIXIXIXIXIXIXIXIXIXIXIXIXIXIXIXIXIXIX5 6 ( X.pXBXIXIXIXIXIXIXIXIXIXIXIXIXIXIXIXIXIXIXIXIXIXIXIXX : , > A J P.E./.`.<X1X&X&X$XA.V.IXIXIXIXIXIXIXIXIXIX",
"IXIXIXIXIXIXIXIXIXIXIXIXIXIXIXIXIXIXIX7 0 q ) ]  ...O.uXhXBXZXAXhXrXkXGXGXZXBXkXiXrXo. .] ) _ w 7 @   + 6 w IXIXIXIXIXIXIXIXIXIXIXIXIXIXIXIXIXIXIX@ 7 _ O.hXIXIXIXIXIXIXIXIXIXIXIXIXIXIXIXIXIXIXIXIXIXIXIXIXX X : , > S K I.Q./.'.@X&X&X%Xb.b.IXIXIXIXIXIXIXIXIX",
"IXIXIXIXIXIXIXIXIXIXIXIXIXIXIXIXIX@ @ 6 7 w _ ] X.X.+.rXpXhXlXlXrX .pXVXVXBXzXgXpXrXo. .] ` ) q 7 @   6 q ' +.IXIXIXIXIXIXIXIXIXIXIXIXIXIXIXIXIXIXIX6 e ' yXIXIXIXIXIXIXIXIXIXIXIXIXIXIXIXIXIXIXIXIXIXIXIXIXIXIXIXX : : > S L I.W.~.@XoXz.d.p.i.IXIXIXIXIXIXIXIX",
"IXIXIXIXIXIXIXIXIXIXIXIXIXIXIXIXIX@ @ @ 6 7 q ) ` ]  .o.rXuXgXgX+.) +.hXgXiXtXrXo. .` ) ( q w 7 6 +   6 ( ' ..IXIXIXIXIXIXIXIXIXIXIXIXIXIXIXIXIXIXIXIX7 ` ..IXIXIXIXIXIXIXIXIXIXIXIXIXIXIXIXIXIXIXIXIXIXIXIXIXIXIXIXX X : , Z H L I.Y.Y.@X! ~ I IXIXIXIXIXIXIXIX",
"IXIXIXIXIXIXIXIXIXIXIXIXIXIXIXIXIX+ + @ @ 6 7 w q ( ) ` X.o.rXyX' q ' +.+.X.] ) ( q 7 6 6 6 @ @ +     @ w )  .IXIXIXIXIXIXIXIXIXIXIXIXIXIXIXIXIXIXIXIXIX` ] IXIXIXIXIXIXIXIXIXIXIXIXIXIXIXIXIXIXIXIXIXIXIXIXIXIXIXIXIXIXIXX : , A F L I.I.P.K H IXIXIXIXIXIXIXIX",
"IXIXIXIXIXIXIXIXIXIXIXIXIXIXIXIXIX      + + @ @ 6 6 7 7 w q ( _ 0 @ 7 q w 7 7 6 6 @ + + + +       .   + 7 _ ' IXIXIXIXIXIXIXIXIXIXIXIXIXIXIXIXIXIXIXIXIXIXIXIXIXIXIXIXIXIXIXIXIXIXIXIXIXIXIXIXIXIXIXIXIXIXIXIXIXIXIXIXIXIXIXIXIX, > A S F S S Z IXIXIXIXIXIXIXIX",
"IXIXIXIXIXIXIXIXIXIXIXIXIXIXIXIXIX+     + @ 6 7 0 0 0 0 7 7 6 6 @ + + @ 6 6 6 @ @ + +     + + + @ @ @ @ 6 q ` IXIXIXIXIXIXIXIXIXIXIXIXIXIXIXIXIXIXIXIXIXIXIXIXIXIXIXIXIXIXIXIXIXIXIXIXIXIXIXIXIXIXIXIXIXIXIXIXIXIXIXIXIXIXIXIXIXIX: : : : , , , IXIXIXIXIXIXIXIX",
"IXIXIXIXIXIXIXIXIXIXIXIXIXIXIXIXq 6 @ @ 7 ( ] o.rXtXtXrXo.' ` _ q 7 6 7 ` X.] _ w 6 @ + @ 6 0 ( ) ` ` q 6 0 ( IXIXIXIXIXIXIXIXIXIXIXIXIXIXIXIXIXIXIXIXIXIXIXIXIXIXIXIXIXIXIXIXIXIXIXIXIXIXIXIXIXIXIXIXIXIXIXIXIXIXIXIXIXIXIXIXIXIXIXIXIXIXIXIXIXIXIXIXIXIXIXIXIX",
"IXIXIXIXIXIXIXIXIXIXIXIXIXIXIX] [ 0 @ 6 q  .rXhXBXVXVXlXgXyX..` _ ( )  .tXgXrX ._ 0 6 6 7 q ] o.yXuXtXo.) q w IXIXIXIXIXIXIXIXIXIXIXIXIXIXIXIXIXIXIXIXIXIXIXIXIXIXIXIXIXIXIXIXIXIXIXIXIXIXIXIXIXIXIXIXIXIXIXIXIXIXIXIXIXIXIXIXIXIXIXIXIXIXIXIXIXIXIXIXIXIXIXIXIX",
"IXIXIXIXIXIXIXIXIXIXIXIXIXIX` ....q @ 6 ( +.gXBXAXGXGXAXlXpX..) ( ` O.hXBXzXtX .( 7 6 7 q ` O.gXlXCXBXzXiXX.w IXIXIXIXIXIXIXIXIXIXIXIXIXIXIXIXIXIXIXIXIXIXIXIXIXIXIXIXIXIXIXIXIXIXIXIXIXIXIXIXIXIXIXIXIXIXIXIXIXIXIXIXIXIXIXIXIXIXIXIXIXIXIXIXIXIXIXIXIXIXIXIXIX",
"IXIXIXIXIXIXIXIXIXIXIXIXIX) ` X...q @ 6 q ..iXBXAXGXGXZXhXrX` q ` +.hXVXCXhX+.) 0 6 7 w _ X.tXkXZXAXAXAXVXiX+.IXIXIXIXIXIXIXIXIXIXIXIXIXIXIXIXIXIXIXIXIXIXIXIXIXIXIXIXIXIXIXIXIXIXIXIXIXIXIXIXIXIXIXIXIXIXIXIXIXIXIXIXIXIXIXIXIXIXIXIXIXIXIXIXIXIXIXIXIXIXIXIXIX",
"IXIXIXIXIXIXIXIXIXIXIXIXIX( _ ' #.w @ 6 w ] rXhXBXVXBXhXrX` q q ..gXBXVXxXrX` 7 @ 6 7 q ) X.yXhXCXAXGXHXHXAXBXIXIXIXIXIXIXIXIXIXIXIXIXIXIXIXIXIXIXIXIXIXIXIXIXIXIXIXIXIXIXIXIXIXIXIXIXIXIXIXIXIXIXIXIXIXIXIXIXIXIXIXIXIXIXIXIXIXIXIXIXIXIXIXIXIXIXIXIXIXIXIXIXIX",
"IXIXIXIXIXIXIXIXIXIXIXIXIX0 q ` ` 0 @ 6 e ) X.tXgXhXgXrX' q q ` yXlXNXhXO.` 7 @ @ 5 7 q ` X.rXgXzXVXAXGXHXHXGXZXlXIXIXIXIXIXIXIXIXIXIXIXIXIXIXIXIXIXIXIXIXIXIXIXIXIXIXIXIXIXIXIXIXIXIXIXIXIXIXIXIXIXIXIXIXIXIXIXIXIXIXIXIXIXIXIXIXIXIXIXIXIXIXIXIXIXIXIXIXIXIXIX",
"IXIXIXIXIXIXIXIXIXIXIXIXIX6 7 ( ) 7 @ @ 7 q ` o.rXtXO.] q 7 q X.iXzXgX+.) 8 @ + @ @ 7 w )  .+.uXhXlXVXAXGXHXHXZXBXIXIXIXIXIXIXIXIXIXIXIXIXIXIXIXIXIXIXIXIXIXIXIXIXIXIXIXIXIXIXIXIXIXIXIXIXIXIXIXIXIXIXIXIXIXIXIXIXIXIXIXIXIXIXIXIXIXIXIXIXIXIXIXIXIXIXIXIXIXIXIX",
"IXIXIXIXIXIXIXIXIXIXIXIXIX+ @ 0 q 7 @ + @ 7 ( ] X.o.' ( 7 6 ( o.tXuX.._ 8 + + + @ @ 6 7 ( ` ..rXpXhXlXVXAXGXHXGXAXIXIXIXIXIXIXIXIXIXIXIXIXIXIXIXIXIXIXIXIXIXIXIXIXIXIXIXIXIXIXIXIXIXIXIXIXIXIXIXIXIXIXIXIXIXIXIXIXIXIXIXIXIXIXIXIXIXIXIXIXIXIXIXIXIXIXIXIXIXIXIX",
"IXIXIXIXIXIXIXIXIXIXIXIXIX  + 6 7 6 @ + + 6 0 ( ) ` _ 7 6 6 ( X... ./ 6 2 2 # O + + @ 6 w _ ] o.rXiXhXlXVXAXGXGXGXAXIXIXIXIXIXIXIXIXIXIXIXIXIXIXIXIXIXIXIXIXIXIXIXIXIXIXIXIXIXIXIXIXIXIXIXIXIXIXIXIXIXIXIXIXIXIXIXIXIXIXIXIXIXIXIXIXIXIXIXIXIXIXIXIXIXIXIXIXIXIX",
"IXIXIXIXIXIXIXIXIXIXIXIXIX    @ @ @ @ + $ @ 6 7 w q 0 6 6 7 q ) ( e @ o I s.k + + + + @ 7 q _ ] +.tXfXkXBXZXAXGXGXZXCXIXIXIXIXIXIXIXIXIXIXIXIXIXIXIXIXIXIXIXIXIXIXIXIXIXIXIXIXIXIXIXIXIXIXIXIXIXIXIXIXIXIXIXIXIXIXIXIXIXIXIXIXIXIXIXIXIXIXIXIXIXIXIXIXIXIXIXIXIX",
"IXIXIXIXIXIXIXIXIXIXIXIXIXIX  O + @ @     + + @ 6 7 6 @ @ 7 0 0 6 + * h s.k.m.~ ~ U o O 5 7 w _ ' o.yXiXkXBXZXAXGXAXZXIXIXIXIXIXIXIXIXIXIXIXIXIXIXIXIXIXIXIXIXIXIXIXIXIXIXIXIXIXIXIXIXIXIXIXIXIXIXIXIXIXIXIXIXIXIXIXIXIXIXIXIXIXIXIXIXIXIXIXIXIXIXIXIXIXIXIXIXIX",
"IXIXIXIXIXIXIXIXIXIXIXIXIXIXIX$ $ # @ +       + + @ @ + @ 6 6 @ + o h i.p.l.OX:X;X+Xl + # 6 7 w _ ] ..rXiXhXlXVXAXGXGXIXIXIXIXIXIXIXIXIXIXIXIXIXIXIXIXIXIXIXIXIXIXIXIXIXIXIXIXIXIXIXIXIXIXIXIXIXIXIXIXIXIXIXIXIXIXIXIXIXIXIXIXIXIXIXIXIXIXIXIXIXIXIXIXIXIXIXIXIX",
"IXIXIXIXIXIXIXIXIXIXIXIXIXIXIXh % = + O     .     O O + + # + + * h v y.a.l.#X*X4X2X@XU = O 5 7 w ( ) X.O.pXhXlXVXAXGXAXIXIXIXIXIXIXIXIXIXIXIXIXIXIXIXIXIXIXIXIXIXIXIXIXIXIXIXIXIXIXIXIXIXIXIXIXIXIXIXIXIXIXIXIXIXIXIXIXIXIXIXIXIXIXIXIXIXIXIXIXIXIXIXIXIXIXIXIX",
"IXIXIXIXIXIXIXIXIXIXIXIXIXIXIXb c 2 & & & o o o o o o & & & # # h v n i.p.h.oX&X2X5X4X+XP o @ 5 7 7 w ) ' +.uXhXlXZXAXZXVXIXIXIXIXIXIXIXIXIXIXIXIXIXIXIXIXIXIXIXIXIXIXIXIXIXIXIXIXIXIXIXIXIXIXIXIXIXIXIXIXIXIXIXIXIXIXIXIXIXIXIXIXIXIXIXIXIXIXIXIXIXIXIXIXIXIXIX",
"IXIXIXIXIXIXIXIXIXIXIXIXIXIXIXb v c m m c j j j j j j j j j 2 = h v b n <.p.k.OX*X4X5X2X+X! < O @ 6 7 w )  .O.iXkXBXVXZXZXIXIXIXIXIXIXIXIXIXIXIXIXIXIXIXIXIXIXIXIXIXIXIXIXIXIXIXIXIXIXIXIXIXIXIXIXIXIXIXIXIXIXIXIXIXIXIXIXIXIXIXIXIXIXIXIXIXIXIXIXIXIXIXIXIXIXIX",
"IXIXIXIXIXIXIXIXIXIXIXIXIXIXIXb n i.u.u.y.n b b b b b b b v x e x v b b n u.h.M.&X;X6X5X5X&XW 3 + + @ 7 q ` X.rXiXkXBXCXVXIXIXIXIXIXIXIXIXIXIXIXIXIXIXIXIXIXIXIXIXIXIXIXIXIXIXIXIXIXIXIXIXIXIXIXIXIXIXIXIXIXIXIXIXIXIXIXIXIXIXIXIXIXIXIXIXIXIXIXIXIXIXIXIXIXIXIX",
"IXIXIXIXIXIXIXIXIXIXIXIXIXIXIX<.i.p.d.d.a.y.n b v b b v b v N B N v b b n y.a.k.OX*X4X7X9X8X3Xm.< . + @ 7 q ` ..rXiXhXlXlXkXgXIXIXIXIXIXIXIXIXIXIXIXIXIXIXIXIXIXIXIXIXIXIXIXIXIXIXIXIXIXIXIXIXIXIXIXIXIXIXIXIXIXIXIXIXIXIXIXIXIXIXIXIXIXIXIXIXIXIXIXIXIXIXIXIXIX",
"IXIXIXIXIXIXIXIXIXIXIXIXIXIXIXa.d.l.k.k.h.a.y.n n b v v b v N ) B x c b n <.y.d.x.#X*X6X8X9X9X:X! 2 + + 6 0 _ ] ..rXpXgXhXiXuXIXIXIXIXIXIXIXIXIXIXIXIXIXIXIXIXIXIXIXIXIXIXIXIXIXIXIXIXIXIXIXIXIXIXIXIXIXIXIXIXIXIXIXIXIXIXIXIXIXIXIXIXIXIXIXIXIXIXIXIXIXIXIXIXIX",
"IXIXIXIXIXIXIXIXIXIXIXIXIXi.u.h.x.x.x.M.z.h.a.y.n b v v b v T [ / 9 j v b b <.u.l.oXOX*X4X8X9X8X;Xm.< + @ 7 q _ ` X.O.tXuXO...IXIXIXIXIXIXIXIXIXIXIXIXIXIXIXIXIXIXIXIXIXIXIXIXIXIXIXIXIXIXIXIXIXIXIXIXIXIXIXIXIXIXIXIXIXIXIXIXIXIXIXIXIXIXIXIXIXIXIXIXIXIXIXIXIX",
"IXIXIXIXIXIXIXIXIXIXIXIXIX<.u.h.M.oXOXOXoXl.a.u.<.b v v b v T ] / 8 h b b b n u.d.z.M.#X;X5X8X8X8X:Xm.l @ @ 7 0 ( ` X.+.O.' ) IXIXIXIXIXIXIXIXIXIXIXIXIXIXIXIXIXIXIXIXIXIXIXIXIXIXIXIXIXIXIXIXIXIXIXIXIXIXIXIXIXIXIXIXIXIXIXIXIXIXIXIXIXIXIXIXIXIXIXIXIXIXIXIXIX",
"IXIXIXIXIXIXIXIXIXIXIXIXIXi.u.l.oXOX$X$XOXk.d.u.n b v v b v R { ( 8 h c v b n y.p.d.k.oX&X2X6X8X0X8X2Xm.1 # @ 6 0 _ ` X. .[ Y IXIXIXIXIXIXIXIXIXIXIXIXIXIXIXIXIXIXIXIXIXIXIXIXIXIXIXIXIXIXIXIXIXIXIXIXIXIXIXIXIXIXIXIXIXIXIXIXIXIXIXIXIXIXIXIXIXIXIXIXIXIXIXIXIX",
"IXIXIXIXIXIXIXIXIXIXIXIXIXa.d.k.oX&X*X&XOXM.l.u.n b v v v v R  ._ 6 = - j v n n i.p.d.z.#X*X;X5X9X0X8X:Xm.z # # 6 w _ [ { m.N.IXIXIXIXIXIXIXIXIXIXIXIXIXIXIXIXIXIXIXIXIXIXIXIXIXIXIXIXIXIXIXIXIXIXIXIXIXIXIXIXIXIXIXIXIXIXIXIXIXIXIXIXIXIXIXIXIXIXIXIXIXIXIXIXIX",
"IXIXIXIXIXIXIXIXIXIXIXIXIXd.d.k.oX&X;X*X#XoXk.u.n b v v m v.} X._ 6 + # h v b b <.y.p.h.oX$X*X4X8X0X0X7X*X~ + O @ 7 w q Y +X&XIXIXIXIXIXIXIXIXIXIXIXIXIXIXIXIXIXIXIXIXIXIXIXIXIXIXIXIXIXIXIXIXIXIXIXIXIXIXIXIXIXIXIXIXIXIXIXIXIXIXIXIXIXIXIXIXIXIXIXIXIXIXIXIXIX",
"IXIXIXIXIXIXIXIXIXIXIXIXIXd.d.k.oX&X;X;X&XoXk.u.n b v v B.dXtXX.q @ + # h v b b <.i.y.a.z.oX#X;X5X8X9X9X2X! +   + 6 7 7 B m.&X4X5XIXIXIXIXIXIXIXIXIXIXIXIXIXIXIXIXIXIXIXIXIXIXIXIXIXIXIXIXIXIXIXIXIXIXIXIXIXIXIXIXIXIXIXIXIXIXIXIXIXIXIXIXIXIXIXIXIXIXIXIXIXIXIX",
"IXIXIXIXIXIXIXIXIXIXIXIXIXd.h.z.OX*X4X4X;X#Xz.f.i.b v v B.sXtX] 0 @ + # h v b b n <.i.u.l.x.oX&X;X5X8X9X5X@Xz = + @ @ @ 1 m.&X2X6XIXIXIXIXIXIXIXIXIXIXIXIXIXIXIXIXIXIXIXIXIXIXIXIXIXIXIXIXIXIXIXIXIXIXIXIXIXIXIXIXIXIXIXIXIXIXIXIXIXIXIXIXIXIXIXIXIXIXIXIXIXIXIX",
"IXIXIXIXIXIXIXIXIXIXIXIXIXf.h.M.&X2X5X5X4X&XoXl.u.n v v B.=X.._ 7 + + + IXIXb v v n <.u.a.l.z.oX#X;X6X5X6X&Xj.x + O + + 2 s.oX*X;XIXIXIXIXIXIXIXIXIXIXIXIXIXIXIXIXIXIXIXIXIXIXIXIXIXIXIXIXIXIXIXIXIXIXIXIXIXIXIXIXIXIXIXIXIXIXIXIXIXIXIXIXIXIXIXIXIXIXIXIXIXIXIX",
"IXIXIXIXIXIXIXIXIXIXIXIXIXd.h.oX&X;X4X4X2X*XOXk.u.n R C.@.X.) 7 @ + + IXIXIXIXv v b n <.u.a.l.z.oX$X*X;X*X#Xl.x   .   ; j i.h.oXOXIXIXIXIXIXIXIXIXIXIXIXIXIXIXIXIXIXIXIXIXIXIXIXIXIXIXIXIXIXIXIXIXIXIXIXIXIXIXIXIXIXIXIXIXIXIXIXIXIXIXIXIXIXIXIXIXIXIXIXIXIXIXIX",
"IXIXIXIXIXIXIXIXIXIXIXIXIXa.d.x.#X&X*X*X*X$XoXl.y.n E =Xo.) 0 @ + + IXIXIXIXIXIXv v v b <.u.a.h.z.oXOX#XOXx.s.l @ @ 8 T v.v.j.N.+XIXIXIXIXIXIXIXIXIXIXIXIXIXIXIXIXIXIXIXIXIXIXIXIXIXIXIXIXIXIXIXIXIXIXIXIXIXIXIXIXIXIXIXIXIXIXIXIXIXIXIXIXIXIXIXIXIXIXIXIXIXIXIX",
"IXIXIXIXIXIXIXIXIXIXIXIXIXy.u.h.z.z.M.oXoXx.l.p.<.b C { ` 0 6 + +   IXIXIXIXIXIXv v v v b n y.p.p.d.k.z.k.v.Y [ ] o.yXcXbXbXbXMXMXIXIXIXIXIXIXIXIXIXIXIXIXIXIXIXIXIXIXIXIXIXIXIXIXIXIXIXIXIXIXIXIXIXIXIXIXIXIXIXIXIXIXIXIXIXIXIXIXIXIXIXIXIXIXIXIXIXIXIXIXIXIXIX",
"IXIXIXIXIXIXIXIXIXIXIXIXIXg.<.y.p.u.p.h.h.a.y.<.1.R W [ q 6 @ +     IXIXIXIXIXIXv v v v v b n <.<.i.u.g.s.W ` X.rXiXzXBXZXSXAXFXFXIXIXIXIXIXIXIXIXIXIXIXIXIXIXIXIXIXIXIXIXIXIXIXIXIXIXIXIXIXIXIXIXIXIXIXIXIXIXIXIXIXIXIXIXIXIXIXIXIXIXIXIXIXIXIXIXIXIXIXIXIXIXIX",
"IXIXIXIXIXIXIXIXIXIXIXIX=XE n <.i.n n i.y.n b b v.D.D.' ( 6 @ + + IXIXIXIXIXIXIXIXIXv v v b b b b n n m Y [ X.+.yXpXiXgXhXhXhXzXlXBXCXIXIXIXIXIXIXIXIXIXIXIXIXIXIXIXIXIXIXIXIXIXIXIXIXIXIXIXIXIXIXIXIXIXIXIXIXIXIXIXIXIXIXIXIXIXIXIXIXIXIXIXIXIXIXIXIXIXIXIXIXIX",
"IXIXIXIXIXIXIXIXIXIXIXO.+.C.C.S.S.S.S.S.S.C.C.B.D.aXO.` 0 6 + + IXIXIXIXIXIXIXIXIXIXv v v v v b b c j M ( `  .X.X.@.+.rXtXpXiXgXkXBXZXAXIXIXIXIXIXIXIXIXIXIXIXIXIXIXIXIXIXIXIXIXIXIXIXIXIXIXIXIXIXIXIXIXIXIXIXIXIXIXIXIXIXIXIXIXIXIXIXIXIXIXIXIXIXIXIXIXIXIXIXIX",
"IXIXIXIXIXIXIXIXIXIXIXX.o.aXxXMXDXSXSXDXCXbXxXgXuXO.] 0 @ + O   IXIXIXIXIXIXIXIXIXIXv v v v v v v j 9 w ( ) _ ( ( _ ` ..rXuXiXhXzXZXFXGXHXIXIXIXIXIXIXIXIXIXIXIXIXIXIXIXIXIXIXIXIXIXIXIXIXIXIXIXIXIXIXIXIXIXIXIXIXIXIXIXIXIXIXIXIXIXIXIXIXIXIXIXIXIXIXIXIXIXIXIX",
"IXIXIXIXIXIXIXIXIXIXhXgXgXhXkXlXBXVXDXCXlXjXpXtX+.' q 6 +         IXIXIXIXIXIXIXIXIXIXv v b b c h 2 6 7 0 0 0 q _ ] o.tXgXhXzXBXZXGXHXHXHXIXIXIXIXIXIXIXIXIXIXIXIXIXIXIXIXIXIXIXIXIXIXIXIXIXIXIXIXIXIXIXIXIXIXIXIXIXIXIXIXIXIXIXIXIXIXIXIXIXIXIXIXIXIXIXIXIXIXIX",
"IXIXIXIXIXIXIXIXIXIXhXlXZXBXzXkXzXlXlXzXhXpXrXo.' _ 0 6 +       IXIXIXIXIXIXIXIXIXIXIXIXv v c h = 5 8 8 6 7 0 _  .rXiXkXBXVXZXAXGXHXHXHXHXIXIXIXIXIXIXIXIXIXIXIXIXIXIXIXIXIXIXIXIXIXIXIXIXIXIXIXIXIXIXIXIXIXIXIXIXIXIXIXIXIXIXIXIXIXIXIXIXIXIXIXIXIXIXIXIXIXIXIX",
"IXIXIXIXIXIXIXIXIXIXpXhXBXZXAXAXAXGXAXAXVXBXhXpX+.' ) q 6 +   IXIXIXIXIXIXIXIXIXIXIXIXIXIXh - = @ 5 7 7 0 ( ` X.rXiXkXBXZXAXAXGXGXHXHXHXHXKXIXIXIXIXIXIXIXIXIXIXIXIXIXIXIXIXIXIXIXIXIXIXIXIXIXIXIXIXIXIXIXIXIXIXIXIXIXIXIXIXIXIXIXIXIXIXIXIXIXIXIXIXIXIXIXIXIXIX",
"IXIXIXIXIXIXIXIXIXiXgXkXBXZXFXAXZXZXZXAXAXZXlXgXyXX.` ( 7 + + IXIXIXIXIXIXIXIXIXIXIXIXIXIXIX+ @ 6 7 0 q ( `  .+.yXgXzXBXVXZXZXAXAXGXGXGXGXGXHXIXIXIXIXIXIXIXIXIXIXIXIXIXIXIXIXIXIXIXIXIXIXIXIXIXIXIXIXIXIXIXIXIXIXIXIXIXIXIXIXIXIXIXIXIXIXIXIXIXIXIXIXIXIXIXIXIX",
"IXIXIXIXIXIXIXIXiXzXVXAXAXVXzXgXpXtXpXhXzXkXgXuX+. ._ 7 @ + + IXIXIXIXIXIXIXIXIXIXIXIXIXIXIX6 7 0 w q ( ) ` ' ..O.uXgXhXzXzXBXBXCXZXAXZXZXZXZXIXIXIXIXIXIXIXIXIXIXIXIXIXIXIXIXIXIXIXIXIXIXIXIXIXIXIXIXIXIXIXIXIXIXIXIXIXIXIXIXIXIXIXIXIXIXIXIXIXIXIXIXIXIXIXIXIX",
"IXIXIXIXIXIXIXIXrXiXzXlXlXzXhXgXpXrXrXrXrXO.+.X.] _ 0 @ + + IXIXIXIXIXIXIXIXIXIXIXIXIXIXIXIX6 6 7 0 w q ( ) ` ' X.+.rXrXtXuXpXpXgXhXkXkXkXkXkXIXIXIXIXIXIXIXIXIXIXIXIXIXIXIXIXIXIXIXIXIXIXIXIXIXIXIXIXIXIXIXIXIXIXIXIXIXIXIXIXIXIXIXIXIXIXIXIXIXIXIXIXIXIXIXIXIX",
"IXIXIXIXIXIXIXIXX.o.rXyXuXiXhXzXkXgXyXX.) ( q w 7 6 @     IXIXIXIXIXIXIXIXIXIXIXIXIXIXIXIXIX@ @ @ 6 7 0 q ( _ ` ' X.X.X...o.+.+.+.+.O.rXyXtXtXIXIXIXIXIXIXIXIXIXIXIXIXIXIXIXIXIXIXIXIXIXIXIXIXIXIXIXIXIXIXIXIXIXIXIXIXIXIXIXIXIXIXIXIXIXIXIXIXIXIXIXIXIXIXIXIXIX",
"IXIXIXIXIXIXIXIXrXpXgXkXzXhXiXuXyXuXtXo.` q 7 6 @ +     IXIXIXIXIXIXIXIXIXIXIXIXIXIXIXIXIXIX6 6 6 7 0 q ) `  ...+.rXyXuXpXiXuXrX+.' ` ' X...o.IXIXIXIXIXIXIXIXIXIXIXIXIXIXIXIXIXIXIXIXIXIXIXIXIXIXIXIXIXIXIXIXIXIXIXIXIXIXIXIXIXIXIXIXIXIXIXIXIXIXIXIXIXIXIXIXIX",
"IXIXIXIXIXIXIXIXgXhXlXVXZXzXpX+.X.+.O.+.' q 6 @ +     IXIXIXIXIXIXIXIXIXIXIXIXIXIXIXIXIXIXIX6 6 7 e w ( ` ' ..O.yXpXfXhXzXzXkXgXtXX.' | ' ] ] IXIXIXIXIXIXIXIXIXIXIXIXIXIXIXIXIXIXIXIXIXIXIXIXIXIXIXIXIXIXIXIXIXIXIXIXIXIXIXIXIXIXIXIXIXIXIXIXIXIXIXIXIXIXIXIXIX",
"IXIXIXIXIXIXIXIXO.O.O.tXgXkXkXpX+.' ) _ q 0 6 +       IXIXIXIXIXIXIXIXIXIXIXIXIXIXIXIXIXIXIX+ + @ @ 6 7 w q _ ` ' X.+.rXtXuXiXzXlXzXkXkXyX` q IXIXIXIXIXIXIXIXIXIXIXIXIXIXIXIXIXIXIXIXIXIXIXIXIXIXIXIXIXIXIXIXIXIXIXIXIXIXIXIXIXIXIXIXIXIXIXIXIXIXIXIXIXIXIXIXIX",
"IXIXIXIXIXIXIXIXrX+.+.+.rXpXgXpXO.` 7 6 6 6 @ + +   IXIXIXIXIXIXIXIXIXIXIXIXIXIXIXIXIXIXIXIX    + @ @ 6 0 q ( ` ' X.+.rXtXaXiXkXBXCXZXZXhX+.' IXIXIXIXIXIXIXIXIXIXIXIXIXIXIXIXIXIXIXIXIXIXIXIXIXIXIXIXIXIXIXIXIXIXIXIXIXIXIXIXIXIXIXIXIXIXIXIXIXIXIXIXIXIXIXIXIX",
"IXIXIXIXIXIXIXIXzXzXkXiXrX..'  . .` q 6 + + + + + IXIXIXIXIXIXIXIXIXIXIXIXIXIXIXIXIXIXIXIXIXIXIX@ @ 6 w ) | o.rXiXhXzXBXBXBXkXiXpXiXgXkXzXzXzXIXIXIXIXIXIXIXIXIXIXIXIXIXIXIXIXIXIXIXIXIXIXIXIXIXIXIXIXIXIXIXIXIXIXIXIXIXIXIXIXIXIXIXIXIXIXIXIXIXIXIXIXIXIXIXIXIX",
"IXIXIXIXIXIXIXzXkXhXgXiXuXX.) ( ( q w 6 + + + + IXIXIXIXIXIXIXIXIXIXIXIXIXIXIXIXIXIXIXIXIXIXIXIX+ @ 6 0 ) ` X.+.rXiXkXBXZXAXZXzXhXhXgXiXgXkXzXIXIXIXIXIXIXIXIXIXIXIXIXIXIXIXIXIXIXIXIXIXIXIXIXIXIXIXIXIXIXIXIXIXIXIXIXIXIXIXIXIXIXIXIXIXIXIXIXIXIXIXIXIXIXIXIXIX",
"IXIXIXIXIXIXzXhXtX+.o.rXuX+.` 0 6 6 6 @ +     IXIXIXIXIXIXIXIXIXIXIXIXIXIXIXIXIXIXIXIXIXIXIXIXIX  + @ 6 0 q ( ) ` ..rXgXlXAXHXGXGXAXBXiXyXrXrXIXIXIXIXIXIXIXIXIXIXIXIXIXIXIXIXIXIXIXIXIXIXIXIXIXIXIXIXIXIXIXIXIXIXIXIXIXIXIXIXIXIXIXIXIXIXIXIXIXIXIXIXIXIXIXIXIX",
"IXIXIXIXIXIXiXiXgXiXpX+. .X.' q @ @ @ + +   IXIXIXIXIXIXIXIXIXIXIXIXIXIXIXIXIXIXIXIXIXIXIXIXIXIX  + 6 7 w _ ] o.rXtXuXiXgXzXCXAXGXGXAXBXkXiXpXIXIXIXIXIXIXIXIXIXIXIXIXIXIXIXIXIXIXIXIXIXIXIXIXIXIXIXIXIXIXIXIXIXIXIXIXIXIXIXIXIXIXIXIXIXIXIXIXIXIXIXIXIXIXIXIXIX",
"IXIXIXIXIXIX..tXzXBXzX..0 _ ] q 6 @ +     IXIXIXIXIXIXIXIXIXIXIXIXIXIXIXIXIXIXIXIXIXIXIXIXIXIXIX+ @ 6 7 w ` ..tXgXgXgXiXpXuXiXhXBXZXGXHXAXCXBXIXIXIXIXIXIXIXIXIXIXIXIXIXIXIXIXIXIXIXIXIXIXIXIXIXIXIXIXIXIXIXIXIXIXIXIXIXIXIXIXIXIXIXIXIXIXIXIXIXIXIXIXIXIXIXIXIX",
"IXIXIXIXIXIX` O.hXzXhXX.7 7 0 7 @ + +   IXIXIXIXIXIXIXIXIXIXIXIXIXIXIXIXIXIXIXIXIXIXIXIXIXIXIXIXIX+ + @ 6 7 q ) X.rXiXhXhXtX+.+.yXhXVXGXJXGXGXIXIXIXIXIXIXIXIXIXIXIXIXIXIXIXIXIXIXIXIXIXIXIXIXIXIXIXIXIXIXIXIXIXIXIXIXIXIXIXIXIXIXIXIXIXIXIXIXIXIXIXIXIXIXIXIXIX",
"IXIXIXIXIXIX_ X.uXiXtX] 6 @ + + + + + IXIXIXIXIXIXIXIXIXIXIXIXIXIXIXIXIXIXIXIXIXIXIXIXIXIXIXIXIXIXIX    + @ 6 0 _  .rXgXkXiXrXX.X.yXhXCXGXHXKXIXIXIXIXIXIXIXIXIXIXIXIXIXIXIXIXIXIXIXIXIXIXIXIXIXIXIXIXIXIXIXIXIXIXIXIXIXIXIXIXIXIXIXIXIXIXIXIXIXIXIXIXIXIXIXIXIX",
"IXIXIXIXIXIX_ ] +.O.o.) 6 +       IXIXIXIXIXIXIXIXIXIXIXIXIXIXIXIXIXIXIXIXIXIXIXIXIXIXIXIXIXIXIXIXIX  + @ 7 w ) ' ` ' rXgXlXkXrXX.X.O.hXCXGXHXHXIXIXIXIXIXIXIXIXIXIXIXIXIXIXIXIXIXIXIXIXIXIXIXIXIXIXIXIXIXIXIXIXIXIXIXIXIXIXIXIXIXIXIXIXIXIXIXIXIXIXIXIXIXIXIXIX",
"IXIXIXIXIXIX0 q ) ` ) q 6 @ +   . IXIXIXIXIXIXIXIXIXIXIXIXIXIXIXIXIXIXIXIXIXIXIXIXIXIXIXIXIXIXIXIXIX  + @ 6 w ) ] ] ] X.rXhXzXgXrX .X.rXhXZXGXHXHXIXIXIXIXIXIXIXIXIXIXIXIXIXIXIXIXIXIXIXIXIXIXIXIXIXIXIXIXIXIXIXIXIXIXIXIXIXIXIXIXIXIXIXIXIXIXIXIXIXIXIXIXIXIXIX",
"IXIXIXIXIXIX6 7 0 w w 7 6 6 6 IXIXIXIXIXIXIXIXIXIXIXIXIXIXIXIXIXIXIXIXIXIXIXIXIXIXIXIXIXIXIXIXIXIXIXIXIX+ @ 6 0 ( | X.` ` O.gXkXgX+.X...tXlXZXGXHXIXIXIXIXIXIXIXIXIXIXIXIXIXIXIXIXIXIXIXIXIXIXIXIXIXIXIXIXIXIXIXIXIXIXIXIXIXIXIXIXIXIXIXIXIXIXIXIXIXIXIXIXIXIXIX",
"IXIXIXIXIX+.X.X.X.' ` ` ` ) ` X.IXIXIXIXIXIXIXIXIXIXIXIXIXIXIXIXIXIXIXIXIXIXIXIXIXIXIXIXIXIXIXIXIXIXIXIXIX+ @ 6 7 ) ' ` ) ` ..uXgXpXO.X.o.iXlXAXGXIXIXIXIXIXIXIXIXIXIXIXIXIXIXIXIXIXIXIXIXIXIXIXIXIXIXIXIXIXIXIXIXIXIXIXIXIXIXIXIXIXIXIXIXIXIXIXIXIXIXIXIXIXIXIX",
"IXIXIXIXiXiXgXgXpXrX+.o.o...X.+.rXIXIXIXIXIXIXIXIXIXIXIXIXIXIXIXIXIXIXIXIXIXIXIXIXIXIXIXIXIXIXIXIXIXIXIXIXIX+ + @ e ( ` ` q q X.yXgXpXX. .+.iXBXZXIXIXIXIXIXIXIXIXIXIXIXIXIXIXIXIXIXIXIXIXIXIXIXIXIXIXIXIXIXIXIXIXIXIXIXIXIXIXIXIXIXIXIXIXIXIXIXIXIXIXIXIXIXIXIX",
"IXIXfXjXhXhXgXuXO.o.X. . . .X.+.yXgXlXZXAXIXIXIXIXIXIXIXIXIXIXIXIXIXIXIXIXIXIXIXIXIXIXIXIXIXIXIXIXIXIXIXIXIXIX  + @ 7 ( ) w 0 q  .uXpX+.X.' +.gXBXZXIXIXIXIXIXIXIXIXIXIXIXIXIXIXIXIXIXIXIXIXIXIXIXIXIXIXIXIXIXIXIXIXIXIXIXIXIXIXIXIXIXIXIXIXIXIXIXIXIXIXIXIXIXIX",
"IXIXdXsXgXpXrX..` ) ) ( ( _ ) ' o.yXgXzXlXIXIXIXIXIXIXIXIXIXIXIXIXIXIXIXIXIXIXIXIXIXIXIXIXIXIXIXIXIXIXIXIXIXIXIX    + 7 q w 7 7 q ..rXO.X.) ] rXgXlXCXIXIXIXIXIXIXIXIXIXIXIXIXIXIXIXIXIXIXIXIXIXIXIXIXIXIXIXIXIXIXIXIXIXIXIXIXIXIXIXIXIXIXIXIXIXIXIXIXIXIXIXIXIX",
"7X2X+X-X=Xo.) w 0 6 6 @ @ 6 6 7 w )  .+.yXpXcXqX7XIXIXIXIXIXIXIXIXIXIXIXIXIXIXIXIXIXIXIXIXIXIXIXIXIXIXIXIXIXIXIXIX    + 6 7 7 6 7 ( ] ..' q ( ] +.pXiXIXIXIXIXIXIXIXIXIXIXIXIXIXIXIXIXIXIXIXIXIXIXIXIXIXIXIXIXIXIXIXIXIXIXIXIXIXIXIXIXIXIXIXIXIXIXIXIXIXIXIXIXIX",
";X$Xz.c.{ _ 7 @ @ +           + # 6 0 ( ] ..=X:X;XIXIXIXIXIXIXIXIXIXIXIXIXIXIXIXIXIXIXIXIXIXIXIXIXIXIXIXIXIXIXIXIXIX    + @ 6 @ @ 6 w ) _ 7 7 q ` o.rXIXIXIXIXIXIXIXIXIXIXIXIXIXIXIXIXIXIXIXIXIXIXIXIXIXIXIXIXIXIXIXIXIXIXIXIXIXIXIXIXIXIXIXIXIXIXIXIXIXIXIXIXIX",
"l.d.p.m 9 8 @ @ + +           + + # @ 6 e q W N.oXIXIXIXIXIXIXIXIXIXIXIXIXIXIXIXIXIXIXIXIXIXIXIXIXIXIXIXIXIXIXIXIXIXIX+ + + + + + + @ 7 7 6 7 w _  .rXgXIXIXIXIXIXIXIXIXIXIXIXIXIXIXIXIXIXIXIXIXIXIXIXIXIXIXIXIXIXIXIXIXIXIXIXIXIXIXIXIXIXIXIXIXIXIXIXIXIXIXIXIX",
"u.u.i.IXIXIXIXIXIXIXIXIXIXIXIXIX& 2 h - IXIXT s.d.IXIXIXIXIXIXIXIXIXIXIXIXIXIXIXIXIXIXIXIXIXIXIXIXIXIXIXIXIXIXIXIXIX ._ w 7 8 6 @ @ 5 7 0 w ( ` X.O.pXhXBXAXGXGXAXIXIXIXIXIXIXIXIXIXIXIXIXIXIXIXIXIXIXIXIXIXIXIXIXIXIXIXIXIXIXIXIXIXIXIXIXIXIXIXIXIXIXIXIXIXIXIX",
"y.y.IXIXIXIXIXIXIXIXIXIXIXIXIXIXIXv v IXIXIXIXi.y.IXIXIXIXIXIXIXIXIXIXIXIXIXIXIXIXIXIXIXIXIXIXIXIXIXIXIXIXIXIXIXIXo.X. .` ) ( w 7 7 7 w ( )  .+.yXiXhXzXCXZXAXAXZXVXIXIXIXIXIXIXIXIXIXIXIXIXIXIXIXIXIXIXIXIXIXIXIXIXIXIXIXIXIXIXIXIXIXIXIXIXIXIXIXIXIXIXIXIXIXIX",
"IXIXIXIXIXIXIXIXIXIXIXIXIXIXIXIXIXIXIXIXIXIXIXIXIXIXIXIXIXIXIXIXIXIXIXIXIXIXIXIXIXIXIXIXIXIXIXIXIXIXIXIXIXIXIXIXgXrXo.X.' ` ) ( q w w ( ) ' ..rXpXgXhXkXNXCXVXCXBXkXuXyXhXIXIXIXIXIXIXIXIXIXIXIXIXIXIXIXIXIXIXIXIXIXIXIXIXIXIXIXIXIXIXIXIXIXIXIXIXIXIXIXIXIXIXIX",
"IXIXIXIXIXIXIXIXIXIXIXIXIXIXIXIXIXIXIXIXIXIXIXIXIXIXIXIXIXIXIXIXIXIXIXIXIXIXIXIXIXIXIXIXIXIXIXIXIXIXIXIXIXIXIXsXiXrX..' ` ` ) ( q w q ( ) ] X.O.yXpXiXgXhXkXzXkXhXpX+.O.gXkXIXIXIXIXIXIXIXIXIXIXIXIXIXIXIXIXIXIXIXIXIXIXIXIXIXIXIXIXIXIXIXIXIXIXIXIXIXIXIXIXIXIX",
"IXIXIXIXIXIXIXIXIXIXIXIXIXIXIXIXIXIXIXIXIXIXIXIXIXIXIXIXIXIXIXIXIXIXIXIXIXIXIXIXIXIXIXIXIXIXIXIXIXIXIXIX9X6X$X-XO...' ) _ _ q 0 7 7 7 0 q ) `  ...+.O.rXtXpXpXpXyX+. . .tXdX+X#X4X8X0XIXIXIXIXIXIXIXIXIXIXIXIXIXIXIXIXIXIXIXIXIXIXIXIXIXIXIXIXIXIXIXIXIXIXIXIXIX",
"IXIXIXIXIXIXIXIXIXIXIXIXIXIXIXIXIXIXIXIXIXIXIXIXIXIXIXIXIXIXIXIXIXIXIXIXIXIXIXIXIXIXIXIXIXIXIXIXIXIXIX9X7X;XoXC. .] ) / w 0 7 6 @ @ 5 6 7 0 q ( ) ` ' X...+.+.o.X.] _ _ ..D.m.z.&X2X7X9XIXIXIXIXIXIXIXIXIXIXIXIXIXIXIXIXIXIXIXIXIXIXIXIXIXIXIXIXIXIXIXIXIXIXIXIX",
"IXIXIXIXIXIXIXIXIXIXIXIXIXIXIXIXIXIXIXIXIXIXIXIXIXIXIXIXIXIXIXIXIXIXIXIXIXIXIXIXIXIXIXIXIXIXIXIXIXIX9X7X;XOXh.W ) ( q e 6 6 @ + + + + @ @ @ @ 6 7 0 q _ ) ) ` ) ( q 7 7 ( Y m <.d.oX;X5X9X0XIXIXIXIXIXIXIXIXIXIXIXIXIXIXIXIXIXIXIXIXIXIXIXIXIXIXIXIXIXIXIXIXIXIX",
"IXIXIXIXIXIXIXIXIXIXIXIXIXIXIXIXIXIXIXIXIXIXIXIXIXIXIXIXIXIXIXIXIXIXIXIXIXIXIXIXIXIXIXIXIXIXIXIXIXIX5X;XoXl.g.N e 7 6 @ @ # + + + + + + + + + + @ @ 6 7 7 7 7 7 6 6 @ 6 8 9 c n y.d.M.&X2X6XIXIXIXIXIXIXIXIXIXIXIXIXIXIXIXIXIXIXIXIXIXIXIXIXIXIXIXIXIXIXIXIXIXIX",
"IXIXIXIXIXIXIXIXIXIXIXIXIXIXIXIXIXIXIXIXIXIXIXIXIXIXIXIXIXIXIXIXIXIXIXIXIXIXIXIXIXIXIXIXIXIXIXIXIXIX*XOXh.p.i.x @ + + + + + + + + + + + + + + + + + + + + + + + + + @ @ @ 2 c n <.u.d.z.OX#XIXIXIXIXIXIXIXIXIXIXIXIXIXIXIXIXIXIXIXIXIXIXIXIXIXIXIXIXIXIXIXIXIXIX",
"IXIXIXIXIXIXIXIXIXIXIXIXIXIXIXIXIXIXIXIXIXIXIXIXIXIXIXIXIXIXIXIXIXIXIXIXIXIXIXIXIXIXIXIXIXIXIXIXIXIXx.z.IXIXIXIXIXIXIXIXIXIXIXIXIXIXIXIXIXIXIXIXIXIXIXIXIXIXIXIXIXIXIXIXIXIXIXIXIXIXIXd.d.d.IXIXIXIXIXIXIXIXIXIXIXIXIXIXIXIXIXIXIXIXIXIXIXIXIXIXIXIXIXIXIXIXIXIX",
"IXIXIXIXIXIXIXIXIXIXIXIXIXIXIXIXIXIXIXIXIXIXIXIXIXIXIXIXIXIXIXIXIXIXIXIXIXIXIXIXIXIXIXIXIXIXIXIXIXIXd.d.IXIXIXIXIXIXIXIXIXIXIXIXIXIXIXIXIXIXIXIXIXIXIXIXIXIXIXIXIXIXIXIXIXIXIXIXIXIXIXIXi.i.IXIXIXIXIXIXIXIXIXIXIXIXIXIXIXIXIXIXIXIXIXIXIXIXIXIXIXIXIXIXIXIXIXIX"
};
