/* XPM */
static const char *bos2d2[] = {
/* columns rows colors chars-per-pixel */
"128 128 247 2 ",
"   c #0B0B0B",
".  c #040404",
"X  c #151515",
"o  c #1C1C1C",
"O  c #171719",
"+  c #0D0E12",
"@  c #2A1B11",
"#  c #1B3514",
"$  c #2B230F",
"%  c #2D2511",
"&  c #29251C",
"*  c #332B13",
"=  c #3C2E16",
"-  c #352B1B",
";  c #3C311A",
":  c #34270E",
">  c #1C1E21",
",  c #242424",
"<  c #2C2A23",
"1  c #2B2B2C",
"2  c #262828",
"3  c #352D24",
"4  c #3C3323",
"5  c #37332A",
"6  c #333333",
"7  c #3B3B3B",
"8  c #383837",
"9  c #2D3130",
"0  c #1F2021",
"q  c #7C0202",
"w  c #6A1D1D",
"e  c #452C15",
"r  c #433219",
"t  c #4A361B",
"y  c #4D391D",
"u  c #423116",
"i  c #523C1E",
"p  c #58381A",
"a  c #56290C",
"s  c #6A2A05",
"d  c #732B00",
"f  c #752B00",
"g  c #7B3302",
"h  c #783606",
"j  c #6D3813",
"k  c #453826",
"l  c #553D21",
"z  c #583D25",
"x  c #443D35",
"c  c #4E2D26",
"v  c #6F322F",
"b  c #451D05",
"n  c #254F1B",
"m  c #324A2D",
"M  c #356C29",
"N  c #734515",
"B  c #494329",
"V  c #5C4222",
"C  c #564427",
"Z  c #494439",
"A  c #584837",
"S  c #5A5537",
"D  c #5D5328",
"F  c #634525",
"G  c #6D4B29",
"H  c #674828",
"J  c #724D2B",
"K  c #764A29",
"L  c #7C522E",
"P  c #76572A",
"I  c #6D5532",
"U  c #726634",
"Y  c #544A25",
"T  c #3D3E42",
"R  c #423E42",
"E  c #3F4041",
"W  c #444444",
"Q  c #4B4C4C",
"!  c #484747",
"~  c #544A46",
"^  c #58544A",
"/  c #4E4E51",
"(  c #4E5051",
")  c #545454",
"_  c #5B5B5B",
"`  c #585757",
"'  c #4B5349",
"]  c #665849",
"[  c #6D554E",
"{  c #666159",
"}  c #746759",
"|  c #736848",
" . c #5F6062",
".. c #636364",
"X. c #6C6C6C",
"o. c #696866",
"O. c #776B67",
"+. c #797268",
"@. c #737474",
"#. c #7B7B7B",
"$. c #787777",
"%. c #6E7171",
"&. c #596659",
"*. c #970606",
"=. c #971818",
"-. c #870707",
";. c #A80303",
":. c #B80303",
">. c #B21818",
",. c #823D05",
"<. c #813602",
"1. c #872929",
"2. c #903131",
"3. c #AD3333",
"4. c #C30000",
"5. c #CB0101",
"6. c #D80000",
"7. c #CB1212",
"8. c #EB0101",
"9. c #E40101",
"0. c #F50303",
"q. c #EC1313",
"w. c #DF2D2D",
"e. c #8D4B0B",
"r. c #874408",
"t. c #96550E",
"y. c #9A5C13",
"u. c #965915",
"i. c #8B4F12",
"p. c #9D6316",
"a. c #9D620E",
"s. c #A56C1A",
"d. c #A26615",
"f. c #AB731C",
"g. c #AC771D",
"h. c #B27B1B",
"j. c #83572A",
"k. c #8C5C35",
"l. c #845832",
"z. c #915E36",
"x. c #8B552C",
"c. c #9B653C",
"v. c #976438",
"b. c #877536",
"n. c #916F2B",
"m. c #AA7A26",
"M. c #B17E21",
"N. c #A26A3D",
"B. c #A57230",
"V. c #904E4C",
"C. c #8E7450",
"Z. c #A96D42",
"A. c #B67549",
"S. c #A7764C",
"D. c #857A76",
"F. c #907569",
"G. c #AD6D6D",
"H. c #A74B4B",
"J. c #C37D4E",
"K. c #D85D5D",
"L. c #3C822F",
"P. c #439037",
"I. c #53AD47",
"U. c #71926E",
"Y. c #5B9854",
"T. c #67D35F",
"R. c #938337",
"E. c #B48324",
"W. c #B98B28",
"Q. c #BD922C",
"!. c #A9943A",
"~. c #B89635",
"^. c #AA8732",
"/. c #BDA23D",
"(. c #C39A2E",
"). c #C1962D",
"_. c #C49D33",
"`. c #CDAC3B",
"'. c #C9A536",
"]. c #D1AC38",
"[. c #D4B43E",
"{. c #CDB13F",
"}. c #968E4D",
"|. c #A9934E",
" X c #B8A846",
".X c #B1A651",
"XX c #958A76",
"oX c #AA8D70",
"OX c #B2A171",
"+X c #CC8957",
"@X c #C7AB46",
"#X c #D6BA43",
"$X c #CBB64D",
"%X c #C8AF72",
"&X c #DCC449",
"*X c #D2C859",
"=X c #E4CC4B",
"-X c #E8D755",
";X c #E3CE50",
":X c #F1E45D",
">X c #F4EB63",
",X c #FBF569",
"<X c #EFE460",
"1X c #D2CC70",
"2X c #7D7E81",
"3X c #807F80",
"4X c #7F8182",
"5X c #848484",
"6X c #8C8C8C",
"7X c #878888",
"8X c #968987",
"9X c #8E9191",
"0X c #939494",
"qX c #9B9C9C",
"wX c #989898",
"eX c #92918C",
"rX c #A7958D",
"tX c #B5A790",
"yX c #9E9FA1",
"uX c #9FA1A2",
"iX c #A4A4A4",
"pX c #ABABAB",
"aX c #A6A7A7",
"sX c #B3B3B3",
"dX c #BBBBBB",
"fX c #B8B8B7",
"gX c #B2ADAC",
"hX c #C7B18C",
"jX c #C8B8B1",
"kX c #CC8F8F",
"lX c #D4C5B4",
"zX c #D2C684",
"xX c #BDBEC0",
"cX c #BDC1C1",
"vX c #C3C4C4",
"bX c #CBCBCB",
"nX c #C8C8C7",
"mX c #D3D3D3",
"MX c #DBDCDC",
"NX c #DCD9D4",
"BX c #CECFCE",
"VX c #E4E4E4",
"CX c #EBEBEB",
"ZX c #F0F0F0",
"AX c #DFDDD7",
"SX c None",
"DX c black",
/* pixels */
"SXSXSXSXSXSXSXSXSXSXSXSXSXSXSXSXSXSXSXSXSXSXSXSXSXSXSX8.8.8.8.9.6.6.4.:.3.G.rXaXpXpXpXpXpXpXpXsXsXfXfXfXfXfXfXfXfXdXdXvXvXvXvXnXnXnXBXmXBXjXK.w.0.0.0.8.8.8.8.9.9.6.6.6.6.5.5.4.4.4.4.4.4.4.SXSXSXSXSXSXSXSXSXSXSXSXSXSXSXSXSXSXSXSXSXSXSXSXSXSXSXSXSXSXSXSXSXSX",
"SXSXSXSXSXSXSXSXSXSXSXSXSXSXSXSXSXSXSXSXSXSXSXSXSXSX8.8.8.9.6.6.4.>.>.2.V.F.8X0XwXwXwXqXqXiXiXpXpXpXpXpXpXpXpXpXpXsXfXfXfXfXfXdXcXcXjXjXkXK.K.w.0.0.8.8.9.6.6.6.5.5.4.:.:.:.;.;.;.;.;.;.;.;.*.SXSXSXSXSXSXSXSXSXSXSXSXSXSXSXSXSXSXSXSXSXSXSXSXSXSXSXSXSXSXSXSXSX",
"SXSXSXSXSXSXSXSXSXSXSXSXSXSXSXSXSXSXSXSXSXSXSXSX8.8.8.9.6.5.:.;.=.2.V.F.@.@.@.$.#.5X7X6X0XwXwXqXiXiXqXwXwXwXwXwXwXqXiXiXiXiXiXaXaXpXrXK.w.q.q.8.8.9.6.6.5.4.:.:.;.;.;.*.*.-.-.-.q q q q q q q q -.-.*.*.*.SXSXSXSXSXSXSXSXSXSXSXSXSXSXSXSXSXSXSXSXSXSXSXSXSXSXSX",
"SXSXSXSXSXSXSXSXSXSXSXSXSXSXSXSXSXSXSXSXSXSX8.8.8.9.6.4.:.;.=.2.V.F.8XwXyXqXqXyXiXiXpXpXiXaXpXsXsXpXpXiXqXqXqXqXwX0X6X6X9X0XeX8XG.K.w.w.0.8.8.6.6.5.:.;.;.3.3.H.H.V.2.2.2.v v v v v v v v v w w w w w w w c 3 SXSXSXSXSXSXSXSXSXSXSXSXSXSXSXSXSXSXSXSXSXSXSXSXSX",
"SXSXSXSXSXSXSXSXSXSXSXSXSXSXSXSXSXSXSXSX9.8.8.9.6.5.:.;.*.1.[ O.5XwXpXdXnXBXmXmXMXmXmXnXvXdXdXvXnXvXfXsXpXpXpXpXiX0X6X7X7X6X8XG.w.q.8.8.9.6.6.4.:.;.*.*.2.V.8XwX0X5X@.@.@.$.$.@.@.%.X.o... ._ ` ) / ~ Q ! W W W SXSXSXSXSXSXSXSXSXSXSXSXSXSXSXSXSXSXSXSXSXSXSXSX",
"SXSXSXSXSXSXSXSXSXSXSXSXSXSXSXSXSXSX~ 1.>.6.6.6.4.;.=.1.v [ D.0XaXfXnXmXNXMXMXMXMXmXbXnXdXfXfXfXfXfXfXfXsXsXsXsXpXpXaXiXiXiXrXG.w.6.9.6.5.4.:.;.;.=.2.V.F.8XeX9X5X$.o.....o.X.$.#.4X5X5X5X5X7X7X6X6X6X6X7X7X5X5X7X7X6X7X5X#.$.@.X.SXSXSXSXSXSXSXSXSXSXSXSXSXSXSX",
"SXSXSXSXSXSXSXSXSXSXSXSXSXSXSXSXSX! ! v =.4.5.:.;.*.1.[ O.4XwXpXdXnXmXMXMXMXMXmXmXnXnXdXfXfXfXsXpXpXsXsXfXfXfXdXxXcXjXjXcXdXgXrXK.w.7.:.;.;.*.=.=.V.F.8XwX9X7X#.X..._ ) ) _ o.$.5X6XwXwXqXiXpXfXdXvXnXnXnXnXvXfXpXiXwX0X6X7X#.$.@.X.X.SXSXSXSXSXSXSXSXSXSXSXSXSX",
"SXSXSXSXSXSXSXSXSXSXSX5X#.X...) ( ! ! v =.:.4.;.*.-.2.F.eXuXpXsXdXnXmXmXMXMXmXmXbXnXvXvXvXvXvXdXfXfXsXsXsXdXnXmXmXbXnXnXnXnXjXgXrXG.H.2.*.*.1.V.F.D.7X6X7X#.X.o._ ) ) _ ..X.#.7X0XqXiXsXfXvXbXmXMXMXVXVXVXVXVXMXmXnXdXsXpXqX0X7X#.$.@.@.X...) ) Q SXSXSXSXSXSXSX",
"SXSXSXSXSXSXSXSXSX#.7X7X#.X._ ) ( Q ~ v =.:.:.>.=.2.V.8XiXsXsXfXfXdXvXnXnXnXnXnXdXfXsXgXsXsXsXsXsXpXpXpXpXfXnXbXmXBXbXnXnXnXvXfXaXwXD.V.2.1.V.D.7X6X5X#.@.o._ ) ) ) _ ..@.5X6XwXqXpXsXvXbXmXVXVXCXCXZXZXZXZXZXCXVXMXmXnXdXsXiXwX6X7X#.#.@.X._ ) ) Q SXSXSXSXSXSX",
"SXSXSXSXSXSXSXX.X.#.7X6X5XX._ Q ( ( ^ v =.;.>.H.G.8XqXqXiXpXsXfXfXfXpXpXpXsXfXsXiXwX0X7X7X7X7X6X0XwXqXiXpXpXsXfXdXnXbXbXnXvXfXgXiXwX6XD.O.O.+.3X7X5X$.X...) Q Q ) _ o.@.5X6XwXiXpXsXdXnXmXMXVXCXCXZXZXZXZXZXCXCXVXVXMXmXnXdXsXiXqXwX0X7X5X#.X...) Q ! W SXSXSXSX",
"SXSXSXSXSXSXSX@.$.#.7X6X7XX._ Q Q ) ` ~ v w 1.V.8XqXqXwXwXqXpXfXdXfXsXgXsXsXsXpXqX6X7X7X7X7X6XwXqXpXsXfXdXdXfXfXfXdXdXdXfXfXsXsXpXpXqX7X$.%.$.#.#.$.X._ ) Q ! ! ) ..%.#.7X0XqXiXpXfXvXnXmXMXVXVXCXCXCXCXCXCXCXVXVXMXMXmXnXdXsXpXiXwX0X6X7X#.@.o._ ) Q ! ! SXSXSX",
"SXSXSXSXSXSXSX5X5X7X6X6X5XX.) Q Q ) _ ) ~ ~ ) o.D.7X7X7X7X0XiXfXvXnXnXnXvXdXfXpXqX0X0XwXqXiXpXfXvXnXmXmXmXmXbXvXfXpXiXiXiXpXgXfXvXvXsX0X$.o.X.@.@.X._ Q ! W W Q ) o.$.#.7X0XwXiXpXfXdXvXnXmXmXMXVXVXVXVXVXVXMXMXMXmXbXnXdXfXpXiXwX0X6X7X5X$.X..._ ) Q Q Q SXSXSX",
"SXSXSXSXSXX.#.7X0X0X6X7X#.o.) Q ! Q ) ..$.7X9XwXwXwX0X7X7X0XiXfXvXnXmXbXnXfXpXiXiXiXpXfXvXnXbXbXbXmXmXmXbXnXdXsXaXwX0X0XqXpXfXvXnXnXfXwX#.X.o.o.o._ Q 7 7 7 W Q ) o.@.#.7X0XwXiXpXsXfXfXvXnXnXbXmXmXmXmXmXmXbXbXnXnXxXfXsXpXiXwX0X6X7X5X#.@.o._ ) ) Q Q Q SXSXSX",
"SXSXSX..o.X.#.0XqXwX6X#.@...) Q W W Q X.0XsXdXfXpXiXqXwX0XwXpXfXvXnXbXnXdXpXiXiXpXfXnXmXMXMXMXbXnXxXdXdXfXsXpXqXwX7X7X7XqXpXdXnXnXvXpX0X$.o._ _ ` Q 7 6 6 8 7 ! ) _ X.#.5X6XwXqXiXpXpXsXsXfXfXfXdXvXvXvXvXdXdXfXfXsXpXpXiXqXwX0X6X7X5X#.@.X...) ) Q Q ! W SXSXSX",
"SXSXSXo.X.$.7XqXiXqX7X@.o._ ) Q 7 7 W ` #.wXiXiXiXiXiXiXiXpXsXfXfXfXfXfXpXiXqXiXfXbXMXMXMXmXvXpXwX0XwXiXiXiXqXwX0X6X7X6XqXpXfXfXpXiX6X$._ ) ( ) / ! 7 1 1 6 7 W Q ) ..X.#.7X6X0XwXqXqXiXiXiXaXpXpXpXpXpXpXpXpXpXiXiXiXqXwXwX0X6X7X5X#.$.X.o._ ) Q ! W 7 7 8 6 1 ",
"SXSXSXX.@.#.0XiXpXwX#.o._ ) Q ! 7 1 1 7 ) @.5X0XqXiXpXsXsXfXfXsXpXaXiXqXqXqXiXsXnXMXMXmXnXsXwX#..._ ..X.#.5X6X0X0X0X6X0XwXqXqXwX6X#.X._ Q ! ! Q Q W 6 1 2 1 8 7 ! Q ` ..X.#.#.5X7X7X7X7X6X6X0X0XwXwXwXwXwXwXwX0X0X6X6X7X7X7X5X5X#.#.@.X.o._ ) Q ! W 7 7 8 6 1 1 ",
"SXSXSX#.#.7XwXpXpXwX$._ Q Q Q W 6 o O o 6 Q ..5XqXgXfXfXfXsXpXiXqX0X7X7X0XiXfXnXmXMXmXdXqX#...W 1 o o 1 8 ) @.7X0XwXwX9X7X#.@.X.o..._ ) Q ! ! ! W 7 1 , , 2 1 8 7 ! Q )  .o.X.X.X.X.X.X.X.@.$.#.#.#.#.#.#.#.$.$.@.@.X.X.o.o..........._ _ ) Q W 7 7 7 8 6 1 1 1 ",
"SXSXSX#.7X0XiXpXpXwXX.Q W ! Q W 1 O     O 1 Q #.iXvXnXdXfXsXpXiXwX6X5X7XwXsXnXmXmXbXfXwXX.Q 6 o   . .   o 7 ..#.6X0X6X7X#.X.o.o.X.X.X.o._ ) Q ! 7 6 2 o o , 2 1 8 7 W Q Q ) ) ) ) ) ) ) ` _ _ _ ......_ _ ) ) ) Q Q Q Q ! ! Q Q Q Q Q Q ! W 7 8 8 6 1 1 1 2 , , ",
"! Q _ @.7XwXiXsXpX0XX.Q 7 ! Q ! 6 O . .   o W #.pXbXmXnXfXgXpXaXiXwX6X0XiXdXmXmXnXfXwXX.7 o           O 2 W o.#.7X5X#.$.@.@.$.5X0XqXwX7X#.X._ Q 7 1 2 o o o , 2 1 1 6 8 7 7 W W ! ! ! ! ! ! ! ! ! ! ! W 7 7 7 8 6 6 6 6 6 6 8 7 7 7 8 8 6 6 6 1 1 2 , o o o o o ",
"W Q ) X.5X0XiXiXyX5X_ 7 8 W Q Q 7 ,   . . O 8 X.iXvXvXfXpXiXqXwXwX6X7X6XiXfXnXvXpX6XX.Q 2   . .   X o 1 7 _ #.6X7X#.X.X.#.7XwXiXsXfXsXiX0X#...! 6 2 o o O O O o o , 2 1 1 1 6 6 8 8 8 6 6 6 6 8 7 7 ! Q ) _ ..o.o..._ Q W 8 6 1 1 1 1 1 1 2 2 2 , o O O O O O O ",
"W Q ) X.5X6XwXwX6X@.Q 6 1 7 Q ) ! 6 , o o 2 W X.wXsXfXpXiXqXwX0X6X7X5X7XwXsXdXpX6Xo.Q 1 O       O 2 7 Q o.5XwXiXwX#.o.X.5XiXfXvXnXvXfXpXwX5X..x 1 o o o O O O O O O o o , 2 2 2 2 2 2 2 2 1 1 8 W ) o.$.7XwXiXpXpXpXwX5Xo.Q 7 8 1 1 2 2 , , o o O O O o o o o o ",
") _ o.#.6X0X0X7X#._ W 1 1 7 Q Q Q W W Q _ @.7XiXdXbXbXnXdXfXgXiXqX6X5X5X6XiXpXqX#.) 8 , O O O 2 8 Q o.5XwXiXpXpXwX#.o.X.7XpXvXnXvXfXpXiX0X#._ 7 1 , 1 1 1 2 , o O O O O O o o o o o O O , 8 Q X.5X0XiXsXdXnXmXmXbXnXfXpXwX5XX.) W 8 1 2 , o O O O o o , 2 1 1 1 ",
"_ ..@.5X0XwX0X5X@._ W 1 1 6 W Q ) _ X.#.wXsXnXmXVXVXVXMXmXbXvXsXiXwX7X5X7XwXiX6XX.Q 6 1 2 1 7 Q ..#.wXsXvXvXfXpXwX#.X.X.6XpXvXvXfXpXqX9X5XX.) 8 2 2 1 7 7 8 6 1 1 1 2 2 2 2 2 2 2 1 1 8 W _ #.yXfXvXnXbXmXmXmXnXdXsXpXpXpXiX0X#.o.) ! 7 6 1 2 , 2 1 1 1 6 6 6 6 ",
"_ _ X.#.6XwXwX0X7XX.) 7 6 6 7 ! ..#.wXsXvXmXMXVXCXCXCXVXMXbXfXiXwX0X0X0XwXwXwX7XX.) ! ! Q ) X.#.wXpXvXbXmXvXpX0X#.X.o.@.6XpXdXfXpXwX7X#.X._ ! 1 , , 1 8 7 ! Q Q ) ) Q Q Q ! ! Q ) _ X.7XwXpXfXdXvXdXfXsXiXwX6X5X$.@.@.#.7XwXwX0X6X5X@...) Q W 7 7 W ! 7 8 1 2 , ",
"Q ) _ o.$.5X7X7X7X$._ Q 7 8 8 W _ #.wXsXnXMXVXCXCXCXVXmXnXpX0X#.$.#.7XwXqXiXqX0X#.X.o.X.$.5XwXpXdXnXbXbXvXpX6X$.X.o.X.$.6XiXpXiXwX5X$.o._ Q 7 1 o o , 1 8 7 Q ) _ ..o.X.X.%.$.#.7XwXiXfXnXnXfXpXiXwX7X#.X._ ) Q W E ! ) ..@.#.7X6X6X7X#.$.X.o._ ) ) Q ! 8 1 o O ",
"7 E ! Q ) _ ..X.X.X...) Q 7 8 8 W ) X.7XsXmXVXCXCXMXnXpX0X$.) W W _ #.wXiXpXpXpXqX0X6X0XwXiXsXvXnXnXdXpXwX5Xo.) _ o.$.#.7X6X6X7X#.X._ ) ! 7 1 2 o O O O o 2 6 7 Q ) ..@.7XwXiXsXdXvXnXvXfXiX6X$...) ! 7 6 9 1 1 1 1 1 6 6 E Q _ X.$.#.7X7X7X5X$.o.) ! 7 8 SXSXSX",
"7 7 7 7 7 W ! Q ) ) / Q ! 7 6 1 9 8 Q X.qXnXMXVXVXmXfX6XX.Q 6 2 6 ) #.qXpXfXfXfXpXpXiXqXqXwXqXqXqXwX7X#.X._ ) Q ) o.$.#.#.$.X.o._ ) ! 7 1 2 o O O O O O O O o 2 1 7 ! ) ..%.#.7X9X0X6X7X#.X._ ! 7 5 < & & & & & & - 3 < < < 5 7 ! ) _ X.X.X.X...) W 8 1 1 SXSXSX",
"SXSXSX6 6 6 6 6 6 8 8 8 8 6 1 2 , 2 6 _ 7XfXmXMXmXnXqX@.Q 8 1 1 7 o.6XpXfXfXfXsXpXpXiXwX7X#.X.o._ _ ) ) Q Q Q ) _ o.X.X.o._ Q ! W 7 1 , O X   X O O O O O O O O O o , 2 1 1 6 8 7 7 8 6 9 1 1 1 1 3 ; r ; = * * ; ; r ; * - - < 1 1 8 7 7 7 7 7 6 1 , o O SXSXSX",
"SXSXSX- - - 3 3 4 4 4 4 4 4 3 3 & & 1 ) 5XpXnXbXnXsX6X..7 8 7 Q ..5XiXsXfXsXiXwX6X#.@.o._ _ ) ) ) ) _ ..o.o.o.o..._ ) Q ! 7 6 1 2 , o O O O O O & , , 2 2 2 2 2 & & % % - - - - - - - ; k k 4 4 4 k l V i y t t t i i t u = * * & & - - 3 3 < - & & o SXSXSXSXSX",
"SXSXSX* * * ; t y y y y y t t k k 5 W ..7XpXvXnXdXpX7Xo.Q Q ..#.7XwXiXpXpXqX6X#.X._ ) ) ) ) _ ..X.X.$.#.#.#.$.X.o.) Q W 7 6 1 1 1 1 1 1 1 1 6 6 8 8 6 6 6 6 8 6 5 4 r r t t y y y i l F H H H F F H J J G H V V V V V i t r = * * * * * * * % % % SXSXSXSXSXSXSX",
"SXSXSX% * = t l F F V l i V F H ] } #.0XpXdXnXnXnXdXaX0X5X5X6XwXqXqXwX0X7X@.o...o.X.$.#.7X0X0X0X6X7X7X#.@.o.` ) ) _ o.o.o.........o.o.o.o.o..._ _ ) Q W 7 7 8 6 5 k i i i i V H J L L L L l.z.c.v.k.L J L l.k.l.J F l l y t r = * * * = = * * * * SXSXSXSXSXSXSX",
"SXSXSX* * r l G L L J H H G L k.C.8XyXsXxXnXbXbXbXnXdXsXpXiXiXiXwX6X5X$.X.....X.#.6XqXiXpXpXpXqX0X7X$.o._ ) ) ) ..$.7X6X6X6X6X6X6X7X7X7X#.#.@.X..._ Q W 7 6 9 5 k z F H V V G l.c.Z.c.k.l.z.Z.J.J.Z.k.L l.c.Z.c.l.H V l l l t r = * = = = = * * * SXSXSXSXSXSXSX",
"SXSXSX= ; y H l.v.z.l.J L j.z.Z.F.rXaXfXnXmXmXmXbXnXvXfXsXiXwX7X#.X._ _ o.#.6XqXpXfXfXfXpXwX7X$.o.) ! 7 ! _ $.6XwXiXiXiXiXiXiXwX9X7X#.$.X...) Q W 7 6 1 1 2 2 3 k H L L J J L c.A.A.A.c.k.c.A.+X+XA.v.l.k.c.Z.N.l.G V V V V i t r = ; r r = * % % SXSXSXSXSXSXSX",
"SXSXSXr t l J v.N.c.k.L l.z.N.S.oXrXiXsXvXBXmXmXbXnXdXfXpXwX5XX..._ _ X.#.wXpXfXdXfXsXiX6X#.o.) W 7 8 7 ! _ #.0XwXwX0X6X7X7X2X$.X._ ) Q ! W 7 6 1 1 1 1 1 < < k C L k.k.l.L k.Z.A.J.A.c.z.c.A.+X+XA.c.k.z.Z.A.Z.k.G F V F F l y r ; r r r = * % $ SXSXSXSXSXSXSX",
"SXSXSXy i V L c.Z.N.k.L l.z.N.S.oXXXwXaXfXvXnXbXnXnXfXiX0X#...) ) o.5XwXaXfXdXfXpXwX7X$.o.) ! 7 6 8 W ) ..X.X.@.@.X.o._ ) Q W 7 1 1 2 , , , 2 2 1 6 7 W Z x k V G k.v.v.k.l.k.Z.A.J.A.c.z.c.A.+X+XA.c.k.v.Z.A.Z.k.J F F H H V i r ; r r r = * % $ SXSXSXSXSXSXSX",
"SXSXSXt y V L v.Z.N.k.L l.z.N.S.F.F.7X0XiXsXfXdXdXfXqX7X@..._ _ o.#.wXiXpXpXpXqX7X$.X..._ _ _ _ _ o.@.5X6X0X0X0X7X#.@.o.) W 6 1 , o o , 1 6 7 Q ) _ ....` A C V G l.k.k.l.L l.c.A.J.A.v.l.z.Z.J.J.Z.z.l.k.N.Z.N.l.G V V V V l y r u r r r = * % $ SXSXSXSXSXSXSX",
"SXSXSXr t l J z.N.c.k.L L k.v.Z.C.} %.#.6XqXiXpXiXqX5Xo.) ) _ X.#.6XqXiXqX0X7X$...) Q ) _ o.@.#.7XwXiXpXsXfXfXfXpXqX6X#...Q 8 1 2 2 1 6 W ) o.#.7X6X7XD.O.] C i p G L L J J L z.Z.A.N.k.l.l.c.A.A.c.k.l.l.v.v.z.L F V i i i y t r = r r ; = % % $ SXSXSXSXSXSXSX",
"SXSXSX= r y H l.k.k.L G J L l.k.| ] ` ..%.#.7X6X6X5XX.Q W Q ..#.7X6X7X7X#.%...) W 8 6 8 W Q _ o.$.5X6XwXqXqXqXwX6X5X@...Q 7 1 2 2 1 6 7 Q { $.6XwXqXqX9XD.{ A y y i l H G L L l.l.l.k.k.z.z.k.k.k.z.v.z.k.L J G H V V y t r = = = * * * * % % $ $ SXSXSXSXSXSXSX",
"SXSXSX= = t z J L L G F F G J J H A Z ! ) _ o.X.X.X.` W 7 W _ $.#.#.X..._ Q ! 7 6 1 1 1 8 T Q _ o.@.#.7X7X7X7X#.$.X._ ) W 6 1 , , 2 1 7 Q _ @.7X0XwX0X7X$.{ A y u r t l H L L J H H J k.v.v.l.J G L k.v.l.G V i l V l y = * * * * * % % $ $ $ $ $ SXSXSXSXSXSXSX",
"SXSXSX= = t l G J J H V V V H F l k k k x W Q / ) ) Q 7 7 7 Q ) _ ) ! 7 7 6 1 1 1 6 8 W Q _ o.@.#.5X6X0XwX0X6X7X#.X...) ! 8 1 , , , 2 1 7 Q _ X.@.$.@.X.{ ^ C t r u r y V G G H V V G L k.l.J F V H J J G V y t y y y t = * * * * * % $ $ $ SXSXSXSXSXSXSXSXSXSX",
"SXSXSX= = r i F H H V i i i l i y r = ; 3 5 6 7 7 W 7 7 8 8 7 7 7 7 8 6 6 8 7 7 ! Q ) o.@.5X6XwXqXiXpXpXpXpXiXqX0X7X$.X._ Q 7 6 1 , , 2 1 6 7 ! ( ) ) Q ! B k t u = = r p V F V i i V G J G F i y i i p p y t u u u u = = * * * * % % $ $ $ SXSXSXSXSXSXSXSXSXSX",
"SXSXSX* * = t l V V i t t t y t t = * * * - - 3 6 6 6 1 1 1 1 1 1 6 8 7 ! ) _ o.X.@.#.7XwXiXsXdXnXnXnXnXnXnXvXdXsXiX0X5X$.o._ Q 7 1 2 o O o , 1 9 6 8 8 6 5 k r u = u r y i i y t r t i V l y r r t y y y y t t = = * * * * * % % % $ $ $ $ SXSXSXSXSXSXSXSXSXSX",
"SXSXSX* * = r y i i t r r r r r = = * * * * * - - < , , , , , , 2 1 1 8 7 Q ) _ _ o.X.#.7XwXqXiXpXpXpXpXpXpXiXiXwX7X#.$.X...) Q 7 1 2 O O X O O o > > , 6 Z ] } +.+.+.} S C t r u u u u t C ] } +.D.+.+.} } { ] ^ ^ Z x ; * : $ $ $ $ $ $ SXSXSXSXSXSXSXSXSXSXSX",
"SXSXSX* * * = t t t r r = u u = = * * * * * * * % % & o o > , 2 1 2 2 2 1 1 6 8 7 7 ! ) _ o.X.@.$.$.$.$.$.@.X.X..._ ) Q Q ! W 7 6 1 , O O O O O o O O , 7 o.6XpXdXvXfXqXO.A t r y k y y C | 8XfXbXBXnXjXsXaXqXeX7XD.O.^ B - % $ % % % SXSXSXSXSXSXSXSXSXSXSXSXSX",
"SXSXSX% * * = r t t r u = = = = = * * * % $ $ $ $ $ % & , 1 6 8 8 1 1 2 2 1 1 6 8 7 W ! Q ) ) _ _ _ _ _ _ ) ) Q ! 7 8 6 6 1 1 1 1 2 , , o o o o 2 1 7 Q _ $.6XwXyXqX0X$.` Z Z ^ } D.XXeXrXtXtXhX%XhXzXzXzXzX1X%XOX|.C.U Z 5 < < < < SXSXSXSXSXSXSXSXSXSXSXSXSXSX",
"SXSXSX; ; ; ; ; r r u = = = = = ; ; ; - * % % % % % & < 6 7 ! Q Q W 8 1 1 1 9 8 7 ! Q Q ) ) _ ..o.X.X.X.X..._ ) Q W 8 1 1 1 1 2 2 2 2 2 2 1 1 6 7 ) X.5X7X6X7X7X$.X._ ( ! ! ) #.qXdXbXNXNXlX%X XQ._.{.&X;X-X-X&X].Q.m.j.I Z x 5 5 5 5 SXSXSXSXSXSXSXSXSXSXSXSXSX",
"W ! ! ! ! Z x ; * : : : : : * * 4 Z Z Z x 5 < & & & < 6 7 ) ..@.@...Q 7 8 8 8 7 ! ) _ o.@.#.7XwXiXpXpXsXsXpXiXwX7X$...) Q Q W 7 7 6 1 1 2 6 ! _ $.0XpXfXdXfXpXqX7X@...` ) _ @.qXvXNXlXhX%X$X@X#X#X;X-X:X>X:X-X;X[.(.W.m.n.n.P N N j j SXSXSXSXSXSXSXSXSXSXSXSXSX",
"7 7 W Q ) ) ~ Z B B Z Z Z Z B Z ~ ) _ ) ! 7 1 2 o o 2 6 7 ) o.@.@.o.) ! 7 7 W ! ) ..X.#.7XwXiXsXvXbXmXMXMXmXnXdXpXwX7X$.X.o._ ) Q W 7 6 6 7 _ #.wXpXvXbXbXvXsXiX7X%.....X.#.eXaXjXjXhX+X~.(.[.-X>X,X,X,X>X:X;X&X{._.Q.W.M.f.d.t.e.r.r.SXSXSXSXSXSXSXSXSXSXSXSXSX",
"1 1 8 W Q ) { o.%.D.6XeXeX7XD.@.X.o._ Q 7 6 2 , o o , 2 1 8 W Q Q W 7 8 7 7 Q ) _ X.$.5X7X6XwXiXsXfXnXnXbXnXdXsXiXwX7X5X#.#.$.X._ Q Q Q Q ) o.#.7XwXiXpXpXqX6X4XX.) ) o.6XpXgXoXS.N.B.~.`.&X-X>X,X,X>X:X;X#X`.'.Q.W.M.f.s.d.y.e.r.r.r.SXSXSXSXSXSXSXSXSXSXSXSXSX",
"o o 2 1 7 W Q _ o.@.4X7X7X2X$.X._ ) ! 7 1 2 o o O o o , 2 1 6 8 7 8 6 6 6 7 W Q ) ..X.X.@.#.#.7X6XwXqXiXiXiXqXwX6X7X5X#.$.@.X...) Q ! ! Q ) _ o.%.$.2X2X#.%...` / Q ) @.iXvXjXoXz.e.a.W.`.&X-X:X<X:X;X&X[.'.Q.W.M.f.s.d.y.t.e.r.,.,.g SXSXSXSXSXSXSXSXSXSXSXSXSX",
"O O O , 2 1 6 8 7 W W ! ! W 7 7 6 1 , , o o o O O o , 1 1 8 7 W W 7 8 6 1 1 6 7 7 ! Q Q ) ) _ _ ..o.X.@.$.$.@.@.@.@.X.X...) Q ! 7 8 6 6 6 8 W Q ) _ _ _ ` Q Z 7 W Q _ 5XgXbXlXOXv.e.y.g.).`.#X#X#X#X`.'.Q.W.E.f.s.d.y.t.e.r.,.g g f f SXSXSXSXSXSXSXSXSXSXSXSXSX",
"2 1 6 7 Q _ o.X.@.@.@.X.o._ Q W 8 1 , , 1 6 6 1 1 1 6 7 W Q ) ) ) Q 7 8 1 1 1 1 6 8 7 7 7 7 7 W W ! Q ) ) ) ) ) ) ) Q Q W 7 6 1 1 2 , > o 2 B U C.}.|.|.}.}.b.U | { %.6XsXnXjXoXz.r.e.d.g.E.W.W.W.E.m.s.s.p.p.y.u.t.e.r.,.g g f d d d SXSXSXSXSXSXSXSXSXSXSXSXSX",
"W Q ` X.7XqXpXdXnXnXdXfXiX0X#.o.Q 7 1 8 ! ) ) Q 7 7 W Q ) _ ..o...) Q 7 7 8 8 7 7 7 W W W W ! ! ! Q Q / ) ) ) Q Q W 7 8 6 1 1 1 2 2 , o & ; U !.$X-X:X>X>X-X&X@X.XXX7XwXpXfXgXF.j.h h r.u.y.y.y.y.t.e.r.r.r.r.r.r.r.,.g g f d d d d SXSXSXSXSXSXSXSXSXSXSXSXSXSX",
"X.@.5XwXfXnXmXMXVXVXMXmXnXsXwX5Xo.Q W Q ..$.$.o.) ! W ! Q Q Q ) ) ) Q Q ) _ o.X.@.$.#.5X7X6X6X0X0XwXwX0X0X7X5X#.@.X..._ ) ) Q W T 7 Z S U R. X*X<X,X,X>X:X=X[.$X%XhXsXsXaXwX5X} A z l C F F N h ,.<.g g g g g g g g g g f d d d SXSXSXSXSXSXSXSXSXSXSXSXSXSXSXSX",
"7X6XwXsXbXMXVXCXCXCXVXMXmXvXpXwX#._ ) _ #.6X6X#._ Q W 7 7 7 7 W ! Q ) ..X.#.6XwXqXiXpXfXvXnXmXmXmXmXmXbXnXdXsXiXwX0X7X5X#.@.X.{ ` ] | }.@X&X-X>X,X,X<X-X&X].(._.%XlXbXxXyX5XX.o._ _ ` ` ) ~ H j j s s s s d d f d d d d d d d SXSXSXSXSXSXSXSXSXSXSXSXSXSXSXSXSX",
"XX7XwXpXnXMXVXCXCXVXVXMXbXdXpXwX#. .) ..5XwXwX5X..Q ! 7 7 7 7 ! Q ) ..X.#.6XqXpXpXfXdXnXmXMXVXVXCXCXVXMXmXnXdXsXpXiXwX0X5X$.O.} C.^.~.'.#X&X-X:X:X-X&X[._.E.f.m.|.tXfXpX9X#.$.5XwXiXiXyXwX7X+.[ A x k r a s d f f d d d d d d SXSXSXSXSXSXSXSXSXSXSXSXSXSXSXSXSX",
"@.#.7XiXdXbXmXMXMXMXmXbXnXfXiX0X$._ Q _ $.6X6X$._ Q 7 7 8 8 7 7 ! ) _ X.#.7XwXiXpXfXdXnXBXmXMXVXVXVXVXMXmXnXdXsXpXiXqX0X2X%.o.C.^.~.'.].[.#X&X=X&X[.'.W.E.m.B.S.oXXX0X0X6X7XwXpXnXbXnXsXyX9X2XX._ Q T 6 3 e a s s s d f f f d SXSXSXSXSXSXSXSXSXSXSXSXSXSXSXSXSX",
"..X.#.0XpXfXnXnXbXbXnXvXfXpXqX7XX.) W Q _ X.X...Q 7 8 1 1 1 1 6 8 7 Q ) ..$.7X0XqXiXpXfXdXnXnXmXmXmXmXbXnXdXpXiXqXwX0X5X%._ ^ | R.~.'.].#X#X[.`.'.W.g.s.B.oXtXtXeX@.o.$.0XpXvXmXMXmXfX9X%.o.X.@.X._ Q 8 1 & @ : b s d g SXSXSXSXSXSXSXSXSXSXSXSXSXSXSXSXSXSXSXSX",
") _ X.7XqXpXfXdXvXvXdXfXpXiXwX5Xo.Q 7 7 Q _ _ ) ! 7 8 1 1 1 1 6 8 7 7 ! )  .X.#.7X0XqXiXpXpXfXdXvXdXfXfXpXiXwX6X5X#.@.o.) ! Z I n.Q.'.].].'.(.Q.M.m.B.S.oXXX7X7X$.X.X.#.qXfXvXdXsXqXG.H.2.2.[ [ ` Q 7 6 2 o O X : a d SXSXSXSXSXSXSXSXSXSXSXSXSXSXSXSXSXSXSXSXSX",
"Q ) ..#.0XiXpXsXfXfXpXpXiXwX7X$._ ! 8 8 W Q ) ) Q ! 7 7 8 8 7 ! ! W 7 7 W Q _ o.@.#.7X7X6XwXwXiXiXiXqXwX7X5X$.X.o._ ) Q E 8 x S b.~.(._.(.Q.E.s.s.S.oXrX9X@._ Q ) o.#.9XiXsXpX6Xo.] 2.>.7.7.1.z 7 6 1 2 0 O O X SXSXSXSXSXSXSXSXSXSXSXSXSXSXSXSXSXSXSXSXSXSXSXSX",
"Q Q _ X.7XwXqXiXiXiXqXwX0X7X#.X.) 7 6 7 Q _ ...._ _ _ ) ) _ ..X.o._ Q W 7 W Q Q ) _ o.X.X.@.#.5X7X7X#.$.X._ ) Q Q _ o.o..._ ` ] | C.C.C.C.C.C.C.C.C.O.X.o... ._ _ _ ..@.7XwXwX5XX._ [ 1.=.1.v ~ W 6 , O X X X SXSXSXSXSXSXSXSXSXSXSXSXSXSXSXSXSXSXSXSXSXSXSXSXSX",
"Q Q ) o.#.5X7X6X6X6X6X7X5X$.X._ Q W W Q ..$.#.#.$.$.$.#.#.7X0XwX6X#...Q ! 7 7 7 7 W ! Q Q ) _ ..o.o..._ ) Q 7 7 / X.5X7X7X#.$.X...{ ..X.@.#.5X7X7X@.) 7 W _ @.#.X.) Q ) o.$.#.#.$.X._ ! 7 7 W Q ! 7 < & & SXSXSXSXSXSXSXSXSXSXSXSXSXSXSXSXSXSXSXSXSXSXSXSXSXSXSX",
"! Q ) _ X.$.#.#.#.#.#.$.X..._ ) _ o.@.#.6XwXqXwX0X6XwXiXpXfXvXnXdXiX7XX.) ! 8 6 6 8 8 7 7 W W ! ! ! 7 7 7 ! ) o.#.6XwXwX6X#.@.X.X.X.#.6XyXpXpXaXqX4X .Q Q _ @.#.@...) ) ) ) _ _ _ ) ! 7 9 2 2 1 5 C P n.n.SXSXSXSXSXSXSXSXSXSXSXSXSXSXSXSXSXSXSXSXSXSXSXSXSXSXSX",
"W ! Q ) _ o.X.X.X.X.X.o._ ) Q ) X.7XqXpXfXfXfXpXqXwXiXfXnXmXVXVXMXnXpX6X@.) 7 6 1 1 1 1 6 6 6 6 6 6 6 8 7 ) X.#.7X0XwXwX6X5X#.#.#.7XwXpXdXnXnXdXpXwX#..._ _ ..o..._ ) Q ! W 7 7 7 8 6 1 , o X O - D R.(.].SXSXSXSXSXSXSXSXSXSXSXSXSXSXSXSXSXSXSXSXSXSXSXSXSXSXSX",
"7 7 7 ! Q ) ) ) ) ) ) ) Q W 7 Q @.iXvXmXmXnXdXpXwXwXiXfXbXMXVXCXVXmXvXpX6X@.) W 8 1 1 2 2 2 , , , 1 ! _ X.X.@.@.@.$.#.#.7XwXqXiXiXpXpXsXfXdXvXvXdXpXwX#.X.) Q W W ! ! W 7 6 1 2 2 , o O O O X O ; U !.`.#XSXSXSXSXSXSXSXSXSXSXSXSXSXSXSXSXSXSXSXSXSXSXSXSXSXSXSX",
"6 6 8 7 W W ! ! ! ! ! ! Q Q ` X.wXdXMXMXmXnXfXiXwXwXiXfXbXMXVXVXVXMXbXfXiX5XX.) ! 7 1 1 1 2 , O o 6 ) #.6X7X#.X..._ ) ..#.wXpXdXnXnXnXvXfXfXfXfXsXpXqX6X#._ ! 8 6 6 6 1 1 , o O O O X X X X X O 4 U !.#X#X[.SXSXSXSXSXSXSXSXSXSXSXSXSXSXSXSXSXSXSXSXSXSXSXSXSXSX",
"1 1 1 6 8 7 7 7 7 8 6 8 Q X.6XpXnXmXMXMXnXfXpXqXwXwXiXfXnXmXMXMXMXMXbXdXpX6X$...) ! 7 8 6 1 2 , 2 Z X.wXiXqX7XX._ ! 7 Q o.6XpXvXmXMXMXbXdXsXiXwX0X0XwX0X7XX.) ! 8 1 , O O O O O O O X X X X X O 4 U !.#X[.'._.).SXSXSXSXSXSXSXSXSXSXSXSXSXSXSXSXSXSXSXSXSXSXSXSX",
"2 2 1 1 1 1 1 1 1 2 , 2 W $.iXnXMXMXMXnXsXqX0X0XwXqXpXfXnXmXmXMXmXmXnXdXiX6X$...) Q 7 8 9 6 7 Q ..$.7XwXiXqX0X5X@._ Q ) _ $.7XiXdXbXmXmXnXdXpXwX7X7X7X7X#.$.o._ ! 8 1 , O O O 2 1 6 1 , o O X O 4 U !.{.].'.Q.W.SXSXSXSXSXSXSXSXSXSXSXSXSXSXSXSXSXSXSXSXSXSXSXSX",
"2 2 1 1 1 1 1 1 1 1 , 1 ! #.sXBXMXmXnXfXwX5X#.7X0XiXpXdXnXbXmXmXbXnXdXsXqX7X%._ Q W 7 1 1 9 Q $.wXpXiXqXwXwXqXqX0X5X@.X..._ ..$.0XpXfXnXnXnXsXwX7X#.$.X.X.X.X.o._ Q 7 1 2 o 2 7 Q ) Q 8 2 > O o 4 U !.{.].).E.g.SXSXSXSXSXSXSXSXSXSXSXSXSXSXSXSXSXSXSXSXSXSXSXSX",
"1 1 9 8 7 W Q _ ...._ ..$.wXdXBXbXnXsXwX#.X.o.$.7XqXpXfXvXnXbXbXnXvXfXiX6X$.{ ( W 7 6 2 , 2 ! @.wXiXpXiXiXsXfXdXfXaXwX5Xo.) Q ) o.#.6XiXfXdXsXiX6X#.o.) ) ) _ _ ) Q W 8 1 2 1 W _ ..` ! 8 2 > O - I !.{.].).E.g.SXSXSXSXSXSXSXSXSXSXSXSXSXSXSXSXSXSXSXSXSXSXSXSX",
"1 6 8 7 W Q  .@.#.7X7X6XqXsXvXnXdXpXwX#...Q / ..#.6XqXpXfXdXvXvXfXsXiX0X#...Q m 8 6 1 < 3 k ~ o.XX6XwXqXiXsXdXvXdXsXqX7XX.Q 7 7 W Q ..#.wXiXiXwX6X$._ W 7 7 W ! ! W 7 8 1 2 1 ! _ .._ Q 7 8 5 5 C b.!.`.'.W.M.f.SXSXSXSXSXSXSXSXSXSXSXSXSXSXSXSXSXSXSXSXSXSXSXSX",
"SXSXSX6 8 7 W ( _ X.3X0XyXpXfXfXiX6X$._ W 6 6 Q  .$.7XwXiXpXpXpXiXwX7X$...Q 7 9 2 , < C P n.b.| o.X.@.#.5X6XwXwXwX6X#.X._ Q 7 6 1 6 7 ) X.$.#.5X#.X.Q 7 6 6 8 8 8 8 6 1 , o 1 7 ) ..` ! Z S | |. X@X'.'.W.m.s.d.SXSXSXSXSXSXSXSXSXSXSXSXSXSXSXSXSXSXSXSXSXSXSXSX",
"SXSXSX5 m m m m ! &.$.0XyXiXiXqX7XX._ ^ S S S ^ ^ _ %.5X0XwXwXwX6X5XX._ Q 7 6 6 5 B D n.^.Q.^.U ^ ( ) ..X.#.7X0X6X7X$.X._ Q 7 1 2 , 1 8 ! ) _ o.o._ ! 6 1 2 1 1 1 1 1 1 6 8 7 Q ) _ / E Z S }.$X;X&X'.Q.m.d.y.t.SXSXSXSXSXSXSXSXSXSXSXSXSXSXSXSXSXSXSXSXSXSXSXSX",
"SXSXSXM M M M M M &.U.0XqXwX0X5Xo.( ! ] }. X.X}.] ( ` X.#.5X7X7X#.X._ Q T 6 6 Z U !.~.(.W.M.n.D 5 8 ! _ @.7XwXiXiXwX7X$._ Q 7 1 2 , , 1 8 7 Q Q Q ! 8 1 , , o o o , 1 7 ) o.X.o._ / W 6 8 S R.@X#X].).M.d.u.e.r.SXSXSXSXSXSXSXSXSXSXSXSXSXSXSXSXSXSXSXSXSXSXSXSX",
"SXSXSXL.L.L.L.L.P.Y.U.6X9X5X$.o.{ ] U }.$X-X*X|.] W W ` o.X.$.$.X._ Q W Z S | }.!.`.`.'.Q.m.p.N p k x ~ _ X.#.7X7X#.X...) W 8 1 , o o , 1 6 8 7 7 8 1 , o O O O O O o 8 ) X.@.o.) W 6 2 1 B b.~.'.(.E.s.y.e.,.g SXSXSXSXSXSXSXSXSXSXSXSXSXSXSXSXSXSXSXSXSXSXSXSX",
"SXSXSXP.P.P.P.I.I.Y.U.U.$.o.` ^ U b.~.#X-X>X1X|.S 7 7 Q ) _ ...._ ( T Z | |.$X&X#X'.).W.E.g.d.t.r.j z x 7 W Q ) ) ) Q Q W 7 6 1 , o o o , 2 1 1 1 1 2 o O O O X X O o 6 Q  ...) 7 6 2 , < B U ^.Q.W.f.y.e.,.g f SXSXSXSXSXSXSXSXSXSXSXSXSXSXSXSXSXSXSXSXSXSXSXSX",
"SXSXSXL.P.P.I.I.T.T.U.@.../ E x H n.M._.#X;X*X Xb.P D A ! ! Q / Q T 6 8 U |.#X=X[.).E.M.f.s.y.t.e.h p 4 1 6 T Q ) ) ) ) Q W 7 1 2 o O o o o , , , , o o O X   O 2 7 Q ) _ ) Q 7 1 < k D U n.^.E.E.f.y.e.r.,.g SXSXSXSXSXSXSXSXSXSXSXSXSXSXSXSXSXSXSXSXSXSXSXSXSX",
"SXSXSXM L.P.I.T.T.T.U.o.) R 5 4 p N u.f.Q.'.'.(.E.s.j.F x 8 7 7 Z 7 7 Z U !.`.].(.E.f.s.p.y.t.e.r.h a - 1 6 T Q ) _ .._ ) Q 7 6 2 o O O O O O O O O O O O O O , W o.#.$...Q 7 2 , - D R.'.`.(.E.s.y.e.r.,.SXSXSXSXSXSXSXSXSXSXSXSXSXSXSXSXSXSXSXSXSXSXSXSXSXSXSX",
"SXSXSXM M P.I.T.T.T.Y.&.~ c p a s h e.t.d.f.f.d.y.e.r.h a e - 5 Z U }..X X`.'.(.E.f.d.y.t.e.r.,.g g s SXSX2 9 8 7 W ! ! 7 8 1 , o X + + + + X X X X X O o 1 7 Q _ X.@.X.) W 6 , o & C n.~._.W.f.y.e.,.g g SXSXSXSXSXSXSXSXSXSXSXSXSXSXSXSXSXSXSXSXSXSXSXSXSXSXSX",
"SXSXSXM M L.I.T.T.T.Y.' Z z j j j i.j.x.v.N.N.N.c.v.z.x.x.J A ! ^ }..X*X*X$X X^.B.n.x.i.r.,.g g f d j SXSXSX1 1 1 6 8 6 1 2 2 < 4 4 B B B B B B k - & O , 8 Q _ o.o..._ Q 7 6 5 4 C P n.W.W.f.p.e.,.g f d SXSXSXSXSXSXSXSXSXSXSXSXSXSXSXSXSXSXSXSXSXSXSXSXSXSXSX",
"SXSXSXn n M P.I.I.Y.&.! x ! ~ ] } O.D.XXrXtXjXlXlXlXlXjXgXrXeX5XXXXXeXXXXXXXXXXX+.} [ J j g f f d j H ]  ._ SXSXSX6 8 6 1 2 5 S R. X$X*X*X*X$X X!.U C & 0 1 7 ! ) ) _ / T 8 Z U R.!.~.Q.E.f.p.t.r.g g f d SXSXSXSXSXSXSXSXSXSXSXSXSXSXSXSXSXSXSXSXSXSXSXSXSXSXSX",
"SXSXSXn n n M P.I.P.M m 8 E Q ` o.$.5X0XiXsXvXmXMXVXMXmXnXdXpXwX6X7X7X7X7X7X6X5X2X@.o.[ G v j v K I } +.#.5XSXSXSX1 6 5 5 k V b. X;X:X,X,X,X:X=X`.R.D & o > 1 8 W ! Q W 8 6 Z b.~.`.'.E.s.u.e.r.g g f f SXSXSXSXSXSXSXSXSXSXSXSXSXSXSXSXSXSXSXSXSXSXSXSXSXSXSXSX",
"SXSXSX# n n M L.P.M m 9 1 6 7 Q ` o.@.XX6XwXiXsXdXvXnXvXfXpXqX6X7X5X5X7X7X9X0X0X7X5X#.X.{ { { { O.D.6XwXiXpXSXSXSX> 2 3 y N u.m.(.#X&X-X-X-X=X[.~.n.V % O o , 1 6 7 7 8 6 6 B U ^.Q.E.d.e.r.g g f d SXSXSXSXSXSXSXSXSXSXSXSXSXSXSXSXSXSXSXSXSXSXSXSXSXSXSXSXSXSX",
"SXSXSXSXSXn M M M M m 1 1 6 7 Q ) o.$.7XwXiXfXvXnXBXbXnXvXfXaXwXwX0XwXwX0X0X6X7X#.$.X..._ `  .%.4X6XwXyXiXwX7X..7 2 , - a N t.d.f.M.E.Q.).).W.E.f.u.N a : @ o o , 1 1 1 1 1 k G n.f.s.t.r.,.g f d d SXSXSXSXSXSXSXSXSXSXSXSXSXSXSXSXSXSXSXSXSXSXSXSXSXSXSXSXSXSX",
"SXSXSXSXSXSXSXn n n < 2 1 6 7 Q _ X.#.0XiXfXnXmXMXMXMXmXnXdXsXpXiXiXiXqXwX7X#.@.X._ ) ) Q ) ..$.7X0XwXwX0X7X#.o.) 7 1 & e j r.r.i.i.u.u.p.s.s.s.s.p.u.i.N e % o O o , , , 2 4 V i.u.t.e.r.,.g f d d SXSXSXSXSXSXSXSXSXSXSXSXSXSXSXSXSXSXSXSXSXSXSXSXSXSXSXSXSXSX",
"SXSXSXSXSXSXSX# # # & 2 1 9 7 ! ) ..@.5XwXiXfXvXbXmXbXvXfXgXiXwX0X6X7X7X#.@.o._ ) Q Q ) ) ..@.5X0X0X9X7X7X7X7X5X@.` ! x Z S [ | C.F.F.oXOXtXhXhXhXhXhXtXoXV.p b @ @ o O O o - a N r.r.,.g g f f d d SXSXSXSXSXSXSXSXSXSXSXSXSXSXSXSXSXSXSXSXSXSXSXSXSXSXSXSXSXSX",
"SXSXSXSXSXSXSX# # # 0 , 2 1 8 7 ! ( _ X.#.7X0XqXpXpXpXiXqXwX7X5X#.@.X.X._ ) Q Q Q Q Q _ X.$.5X7X6X6X5X#.#.7XwXqX7XX.) Q Q ) _ X.#.7XwXaXfXnXmXMXVXVXVXMXjXoXV.K p k 5 1 1 1 5 l N N h h s s s d f SXSXSXSXSXSXSXSXSXSXSXSXSXSXSXSXSXSXSXSXSXSXSXSXSXSXSXSXSXSXSX",
"SXSXSXSXSXSXSXSXSXSXSXSXSX1 1 1 8 7 ! Q ) _ o.@.$.#.#.#.$.@.X.o..._ _ ) Q ! W W ! Q _ X.5X6X0X7X5X#.@.X.@.7XqXiX0XX.! 6 6 7 E ! / _ X.#.9XiXfXnXmXMXMXMXBXjXtXrXXXD.#.$.@.X.o.{ ] A z k - = e SXSXSXSXSXSXSXSXSXSXSXSXSXSXSXSXSXSXSXSXSXSXSXSXSXSXSXSXSXSXSXSXSX",
"SXSXSXSXSXSXSXSXSXSXSXSXSX, , 2 1 1 8 7 Z ! Q Q ) ) ) ) ) ) ) Q Q ! W 7 7 7 W Q ) o.@.5X0XwX6X#.X.o...o.X.7XiXpX9X..8 , , 2 1 1 6 7 ! ) X.#.6XqXpXsXsXsXpXaXyXwX0X6X7X7X5X5X$.o.` Q 7 9 2 , > SXSXSXSXSXSXSXSXSXSXSXSXSXSXSXSXSXSXSXSXSXSXSXSXSXSXSXSXSXSXSXSXSX",
"SXSXSXSXSXSXSXSXSXSXSXSXSXo o o , 2 1 1 8 7 7 7 7 7 7 7 7 7 7 8 6 6 1 1 6 7 Q _ @.7X0X0X6X7X$...) ) ` o.@.7XqXqX7X_ 6 o O , 2 1 1 6 7 Q ) ..X.@.$.#.#.$.X.o._ _ _ _ _ _ _ _ _ ) Q W 7 6 1 , O O X SXSXSXSXSXSXSXSXSXSXSXSXSXSXSXSXSXSXSXSXSXSXSXSXSXSXSXSXSXSXSX",
"SXSXSXSXSXSXSXSXSXSXSXSXSXSXSXo o o , 2 2 1 1 1 1 1 1 1 1 1 1 1 1 1 1 8 7 Q _ X.#.7X6X7X$.X._ Q W ! _ X.#.7X6X7X@.Q 1 o o 2 1 6 7 ! ) o.#.7X6X0X0X0X7X5X#.X...` ) ) ( Q Q Q Q ! W 7 8 1 2 , O O O O SXSXSXSXSXSXSXSXSXSXSXSXSXSXSXSXSXSXSXSXSXSXSXSXSXSXSXSXSXSX",
"SXSXSXSXSXSXSXSXSXSXSXSXSXSXSXSXSXo o o o o o o o o o o o , , 2 1 6 7 ! ) ..X.$.#.$.@.o.) Q 7 7 7 !  .$.7X7X#.%._ 7 2 o , 1 7 ! ` X.5XwXsXvXbXmXmXbXnXdXpXqX6X#.@.o._ _ ) ) Q ! 7 7 6 1 2 , o o O O SXSXSXSXSXSXSXSXSXSXSXSXSXSXSXSXSXSXSXSXSXSXSXSXSXSXSXSXSXSX",
"SXSXSXSXSXSXSXSXSXSXSXSXSXSXSXSXSXSXSXO O O O O o o , , 2 1 1 1 8 7 W Q ) ..X.X..._ ) ! 7 8 8 7 T Q ..@.#.$.X._ Q 8 2 , 1 8 ! ` X.#.wXsXnXMXVXVXCXVXVXMXmXnXfXpXiX0X7X#.#.@.X._ ) Q W 8 9 1 , o O O O X SXSXSXSXSXSXSXSXSXSXSXSXSXSXSXSXSXSXSXSXSXSXSXSXSXSXSXSX",
"SXSXSXSXSXSXSXSXSXSXSXSXSXSXSXSXSXSXSXSXX X O O o , 2 1 1 1 6 8 7 7 W ! Q ) ) Q ! 7 8 1 1 1 6 7 Q ) _ o.X.X..._ Q 8 2 , 1 7 Q _ @.7XqXfXbXMXVXCXCXCXCXCXVXMXmXnXfXpXiXwX0X7X#.@...) Q W 8 1 2 o O O O X X SXSXSXSXSXSXSXSXSXSXSXSXSXSXSXSXSXSXSXSXSXSXSXSXSXSXSX",
"SXSXSXSXSXSXSXSXSXSXSXSXSXSXSXSXSXSXSXSXSXSXSXO O O O O o o , 2 2 1 1 6 6 8 8 6 1 2 2 , , 1 6 W ) ) ) ) ) _ X.X.) 7 2 o 2 6 W ) ..$.6XiXdXmXMXVXVXVXMXMXmXnXdXsXiXwX6X5X#.$.X...) Q W 8 1 2 , o O O O X X SXSXSXSXSXSXSXSXSXSXSXSXSXSXSXSXSXSXSXSXSXSXSXSXSXSXSX",
"SXSXSXSXSXSXSXSXSXSXSXSXSXSXSXSXSXSXSXSXSXSXSXSXX X X X X O O O O o o , , , , o O O O , 1 6 7 Q ) ) Q Q Q ) o.X._ W 1 , 2 1 8 W Q _ @.7XqXpXfXvXnXvXdXfXpXiXwX7X5X$.X.o..._ ) Q W 7 8 6 1 2 , o O O O O O SXSXSXSXSXSXSXSXSXSXSXSXSXSXSXSXSXSXSXSXSXSXSXSXSXSXSX",
"SXSXSXSXSXSXSXSXSXSXSXSXSXSXSXSXSXSXSXSXSXSXSXSXSXSXSXSXSXSXX O O O O o o o O O O O O 2 8 ! Q ) ) ) Q W W ! ) ) Q W 8 1 1 1 1 6 7 ! ) ..X.#.5X7X7X7X7X5X#.$.X..._ ) Q Q ! W 7 7 8 6 8 8 8 6 1 2 o o O O o , 2 2 SXSXSXSXSXSXSXSXSXSXSXSXSXSXSXSXSXSXSXSXSXSXSXSX",
"SXSXSXSXSXSXSXSXSXSXSXSXSXSXSXSXSXSXSXSXSXSXSXSXSXSXSXSXSXSXSXX O O O O o 2 1 2 o O o 1 7 Q ) ) ) Q W 7 8 6 7 7 7 8 6 1 2 o o , 1 6 7 ! ( ) _ ....o....._ ) ) Q ! W 7 8 6 6 6 8 7 7 W W 7 7 1 2 , , , 2 2 1 1 1 SXSXSXSXSXSXSXSXSXSXSXSXSXSXSXSXSXSXSXSXSXSXSXSX",
"SXSXSXSXSXSXSXSXSXSXSXSXSXSXSXSXSXSXSXSXSXSXSXSXSXSXSXSXSXSXSXSXSXSXX O , 6 7 7 6 2 2 1 7 W ! ! ! Z 8 1 1 2 1 2 2 , , o O O O o , 1 6 7 W ! Q Q Q Q Q Q Q Q ! W 7 8 6 6 1 6 7 ! ) _ ) Q ! 7 6 1 2 1 6 8 8 8 8 8 SXSXSXSXSXSXSXSXSXSXSXSXSXSXSXSXSXSXSXSXSXSXSXSX",
"SXSXSXSXSXSXSXSXSXSXSXSXSXSXSXSXSXSXSXSXSXSXSXSXSXSXSXSXSXSXSXSXSXSXSXO , 1 1 6 6 8 8 8 8 8 8 7 7 8 1 2 , o o o o , , 2 1 6 6 1 1 , 2 1 1 6 8 8 7 7 7 7 7 7 7 7 7 7 7 ! Q _ ..X.@.%...) W 7 6 6 8 W Q Q Q 7 8 6 SXSXSXSXSXSXSXSXSXSXSXSXSXSXSXSXSXSXSXSXSXSXSXSX",
"SXSXSXSXSXSXSXSXSXSXSXSXSXSXSXSXSXSXSXSXSXSXSXSXSXSXSXSXSXSXSXSXSXSXSXSXSXX O o 1 7 7 8 1 2 2 1 1 1 2 o O O O o 2 1 7 W ) _ _ Q 6 , O o , 2 1 6 8 8 7 7 W W ! Q Q ) _ X.#.7X6X7X5X$.o.Q 7 7 W Q ) _ o.o.) ! 6 1 SXSXSXSXSXSXSXSXSXSXSXSXSXSXSXSXSXSXSXSXSXSXSXSX",
"SXSXSXSXSXSXSXSXSXSXSXSXSXSXSXSXSXSXSXSXSXSXSXSXSXSXSXSXSXSXSXSXSXSXSXSXSX    O o 2 1 2 o O O o , , O O O O , 1 7 Q ..X.#.5X#._ 7 o O O 2 1 7 ! ) _ o.@.#.7X6XwXwXiXiXiXiXiXwX5X@...) Q Q ) o.$.#.#.@.o.) 7 1 o SXSXSXSXSXSXSXSXSXSXSXSXSXSXSXSXSXSXSXSXSXSXSXSX",
"SXSXSXSXSXSXSXSXSXSXSXSXSXSXSXSXSXSXSXSXSXSXSXSXSXSXSXSXSXSXSXSXSXSXSXSXSX2 , o o o o O O O O O o O O O O 2 6 W ) %.7X0XwXwX7XX.W , O o 2 6 W ) ..@.5X0XiXsXdXnXnXnXnXfXpXwX5XX._ ) ) _ o.$.7XwXwX7XX.) W 6 2 , SXSXSXSXSXSXSXSXSXSXSXSXSXSXSXSXSXSXSXSXSXSXSXSX",
"SXSXSXSXSXSXSXSXSXSXSXSXSXSXSXSXSXSXSXSXSXSXSXSXSXSXSXSXSXSXSXSXSXSXXX#.X._ ( ! 8 1 , o O O O o & , , 2 1 8 ! _ X.7XwXqXqX0X5XX.Q 8 2 , , 2 6 W Q _ @.5X6XwXiXpXpXpXiX6X$...) Q Q _ X.5XwXiXpXiXwX$.) 7 6 8 7 7 SXSXSXSXSXSXSXSXSXSXSXSXSXSXSXSXSXSXSXSXSXSXSXSX",
"SXSXSXSXSXSXSXSXSXSXSXSXSXSXSXSXSXSXSXSXSXSXSXSXSXSXSXSXSXSXSXSXSX5X5X#.#.X...) W 6 2 o o o o , 2 1 9 8 7 Q _ o.$.7X0X0X7X#.X._ ! 8 1 , o o 2 6 7 ! ) ..X.@.#.#.#.$.X._ Q 7 7 Q _ X.7XiXfXfXpXwX5X .W 6 8 ! ) ) SXSXSXSXSXSXSXSXSXSXSXSXSXSXSXSXSXSXSXSXSXSXSXSX",
"SXSXSXSXSXSXSXSXSXSXSXSXSXSXSXSXSXSXSXSXSXSXSXSXSXSXSXSXSXSXSX$.#.5X7X5X$.o.) ! 7 1 2 , o o , 1 6 7 W Q ) _ o.X.@.$.$.@.X._ ) W 6 2 o O O o o 2 1 6 8 7 W ! Q Q ! W 7 7 8 7 ! _ #.0XpXdXnXfX0XX._ Q ! ! Q _ X.@.SXSXSXSXSXSXSXSXSXSXSXSXSXSXSXSXSXSXSXSXSXSXSXSX",
"SXSXSXSXSXSXSXSXSXSXSXSXSXSXSXSXSXSXSXSXSXSXSXSXSXSXSXSXSX$.5X7X6X6X7X5X@._ Q 7 8 1 1 2 , 2 1 7 Q _ o.@.$.$.@.X.o..._ ) Q ! 7 1 , O O O O o o , , 1 6 8 8 8 1 1 1 2 1 1 7 ! _ #.wXpXfXdXfXqX@.Q 7 ! )  ...o.o.o.SXSXSXSXSXSXSXSXSXSXSXSXSXSXSXSXSXSXSXSXSXSXSXSX",
"SXSXSXSXSXSXSXSXSXSXSXSXSXSXSXSXSXSXSXSXSXSXSXSXSXSXSX..X.#.0XiXpXqX6X#.X.) W 8 6 6 1 1 1 6 W ) X.#.0XqXwX6X#.o._ ) Q W 7 6 2 , O O X SXSXSXSX, 2 1 7 W W 7 1 2 2 2 1 7 Q ..#.wXsXdXfXpXwX$.) 8 8 Q o.$.X._ Q ! SXSXSXSXSXSXSXSXSXSXSXSXSXSXSXSXSXSXSXSXSXSXSXSX",
"SXSXSXSXSXSXSXSXSXSXSXSXSXSXSXSXSXSXSXSXSXSXSXSXSXX.@.$.D.0XiXfXfXpX0X#.o.) ! 7 6 1 1 1 6 7 ) @.0XiXfXdXfXiX7XX._ Q 7 1 2 , O O O SXSXSXSXSXSX, 1 8 Q _ _ ) ! 7 8 8 7 Q ..#.6XiXfXfXiX7XX.) W 8 7 Q o.@.o.) 7 8 SXSXSXSXSXSXSXSXSXSXSXSXSXSXSXSXSXSXSXSXSXSXSXSX",
"SXSXSXSXSXSXSXSXSXSXSXSXSXSXSXSXSXSXSXSXSXSXSXSX_ ..X.#.7XwXpXfXsXqX7X@._ ) ! 7 6 1 2 1 1 7 _ #.qXpXdXdXfXiX5XX.) 7 1 o O O X X SXSXSXSXSXSXSX2 1 7 ) X.X.X..._ Q Q Q _ @.7XwXiXpXiX7Xo.Q 7 7 7 W ) _ _ ) W 6 1 SXSXSXSXSXSXSXSXSXSXSXSXSXSXSXSXSXSXSXSXSXSXSXSX",
"SXSXSXSXSXSXSXSXSXSXSXSXSXSXSXSXSXSXSXSXSXSXSXSX7 W Q _ o.@.#.5X#.@...) Q W 7 6 1 , , , 2 1 W _ @.5X7X6X7X@._ ! 8 1 , O O O X X SXSXSXSXSXSXSXSXSXW Q ) _ X.@.@.o._ ) o.#.6XwXwXwX7XX.Q 8 6 7 ! Q Q Q ! 7 1 , O SXSXSXSXSXSXSXSXSXSXSXSXSXSXSXSXSXSXSXSXSXSXSXSX",
"SXSXSXSXSXSXSXSXSXSXSXSXSXSXSXSXSXSXSXSXSXSXSXSX7 T Q _ X.X.X.X..._ Q W 7 6 1 2 , o o 0 2 6 W _ X.$.#.$.X._ W 6 2 o O O O O X X SXSXSXSXSXSXSXSXSXSX7 7 ! _ X.@.X._ _ ..$.7X7X7X#.X.) 7 1 1 8 W ! W 8 1 2 o O X SXSXSXSXSXSXSXSXSXSXSXSXSXSXSXSXSXSXSXSXSXSXSXSX",
"SXSXSXSXSXSXSXSXSXSXSXSXSXSXSXSXSXSXSXSXSXSXSXSX_ o.$.0XiXyX0X5X@...) W 8 1 , o O O , 1 7 / X.7XyXaXiXwX5XX.! 1 , O O O X SXSXSXSXSXSXSXSXSXSXSXSXSX, 2 1 7 Q ) ) Q Q ) X.$.#.X...) 7 1 , , 1 6 6 1 2 , o SXSXSXSXSXSXSXSXSXSXSXSXSXSXSXSXSXSXSXSXSXSXSXSXSXSXSX",
"SXSXSXSXSXSXSXSXSXSXSXSXSXSXSXSXSXSXSXSXSXSXSXSXC.C.XXtXhXtXOXXXC.} ^ W 8 2 o O O o 2 k S | }.OXtXhXtXOXXX} Z 9 , O O X X SXSXSXSXSXSXSXSXSXSXSXSXSXSXO , 6 7 7 7 7 7 W Q ) ) Q ! 7 8 1 2 , , , , o O O O O SXSXSXSXSXSXSXSXSXSXSXSXSXSXSXSXSXSXSXSXSXSXSXSXSXSX",
"SXSXSXSXSXSXSXSXSXSXSXSXSXSXSXSXSXSXSXSXSXSXSXSXm.^.~.@X$X@X_.^.B.U ] ! 8 1 > o o , 3 C j.m.~.@X$X$X@X~.B.P C 5 , o O X X SXSXSXSXSXSXSXSXSXSXSXSXSXSXSXSX6 6 6 1 1 2 1 1 1 1 6 8 7 7 7 8 6 2 o O O O O X X X X SXSXSXSXSXSXSXSXSXSXSXSXSXSXSXSXSXSXSXSXSXSXSXSX",
"SXSXSXSXSXSXSXSXSXSXSXSXSXSXSXSXSXSXSXSXSXSXSXSXW.).'.&X-X;X#X'.^.b.S Z 6 1 , o > 2 k P m.Q.'.&X;X;X=X].W.n.C < > O O SXSXSXSXSXSXSXSXSXSXSXSXSXSXSXSXSX_ W 6 2 , , , 2 1 8 W Q _ ..o.o..._ Q 7 1 2 o O O O O O SXSXSXSXSXSXSXSXSXSXSXSXSXSXSXSXSXSXSXSXSXSXSXSX",
"SXSXSXSXSXSXSXSXSXSXSXSXSXSXSXSXSXSXSXSXSXSXSXSXQ._.#X-X>X>X-X#X/.b.S 7 6 SXSXSXSXSXSXSXW.(.{.;X>X>X-X&X/.b.C & O SXSXSXSXSXSXSXSXSXSXSXSXSXSXSXSXSXX.o._ ! 6 2 , , 1 8 ! ) o.#.7XwXwXwX6X7X$...) W 6 2 2 2 1 1 6 SXSXSXSXSXSXSXSXSXSXSXSXSXSXSXSXSXSXSXSXSXSXSX",
"SXSXSXSXSXSXSXSXSXSXSXSXSXSXSXSXSXSXSXSXSXSXSXSXf.M._.#X;X;X#X'.Q.B.U SXSXSXSXSXSXSXSXSXp.s.E.'.#X#X`.Q.M.n.G SXSXSXSXSXSXSXSXSXSX_ X.#.6XwXwX6X5X@...) ! 7 1 2 2 1 7 ! _ @.7XwXaXsXsXpXiXwX6X#.X._ ! 7 8 8 7 ! _ $.6XSXSXSXSXSXSXSXSXSXSXSXSXSXSXSXSXSXSXSXSXSX",
"SXSXSXSXSXSXSXSXSXSXSXSXSXSXSXSXSXSXSXSXSXSXSXSXy.d.m.Q.'._.Q.E.g.SXSXSXSXSXSXSXSXSXSXSX,.e.u.s.E.E.f.d.y.y.SXSXSXSXSXSXSXSXSXSX_ _ o.@.#.5X5X#.@...Q 7 6 1 1 6 7 ! ) o.$.7XwXiXsXfXfXpXiXqXwX7X#.o.) Q W W ! ) X.#.5X8XSXSXSXSXSXSXSXSXSXSXSXSXSXSXSXSXSXSXSXSX",
"SXSXSXSXSXSXSXSXSXSXSXSXSXSXSXSXSXSXSXSXSXSXSXSXSXSXy.p.p.p.p.SXSXSXSXSXSXSXSXSXSXSXSXSXSXSXr.r.r.r.e.SXSXSXSXSXSXSX$.$.$.$.@.X..._ ) ) ) ) ) Q ! 7 9 2 1 9 7 Q  .$.7X9XwXwXqXqXiXiXqXwXwX0X6X7X#.X.) Q W 7 W Q _ X.+.C.N.M.h.SXSXSXSXSXSXSXSXSXSXSXSXSXSXSXSXSX",
"SXSXSXSXSXSXSXSXSXSXSXSXSXSXSXSXSXSXSXSXSXSXSXSXSXSXSX,.,.,.SXSXSXSXSXSXSXSXSXSXSXSXSXSXSXSXSXSXd d SXSXSXSXSXSXSX}.F.F.D.XX5X$.X._ ) W 8 1 1 2 2 3 B S S I | | C.XXXXrXqXyXqXwX0X7X7X5X5X#.#.$.X._ ( ! 7 7 7 T Q ) { | n.s.s.f.SXSXSXSXSXSXSXSXSXSXSXSXSXSXSXSX",
"SXSXSXSXSXSXSXSXSXSXSXSXSXSXSXSXSXSXSXSXSXSXSXSXSXSXSXSXSXSXSXSXSXSXSXSXSXSXSXSXSXSXSXSXSXSXSXSXSXSXSXSXSXSX#X#X'.~.^.}.oXrXwX6X#.o.) W 6 , O O & B R. X$X@X~.^.m.B.v.S.oXqXqX9X5X$.%.X.X.o.o..._ Q W 7 8 6 6 6 8 7 Z V N e.y.d.f.M.SXSXSXSXSXSXSXSXSXSXSXSXSXSX",
"SXSXSXSXSXSXSXSXSXSXSXSXSXSXSXSXSXSXSXSXSXSXSXSXSXSXSXSXSXSXSXSXSXSXSXSXSXSXSXSXSXSXSXSXSXSXSXSXSXSXSXSXSX;X&X#X`.(.E.m.B.}.F.F.+...) T 1 < 4 B D R. X&X=X[.'.Q.h.d.p.c.oXrXwX5X%...` ) Q Q Q Q ! 7 8 1 1 1 2 2 2 1 3 t j h r.t.p.d.d.SXSXSXSXSXSXSXSXSXSXSXSXSX",
"SXSXSXSXSXSXSXSXSXSXSXSXSXSXSXSXSXSXSXSXSXSXSXSXSXSXSXSXSXSXSXSXSXSXSXSXSXSXSXSXSXSXSXSXSXSXSXSXSXSXSX-X-X;X&X#X'.Q.E.f.p.t.i.L [ { ) T 9 5 I R.'.#X#X#X`._.W.g.d.p.y.v.F.8X7X@._ Q W 7 8 6 6 6 1 1 2 , , o o o 0 , & e a d g ,.r.r.e.SXSXSXSXSXSXSXSXSXSXSXSXSX",
"SXSXSXSXSXSXSXSXSXSXSXSXSXSXSXSXSXSXSXSXSXSXSXSXSXSXSXSXSXSXSXSXSXSXSXSXSXSXSXSXSXSXSXSXSXSXSXSXSX'.{.#X#X{.'.).E.f.p.t.r.,.h j z Z 7 9 2 4 U !.#X#X].(.W.g.d.u.e.r.r.j.| O.o._ ! 7 1 2 , o o o o o O O O O O O O o 0 % e s g g g g g SXSXSXSXSXSXSXSXSXSXSXSXSX",
"SXSXSXSXSXSXSXSXSXSXSXSXSXSXSXSXSXSXSXSXSXSXSXSXSXSXSXSXSXSXSXSXSXSXSXSXSXSXSXSXSXSXSXSXSXSXSX).).).).(.).Q.W.M.s.y.e.r.g g s a r 5 2 > o 4 U !.`.`.(.E.f.y.e.r.g g g j A ^ ) ! 7 1 2 o O X X X X O X X X X X O O O O o SXSXSXg f d SXSXSXSXSXSXSXSXSXSXSXSXSXSX",
"SXSXSXSXSXSXSXSXSXSXSXSXSXSXSXSXSXSXSXSXSXSXSXSXSXSXSXSXSXSXSXSXSXSXSXSXSXSXSXSXSXSXSXSXSXSXSXE.E.E.W.SXSXSXSXSXSXSXSXSXSXSXSXSXSXSXSXSXSXSXn.^.W.W.W.SXSXSXSXSXSXSXSXSXSXSXSXSXSXSXSXSXSXSXSXSXSXSXSXSXSXSXSXSXSXSXSXSXSXSXSXSXSXSXSXSXSXSXSXSXSXSXSXSXSXSXSXSX",
"SXSXSXSXSXSXSXSXSXSXSXSXSXSXSXSXSXSXSXSXSXSXSXSXSXSXSXSXSXSXSXSXSXSXSXSXSXSXSXSXSXSXSXSXSXSXSXg.g.g.g.SXSXSXSXSXSXSXSXSXSXSXSXSXSXSXSXSXSXSXSXg.g.g.SXSXSXSXSXSXSXSXSXSXSXSXSXSXSXSXSXSXSXSXSXSXSXSXSXSXSXSXSXSXSXSXSXSXSXSXSXSXSXSXSXSXSXSXSXSXSXSXSXSXSXSXSXSX"
};
