/* XPM */
static const char *bos2e6[] = {
/* columns rows colors chars-per-pixel */
"128 128 253 2 ",
"   c #0D0D0D",
".  c #0C1709",
"X  c #141414",
"o  c #1B1513",
"O  c #1C1915",
"+  c #1B1C1C",
"@  c #15181A",
"#  c #111211",
"$  c #380909",
"%  c #27190C",
"&  c #361B0B",
"*  c #251B16",
"=  c #331412",
"-  c #14270C",
";  c #1B3A13",
":  c #152C0E",
">  c #292318",
",  c #332513",
"<  c #3C2B1A",
"1  c #372817",
"2  c #332911",
"3  c #1F2122",
"4  c #242424",
"5  c #2B2C2C",
"6  c #292827",
"7  c #382826",
"8  c #363327",
"9  c #333434",
"0  c #3B3C3C",
"q  c #383737",
"w  c #2C322F",
"e  c #1C1F20",
"r  c #490505",
"t  c #540101",
"y  c #5B0302",
"u  c #591717",
"i  c #48180F",
"p  c #630101",
"a  c #6B0505",
"s  c #7C0101",
"d  c #750606",
"f  c #661717",
"g  c #751717",
"h  c #49260B",
"j  c #462B18",
"k  c #48331C",
"l  c #553717",
"z  c #542C0B",
"x  c #692A04",
"c  c #742C00",
"v  c #742B02",
"b  c #7B3402",
"n  c #7F3904",
"m  c #753609",
"M  c #6D3414",
"N  c #472927",
"B  c #572727",
"V  c #4A3626",
"C  c #573C24",
"Z  c #473736",
"A  c #583938",
"S  c #672727",
"D  c #6E312E",
"F  c #1E4216",
"G  c #234919",
"H  c #27541D",
"J  c #33521A",
"K  c #2B5A22",
"L  c #324C2C",
"P  c #2F6324",
"I  c #346927",
"U  c #37762D",
"Y  c #397F31",
"T  c #594617",
"R  c #724918",
"E  c #5C4126",
"W  c #5A4739",
"Q  c #4A4232",
"!  c #694728",
"~  c #744D2C",
"^  c #7A532D",
"/  c #7B5534",
"(  c #6B4F2D",
")  c #726C26",
"_  c #536F25",
"`  c #35355F",
"'  c #3E4243",
"]  c #434444",
"[  c #4B4B4B",
"{  c #494645",
"}  c #574C48",
"|  c #545454",
" . c #5B5C5C",
".. c #585756",
"X. c #4F5151",
"o. c #665957",
"O. c #6F5149",
"+. c #746456",
"@. c #5D6161",
"#. c #646464",
"$. c #6B6B6B",
"%. c #686767",
"&. c #6C7271",
"*. c #747474",
"=. c #7B7B7B",
"-. c #787877",
";. c #736C6B",
":. c #5E5F61",
">. c #403D40",
",. c #830101",
"<. c #8A0505",
"1. c #930202",
"2. c #9A0505",
"3. c #8D1817",
"4. c #AC0101",
"5. c #A40303",
"6. c #B30202",
"7. c #BC0101",
"8. c #B60A0A",
"9. c #AF1211",
"0. c #823D05",
"q. c #813A05",
"w. c #93231B",
"e. c #902F2F",
"r. c #BA2929",
"t. c #C70303",
"y. c #D70202",
"u. c #D01414",
"i. c #E50303",
"p. c #F80000",
"a. c #EF1515",
"s. c #D93333",
"d. c #864107",
"f. c #894608",
"g. c #8D4A0B",
"h. c #86440A",
"j. c #914E0C",
"k. c #93520E",
"l. c #99570F",
"z. c #9B5C13",
"x. c #965711",
"c. c #8A5515",
"v. c #9D6317",
"b. c #8B671D",
"n. c #A46918",
"m. c #AA741D",
"M. c #AB761E",
"N. c #875933",
"B. c #925F37",
"V. c #98633B",
"C. c #8F6E2D",
"Z. c #B17D21",
"A. c #AB7625",
"S. c #92504E",
"D. c #AE4E4E",
"F. c #8E6C52",
"G. c #A66C43",
"H. c #B77649",
"J. c #AD7248",
"K. c #847B78",
"L. c #8D6F6A",
"P. c #A86F6F",
"I. c #CF5858",
"U. c #C27D4D",
"Y. c #EF6C6C",
"T. c #DA6565",
"R. c #3D8432",
"E. c #3C802F",
"W. c #418B36",
"Q. c #46973B",
"!. c #748D33",
"~. c #4DA542",
"^. c #53B148",
"/. c #57A140",
"(. c #5CC853",
"). c #65D85C",
"_. c #73CF55",
"`. c #6BE763",
"'. c #72EA64",
"]. c #8C9538",
"[. c #B58424",
"{. c #B88A28",
"}. c #BE932B",
"|. c #B99934",
" X c #A98F2F",
".X c #AFAA3F",
"XX c #C1982E",
"oX c #C39C32",
"OX c #C08F29",
"+X c #CAA636",
"@X c #D3B33E",
"#X c #D0AF3C",
"$X c #958A71",
"%X c #ACA655",
"&X c #CA8354",
"*X c #D78C5C",
"=X c #D7BA43",
"-X c #D69E65",
";X c #DCC449",
":X c #DCCA51",
">X c #E1CA4C",
",X c #E6D352",
"<X c #EADA57",
"1X c #E7D352",
"2X c #EEE05B",
"3X c #F2E65E",
"4X c #F5ED62",
"5X c #FDFC6D",
"6X c #F9F366",
"7X c #FEFD71",
"8X c #DFD271",
"9X c #99CD51",
"0X c #303098",
"qX c #6F709D",
"wX c #2222D0",
"eX c #7C8282",
"rX c #838383",
"tX c #8C8C8C",
"yX c #878A8A",
"uX c #8E9191",
"iX c #949494",
"pX c #9C9C9C",
"aX c #989998",
"sX c #938D8D",
"dX c #A89594",
"fX c #ABA695",
"gX c #A3A4A3",
"hX c #ACACAC",
"jX c #A9A6A5",
"kX c #B4B4B4",
"lX c #BBBBBB",
"zX c #B4B7BA",
"xX c #B7ABAB",
"cX c #9A9CA6",
"vX c #CDBAB9",
"bX c #E09898",
"nX c #E7DE88",
"mX c #C3C4C4",
"MX c #CBCBCB",
"NX c #C7CBCB",
"BX c #D4D4D4",
"VX c #DCDCDC",
"CX c #D6DBDB",
"ZX c #D2D0CC",
"AX c #E3E3E3",
"SX c #ECECEC",
"DX c #E6E7E7",
"FX c #F0F0F0",
"GX c #EDF3F3",
"HX c #E6DEDC",
"JX c #BCBFC3",
"KX c None",
"LX c black",
/* pixels */
"KXKXKXKXKXKXKXKXKXKXKXKXKXKXKXKXKXKXKXKXKXKXKXKXKXKXKXKXKXKXKXKXKXKXKXKXKXKXKXp.p.i.y.7.4.2.,.s d a y y KXKXKXKXKXKXKXKXKXKXKXKXKXKXKXKXKXKXKXKXKXKXKXKXKXKXKXKXKXKXKXKXKXKXKXKXKXKXKXKXKXKXKXKXKXKXKXKXKXKXKXKXKXKXKXKXKXKXKXKXKXKXKXKXKXKXKXKXKXKXKXKXKXKXKXKX",
"KXKXKXKXKXKXKXKXKXKXKXKXKXKXKXKXKXKXKXKXKXKXKXKXKXKXKXKXKXKXKXKXKXKXKXKXKXKXKXi.y.t.4.2.3.w.g S S S S S O.KXKXKXKXKXKXKXKXKXKXKXKXKXKXKXKXKXKXKXKXKXKXKXKXKXKXKXKXKXKXKXKXKXKXKXKXKXKXKXKXKXKXKXKXKXKXKXKXKXKXKXKXKXKXKXKXKXKXKXKXKXKXKXKXKXKXKXKXKXKXKXKXKXKXKX",
"KXKXKXKXKXKXKXKXKXKXKXKXKXKXKXKXKXKXKXKXKXKXKXKXKXKXKXKXKXKXKXKXKXKXKXp.p.p.y.7.2.,.d D O.o.o.o.o.o.#.;.K.aXkXMXVXVXAXDXSXDXAXVXmXhXgXKXKXKXKXKXKXKXKXKXKXKXKXKXKXKXKXKXKXKXKXKXKXKXKXKXKXKXKXKXKXKXKXKXKXKXKXKXKXKXKXKXKXKXKXKXKXKXKXKXKXKXKXKXKXKXKXKXKXKXKXKX",
"KXKXKXKXKXKXKXKXKXKXKXKXKXKXKXKXKXKXKXKXKXKXKXKXKXKXKXKXKXKXKXKXKXa.p.p.i.t.5.3.D O.S.K.rX=.&.&.*.=.tXaXgXkXNXVXAXDXDXDXDXDXAXVXMXlXjXtX=.KXKXKXKXKXKXKXKXKXKXKXKXKXKXKXKXKXKXKXKXKXKXKXKXKXKXKXKXKXKXKXKXKXKXKXKXKXKXKXKXKXKXKXKXKXKXKXKXKXKXKXKXKXKXKXKXKXKXKX",
"KXKXKXKXKXKXKXKXKXKXKXKXKXKXKXKXKXKXKXKXKXKXKXKXVXVXVXAXDXSXGXHXY.a.p.i.7.1.g } $.tXjXkXhXaX=.=.rXiXjXlXNXBXAXDXSXSXSXSXDXAXVXVXBXmXkXyX=.aXlXmXKXKXKXKXKXKXKXKXKXKXKXKXKXKXKXKXKXKXKXKXKXKXKXKXKXKXKXKXKXKXKXKXKXKXKXKXKXKXKXKXKXKXKXKXKXKXKXKXKXKXKXKXKXKXKXKX",
"KXKXKXKXKXKXKXKXKXKXKXKXKXKXi.t.6.1.,.S.dXJXBXAXDXSXSXSXSXSXGXAXY.a.i.7.<.f A ;.iXkXmXlXhXaXyXyXiXgXlXNXVXDXSXSXFXFXSXSXDXAXVXBXMXlXjXrX=.gXNXNXkXKXKXKXKXKXKXKXKXKXKXKXKXKXKXKXKXKXKXKXKXKXKXKXKXKXKXKXKXKXKXKXKXKXKXKXKXKXKXKXKXKXKXKXKXKXKXKXKXKXKXKXKXKXKXKX",
"KXKXKXKXKXKXKXKXKXKXKXKXKXy.t.4.2.3.e.P.xXNXVXDXSXFXFXGXFXSXHXbXY.a.t.2.g A @.uXkXNXMXlXgXiXyXtXpXhXlXMXVXDXSXSXSXSXDXAXVXVXBXmXlXjXaXrXrXhXBXmXhXgXKXKXKXKXKXKXKXKXKXKXKXKXKXKXKXKXKXKXKXKXKXKXKXKXKXKXKXKXKXKXKXKXKXKXKXKXKXKXKXKXKXKXKXKXKXKXKXKXKXKXKXKXKXKX",
"KXKXKXKXKXKXKXKXKXp.i.y.7.5.<.f A L.sXxXMXVXAXSXSXSXSXGXGXHXbXs.a.y.4.,.f o.eXjXmXMXNXkXaXrX=.rXaXjXlXNXBXVXAXAXAXVXVXBXMXNXlXkXgXtX=.*.=.hXBXmXgXaXKXKXKXKXKXKXKXKXKXKXKXKXKXKXKXKXKXKXKXKXKXKXKXKXKXKXKXKXKXKXKXKXKXKXKXKXKXKXKXKXKXKXKXKXKXKXKXKXKXKXKXKXKXKX",
"KXKXKXKXKXKXKXKXi.y.t.9.w.w.D o.*.aXlXBXAXSXSXSXSXFXFXSXGXHXY.i.y.t.1.f A ;.uXkXmXmXlXgXtX=.*.=.iXgXkXlXmXNXMXBXBXMXmXlXkXhXgXaXrX$.#.$.=.kXBXkXtXK.KXKXKXKXKXKXKXKXKXKXKXKXKXKXKXKXKXKXKXKXKXKXKXKXKXKXKXKXKXKXKXKXKXKXKXKXKXKXKXKXKXKXKXKXKXKXKXKXKXKXKXKXKXKX",
"KXKXKXKXKXKXKXi.y.6.3.D } #.-.uXgXlXBXAXSXSXSXSXSXFXFXSXDXZXY.i.y.4.g N [ *.iXjXkXkXgXiXrX-.$.*.rXiXgXhXkXkXlXlXlXlXhXgXaXiXyX=.$.| | #.yXkXNXgX*.+.J.H.KXKXKXKXKXKXKXKXKXKXKXKXKXKXKXKXKXKXKXKXKXKXKXKXKXKXKXKXKXKXKXKXKXKXKXKXKXKXKXKXKXKXKXKXKXKXKXKXKXKXKXKX",
"KXKXKXKXKXi.y.t.9.3.D } %.eXaXhXmXZXVXDXSXFXGXSXFXFXFXSXAXvXT.i.t.2.g Z X.&.yXpXgXgXaXrX$.#. .#.*.=.tXaXaXaXpXgXgXpXaXtXyXrX-.#.| 0 { $.iXkXlXtX .O.J.U.&XKXKXKXKXKXKXKXKXKXKXKXKXKXKXKXKXKXKXKXKXKXKXKXKXKXKXKXKXKXKXKXKXKXKXKXKXKXKXKXKXKXKXKXKXKXKXKXKXKXKXKX",
"KXKXKXKXi.y.7.2.g A | #.=.aXhXlXMXBXVXDXSXSXSXSXSXFXFXSXAXvXT.i.t.1.f Z [ %.=.tXaXaXyX*...[ [ |  .$.-.=.=.=.rXyXrXrX=.-.-.-.$. .{ q ] -.pXjXgX*.{ W G.&X*X*XKXKXKXKXKXKXKXKXKXKXKXKXKXKXKXKXKXKXKXKXKXKXKXKXKXKXKXKXKXKXKXKXKXKXKXKXKXKXKXKXKXKXKXKXKXKXKXKXKXKX",
"KXKXKXy.y.7.3.S A | @.*.yXgXkXmXMXBXVXDXSXSXSXFXFXSXSXAXVXvXT.y.6.<.u 7 ]  .$.=.rXrX=. .{ 0 ] { |  .#.#.#.$.$.*.$.$.#.#.#.#. .[ q q [ rXgXpXrXo.Q ( G.U.*X*X*X*XKXKXKXKXKXKXKXKXKXKXKXKXKXKXKXKXKXKXKXKXKXKXKXKXKXKXKXKXKXKXKXKXKXKXKXKXKXKXKXKXKXKXKXKXKXKXKXKX",
"KXKXy.y.6.1.S { X. .$.=.iXjXlXmXMXBXVXAXDXSXSXSXSXSXAXVXVXvXI.u.4.,.u 7 0 [ #.*.=.=.$.[ q 9 q 0 { [ [ | |  . . . .| | | ..| [ q 9 q | yXjXtX#.} E ~ V.J.&X*X*X*X*XKXKXKXKXKXKXKXKXKXKXKXKXKXKXKXKXKXKXKXKXKXKXKXKXKXKXKXKXKXKXKXKXKXKXKXKXKXKXKXKXKXKXKXKXKXKXKX",
"KXKXt.6.1.a B { X. .$.rXaXjXlXmXMXBXVXAXDXSXSXSXSXDXAXVXVXvXI.t.4.<.f 7 q [  .$.*.$.#.{ 5 6 5 9 0 ] ] ] [ [ [ [ [ [ [ [ [ ] q 6 6 0 :.uXgX=.| W ~ ~ ~ B.J.&X*X-X*X&XKXKXKXKXKXKXKXKXKXKXKXKXKXKXKXKXKXKXKXKXKXKXKXKXKXKXKXKXKXKXKXKXKXKXKXKXKXKXKXKXKXKXKXKXKXKX",
"KXKX4.2.d u N { | #.*.rXaXjXzXmXMXBXVXAXAXDXAXAXDXAXVXVXCXvXI.8.4.2.f 7 9 ] | :.#.#.| 0 6 4 4 6 9 q q q 0 ] ] ] ] ] ] 0 q 5 6 + 6 [ $.tXiX$.Q W ^ N.N.B.V.J.&X*X*X*X&XKXKXKXKXKXKXKXKXKXKXKXKXKXKXKXKXKXKXKXKXKXKXKXKXKXKXKXKXKXKXKXKXKXKXKXKXKXKXKXKXKXKXKXKXKX",
"t.7.2.d S Z { { | #.-.rXaXgXkXlXNXMXBXVXVXVXVXVXVXVXVXBXBXvXD.8.4.5.d 7 w 0 [ | | | { q 6 + + 3 6 6 5 9 q q q q q q 9 5 6 4 + + 9  .=.rX=.} V ! N.V.J.G.V.B.G.H.*X-X&XH.J.KXKXKXKXKXKXKXKXKXKXKXKXKXKXKXKXKXKXKXKXKXKXKXKXKXKXKXKXKXKXKXKXKXKXKXKXKXKXKXKXKXKXKX",
"7.4.<.a B { ] { | #.-.rXiXpXjXkXmXNXMXBXVXVXBXVXVXVXBXBXMXvXD.5.6.4.g 7 5 q ] [ [ ] q 6 + + + + + 4 4 6 6 5 5 5 6 6 4 + + + + 6 ] #.-.$...Q C C ~ V.J.H.J.G.V.V.J.&X&X&X&XU.KXKXKXKXKXKXKXKXKXKXKXKXKXKXKXKXKXKXKXKXKXKXKXKXKXKXKXKXKXKXKXKXKXKXKXKXKXKXKXKXKXKX",
"2.1.s a B { ] { | #.-.rXuXaXgXhXlXmXmXMXBXBXBXBXVXVXBXZXNXxXD.2.4.6.<.7 5 9 0 ] ] q 5 6 + + + + + + + + 4 4 4 4 + + + @ @ + 5 {  .#.#.[ 0 V E ! ! ^ V.J.&XU.V.N.B.V.H.*X&XU.U.KXKXsXpXlXBXBXBXVXAXVXVXNXlXhXKXKXKXKXKXKXKXKXKXKXKXKXKXKXKXKXKXKXKXKXKXKXKXKXKXKX",
",.,.,.d B { ] { | #.*.=.yXaXgXhXkXlXlXmXNXMXBXBXCXBXBXNXmXxXS.<.2.4.d 7 6 9 0 ] ] q 5 6 6 6 6 4 + + + + + + + + + + @ @ 3 9 { #.%. .[ q 7 C ! ^ N.N.N.V.H.H.H.G.B.N.B.G.H.&X*X&XH.F.$XfXkXkXkXlXlXmXlXkXhXgXaXyX=.=.KXKXKXKXKXKXKXKXKXKXKXKXKXKXKXKXKXKXKXKXKXKX",
"a s ,.<.S { ] { [  .$.=.rXtXaXjXkXkXlXlXmXNXBXBXBXMXNXmXJXjXS.d 1.5.<.u 7 9 q ] { q 9 9 9 9 q q 9 5 6 6 4 4 4 4 4 6 6 6 q {  .#.#.{ 9 1 1 k ! N.V.V.N.N.V.G.H.H.V.N.N.N.V.H.&X&XH.V.F.$XpXgXgXgXgXgXgXpXaXtXrXK.=.*.$.KXKXKXKXKXKXKXKXKXKXKXKXKXKXKXKXKXKXKXKXKX",
"y a ,.<.S { ' ] [  .%.-.rXyXiXgXhXkXzXlXmXmXMXMXNXmXlXkXkXdXO.p s 2.6.6.3.N w ' { ] 0 q q 0 { [ | | { 0 q 9 q q 0 ] [ | | | | [ 0 5 > > , < C ~ B.V.V.V.N.^ V.G.H.H.V.^ ~ ^ V.H.J.N./ K.aXjXkXhXjXpXiXrX=.*.$.$.$.#. .[ { ] L U Q.(.`.'.'.`.`.KXKXKXKXKXKXKXKXKX",
"t p s <.3.D A { X.#.=.tXpXgXjXgXgXhXkXlXlXmXNXNXmXlXkXhXjXiXo.u a ,.6.y.6.g B Z { [ [ { 0 0 ] [ | | | [ [ [ [ | [ [ | | | [ 0 9 6 > * , 1 < V C ~ N.V.V.N.^ N.N.G.J.V.N.~ ! ^ V.G.F.L.K.rXaXgXjXjXgXpXiXrX=.-.*.$.#.| { 0 0 L I Q.^.).`.`.).).(.KXKXKXKXKXKXKXKX",
"t y a <.6.t.w.} @.=.aXhXmXBXBXkXgXgXhXkXlXmXmXmXlXkXhXgXpXtX%.Z u a 1.4.7.7.3.D { |  .| [ 0 9 9 q ] { [ |  . . .| [ ] q 5 6 4 + * > 1 k V k j k k ! N.V.V.V.N.^ / / B.V.B.^ ! ! +.fXkXtX*.=.yXaXjXkXkXkXkXgXaXyX=.$. .{ 9 5 L K R.~.(.).).(.^.^.^.^.(.(.KXKXKXKX",
"t t p s 4.t.9.w.O.%.&.&.yXhXmXlXkXhXjXhXlXlXmXmXlXkXhXgXaXrX#.{ N t a ,.2.4.5.g B } #.#. .{ 9 6 6 6 9 q q 0 ] ] 0 q 5 4 + o o o * > < k C C k k k V C ~ N.V.V.B.N./ ^ N.N.N.! E +.jXlXiX=.=.tXaXpXgXgXgXgXpXaXuXtXeX&. .] w w K I Q.^.^.^.Q.U U U W.Q.~.~.KXKXKX",
"KXKXt p ,.5.7.t.w.A q 6 q $.aXlXNXkXgXgXkXlXlXlXlXkXjXpXiX=.#.{ N r t p d ,.,.s f A  .#.#.| ] 9 6 + + + + + + + + + + @ o o o % % & 1 k V C C C V V k k C ~ B.V.V.N.~ ! ! ~ ! ! +.aXgXiXrXiXpXpXpXaXyXrXrXrXrXrXsXsXK.;.| 0 w G K E.Q.Q.R.P G ; ; G P Y Q.~.KXKX",
"KXKXr t p s 1.5.2.g u r = Z #.pXmXkXpXgXhXkXkXkXkXjXgXaXrX-.%.| { N i r t y y y t N ] ..#.#. .[ q 5 6 + + + + + + + + + + * * % % % % , < k k C C C C k k k C ( N.B.N.^ ( E k j W K.iXrX=.aXhXkXkXhXpXtXrX-.&.+.D.s.s.r.e.A 8 ; G I E.W.R.U H ; : : ; K Y W.KXKX",
"KXKXr r t y p d s s s p r = 0 rXkXgXiXaXgXhXhXhXjXgXaXyX=.-.$.#. .[ Z i r r r r $ 7 q [  .$.$.#.| ] 9 6 4 4 + + + + + + + 4 6 8 V Q Q < , , 1 k l C E l j 1 1 k ! ~ N.^ ! V V V } $.=.*.=.aXkXmXmXlXjXpXyX-.+.e.u.p.i.t.w.C 8 - : G I R.W.W.U P H G G K I U KXKX",
"KXKXKXKXr r t t t y t t $ * q *.aXtXrXtXpXgXgXgXpXaXtXrX=.-.*.$.$.$...{ Z Z 9 7 7 9 q { |  .#.#. .[ ] q q 5 6 6 4 4 + + + 6 0 o.$XpXaXo.< , , , 1 < k k k k j < < k V C C V W $.*.%.%.&.=.iXgXhXkXhXgXpXiXP.r.u.i.y.6.1.g C 8 . - : G I R.W.Q.Q.~.Q.Q.R.U I I P ",
"KXKXKXKX$ $ $ $ $ $ $ $ = q | $.rX=.*.rXiXaXaXaXiXtXrX=.=.-.-.*.-.-.&.%.#.%.@.| [ { ] { [ |  .| [ ] 0 q q 9 5 6 6 6 4 + + 4 0 #.iXmXvXF.i & % % , , 1 < k k k < 1 1 1 j < k W S.S.S.S.S.S.L.yXuXiXuXuXsXP.I.a.i.t.4.s y j V 8 G F G G H P U R.Q.~.~.Q.Y I K H H ",
"KXKXKXKXO * * 4 * o o O 9 #.=.*.$.#.#.*.rXrXrXrXrXrX=.=.-.-.-.-.*.*.=.rXiXaXiX=.$.| [ [ [ [ { 0 9 6 6 5 5 w 5 5 5 5 6 + + + 5 [ =.hXxXS.d a KXKX, , , , , 1 < j k k < 1 , , f 9.u.u.i.a.u.e.o.#.$.&.;.S.u.u.t.4.<.a i & 1 5 L W.W.E.I G F H P U Y U P H G G ; ; ",
"KXKXKXKX@ @ + 3 4 4 6 w ]  .#. .|  . .$.-.-.-.-.=.=.-.-.-.-.-.*.$.$.$.*.=.eX=.$. .[ ] ' 0 q q 9 5 5 5 5 5 5 6 6 6 6 4 + + + 6 { $.gXxXdXP.D.KXKX< , , > , 1 1 1 1 1 , , Q o.D 2.4.7.y.i.i.u.e.O.} O.e.r.t.t.2.s y i 1 7 > > L Q.^.^.~.U I _ !.].].].!.) ) T l z ",
"KXKXKXKXX @ @ + 6 9 0 { { 0 0 ] [ [ | @.%.$.$.$.$.$.$.$.-.-.*.$.#. .| [ [ [ { { ] q q 9 5 6 6 5 9 q q q q 5 6 + + + + + + + 6 0  .yXhXNXvXP.e.3.KXKXKXKXj j , , , , , N o.sXL.g a ,.1.4.t.i.i.w.A w.u.y.6.1.a r & > 6 6 + @ G R.^.).).^./..X=X>X,X:X=X|.[.v.g.d.",
"KXKXKXKXX @ @ + 6 5 9 q q q q q 0 ] { [ .. .#.#.#.#.#.$.$.$.#. .| [ 0 9 5 6 6 6 6 6 6 6 6 4 4 6 5 9 9 q q q 9 5 6 3 + @ @ @ + 5 { $.iXzXvXP.e.3.KXKXKXKX2.<.a u V { } o.$.*.o.Z N B f d 1.6.t.8.9.5.6.5.,.a i 1 * + + + X X ; U ~.).`.)._.9XKXKXKXKXKXKXKXKXKXKX",
"KXKXKXKXKX@ 4 5 q 0 { [ [ 0 q q q q 0 { [ | | | |  . . . . ...[ ] q q q q q 0 >.] ] 0 q 9 w 5 6 6 6 6 w q q q 9 5 6 + @ X X @ + 9 | *.aXgXP.e.e.KXKXKXKX4.5.2.d D } :.#. .[ ] 0 ' [ { B a d 1.4.7.4.,.d f B Z q 6 + @ X   # ; P Q.(.`.`.'.KXKXKXKXKXKXKXKXKXKXKX",
"KXKXKXKXKXKX{ |  .$.yXjXiX[ 6 6 9 q 0 { [ [ [ [ | | | | | [ ] q 5 6 { $.rXrXtXaXaXiXrX=.%. .[ q 4 + + 4 4 6 6 6 6 6 + @ X X @ + 6 q | *.tXaXdXP.D.KXKXKXd s 1.<.d u N q 9 9 q ] | %.$.} A u p s ,.s p f O.o...[ q 6 e + X X : G U ~.(.)._..XoXKXKXKXKXKXKXKXKXKX",
"KXKXKXKXKXKXKX#.$.=.gXNXlXrX| q 6 5 q 0 { { { [ [ [ { ] 0 q 9 5 q [ *.pXkXlXmXmXmXlXhXaXyX-.#.[ 9 6 4 + + + + 4 6 4 + @ @ @ @ + 4 6 0 | -.aXjXP.e.e.KXKXa p s ,.s p $ + + 4 9 {  .$.$...Z 7 $ r r r i N | ..[ Q 9 6 * + X X - ; K R.~.(._.]. X|.KXKXKXKXKXKXKXKX",
"KXKXKXKXKXKXKX .#.$.yXhXmXNXgX| 4 + 6 9 q 0 ] { { ] q 9 5 6 4 5 | yXjXmXBXBXBXMXmXkXjXpXiXrX$. .[ 0 9 6 + @ + + + + + + + + + KXKX6 w ]  .eXiXL.e.e.D.D.KXKXy p s d r @ X + 5 Z [  .| { q 4 * * 6 7 9 9 9 5 6 4 * + + X . . - : F H U Q.~././.].|.KXKXKXKXKXKXKX",
"KXKXKXKXKXKXKX[ [  .*.aXlXBXlX*.q 4 4 4 6 6 5 w 5 6 6 + + 4 5 { $.aXkXmXNXMXNXJXkXjXpXiXyX=.*.#.| [ q 5 6 + + + + + + + + + KXKXKXKX5 q [ $.rXL.e.e.D.KXKXKXKXy p p r $ % @ 3 5 q 0 q 9 6 3 + + 4 6 5 6 + + @ @ @ @ @ X . . . - : ; H I U Y Y _ ) b.KXKXKXKXKXKX",
"KXKXKXKXKXKXKX9 q ]  .rXgXlXkXrX| q 5 5 9 9 q q q 9 6 4 + + q  .-.tXpXhXkXkXhXgXaXiXyX=.-.*.$.#. .[ 0 9 w 6 4 + + + + 4 4 KXKXKXKXKXKX9 ] :.=.K.KXKXKXKXKXKXKXKXt t t t $ o @ + + 4 4 + + + + + + + + + @ X X X X X X X . . . . - : ; F G H H H J T R d.KXKXKXKX",
"KXKXKXKXKXKX4 4 6 9 [ $.tXgXgX=.#.$.-.yXaXpXpXpXpXiXrX#.0 6 9 [ #.=.rXiXaXaXiXyXrX=.-.$.#.#. .| [ { q 9 5 6 4 + + + 4 6 6 KXKXKXKXKXKXKXKX#.*.-.KXKXKXKXKXKXKXKXKXKXt t r $ % o @ @ @ @ @ @ @ @ @ @ @ @ X KXKXKXKXKXKXKX. . . . . - : : : ; ; ; ; 2 2 h KXKXKXKX",
"KXKXKXKXKXKXKX+ + 4 q  .-.yXtX-.*.yXhXNXVXSXSXSXDXVXmXpX#.q 5 9 { #.$.-.=.=.=.$.$.#.#. .| | [ { Z q 9 6 6 4 + + + + 4 6 6 KXKXKXKXKXKXKXKX#.#.#.KXKXKXKXKXKXKXKXKXKXKXr r r $ o X X X X X X X X X X X X KXKXKXKXKXKXKXKXKX. . . . - - - - : : : : : - KXKXKXKXKX",
"KXKXKXKXKXKXKXKX@ + 6 q | $.=.=.=.iXjXlXBXVXAXAXVXZXlXgX-.| q 5 q [  .#.#.#.#. .| | | [ [ ] 0 q 5 6 4 + + + @ @ + 4 4 KXKXKXKXKXKXKXKXKXKX| | | KXKXKXKXKXKXKXKXKXKXKXKXKXKXKXKXKXKXKXKXKXKXKXKXKXKXKXKXKXKXKXKXKXKXKXKXKXKXKXKXKXKXKXKXKXKXKXKXKXKXKXKXKXKXKXKX",
"KXKXKXKXKXKXKXKXKXX + 6 q | #.*.qXqXqXcXzXmXNXvXbXbXjXaX=. .0 6 5 q ] [ [ [ [ { ] ] 0 q q 9 5 6 4 + + + + @ X X + 4 6 KXKXKXKXKXKXKXKXKXKXKX[ KXKXKXKXKXKXKXKXKXKXKXKXKXKXKXKXKXKXKXKXKXKXKXKXKXKXKXKXKXKXKXKXKXKXKXKXKXKXKXKXKXKXKXKXKXKXKXKXKXKXKXKXKXKXKXKXKX",
"KXKXKXKXKXKXKXKXKXX @ + 6 0 X.#.$.0XwXqXiXgXgXP.s.s.P.yX&.| 0 6 4 4 6 9 q q 9 5 5 5 6 6 4 + + + + + + + @ X     + 4 6 KXKXKXKXKXKXKXKXKXKXKXKXKXKXKXKXKXKXKXKXKXKXKXKXKXKXKXKXKXKXKXKXKXKXKXKXKXKXKXKXKXKXKXKXKXKXKXKXKXKXKXKXKXKXKXKXKXKXKXKXKXKXKXKXKXKXKXKXKX",
"KXKXKXKXKXKXKXKXKXKXX @ + 6 q { X.` 0X0X%.*.*.S.u.8.S.@.| { q 6 + @ + 4 6 6 4 4 4 4 4 + @ + + + + @ @ @ X       @ + 4 KXKXKXKXKXKXKXKXKXKXKXKXKXKXKXKXKXKXKXKXKXKXKXKXKXKXKXKXKXKXKXKXKXKXKXKXKXKXKXKXKXKXKXKXKXKXKXKXKXKXKXKXKXKXKXKXKXKXKXKXKXKXKXKXKXKXKXKXKX",
"KXKXKXKXKXKXKXKXKXKXKXX @ + e 6 w 9 q 0 0 ' ] S 3.<.B q 9 5 6 4 + @ @ + + + + + + + + @ @ @ + @ @ X X X         @ + + KXKXKXKXKXKXKXKXKXKXKXKXKXKXKXKXKXKXKXKXKXKXKXKXKXKXKXKXKXKXKXKXKXKXKXKXKXKXKXKXKXKXKXKXKXKXKXKXKXKXKXKXKXKXKXKXKXKXKXKXKXKXKXKXKXKXKXKXKX",
"KXKXKXKXKXKXKXKXKXKXKXKXX X X @ @ + > 4 4 4 4 * i $ * + + + + @ X     X X                   X #                 X KXKXKXKXKXKXKXKXKXKXKXKXKXKXKXKXKXKXKXKXKXKXKXKXKXKXKXKXKXKXKXKXKXKXKXKXKXKXKXKXKXKXKXKXKXKXKXKXKXKXKXKXKXKXKXKXKXKXKXKXKXKXKXKXKXKXKXKXKXKXKX",
"KXKXKXKXKXKXKXKXKXKXKXKXKX4 4 6 6 5 6 6 6 6 6 6 5 9 q q q q q q 5 6 6 6 5 9 9 9 9 9 9 9 9 5 5 5 6 6 4 + + @ @ + + KXKXKXKXKXKXKXKXKXKXKXKXKXKXKXKXKXKXKXKXKXKXKXKXKXKXKXKXKXKXKXKXKXKXKXKXKXKXKXKXKXKXKXKXKXKXKXKXKXKXKXKXKXKXKXKXKXKXKXKXKXKXKXKXKXKXKXKXKXKXKX",
"KXKXKXKXKXKXKXKXKXKXKXq 0 { | *.=.-.#.| [ | :.$.*.rXaXgXjXjXgXaXrX$.$.*.rXaXgXgXgXgXgXpXaXiXtXrX=.-.$.#.X.0 9 6 q ] KXKXKXKXKXKXKXKXKXKXKXKXKXKXKXKXKXKXKXKXKXKXKXKXKXKXKXKXKXKXKXKXKXKXKXKXKXKXKXKXKXKXKXKXKXKXKXKXKXKXKXKXKXKXKXKXKXKXKXKXKXKXKXKXKXKXKXKXKXKX",
"KXKXKXKXKXKXKXKXKXKXKXq {  .=.gXlXjXtX*. .#.=.rXaXjXNXVXDXDXVXNXgXrXrXaXkXZXAXDXAXVXBXMXmXlXhXgXaXiXyX=.#.[ q 5 q 0 ] KXKXKXKXKXKXKXKXKXKXKXKXKXKXKXKXKXKXKXKXKXKXKXKXKXKXKXKXKXKXKXKXKXKXKXKXKXKXKXKXKXKXKXKXKXKXKXKXKXKXKXKXKXKXKXKXKXKXKXKXKXKXKXKXKXKXKXKXKX",
"KXKXKXKXKXKXKXKXKXKXKXq { $.iXlXBXkXiX$.| | $.=.tXgXmXCXAXAXBXlXtX$.-.aXkXMXVXDXAXVXNXlXhXpXiXyXrX-.$. .[ q 6 4 5 q q KXKXKXKXKXKXKXKXKXKXKXKXKXKXKXKXKXKXKXKXKXKXKXKXKXKXKXKXKXKXKXKXKXKXKXKXKXKXKXKXKXKXKXKXKXKXKXKXKXKXKXKXKXKXKXKXKXKXKXKXKXKXKXKXKXKXKXKXKX",
"KXKXKXKXKXKXKXKXKXKXKX5 0  .rXhXlXpX-.| 0 ] |  .$.=.aXjXkXkXgXuX$.[  .eXpXlXMXBXBXNXlXhXpXtXrX-.$.#. .[ q 5 4 + 6 5 q KXKXKXKXKXKXKXKXKXKXKXKXKXKXKXKXKXKXKXKXKXKXKXKXKXKXKXKXKXKXKXKXKXKXKXKXKXKXKXKXKXKXKXKXKXKXKXKXKXKXKXKXKXKXKXKXKXKXKXKXKXKXKXKXKXKXKXKXKX",
"KXKXKXKXKXKXKXKXKXKXKX6 9 [ #.yXiX*.[ q 6 5 q 0 { [  .#.$.$.#.| 0 5 0 #.=.aXjXkXkXjXpXiXrX=.$.#. .[ { q 5 4 + + + 6 q ] [ KXKXKXKXKXKXKXKXKXKXKXKXKXKXKXKXKXKXKXKXKXKXKXKXKXKXKXKXKXKXKXKXKXKXKXKXKXKXKXKXKXKXKXKXKXKXKXKXKXKXKXKXKXKXKXKXKXKXKXKXKXKXKXKXKXKXKX",
"KXKXKXKXKXKXKXKXKXKXKX6 5 q [ #.#.[ 9 4 + + 4 6 6 5 w 9 q q 9 5 4 + 6 { | #.$.$.$.#. .| [ [ [ ] q 9 9 6 4 + + @ + + 5 q 0 KXKXKXKXKXKXKXKXKXKXKXKXKXKXKXKXKXKXKXKXKXKXKXKXKXKXKXKXKXKXKXKXKXKXKXKXKXKXKXKXKXKXKXKXKXKXKXKXKXKXKXKXKXKXKXKXKXKXKXKXKXKXKXKXKXKXKX",
"KXKXKXKXKXKXKXKXKXKXKX4 6 5 q ] ] q 6 + + + 4 6 9 9 9 5 5 5 5 6 4 + 4 9 q 9 9 q q q 0 ] { [ [ 0 9 6 6 6 + + @ @ + 4 5 q [ KXKXKXKXKXKXKXKXKXKXKXKXKXKXKXKXKXKXKXKXKXKXKXKXKXKXKXKXKXKXKXKXKXKXKXKXKXKXKXKXKXKXKXKXKXKXKXKXKXKXKXKXKXKXKXKXKXKXKXKXKXKXKXKXKXKXKX",
"KXKXKXKXKXKXKXKXKXKXKX+ + + 4 6 6 6 6 6 6 q [  .$.*.*.*.*.*.$. .{ 5 6 6 6 4 4 5 0  .*.rXiXiXyX-. .[ 0 9 6 + @ + 6 9 ] | *.aXhXKXKXKXKXKXKXKXKXKXKXKXKXKXKXKXKXKXKXKXKXKXKXKXKXKXKXKXKXKXKXKXKXKXKXKXKXKXKXKXKXKXKXKXKXKXKXKXKXKXKXKXKXKXKXKXKXKXKXKXKXKXKXKXKXKX",
"KXKXKXKXKXKXKXKXKXKX9 9 q 0 q 9 6 6 6 6 9 [ $.yXgXhXkXkXkXjXgXtX#.0 5 6 4 4 9 [ $.tXhXmXMXNXlXaX-. .{ 9 4 @ @ + 6 0 | $.yXgXkXKXKXKXKXKXKXKXKXKXKXKXKXKXKXKXKXKXKXKXKXKXKXKXKXKXKXKXKXKXKXKXKXKXKXKXKXKXKXKXKXKXKXKXKXKXKXKXKXKXKXKXKXKXKXKXKXKXKXKXKXKXKXKXKXKX",
"KXKXKXKXKXKXKXKXKXq {  .*.rX=. .q 6 4 6 q  .rXjXmXVXAXAXVXMXmXgX=.[ 9 4 4 q | rXkXMXAXDXAXBXmXgX-.| q 6 + @ @ * 5 ]  .-.aXhXkXjXgXKXKXKXKXKXKXKXKXKXKXKXKXKXKXKXKXKXKXKXKXKXKXKXKXKXKXKXKXKXKXKXKXKXKXKXKXKXKXKXKXKXKXKXKXKXKXKXKXKXKXKXKXKXKXKXKXKXKXKXKXKXKXKX",
"KXKXKXKXKXKXKXKXKX0 | =.pXlXkXiX#.] 6 6 q | rXjXNXVXDXDXVXBXlXgX=.[ 9 4 9 | rXkXBXAXVXBXlXjXiX-.| q 4 @ # # @ + 6 q [ #.rXaXgXjXjXgXKXKXKXKXKXKXKXKXKXKXKXKXKXKXKXKXKXKXKXKXKXKXKXKXKXKXKXKXKXKXKXKXKXKXKXKXKXKXKXKXKXKXKXKXKXKXKXKXKXKXKXKXKXKXKXKXKXKXKXKXKXKX",
"KXKXKXKXKXKXKXKXKX{ #.tXkXBXVXmXpX$.] 9 9 [ $.tXhXmXMXMXmXlXgXtX#.] 5 5 [ =.jXMXVXMXkXpXrX#.[ q 6 + O O O O + + + 6 9 {  .=.uXgXgXgXgXKXKXKXKXKXKXKXKXKXKXKXKXKXKXKXKXKXKXKXKXKXKXKXKXKXKXKXKXKXKXKXKXKXKXKXKXKXKXKXKXKXKXKXKXKXKXKXKXKXKXKXKXKXKXKXKXKXKXKXKXKX",
"KXKXKXKXKXKXKXKXKXq [ $.aXmXBXBXmXiX#.] 5 q [ $.rXaXgXjXgXaXrX#.[ q 9 ] #.aXkXkXjXiX-.#.[ q 6 + X > l R ^ ( 1 X @ + 6 9 ] | $.rXaXjXkXjXpXKXKXKXKXKXKXKXKXKXKXKXKXKXKXKXKXKXKXKXKXKXKXKXKXKXKXKXKXKXKXKXKXKXKXKXKXKXKXKXKXKXKXKXKXKXKXKXKXKXKXKXKXKXKXKXKXKXKXKX",
"KXKXKXKXKXKXKXKXKX6 9 { $.aXkXNXNXjXrX| 9 6 9 {  .$.=.=.=.$.| ] 9 6 q  .=.aXpXyX$.| ] 9 6 > > > > T b.}.+X X( 1 + + + 4 6 q [ #.=.gXkXhXgXKXKXKXKXKXKXKXKXKXKXKXKXKXKXKXKXKXKXKXKXKXKXKXKXKXKXKXKXKXKXKXKXKXKXKXKXKXKXKXKXKXKXKXKXKXKXKXKXKXKXKXKXKXKXKXKXKXKXKX",
"KXKXKXKXKXKXKXKXKX+ 3 6 q | *.aXjXgXaX$.] 5 6 9 ] [ | | | { q 6 4 6 ] #.-.*.#.| ] 9 6 + + j R R c.C.|.@X>X;X.XC.T @ # @ + 6 q ]  .=.aXkXlXKXKXKXKXKXKXKXKXKXKXKXKXKXKXKXKXKXKXKXKXKXKXKXKXKXKXKXKXKXKXKXKXKXKXKXKXKXKXKXKXKXKXKXKXKXKXKXKXKXKXKXKXKXKXKXKXKXKXKX",
"KXKXKXKXKXKXKXKXKX+ * , 1 5 >. .=.yXyX$.[ 9 6 6 5 9 q q 9 6 4 + + 6 ]  . .{ q 5 4 + @ * & M z.m.[.oX=X>X<X3X2X;X].T > X X + 6 5 ]  .=.gXlXmXKXKXKXKXKXKXKXKXKXKXKXKXKXKXKXKXKXKXKXKXKXKXKXKXKXKXKXKXKXKXKXKXKXKXKXKXKXKXKXKXKXKXKXKXKXKXKXKXKXKXKXKXKXKXKXKXKXKX",
"KXKXKXKXKXKXKXKXKXKXKXm M 1 6 9 ] | #. .{ q 4 + + 4 6 6 4 + @ @ + 6 9 0 q 6 + + @ X O h m x.m.[.}.#X>X2X6X5X5X4X:X|.( > X + e 6 9 {  .rXgXkXmXKXKXKXKXKXKXKXKXKXKXKXKXKXKXKXKXKXKXKXKXKXKXKXKXKXKXKXKXKXKXKXKXKXKXKXKXKXKXKXKXKXKXKXKXKXKXKXKXKXKXKXKXKXKXKXKXKX",
"KXKXKXKXKXKXKXKXKXKXKXj.g.R k > 3 w 0 0 9 6 + @ @ @ @ + @ @ X X @ + 4 4 4 + @ # X % h m k.n.[.XX+X=X,X3X5X7X7X5X6X,X|.( < + @ + 6 9 { #.rXgXlXmXKXKXKXKXKXKXKXKXKXKXKXKXKXKXKXKXKXKXKXKXKXKXKXKXKXKXKXKXKXKXKXKXKXKXKXKXKXKXKXKXKXKXKXKXKXKXKXKXKXKXKXKXKXKXKXKX",
"KXKXKXKXKXKXKXKXKXKXKXz.v.m.b.l * 4 6 6 > > * + @ o o o X X X X @ @ @ @ + + + @ * z h.j.z.M.}.+X@X;X,X3X6X5X7X7X5X6X,X|.) 1 @ + * 6 q { #.yXhXlXlXJXKXKXKXKXKXKXKXKXKXKXKXKXKXKXKXKXKXKXKXKXKXKXKXKXKXKXKXKXKXKXKXKXKXKXKXKXKXKXKXKXKXKXKXKXKXKXKXKXKXKXKXKXKXKX",
"KXKXKXKXKXKXKXKXKXKXKXz.n.[.{.C.) ) ) ^ R R T l z z h & % X @ + + + 3 6 1 h h h z m f.k.z.A.XX#X=X;X<X2X3X4X5X5X7X5X4X>X|.^ k * @ + 6 q [ $.tXjXmXmXkXKXKXKXKXKXKXKXKXKXKXKXKXKXKXKXKXKXKXKXKXKXKXKXKXKXKXKXKXKXKXKXKXKXKXKXKXKXKXKXKXKXKXKXKXKXKXKXKXKXKXKXKXKX",
"KXKXKXKXKXKXKXKXKXKXKXx.n.[.XXoX+X+X+XXX[.m.n.x.g.0.b x & @ + 4 6 6 w q V M m v c n f.j.z.M.}.+X@X;X,X<X<X2X4X5X5X5X6X<X=X}.b.k * @ + 5 0 | $.iXkXlXkXhXKXKXKXKXKXKXKXKXKXKXKXKXKXKXKXKXKXKXKXKXKXKXKXKXKXKXKXKXKXKXKXKXKXKXKXKXKXKXKXKXKXKXKXKXKXKXKXKXKXKXKXKX",
"KXKXKXKXKXKXKXKXKXKXKXg.x.m.}.+X=X;X>X=X#XOXM.n.z.g.q.x & @ + 4 6 5 q ] } o./ M c q.f.k.z.m.[.}.+X#X=X>X,X<X2X3X6X5X6X<X>X@X{.c.l , + 3 5 q | -.pXkXlXmXKXKXKXKXKXKXKXKXKXKXKXKXKXKXKXKXKXKXKXKXKXKXKXKXKXKXKXKXKXKXKXKXKXKXKXKXKXKXKXKXKXKXKXKXKXKXKXKXKXKXKXKX",
"KXKXKXKXKXKXKXKXKXKXKXg.k.n.Z.XX#X;X>X>X=X#X}.[.n.x.0.x & @ @ 4 6 5 q { ..$.+.M c b 0.g.x.v.m.Z.{.oX#X=X>X,X<X<X4X6X4X<X,X;X#X{.b.T 1 > 4 5 0  .=.aXkXmXKXKXKXKXKXKXKXKXKXKXKXKXKXKXKXKXKXKXKXKXKXKXKXKXKXKXKXKXKXKXKXKXKXKXKXKXKXKXKXKXKXKXKXKXKXKXKXKXKXKXKXKX",
"KXKXKXKXKXKXKXKXKXKXKXx.z.z.n.M.{.XX+X@X=X=X@XoX[.n.j.m & @ @ + 6 5 q ] | #.o.M c c b 0.f.k.z.n.M.{.XX+X=X;X,X<X<X2X<X<X,X;X=X@XoXn.R j * e 6 0 | -.aXgXhXkXKXKXKXKXKXKXKXKXKXKXKXKXKXKXKXKXKXKXKXKXKXKXKXKXKXKXKXKXKXKXKXKXKXKXKXKXKXKXKXKXKXKXKXKXKXKXKXKXKXKX",
"KXKXKXKXKXKXKXKXKXKXKXKXx.k.k.v.n.M.[.}.oX+X+XoX}.M.z.h.z & * + e 6 q 0 [  .o.O.^ m c c n d.j.z.n.M.[.}.oX+X=X>X,X>X,X<X,X>X;X;X#XOXb.k + @ 4 5 0 | $.yXpXjXKXKXKXKXKXKXKXKXKXKXKXKXKXKXKXKXKXKXKXKXKXKXKXKXKXKXKXKXKXKXKXKXKXKXKXKXKXKXKXKXKXKXKXKXKXKXKXKXKXKX",
"KXKXKXKXKXKXKXKXKXKXKXKXKXf.g.k.z.z.v.n.M.Z.Z.[.}.{.n.k.q.x & o + 4 5 q ] [  .-.L./ m v c b d.g.z.n.m.M.M.[.+X=X=X=X>X1X<X<X,X;X=X+X XT O @ + 4 5 q [ #.rXiXKXKXKXKXKXKXKXKXKXKXKXKXKXKXKXKXKXKXKXKXKXKXKXKXKXKXKXKXKXKXKXKXKXKXKXKXKXKXKXKXKXKXKXKXKXKXKXKXKXKX",
"KXKXKXKXKXKXKXKXKXKXKXKXKXk.j.j.g.g.j.z.n.n.n.m.[.[.n.x.f.b x h & + 4 9 q ] | $.-.L.F.~ v c b n 0.g.k.z.n.m.[.XX+X#X=X;X,X<X<X,X>X=X|.b.l , @ + 6 5 q {  .*.rXKXKXKXKXKXKXKXKXKXKXKXKXKXKXKXKXKXKXKXKXKXKXKXKXKXKXKXKXKXKXKXKXKXKXKXKXKXKXKXKXKXKXKXKXKXKXKXKXKX",
"KXKXKXKXKXKXKXKXKXKXKXKXKXz.x.g.d.d.f.j.x.z.z.v.n.n.n.x.g.d.b x h o + 6 9 0 [ | %.rX$XS.m c c c c b q.f.k.z.n.M.{.XX+X@X;X,X<X<X1X>X@X[.c.z O @ 4 6 6 9 0 | =.iXKXKXKXKXKXKXKXKXKXKXKXKXKXKXKXKXKXKXKXKXKXKXKXKXKXKXKXKXKXKXKXKXKXKXKXKXKXKXKXKXKXKXKXKXKXKXKXKX",
"KXKXKXKXKXKXKXKXKXKXKXKXKXKXKXf.d.d.f.f.g.g.g.g.k.k.z.z.j.d.q.x h o @ + 6 9 q { ..*.K.N.0.b c c c c c b d.j.z.n.M.[.}.+X@X;X>X<X<X<X;X}.x.z @ @ + + 4 4 6 0 #.*.KXKXKXKXKXKXKXKXKXKXKXKXKXKXKXKXKXKXKXKXKXKXKXKXKXKXKXKXKXKXKXKXKXKXKXKXKXKXKXKXKXKXKXKXKXKXKXKX",
"KXKXKXKXKXKXKXKXKXKXKXKXKXKXKXg.g.d.0.0.0.0.d.d.d.f.k.k.g.d.b x h & * @ + 6 5 q {  .%.O.R m b c c c c c b d.g.x.n.m.Z.{.XX+X=X>X<X,X=X{.c.z @ X + + + + 4 9 [  .-.KXKXKXKXKXKXKXKXKXKXKXKXKXKXKXKXKXKXKXKXKXKXKXKXKXKXKXKXKXKXKXKXKXKXKXKXKXKXKXKXKXKXKXKXKXKXKX",
"KXKXKXKXKXKXKXKXKXKXKXKXKXKXKXz.k.d.b c c b d.d.d.f.f.f.f.d.b c x x h o @ + 4 5 q ] [ | O.~ h.b c c c c c b 0.g.x.z.n.n.m.[.XX@X=X@XoXZ.c.z o # @ @ + + 4 5 0  .yXhXKXKXKXKXKXKXKXKXKXKXKXKXKXKXKXKXKXKXKXKXKXKXKXKXKXKXKXKXKXKXKXKXKXKXKXKXKXKXKXKXKXKXKXKXKXKX",
"KXKXKXKXKXKXKXKXKXKXKXKXKXKXKXKXx.d.b c c b n q.n n n n n n b c c c h * + + 6 5 q ] [  .#.O.h.q.b b c c c c b q.f.k.k.k.k.z.m.{.}.{.M.n.g.z o # X + 4 5 0 [ #.rXjXmXKXKXKXKXKXKXKXKXKXKXKXKXKXKXKXKXKXKXKXKXKXKXKXKXKXKXKXKXKXKXKXKXKXKXKXKXKXKXKXKXKXKXKXKXKXKX",
"KXKXKXKXKXKXKXKXKXKXKXKXKXKXKXKXKXf.d.b c c c c c c c c c c c c c x z 7 5 5 9 q ] [  .$.-.=.KXKXd.q.b c c c c c n d.f.f.d.f.g.z.n.v.z.k.R h O @ + 6 q } $.rXpXkXNXBXKXKXKXKXKXKXKXKXKXKXKXKXKXKXKXKXKXKXKXKXKXKXKXKXKXKXKXKXKXKXKXKXKXKXKXKXKXKXKXKXKXKXKXKXKXKX",
"KXKXKXKXKXKXKXKXKXKXKXKXKXKXKXKXKXKXKXb c c c c c c c c c c c c M ! } } X.[ | |  .$.=.yXiXKXKXKXKX0.q.b c c c c b b b b n d.f.g.g.g.g.f.R z 6 9 [ #.rXaXhXlXlXlXlXkXhXgXKXKXKXKXKXKXKXKXKXKXKXKXKXKXKXKXKXKXKXKXKXKXKXKXKXKXKXKXKXKXKXKXKXKXKXKXKXKXKXKXKXKXKXKX",
"KXKXKXKXKXKXKXKXKXKXKXKXKXKXKXKXKXKXKXKXx x x x m m m m m m m M ! |  .#.#. . .o.#.*.rXyXiXiXKXKXKXKXd.0.b c c c c c c c b 0.d.d.d.d.d.d.R E [ #.rXgXlXNXNXmXkXgXaXtXaXpXgXKXKXKXKXKXKXKXKXKXKXKXKXKXKXKXKXKXKXKXKXKXKXKXKXKXKXKXKXKXKXKXKXKXKXKXKXKXKXKXKXKXKXKX",
"KXKXKXKXKXKXKXKXKXKXKXKXKXKXKXKXKXKXKXKX< < N V W O.+.L.+.O.W W Q { { { ] 0 q 0 ] { [ |  . .KXKXKXKXKXKX0.n b c c c c c c b b b b 0.h.! W ;.sXjXkXlXkXgXrX*.$.#.$.*.rXaXpXKXKXKXKXKXKXKXKXKXKXKXKXKXKXKXKXKXKXKXKXKXKXKXKXKXKXKXKXKXKXKXKXKXKXKXKXKXKXKXKXKXKXKX",
"KXKXKXKXKXKXKXKXKXKXKXKXKXKXKXKXKXKXKXKX3 4 6 q [ @.*.-.%...[ ' q q ] |  .| | [ { 0 q 9 q q KXKXKXKXKXKXf.d.b c c b c c c c c c c m R W  .qXpXgXgXpXiXrX$.$.$.*.=.rXpXhXlXKXKXKXKXKXKXKXKXKXKXKXKXKXKXKXKXKXKXKXKXKXKXKXKXKXKXKXKXKXKXKXKXKXKXKXKXKXKXKXKXKXKXKX",
"KXKXKXKXKXKXKXKXKXKXKXKXKXKXKXKXKXKXKXKX@ + 6 9 { |  . .| { q 5 6 9 @.aXhXkXjXaXqX .] q 9 5 KXKXKXKXKXKXKXKXKXKX0.0.b c c c c c x k Z | $.*.$. .[ | #.=.pXkXlXmXMXBXBXVXDXSXFXKXKXKXKXKXKXKXKXKXKXKXKXKXKXKXKXKXKXKXKXKXKXKXKXKXKXKXKXKXKXKXKXKXKXKXKXKXKXKXKXKX",
"KXKXKXKXKXKXKXKXKXKXKXKXKXKXKXKXKXKXKX0 0 [  .$.=.rXyXyXrX=.$.#.#.$.tXlXMXNXlXpX=. .0 9 5 KXKXKXKXKXKXKXKXKXKXKXKXd.n c c c x z k 8 q { | [ [ |  .$.yXjXmXVXAXDXAXAXAXAXDXSXSXKXKXKXKXKXKXKXKXKXKXKXKXKXKXKXKXKXKXKXKXKXKXKXKXKXKXKXKXKXKXKXKXKXKXKXKXKXKXKXKXKX",
"KXKXKXKXKXKXKXKXKXKXKXKXKXKXKXKXKX0 { | $.rXgXkXmXNXMXMXNXmXlXkXhXhXkXlXlXhXaX=. .0 6 KXKXKXKXKXKXKXKXKXKXKXKXKXKXKXKXKXKXKXKX8 9 q q 9 5 9 { $.aXlXMXVXVXVXBXMXNXmXmXNXBXAXDXKXKXKXKXKXKXKXKXKXKXKXKXKXKXKXKXKXKXKXKXKXKXKXKXKXKXKXKXKXKXKXKXKXKXKXKXKXKXKXKXKX",
"KXKXKXKXKXKXKXKXKXKXKXKXKXKXKXKXKX6 9 { #.rXpXhXkXkXkXhXhXhXjXgXgXgXgXgXaXrX*.| 0 6 + KXKXKXKXKXKXKXKXKXKXKXKXKXKXKXKXKXKXKX@ 3 4 6 6 w 0  .rXgXlXmXlXlXhXpXiXyXyXiXaXgXkXmXmXKXKXKXKXKXKXKXKXKXKXKXKXKXKXKXKXKXKXKXKXKXKXKXKXKXKXKXKXKXKXKXKXKXKXKXKXKXKXKXKXKX",
"KXKXKXKXKXKXKXKXKXKXKXKXKXKXKXKXKXq q [ #.rXaXgXpXaXtXrXrX=.=.=.=.=.=.=.$. .[ q 6 + @ KXKXKXKXKXKXKXKXKXKXKXKXKXKXKXKXKXKXX @ + + + 6 0  .tXkXkXhXpXyX=.$.#.| |  .#.*.=.tXpXgXKXKXKXKXKXKXKXKXKXKXKXKXKXKXKXKXKXKXKXKXKXKXKXKXKXKXKXKXKXKXKXKXKXKXKXKXKXKXKXKXKX",
"KXKXKXKXKXKXKXKXKXKXKXKXKXKXKXKXtXyXtXaXhXlXMXBXNXlXpXrX$. .| | |  . . .| ] 9 6 + @ KXKXKXKXKXKXKXKXKXKXKXKXKXKXKXKXKXKXKXX X @ + 6 0 :.=.iXaX=. .[ 0 0 [ [ [ |  .#.#.$.-.=.rXKXKXKXKXKXKXKXKXKXKXKXKXKXKXKXKXKXKXKXKXKXKXKXKXKXKXKXKXKXKXKXKXKXKXKXKXKXKXKXKXKX",
"KXKXKXKXKXKXKXKXKXKXKXKXKXKXKX-.=.tXgXkXmXMXBXMXmXkXaXrX$. .| [ ] 0 0 ] q 5 4 @ X KXKXKXKXKXKXKXKXKXKXKXKXKXKXKXKXKXKXKXKXX X X + 5 { #.-.*.#.| 0 q q ] | #.$.*.-.=.=.rXrXtXtXKXKXKXKXKXKXKXKXKXKXKXKXKXKXKXKXKXKXKXKXKXKXKXKXKXKXKXKXKXKXKXKXKXKXKXKXKXKXKXKXKX",
"KXKXKXKXKXKXKXKXKXKXKXKXKXrX*. .[  .*.yXaXgXgXaXrX=.=.-.=.-.$. .] 5 6 5 6 4 + X   KXKXKXKXKXKXKXKXKXKXKXKXKXKXKXKXKXKXKXKXX @ @ 4 5 q 0 0 q q {  .$.-.=.yXiXaXpXgXjXhXkXlXmXmXKXKXKXKXKXKXKXKXKXKXKXKXKXKXKXKXKXKXKXKXKXKXKXKXKXKXKXKXKXKXKXKXKXKXKXKXKXKXKXKXKX",
"KXKXKXKXKXKXKXKXKXKXKXKXKX$.#.#.#.=.iXgXkXkXhXgXtX=.#. .#.#. .| { q 6 4 + @ X     KXKXKXKXKXKXKXKXKXKXKXKXKXKXKXKXKXKXKXKXX @ + + 6 6 6 6 q [ #.-.=.*.*.=.rXyXiXaXaXaXaXgXkXlXKXKXKXKXKXKXKXKXKXKXKXKXKXKXKXKXKXKXKXKXKXKXKXKXKXKXKXKXKXKXKXKXKXKXKXKXKXKXKXKXKX",
"KXKXKXKXKXKXKXKXKXKXKXKXKX[ ..=.pXlXBXVXVXVXVXMXlXaX$.[ 0 q 0 ] { ] 9 4 @     KXKXKXKXKXKXKXKXKXKXKXKXKXKXKXKXKXKXKXKXKXKXX @ + + @ @ @ 6 [ *.rX=.$.| [ |  .$.-.-.-.$.$.$.=.aXlXNXKXKXKXKXKXKXKXKXKXKXKXKXKXKXKXKXKXKXKXKXKXKXKXKXKXKXKXKXKXKXKXKXKXKXKXKXKXKXKX",
"KXKXKXKXKXKXKXKXKXKXKXKXKX-.rXpXkXlXlXmXBXVXAXVXBXkXiX*.| 0 9 5 5 9 6 + @     KXKXKXKXKXKXKXKXKXKXKXKXKXKXKXKXKXKXKXKXKXKXX X X X   X + 9 { |  . .#.-.rXiXaXpXpXpXaXiXyX-.#.$.rXtXKXKXKXKXKXKXKXKXKXKXKXKXKXKXKXKXKXKXKXKXKXKXKXKXKXKXKXKXKXKXKXKXKXKXKXKXKXKXKX",
"KXKXKXKXKXKXKXKXKXKXKXKXKXtXaXgXjXpXaXpXhXlXmXmXlXkXjXaX-. .q 4 + + + + @     KXKXKXKXKXKXKXKXKXKXKXKXKXKXKXKXKXKXKXKXKXKXX X       X 6 q q 9 q [ &.pXlXmXmXlXlXlXkXlXkXiX&.#.#.#.KXKXKXKXKXKXKXKXKXKXKXKXKXKXKXKXKXKXKXKXKXKXKXKXKXKXKXKXKXKXKXKXKXKXKXKXKXKXKX",
"KXKXKXKXKXKXKXKXKXKXKXKXKX| | #.*.=.rXrXrX=.-.*.*.=.rXyXyX=. .q 4 @ X X   KXKXKXKXKXKXKXKXKXKXKXKXKXKXKXKXKXKXKXKXKXKXKXKXKX        X + 4 6 q  .rXaXgXgXtXrXyXtXtXaXgXkXkXhXgXpXaXKXKXKXKXKXKXKXKXKXKXKXKXKXKXKXKXKXKXKXKXKXKXKXKXKXKXKXKXKXKXKXKXKXKXKXKXKXKXKX",
"KXKXKXKXKXKXKXKXKXKXKXKXKX{ | #.=.yXaXaXyX-. .[ { [  .$.=.=.#.{ 5 @       KXKXKXKXKXKXKXKXKXKXKXKXKXKXKXKXKXKXKXKXKXKXKXKXKXKX      X X + 6 { $.yXiXtXrX-.*.=.rXrXtXgXkXlXmXmXmXmXKXKXKXKXKXKXKXKXKXKXKXKXKXKXKXKXKXKXKXKXKXKXKXKXKXKXKXKXKXKXKXKXKXKXKXKXKXKXKX",
"KXKXKXKXKXKXKXKXKXKXKXq [ -.aXhXlXMXBXMXmXhXtX$.[ q q ] [ | | [ 9 +       KXKXKXKXKXKXKXKXKXKXKXKXKXKXKXKXKXKXKXKXKXKXKXKXKXKX        X + q [ | [ | #.-.yXaXgXjXjXhXhXjXpXiXgXlXMXBXVXKXKXKXKXKXKXKXKXKXKXKXKXKXKXKXKXKXKXKXKXKXKXKXKXKXKXKXKXKXKXKXKXKXKXKXKXKX",
"KXKXKXKXKXKXKXKXKXKXKX[  .=.aXpXjXlXmXmXmXlXjXtX$.[ 9 6 6 5 q q 6 + X   KXKXKXKXKXKXKXKXKXKXKXKXKXKXKXKXKXKXKXKXKXKXKXKXKXKXKXKX      X + 5 0 q q {  .*.rXtXiXaXaXpXgXgXaXyXiXpXkXMXVXKXKXKXKXKXKXKXKXKXKXKXKXKXKXKXKXKXKXKXKXKXKXKXKXKXKXKXKXKXKXKXKXKXKXKXKXKX",
"KXKXKXKXKXKXKXKXKXKXKX$.$.*.*.$.$.=.tXaXpXgXgXgXaX-.0 + @ @ @ @ + + + KXKXKXKXKXKXKXKXKXKXKXKXKXKXKXKXKXKXKXKXKXKXKXKXKXKXKXKXKXKXX X X @ @ + 6 q | $.*.$.#. . .#.*.rXaXpXpXtX=.tXkXmXKXKXKXKXKXKXKXKXKXKXKXKXKXKXKXKXKXKXKXKXKXKXKXKXKXKXKXKXKXKXKXKXKXKXKXKXKX",
"KXKXKXKXKXKXKXKXKXKXKX|  .*.rXtXaXuXrX=.-.=.tXpXhXiX| 6 + X     X + KXKXKXKXKXKXKXKXKXKXKXKXKXKXKXKXKXKXKXKXKXKXKXKXKXKXKXKXKXKXKXKXX       X + 5 0 [ [ 0 q 5 9 q {  .=.aXhXjXiXrXrXiXlXKXKXKXKXKXKXKXKXKXKXKXKXKXKXKXKXKXKXKXKXKXKXKXKXKXKXKXKXKXKXKXKXKXKXKXKX",
"KXKXKXKXKXKXKXKXKXKXKXq | =.gXmXNXkXiX$.| | $.tXhXgX#.q 4 X     KXKXKXKXKXKXKXKXKXKXKXKXKXKXKXKXKXKXKXKXKXKXKXKXKXKXKXKXKXKXKXKXKXKXKX      X + 4 6 6 4 + @ + + 6 w 0 | =.gXkXhXtX#.*.hXVXKXKXKXKXKXKXKXKXKXKXKXKXKXKXKXKXKXKXKXKXKXKXKXKXKXKXKXKXKXKXKXKXKXKXKX",
"KXKXKXKXKXKXKXKXKXKXKX0  .aXmXVXVXmXpX$.] 0 | -.pXaX$.] 6 @   KXKXKXKXKXKXKXKXKXKXKXKXKXKXKXKXKXKXKXKXKXKXKXKXKXKXKXKXKXKXKXKXKXKXKXKXKXKX    X @ + + @ @ + 9 ] [ [ q 9 ] #.yXhXgX=.=.gXlXKXKXKXKXKXKXKXKXKXKXKXKXKXKXKXKXKXKXKXKXKXKXKXKXKXKXKXKXKXKXKXKXKXKXKX",
"KXKXKXKXKXKXKXKXKXKXKX[ $.gXNXVXVXmXpX%.q w 0 #.yXyX#.] 6 @ KXKXKXKXKXKXKXKXKXKXKXKXKXKXKXKXKXKXKXKXKXKXKXKXKXKXKXKXKXKXKXKXKXKXKXKXKXKXKXKX    X X X @ + 5 | $.rXrX .q 6 5 | tXgXaXaXaXaXKXKXKXKXKXKXKXKXKXKXKXKXKXKXKXKXKXKXKXKXKXKXKXKXKXKXKXKXKXKXKXKXKXKXKX",
"KXKXKXKXKXKXKXKXKXKXKX#.-.aXkXmXmXkXiX#.q 6 5 [ -.=.| 0 KXKXKXKXKXKXKXKXKXKXKXKXKXKXKXKXKXKXKXKXKXKXKXKXKXKXKXKXKXKXKXKXKXKXKXKXKXKXKXKXKXKXKXX X X X + 4 ] *.pXmXmXgX$.] 4 6 [ =.hXkXyX$.KXKXKXKXKXKXKXKXKXKXKXKXKXKXKXKXKXKXKXKXKXKXKXKXKXKXKXKXKXKXKXKXKXKXKX",
"KXKXKXKXKXKXKXKXKXKX] | #.=.yXpXgXaX=.| q 6 6 0 #.$.| q KXKXKXKXKXKXKXKXKXKXKXKXKXKXKXKXKXKXKXKXKXKXKXKXKXKXKXKXKXKXKXKXKXKXKXKXKXKXKXKXKXKXKXKXX X X @ + q #.iXlXNXkXtX .5 + 6 | pXkXaX=.-.KXKXKXKXKXKXKXKXKXKXKXKXKXKXKXKXKXKXKXKXKXKXKXKXKXKXKXKXKXKXKXKXKXKX",
"KXKXKXKXKXKXKXKXKX4 6 q { | #.$.*.$. .{ 9 6 6 q |  .KXKXKXKXKXKXKXKXKXKXKXKXKXKXKXKXKXKXKXKXKXKXKXKXKXKXKXKXKXKXKXKXKXKXKXKXKXKXKXKXKXKXKXKXKXKXKXKX    X 4 0 o.rXpXgXiX$.] 6 4 q *.aXjXgXyX*.KXKXKXKXKXKXKXKXKXKXKXKXKXKXKXKXKXKXKXKXKXKXKXKXKXKXKXKXKXKXKXKXKX",
"KXKXKXKXKXKXKXKXKX+ + 6 5 q 0 { [ { 0 9 6 + + 6 0 [ KXKXKXKXKXKXKXKXKXKXKXKXKXKXKXKXKXKXKXKXKXKXKXKXKXKXKXKXKXKXKXKXKXKXKXKXKXKXKXKXKXKXKXKXKXKXKXKXKX    @ 6 q | $.=.=.$.| q + 4 0 $.gXkXaX=.KXKXKXKXKXKXKXKXKXKXKXKXKXKXKXKXKXKXKXKXKXKXKXKXKXKXKXKXKXKXKXKXKX",
"KXKXKXKXKXKXKXKXKXX @ + + 4 6 6 5 6 6 4 + @ @ 4 9 q KXKXKXKXKXKXKXKXKXKXKXKXKXKXKXKXKXKXKXKXKXKXKXKXKXKXKXKXKXKXKXKXKXKXKXKXKXKXKXKXKXKXKXKXKXKXKXKXKXKX    @ + 5 q [  . .| q + X @ q rXjXaXrXrXKXKXKXKXKXKXKXKXKXKXKXKXKXKXKXKXKXKXKXKXKXKXKXKXKXKXKXKXKXKXKXKX",
"KXKXKXKXKXKXKXKXKX# X X X @ + + + + + @ @ @ + 4 6 5 KXKXKXKXKXKXKXKXKXKXKXKXKXKXKXKXKXKXKXKXKXKXKXKXKXKXKXKXKXKXKXKXKXKXKXKXKXKXKXKXKXKXKXKXKXKXKXKXKXKXKXKX  X @ + 6 9 q q 5 + X   4 [ $.yXaXtX=.KXKXKXKXKXKXKXKXKXKXKXKXKXKXKXKXKXKXKXKXKXKXKXKXKXKXKXKXKXKXKX",
"KXKXKXKXKXKXKXKXKX4 4 4 4 e + 4 6 6 6 6 6 5 q 0 ] [ KXKXKXKXKXKXKXKXKXKXKXKXKXKXKXKXKXKXKXKXKXKXKXKXKXKXKXKXKXKXKXKXKXKXKXKXKXKXKXKXKXKXKXKXKXKXKXKXKXKXKXKX      X @ @ + 4 + + @   X + q #.rX=.*.-.KXKXKXKXKXKXKXKXKXKXKXKXKXKXKXKXKXKXKXKXKXKXKXKXKXKXKXKXKXKX",
"KXKXKXKXKXKXKXKXKX| | [ [ ' 0 0 ] ] { [ |  .$.-.=.iXkXMXAXSXKXKXKXKXKXKXKXKXKXKXKXKXKXKXKXKXKXKXKXKXKXKXKXKXKXKXKXKXKXKXKXKXKXKXKXKXKXKXKXKXKXKXKXKXKXKXKXKXKXKXX X X X @ @ @ @ X       + 9 { | #.-.tXaXKXKXKXKXKXKXKXKXKXKXKXKXKXKXKXKXKXKXKXKXKXKXKXKXKXKXKXKX",
"KXKXKXKXKXKXKXKX%X$X$X=.*.#. .| [ | |  .$.=.yXiXaXgXkXNXVXAXBXKXKXKXKXKXKXKXKXKXKXKXKXKXKXKXKXKXKXKXKXKXKXKXKXKXKXKXKXKXKXKXKXKXKXKXKXKXKXKXKXKXKXKXKXKXKXKXKXKX+ + + @ X X X # # X X X + 6 0 | $.yXpXjXKXKXKXKXKXKXKXKXKXKXKXKXKXKXKXKXKXKXKXKXKXKXKXKXKXKXKXKX",
"KXKXKXKXKXKXKX7X4X,X-XfXuXrX$. .[ [ |  .$.=.tXiXaXpXjXkXmXmXlXkXKXKXKXKXKXKXKXKXKXKXKXKXKXKXKXKXKXKXKXKXKXKXKXKXKXKXKXKXKXKXKXKXKXKXKXKXKXKXKXKXKXKXKXKXKXKXKXKX0 q 6 + + @ X     @ + 6 9 {  .-.iXgXkXlXKXKXKXKXKXKXKXKXKXKXKXKXKXKXKXKXKXKXKXKXKXKXKXKXKXKXKXKX",
"KXKXKXKXKX7X5X4X<X=X%X$X-.%.| 0 9 q 0 { [  .$.*.*.=.rXtXaXpXpXaXfX8XKXKXKXKXKXKXKXKXKXKXKXKXKXKXKXKXKXKXKXKXKXKXKXKXKXKXKXKXKXKXKXKXKXKXKXKXKXKXKXKXKXKXKXKXKXJXiX-.:.{ 9 4 @ X X + 6 9 ]  .-.yXpXhXlXmXNXBXVXKXKXKXKXKXKXKXKXKXKXKXKXKXKXKXKXKXKXKXKXKXKXKXKXKX",
"KXKXKXKX7X5X4X,X#X[.C.O.[ 0 5 + @ + 4 6 5 q 0 ] [ |  .#.$.*.&.*.%X:X1XKXKXKXKXKXKXKXKXKXKXKXKXKXKXKXKXKXKXKXKXKXKXKXKXKXKXKXKXKXKXKXKXKXKXKXKXKXKXKXKXKXKXKXZXZXvXjXtX&.[ w + @ @ 4 6 q { #.=.yXaXgXhXlXmXMXVXVXKXKXKXKXKXKXKXKXKXKXKXKXKXKXKXKXKXKXKXKXKXKXKXKX",
"KXKXKXKX4X3X:X+XZ.z.R Z w 4 + @ X X X @ + + 4 6 6 5 q 0 ] { ] [ C.|.@X,XKXKXKXKXKXKXKXKXKXKXKXKXKXKXKXKXKXKXKXKXKXKXKXKXKXKXKXKXKXKXKXKXKXKXKXKXKXKXKXKX5X7XnX8X-X%X$X$X#.0 6 @ @ + 4 6 q [  .$.=.rXaXgXhXlXNXBXAXHXnX2XKXKXKXKXKXKXKXKXKXKXKXKXKXKXKXKXKXKXKXKX",
"KXKXKXKX>X=XoXm.k.d.M 1 + @ X X X       X X # X @ + + 4 6 6 6 5 ! v.}.=X;XKXKXKXKXKXKXKXKXKXKXKXKXKXKXKXKXKXKXKXKXKXKXKXKXKXKXKXKXKXKXKXKXKXKXKXKXKXKXKX5X6X2X=X}.m.F.*. .q 6 + X @ + + 6 5 q { | #.*.=.yXaXjXlXMXZXnX:X;XKXKXKXKXKXKXKXKXKXKXKXKXKXKXKXKXKXKXKX",
"KXKXKXKX}.{.m.k.0.b z * X X X                     # X @ @ + @ > l h.v.m.A.KXKXKXKXKXKXKXKXKXKXKXKXKXKXKXKXKXKXKXKXKXKXKXKXKXKXKXKXKXKXKXKXKXKXKXKXKXKXKX5X4X;XoXm.c.! Q 9 6 + @ X   # X @ + + 6 w q { |  .$.-.yXpXfX%X}.+X=XKXKXKXKXKXKXKXKXKXKXKXKXKXKXKXKXKXKX",
"KXKXKXKXv.v.k.d.b c h % X X X             % % %       X X X X * h n g.j.j.KXKXKXKXKXKXKXKXKXKXKXKXKXKXKXKXKXKXKXKXKXKXKXKXKXKXKXKXKXKXKXKXKXKXKXKXKXKXKX4X,X+Xm.j.m j 6 e + @ X             # @ + 4 5 9 q ] [ | #.;.B.n.[.XXoXKXKXKXKXKXKXKXKXKXKXKXKXKXKXKXKXKX",
"KXKXKXKXg.g.g.KXKXKXKXKXKXKXKXKXKXKXKXKXKXKXx x KXKXKXKXKXKXKXKXKXKXKXf.f.KXKXKXKXKXKXKXKXKXKXKXKXKXKXKXKXKXKXKXKXKXKXKXKXKXKXKXKXKXKXKXKXKXKXKXKXKXKXKX;X+Xm.f.b x h * @ @ X                 X @ + + 4 6 6 6 5 9 Z ! g.l.v.n.KXKXKXKXKXKXKXKXKXKXKXKXKXKXKXKXKX",
"KXKXKXKXKXKXKXKXKXKXKXKXKXKXKXKXKXKXKXKXKXKXKXKXKXKXKXKXKXKXKXKXKXKXKXKXKXKXKXKXKXKXKXKXKXKXKXKXKXKXKXKXKXKXKXKXKXKXKXKXKXKXKXKXKXKXKXKXKXKXKXKXKXKXKXKX{.M.g.b c x KXKXKXKXKXKXKXKXKXKXKXKXKXKXX & h h > KXKXKXKXKXKX0.0.0.0.KXKXKXKXKXKXKXKXKXKXKXKXKXKXKXKXKX",
"KXKXKXKXKXKXKXKXKXKXKXKXKXKXKXKXKXKXKXKXKXKXKXKXKXKXKXKXKXKXKXKXKXKXKXKXKXKXKXKXKXKXKXKXKXKXKXKXKXKXKXKXKXKXKXKXKXKXKXKXKXKXKXKXKXKXKXKXKXKXKXKXKXKXKXKXz.j.q.c KXKXKXKXKXKXKXKXKXKXKXKXKXKXKXKXKXKXc c KXKXKXKXKXKXKXKXc c c KXKXKXKXKXKXKXKXKXKXKXKXKXKXKXKXKX",
"KXKXKXKXKXKXKXKXKXKXKXKXKXKXKXKXKXKXKXKXKXKXKXKXKXKXKXKXKXKXKXKXKXKXKXKXKXKXKXKXKXKXKXKXKXKXKXKXKXKXKXKXKXKXKXKXKXKXKXKXKXKXKXKXKXKXKXKXKXKXKXKXKXKXKXKXn n b KXKXKXKXKXKXKXKXKXKXKXKXKXKXKXKXKXKXKXKXKXKXKXKXKXKXKXKXKXKXKXKXKXKXKXKXKXKXKXKXKXKXKXKXKXKXKXKXKX",
"KXKXKXKXKXKXKXKXKXKXKXKXKXKXKXKXKXKXKXKXKXKXKXKXKXKXKXKXKXKXKXKXKXKXKXKXKXKXKXKXKXKXKXKXKXKXKXKXKXKXKXKXKXKXKXKXKXKXKXKXKXKXKXKXKXKXKXKXKXKXKXKXKXKXKXKXc c KXKXKXKXKXKXKXKXKXKXKXKXKXKXKXKXKXKXKXKXKXKXKXKXKXKXKXKXKXKXKXKXKXKXKXKXKXKXKXKXKXKXKXKXKXKXKXKXKXKX"
};
