/* XPM */
static const char *bos2a6[] = {
/* columns rows colors chars-per-pixel */
"128 128 256 2 ",
"   c #141414",
".  c #1B1B1C",
"X  c #181818",
"o  c #15130A",
"O  c #231A0D",
"+  c #251C16",
"@  c #391310",
"#  c #14280C",
"$  c #1B2718",
"%  c #1B3913",
"&  c #152B0D",
"*  c #29231A",
"=  c #382817",
"-  c #2A3312",
";  c #1E2122",
":  c #242424",
">  c #2B2B2B",
",  c #282825",
"<  c #372A27",
"1  c #3A332A",
"2  c #2E3133",
"3  c #333333",
"4  c #3B3B3B",
"5  c #383837",
"6  c #2B3229",
"7  c #201E22",
"8  c #4B0101",
"9  c #450606",
"0  c #570303",
"q  c #481515",
"w  c #541816",
"e  c #640202",
"r  c #6B0505",
"t  c #7C0101",
"y  c #740505",
"u  c #6C1919",
"i  c #462D16",
"p  c #45321A",
"a  c #4C351B",
"s  c #54391B",
"d  c #552C09",
"f  c #692C06",
"g  c #742B01",
"h  c #742901",
"j  c #7A3302",
"k  c #783507",
"l  c #6D3712",
"z  c #482626",
"x  c #582525",
"c  c #463626",
"v  c #573C23",
"b  c #453A37",
"n  c #573737",
"m  c #772929",
"M  c #683939",
"N  c #6F302F",
"B  c #4C1E20",
"V  c #1C4316",
"C  c #244919",
"Z  c #28561E",
"A  c #364B19",
"S  c #33532A",
"D  c #2E6524",
"F  c #336A27",
"G  c #37762B",
"H  c #3B7C30",
"J  c #2A621F",
"K  c #5A4F18",
"L  c #714B15",
"P  c #5B4326",
"I  c #4F4836",
"U  c #634324",
"Y  c #6A4828",
"T  c #754B2A",
"R  c #7C522E",
"E  c #78562A",
"W  c #6F5334",
"Q  c #4E6E29",
"!  c #746932",
"~  c #73621A",
"^  c #3C3E40",
"/  c #262E7B",
"(  c #5A2D55",
")  c #3E4141",
"_  c #434343",
"`  c #4B4B4C",
"'  c #474848",
"]  c #574847",
"[  c #4E5252",
"{  c #535353",
"}  c #5B5B5C",
"|  c #5A5656",
" . c #53534D",
".. c #665857",
"X. c #71514B",
"o. c #4F7148",
"O. c #736959",
"+. c #5C5D65",
"@. c #5F6262",
"#. c #636464",
"$. c #6B6B6B",
"%. c #676767",
"&. c #746B69",
"*. c #747474",
"=. c #7C7C7C",
"-. c #777878",
";. c #717170",
":. c #840101",
">. c #8B0101",
",. c #840C0C",
"<. c #930101",
"1. c #9B0101",
"2. c #980B0B",
"3. c #8D1616",
"4. c #A40000",
"5. c #AB0101",
"6. c #A40C0C",
"7. c #BB0000",
"8. c #B50303",
"9. c #AD1515",
"0. c #823C04",
"q. c #903131",
"w. c #AC2F2F",
"e. c #AD052E",
"r. c #C30000",
"t. c #CC0000",
"y. c #C40C0C",
"u. c #D80102",
"i. c #D21616",
"p. c #E60202",
"a. c #F50202",
"s. c #EB1616",
"d. c #ED2E2E",
"f. c #D03333",
"g. c #864106",
"h. c #8A480A",
"j. c #914E0C",
"k. c #94540E",
"l. c #9A5B13",
"z. c #955812",
"x. c #885017",
"c. c #9D6216",
"v. c #89681B",
"b. c #A36917",
"n. c #AB741D",
"m. c #B17B1F",
"M. c #875933",
"N. c #915E37",
"B. c #885429",
"V. c #986339",
"C. c #926B29",
"Z. c #AB7924",
"A. c #B17E21",
"S. c #A2693D",
"D. c #A47835",
"F. c #8B4848",
"G. c #904F4D",
"H. c #8E6D4D",
"J. c #A86C41",
"K. c #B67448",
"L. c #AA7245",
"P. c #857876",
"I. c #8F726B",
"U. c #AE7070",
"Y. c #AC5252",
"T. c #D14E4E",
"R. c #ED5353",
"E. c #C47C4D",
"W. c #CE7171",
"Q. c #F06565",
"!. c #C62445",
"~. c #3E8533",
"^. c #3C822E",
"/. c #438A35",
"(. c #48983B",
"). c #548630",
"_. c #669538",
"`. c #4DA542",
"'. c #51AB45",
"]. c #55B449",
"[. c #59BD4E",
"{. c #55B84B",
"}. c #7B8F70",
"|. c #5CC753",
" X c #5DC853",
".X c #64D75B",
"XX c #61CE56",
"oX c #6BE663",
"OX c #73F76B",
"+X c #75FA6D",
"@X c #68E05F",
"#X c #968B33",
"$X c #B78826",
"%X c #BC922B",
"&X c #B19235",
"*X c #BBA73B",
"=X c #C39A2F",
"-X c #CBA737",
";X c #D3B33E",
":X c #D0AF3B",
">X c #958649",
",X c #B8AD47",
"<X c #8F8378",
"1X c #AB8958",
"2X c #D08756",
"3X c #D6BB43",
"4X c #C6B14B",
"5X c #E0BD43",
"6X c #DCC449",
"7X c #D7CB51",
"8X c #E3CC4D",
"9X c #EAD955",
"0X c #EAD34F",
"qX c #F1E75D",
"wX c #FCF96A",
"eX c #F9F568",
"rX c #BBC64D",
"tX c #797A80",
"yX c #4B4C95",
"uX c #33209D",
"iX c #7E8282",
"pX c #848484",
"aX c #8C8C8C",
"sX c #888988",
"dX c #978887",
"fX c #939393",
"gX c #9B9C9C",
"hX c #999795",
"jX c #8B938D",
"kX c #A69B9A",
"lX c #AA9088",
"zX c #ABA49B",
"xX c #A3A3A3",
"cX c #ABABAB",
"vX c #A7A9A8",
"bX c #ADB1B2",
"nX c #B3B3B3",
"mX c #BBBBBB",
"MX c #B8B7B7",
"NX c #B5ACA9",
"BX c #9CA1A3",
"VX c #C9B4B0",
"CX c #DA9993",
"ZX c #BDC2C2",
"AX c #C3C3C3",
"SX c #CBCBCB",
"DX c #C6C8C8",
"FX c #D3D3D3",
"GX c #DBDCDC",
"HX c #D7DADA",
"JX c #D0CFCF",
"KX c #E7D4D4",
"LX c #E3E4E4",
"PX c #DBE3E3",
"IX c #CDC58A",
"UX c None",
/* pixels */
"UXUXUXUXUXUXUXUXUXUXUXUXUXUXUXUXUXUXUXUXUXUXUXUXUXUXUXUXUXUXUXUXUXUXUXUXUXUXUXUXUXUXUXUXUXUXt.t.r.8.5.1.<.>.>.>.>.>.>.3.X.$.*.*.-.=.=.iXiXpXiXjXP.T.s.a.a.a.a.a.a.a.a.a.p.p.p.u.u.u.p.p.p.a.a.UXUXUXUXUXUXUXUXUXUXUXUXUXUXUXUXUXUXUXUXUXUXUXUXUXUXUXUXUXUXUXUXUX",
"UXUXUXUXUXUXUXUXUXUXUXUXUXUXUXUXUXUXUXUXUXUXUXUXUXUXUXUXUXUXUXUXUXUXUXUXUXUXUXUXUXUXUXUXUXUX5.5.4.1.<.3.3.q.q.q.q.q.q.F.I.=.iXpXsXaXaXdXI.Y.U.U.Y.f.s.a.p.p.p.u.u.t.t.t.t.r.7.7.7.7.7.r.t.t.t.r.UXUXUXUXUXUXUXUXUXUXUXUXUXUXUXUXUXUXUXUXUXUXUXUXUXUXUXUXUXUXUXUX",
"UXUXUXUXUXUXUXUXUXUXUXUXUXUXUXUXUXUXUXUXUXUXUXUXUXUXUXUXUXUXUXUXUXUXUXUXUXUXUXUXUXt.r.5.<.:.t t y e r N I.dXdXlXlXdXdXdXfXhXgXgXxXxXxXU.T.s.s.s.i.u.u.t.t.r.7.5.4.1.<.<.>.:.:.:.:.:.:.:.>.<.1.4.4.5.r.t.t.UXUXUXUXUXUXUXUXUXUXUXUXUXUXUXUXUXUXUXUXUXUXUXUXUXUXUX",
"UXUXUXUXUXUXUXUXUXUXUXUXUXUXUXUXUXUXUXUXUXUXUXUXUXUXUXUXUXUXUXUXUXUXUXUXUXUXUXUX4.4.4.<.:.y u N M M X.I.hXcXbXbXcXvXvXvXcXvXlXW.W.W.W.T.s.p.p.t.r.8.4.6.9.w.w.q.q.q.F.F.F.F.G.G.G.G.G.F.F.F.q.q.q.w.6.5.5.5.UXUXUXUXUXUXUXUXUXUXUXUXUXUXUXUXUXUXUXUXUXUXUXUXUXUX",
"UXUXUXUXUXUXUXUXUXUXUXUXUXUXUXUXUXUXUXUXUXUXUXUXUXUXUXUXUXUXUXUXUXUXUXUXp.t.8.1.>.t r e e u X.&.sXfXkXcXMXMXMXMXnXcXcXbXnXNXW.d.s.s.s.u.u.r.5.1.>.t y m G.P.hXhXlXkXkXxXNXNXNXVXVXMXnXNXNXkXkXhXdXG.q.,.>.1.2.m n _ UXUXUXUXUXUXUXUXUXUXUXUXUXUXUXUXUXUXUXUXUXUX",
"UXUXUXUXUXUXUXUXUXUXUXUXUXUXUXUXUXUXUXUXUXUXUXUXUXUXUXUXUXUXUXUXUXUXu.t.7.5.<.:.r u x M M X.P.fXxXnXmXDXDXDXDXAXZXZXmXVXW.R.d.s.a.u.t.8.4.<.3.m N M X.G.P.gXvXcXcXnXMXZXAXSXFXHXHXHXHXFXFXDXZXMXvXdXG.N u ,.t u u x n | UXUXUXUXUXUXUXUXUXUXUXUXUXUXUXUXUXUXUXUX",
"UXUXUXUXUXUXUXUXUXUXUXUXUXUXUXUXUXUXUXUXUXUXUXUXUXUXUXUXUXUXUXUXUXu.r.5.<.t r e x ] ..;.P.aXgXvXMXAXDXJXFXFXJXSXDXDXVXW.d.s.a.p.t.5.2.:.y r N X.*.pXaXfXgXxXvXcXnXMXmXAXDXFXHXHXGXLXLXLXLXHXFXDXMXxXaX&.X.u e r y u M | %.=.sXfXUXUXUXUXUXUXUXUXUXUXUXUXUXUXUXUX",
"UXUXUXUXUXUXUXUXUXUXUXUXUXUXUXUXUXUXUXUXUXUXUXUXUXUXUXUXUXUXUXu.t.7.4.>.r e x n X.%.-.sXhXxXbXMXAXSXFXHXHXHXPXHXVXCXQ.d.s.u.r.5.2.3.N M M M ..;.=.sXjXhXgXxXvXcXnXMXAXDXSXFXHXHXHXGXLXLXLXLXGXFXDXnXgXpX%.] x w e r x  .#.=.fXgXvXnXvXxXUXUXUXUXUXUXUXUXUXUXUXUX",
"UXUXUXUXUXUXUXUXUXUXUXUXUXUXUXUXUXUXUXUXUXUXUXUXUXUXUXUXUXUXp.u.7.1.t r 0 x ] #.*.pXfXgXvXnXmXDXFXHXGXLXLXGXGXJXCXR.s.p.t.5.<.y u n  .| #.#.$.*.*.=.pXaXfXhXxXxXvXMXmXDXDXSXFXFXFXHXHXHXGXLXLXHXDXMXxXfX-.} ] x 0 w z ' @.=.hXxXMXMXcXxXxXUXUXUXUXUXUXUXUXUXUXUX",
"UXUXUXUXUXUXUXUXUXUXUXUXUXUXUXUXUXUXUXUXUXUXUXUXUXUXUXUXp.u.t.7.1.t r w n ] #.=.sXhXxXcXMXmXDXSXHXGXLXLXLXKXCXQ.d.s.t.8.<.t u M ]  .{ [ { | | } #.#.$.*.pXsXfXhXxXvXbXMXMXmXAXDXDXDXSXFXHXHXHXFXDXmXvXhXiX$.| b z < 1 _ | *.fXcXAXDXAXMXcXxXxXUXUXUXUXUXUXUXUXUX",
"UXUXUXUXUXUXUXUXUXUXUXUXUXUXUXUXUXUXUXUXUXUXUXUXUXUXUXa.p.u.7.1.t r w n | $.-.pXfXxXcXMXmXDXSXFXGXLXLXLXKXCXQ.s.p.t.5.>.y u M %.$.#.{ ` ` ` `  .{ | #.$.*.=.pXaXhXhXxXxXvXcXnXMXMXMXmXAXAXAXDXDXAXMXxXfXpX$.} ' 5 3 3 4 { *.aXcXDXFXSXAXMXvXxXgXUXUXUXUXUXUXUXUX",
"UXUXUXUXUXUXUXUXUXUXUXUXUXUXUXUXUXUXUXUXUXUXUXUXUXUXUXp.u.r.4.:.u x ] | #.*.=.sXhXxXcXMXAXDXSXFXGXLXKXCXQ.d.s.p.t.4.:.u M ..&.-.-.*.#.} | { { { { } #.$.*.=.pXsXaXfXhXhXhXhXgXxXxXxXxXxXvXvXcXnXnXvXgXaX=.$.} ` 4 3 > 3 ' $.sXxXmXDXDXmXnXvXBXgXUXUXUXUXUXUXUXUX",
"UXUXUXUXUXUXUXUXUXUXUXUXUXUXUXUXUXUXUXUXUXUXUXUXUXUXUXt.t.5.>.r x ] | @.$.*.pXaXhXxXcXMXZXDXDXFXGXLXKXCXd.a.p.t.8.3.u M ..$.*.=.=.=.=.*.$.$.$.$.$.*.=.pXsXjXhXhXgXgXgXgXgXhXhXhXfXfXfXfXhXhXhXgXgXhXfXpX=.$.} ` _ 5 , , 4 @.=.hXcXMXnXcXvXvXvXvXUXUXUXUXUXUXUXUX",
"UXUXUXUXUXUXUXUXUXUXUXUXUXUXUXUXUXUXUXUXUXUXUXUXUX7.r.r.7.1.t e x ] } %.*.=.pXaXhXxXcXnXMXmXAXDXFXPXKXCXd.a.u.8.3.F.O.#.} | #.$.=.=.pXpXpXsXsXaXfXhXxXvXnXMXmXAXAXAXAXmXMXcXxXhXaXsXsXsXsXaXjXfXfXaXsXpX=.$.#.{ 4 3 , , 5 { $.sXgXxXhXfXhXvXMXMXnXvXUXUXUXUXUXUX",
"UXUXUXUXUXUXUXUXUXUXUXUXUXUXUXUXUXUXUXUXUXUXUXUX7.7.7.8.5.>.r w n  .#.$.-.=.pXaXhXxXcXnXMXMXZXAXVXVXCXQ.s.p.7.<.3.X.;.%.{ ' ` } #.*.=.pXpXaXfXhXgXxXvXcXnXMXmXAXDXDXDXDXDXAXMXvXgXfXsXpXpXpXpXpXpXpX=.=.*.$.#.{ 4 3 : : 3 ' } *.sXjXpX=.pXhXxXvXcXbXnXUXUXUXUXUX",
"UXUXUXUXUXUXUXUXUXUXUXUXUXUXUXUXUXUXUXUXUXUXUXUXUX8.5.5.1.y x b _ { #.*.=.pXpXaXhXvXnXMXMXMXZXVXCXT.d.s.p.t.4.t u M ..{ ' 4 4 ' ` { #.$.$.*.=.pXsXaXfXfXaXjXhXgXvXnXmXAXDXSXDXAXMXxXfXpX=.=.=.=.=.-.*.*.$.$.} ` 4 2 : : , 4 [ #.=.=.*.#.#.#.*.aXxXMXMXUXUXUXUXUX",
"UXUXUXUXUXUXUXUXUXUXUXUXUXUXUXUXUXUXUXUXUXUXUXUXUX5.4.4.<.u z 5 ) { #.*.=.pXsXaXhXxXvXcXnXMXmXMXlXf.u.u.t.8.9.m M ] { ` ) 5 5 5 5 4 _ ' ` { { } } @.@.@.} } #.$.*.pXhXxXMXAXDXDXmXcXhXpX=.*.*.$.$.$.$.#.#.} { ' 5 > : . : 3 _ | $.$.} ` _ 4 ' #.sXxXcXUXUXUXUXUX",
"UXUXUXUXUXUXUXUXUXUXUXUXUXUXUXUXUXUXUXUXUXUXUXUXUX1.1.<.>.r z 3 ) ` } $.=.pXsXsXfXhXgXxXvXbXnXNXU.w.r.r.7.9.F.I.-.#.{ ' 4 5 3 > , , > > > > 2 2 3 3 3 3 3 3 3 5 4 ` } *.aXxXcXMXMXvXgXaXpX*.$.#.} } } } | { ` _ 5 , .   . : 5 ' | } { 4 > . . 5 #.sXgXcXMXUXUXUX",
"UXUXUXUXUXUXUXUXUXUXUXUXUXUXUXUXUXUXUXUXUXUXUXUXUX>.<.<.>.y z 3 4 ' { #.*.=.pXpXsXaXjXhXgXxXvXxXU.w.5.5.4.6.G.P.iX$.{ ' 4 5 > * * = c c < < < c c v v v c = * * , > 5 ' } *.sXgXxXxXgXfXpX*.#.} { { { { ` ` ' 5 > : .   . : > 5 ' { { ' 5 . o . 5 } sXvXmXUXUXUX",
"UXUXUXUXUXUXUXUXUXUXUXUXUXUXUXUXUXUXUXUXUXUXUXUXUX:.:.<.<.y z 3 5 ) ' | #.*.=.=.pXpXpXaXhXhXgXhXI.q.1.<.<.3.F.P.-.%.| ` ^ 3 < * = s U U v s P Y R M.N.M.U p = = = * * , 5 ' #.=.aXhXhXfXpX*.#.| ` ' ' ' ' ' 4 5 , : .   . : , 3 5 _ { } ` 3 .   . 5 $.xXAXUXUXUX",
"UXUXUXUXUXUXUXUXUXUXUXUXUXUXUXUXUXUXUXUXUXUXUXUXUXy t <.1.,.x 3 5 ) ' { } #.$.*.=.=.tXsXfXhXgXfXI.q.:.:.>.,.q.&.;.#.{ ' 4 3 1 p s Y R R Y U R V.S.S.S.N.Y s a v v a = * , > 4 { $.=.pXpX=.*.#.{ ' _ _ 4 4 5 5 > : : .   . : > , , 5 ` #.*.*.$.' : , #.xXAXUXUXUX",
"UXUXUXUXUXUXUXUXUXUXUXUXUXUXUXUXUXUXUXUXUXUXUXUXUXe y >.1.,.x 5 ) ' { { | } #.$.$.*.*.pXaXfXhXfXI.m y t :.,.N O.%.} ` _ 5 1 c U T M.M.M.R R N.K.E.K.S.N.T U Y R M.Y c = * * > 5 ' } $.*.*.*.#.{ ' 4 5 5 5 3 > , : .     : 3 5 5 3 5 ` #.pXxXvXpX' 4 $.gXMXUXUXUX",
"UXUXUXUXUXUXUXUXUXUXUXUXUXUXUXUXUXUXUXUXUXUXUXUXUX0 r :.>.u x 4 [ #.$.$.$.#.} | | #.%.*.=.pXjXaXI.N r y :.,.N ..} [ _ 4 1 c U R M.M.M.M.M.V.L.E.2XK.J.N.M.R M.V.N.T a = i c c 1 3 _ { #.$.$.#.| ' 4 5 3 3 3 > : : .     : 5 ` #.*.$.{ ' } sXxXgXpX=.pXhXxXcXMXAX",
"UXUXUXUXUXUXUXUXUXUXUXUXUXUXUXUXUXUXUXUXUXUXUXUXUX0 e y t y x n ..-.pXpXtX*.#.{ { { } #.$.-.pXpX&.N 0 r t ,.N ] [ ' 5 1 c v T N.V.M.M.M.V.L.K.2X2XK.S.V.V.V.V.S.V.T a i s U v < , 2 _ { } #.#.| ` _ 5 3 > > , : . .     , _ } pXgXfX#.5 ' $.fXxXxXgXfXsXfXxXMXAX",
"UXUXUXUXUXUXUXUXUXUXUXUXUXUXUXUXUXUXUXUXUXUXUXUXUX0 0 e y :.2.9.F.I.aXfXhXaX=.#.} | | | #.$.*.-...x 0 e y y N ] ` ) 3 1 c U R N.V.M.R N.J.E.2X2X2XK.V.N.J.K.L.S.M.Y s a U T U < * : 3 4 ` | } } { ' 5 > , , : : . .     : _ } pXgXhX$.' ' #.pXaXhXfX=.*.=.gXMXAX",
"UXUXUXUXUXUXUXUXUXUXUXUXUXUXUXUXUXUXUXUXUXUXUXUX8 8 0 0 e t 4.8.w.G.I.P.=.=.*.;.%.} | { | #.$.;...x 0 0 e r u M n 5 2 1 v Y R M.N.M.R N.K.2X2X2X2XL.V.V.L.E.K.V.R Y U U T R Y c * . : > 4 ` { | { ` _ 5 > , : : . .   . : 4 | pXgXxXsX$.#.#.$.*.=.=.#.{ #.aXbXmX",
"UXUXUXUXUXUXUXUXUXUXUXUXUXUXUXUXUXUXUXUXUXUXUXUX8 8 8 8 0 e t <.2.9.3.x < 4 | $.$.#.| | | @.%.$.X.x 8 8 0 e y ,.u B < 1 P T R R R R M.V.K.2X2X2XE.L.V.S.K.E.L.M.Y Y R M.M.R Y a = + X . , 5 ' ` { ` ' 4 5 3 , : . . . . : 5 { =.xXMXMXcXaX#.' { #.#.' 5 ' =.xXnX",
"UXUXUXUXUXUXUXUXUXUXUXUXUXUXUXUXUXUXUXUXUXUXUXUXUX8 8 8 8 0 e y :.<.t 9 o . ` $.$.| { { { | #.#.| n w q 8 0 t >.y q = c U R T Y T R N.J.E.2X2XE.K.L.J.L.K.K.V.R U T N.V.M.R U s = = + + : > 3 4 _ _ 4 5 3 > : : . . . . : 3 ' $.aXvXmXAXxX$.' ' { { 5 , 4 *.gXnX",
"UXUXUXUXUXUXUXUXUXUXUXUXUXUXUXUXUXUXUXUXUXUXUXUXUXUXUX8 8 8 0 e e r 0 @ o . ' %.#.` _ _ ' ` { | | { ] z q 0 e y r q = p Y R T U Y M.J.K.E.E.K.J.V.J.K.K.J.V.M.Y Y R V.V.M.Y P s a p = = * * : : , , , : : : . . . . . . : > 4 { $.pXxXnXxX=.| { ` ' 5 > ' =.xXMX",
"UXUXUXUXUXUXUXUXUXUXUXUXUXUXUXUXUXUXUXUXUXUXUXUXUXUXUXUX8 9 q q w x x c 3 _ { } { 4 3 3 5 4 ' ' [ { ` b z q q w q q = s Y R Y P U M.L.E.E.K.J.V.N.J.K.L.V.M.R T R M.V.N.R P s s a a p = * + X X . . . . . . : : : : : : : : 3 4 { $.pXhXhXsX*.#.{ _ 4 ' } aXnXAX",
"UXUXUXUXUXUXUXUXUXUXUXUXUXUXUXUXUXUXUXUXUXUXUXUXUXUXUXUXUXUX< < b ] | #.$.$.} { _ 3 : : , > 5 4 ) _ _ b 5 3 < , < = a P Y T U s U N.K.E.K.J.V.N.N.V.J.S.M.Y T M.N.N.M.R U s a s s p = * O O O           . : , > 3 3 , : . . : 3 _ { #.*.pXfXfX*.{ _ ` #.=.xXmXDX",
"UXUXUXUXUXUXUXUXUXUXUXUXUXUXUXUXUXUXUXUXUXUXUXUXUXUXUXUXUXUX> > 3 4 ' [ { { ' 5 > : : 7 : : , > 3 3 5 3 2 > : ; , c v U U U P v Y V.K.K.S.N.M.M.M.N.N.M.Y P Y M.V.N.R Y v a a s s p = O O O O + : : . . . : : , , : : . .   . : 3 4 ' { $.pXsX*.{ ' ` } *.hXcXMX",
"UXUXUXUXUXUXUXUXUXUXUXUXUXUXUXUXUXUXUXUXUXUXUXUXUXUXUXUXUXUX, , , , > 3 5 5 5 5 5 3 2 > , : : : : : : : : : . . = c U U s s s U R V.J.S.M.R R M.M.R T U s s Y M.V.M.Y v a p p a a p + O O O * > 5 5 3 , : . . . . .           . : , > 5 ` #.*.$.| ` ' ` #.=.hXxX",
"UXUXUXUXUXUXUXUXUXUXUXUXUXUXUXUXUXUXUXUXUXUXUXUXUXUXUXUXUXUX3 3 3 5 ^ { #.$.*.=.=.=.*.#.' 5 > : : : : 7 . + + + = v Y U a i s Y B.N.N.B.Y s Y R M.Y v s s P Y M.M.T s p p p p p i = O O + , 3 _ [ ` _ 5 , .           UXUXUXUX  X . : , 5 ' { | | { ` ' { $.=.pX",
"UXUXUXUXUXUXUXUXUXUXUXUXUXUXUXUXUXUXUXUXUXUXUXUXUXUXUXUXUXUX5 5 5 _ { $.pXhXxXvXnXnXxXsX$.` 5 : . . . . . . + = p P Y U c c P R H.H.H.H.W W W R R U p p s Y T T Y v i = i a p = = O O O * 3 _ { } | ` ^ > .   o o o UXUXUXUXUXUX    . : , 3 5 ' { { ' 4 ' { #.$.",
"UXUXUXUXUXUXUXUXUXUXUXUXUXUXUXUXUXUXUXUXUXUXUXUXUXUXUXUXUXUXUXUX4 _ ` @.*.=.pXaXhXgXhXsX*.{ 5 .   o     X . . : 1 b ]  .| ..&.<XlXzXNXNXNXzX<XH.U i = i s T T U v p = = p a p = O O O O * > 4 ' { { ' 4 > :     UXUXUXUXUXUXUXUXUXUX  . . : , 3 4 4 5 5 5 ' { { ",
"UXUXUXUXUXUXUXUXUXUXUXUXUXUXUXUXUXUXUXUXUXUXUXUXUXUXUXUXUXUXUXUXUX_ ' { } #.$.$.=.pXpX=.$.{ _ 3 > > 3 < = q q B z b ' { #.*.P.dXlXCXVXKXKXHXNXI.X.W I I Y T U a = = = p p p = + O O + * , > 5 4 _ _ 4 5 > : . UXUXUXUXUXUXUXUXUXUXUXUX    . : : , > > > 5 4 ' ` ",
"UXUXUXUXUXUXUXUXUXUXUXUXUXUXUXUXUXUXUXUXUXUXUXUXUXUXUXUXUXUXUXUXUX4 _ ' { } #.$.*.*.$.} ` [ #.*.pXaXdXY.w.8.8.6.3.x b ' [ ..X.w.w.f.d.Q.CXMXnXvXzXzXzXdXO.P i = = = p p = * O O O * 3 4 4 5 5 > , , , , : UXUXUXUXUXUXUXUXUXUXUXUXUXUXUXUX    . . : : , 3 4 ' ` ",
"UXUXUXUXUXUXUXUXUXUXUXUXUXUXUXUXUXUXUXUXUXUXUXUXUXUXUXUXUXUXUXUXUX5 4 ' ` { #.$.#.} { [ ` } =.gXcXbXNXW.d.a.p.t.6.m ] [ } ..q.2.7.u.a.d.Y.dXBXvXnXZXDXnX<XX.I I I c p = + O O O + > 4 ' ' _ 5 , . . . : : UXUXUXUXUXUXUXUXUXUXUXUXUXUXUXUXUX      . . : , 5 ' ` ",
"UXUXUXUXUXUXUXUXUXUXUXUXUXUXUXUXUXUXUXUXUXUXUXUXUXUXUXUXUXUXUXUXUXUXUX' ' ` { | ` 4 4 { $.pXjXfXfXjXP.Y.s.p.u.7.3.M ..-.aXdXG.3.1.t.p.i.Y.*.-.=.pXhXxXvXxXgXhXhX<X..1 O O O O + : > 5 ) _ _ 4 > : . . . . UXUXUX. . . .         . . UXUXUXUXUX      . . : , UXUX",
"UXUXUXUXUXUXUXUXUXUXUXUXUXUXUXUXUXUXUXUXUXUXUXUXUXUXUXUXUXUXUXUXUXUXUX_ _ _ ' ' ^ 5 ' #.tXaXaXsX}.*.&.F.i.u.r.4.3.G.P.gXbXNXI.3.>.8.u.i.w.G.G.P.P.sXfXhXgXxXxXxXhX;.I , + X + : > 2 > 3 5 5 5 > : : . . UXUXUX. . : , 3 > : . . . .   UXUXUXUXUX      . . UXUXUX",
"UXUXUXUXUXUXUXUXUXUXUXUXUXUXUXUXUXUXUXUXUXUXUXUXUXUXUXUXUXUXUXUXUXUXUX5 5 5 > > 4 { #.*.tXpX=.*.$.@...q.y.t.5.<.q.G.fXnXDXVXU.m t 4.t.p.p.s.T.lXkXgXfXsXpXpXpXpXpX*.#. .5 : : > 5 3 : : : : , , : : UXUXUX, : . . , _ { ` 4 3 : .         UXUXUXUXUXUXUXUXUXUXUX",
"UXUXUXUXUXUXUXUXUXUXUXUXUXUXUXUXUXUXUXUXUXUXUXUXUXUXUXUXUXUXUXUXUXUXUX5 3 > , , _ #.*.-.-.tXyXyXyXX.q.9.8.7.1.t m X.aXvXMXNXI.m r <.7.u.a.a.R.CXmXMXvXhXsX=.*.*.$.%.#.{ _ 3 > 3 3 , : .   X X . : 3 ' UX' 5 3 , : , 4 ' ' 5 , .           UXUXUXUXUXUXUXUXUXUXUX",
"UXUXUXUXUXUXUXUXUXUXUXUXUXUXUXUXUXUXUXUXUXUXUXUXUXUXUXUXUXUXUXUXUXUXUX3 2 > > 3 ' #.*.;.%.+.uXuXuXe.u.u.r.5.:.e w ] $.iXfXaXX.w e t 4.r.p.a.R.CXSXJXAXMXgXpX*.$.} { { ' ' _ 5 3 , : . .   o   . : 5 { #.} { ' 5 > , 3 5 3 : . .           UXUXUXUXUXUXUXUXUXUXUX",
"UXUXUXUXUXUXUXUXUXUXUXUXUXUXUXUXUXUXUXUXUXUXUXUXUXUXUXUXUXUXUXUXUXUXUXUXUX3 3 5 _ { { { ` ` / / ( e.p.u.7.1.y w z b ` | #...n w 0 r >.5.u.s.R.CXZXZXAXMXvXhXpX*.#.| ` ' _ 4 5 , : . . * = s s c 3 ' #.*.*.#.{ ^ 3 4 | $.#.` 5 3 , : . .   UXUXUXUXUXUXUXUXUXUXUX",
"UXUXUXUXUXUXUXUXUXUXUXUXUXUXUXUXUXUXUXUXUXUXUXUXUXUXUXUXUXUXUXUXUXUXUXUXUXUX5 5 5 5 5 5 5 5 5 5 N 9.u.t.5.>.u < > > 3 5 4 5 < 9 8 0 y <.7.u.f.U.xXcXnXbXxXgXfXpX*.#.{ ' 4 5 , : . X X * U v.C.W  .@.=.aXsX*.#.' 5 ' =.gXfX*.{ ' 5 > : . . UXUXUXUXUXUXUXUXUXUXUX",
"UXUXUXUXUXUXUXUXUXUXUXUXUXUXUXUXUXUXUXUXUXUXUXUXUXUXUXUXUXUXUXUXUXUXUXUXUXUX, , , , , , , > 6 < u 6.t.7.1.y q + ; ; : : : , , + @ 9 0 y 1.8.i.f.T.U.dXfXfXaXaXsXpX*.#.{ ' 5 , .     X * U z.D.1XdXgXvXvXgXpX$.` 5 4 { $.#.` 5 3 , : : . . UXUXUXUXUXUXUXUXUXUXUX",
"UXUXUXUXUXUXUXUXUXUXUXUXUXUXUXUXUXUXUXUXUXUXUXUXUXUXUXUXUXUXUXUXUXUXUXUXUXUX3 , , , , > 2 3 5 5 N 6.7.5.:.r q + 7 ; : : : , > > , @ 8 e t <.7.u.i.w.G.P.-.=.P.pXpX=.*.#.{ ' 5 : . X . * s x.S.1XNXmXmXnXxXsX*.{ 5 3 5 4 5 > : : : . . . . UXUXUXUXUXUXUXUXUXUXUX",
"UXUXUXUXUXUXUXUXUXUXUXUXUXUXUXUXUXUXUXUXUXUXUXUXUXUXUXUXUXUXUXUXUX$.*.pXsX*.| ' 4 4 4 ' [ | %.&.G.w.5.<.y 0 q < > 3 5 5 4 ) ^ 4 1 @ 8 8 0 r >.5.r.i.i.w.G.#.$.*.=.=.*.$.#.{ ' _ 5 2 : * d L N.1XzXxXhXsXpX=.$.' 3 5 { #.| _ 3 > > , : . . UXUXUXUXUXUXUXUXUXUXUX",
"UXUXUXUXUXUXUXUXUXUXUXUXUXUXUXUXUXUXUXUXUXUXUXUXUXUXUXUXUXUXUXUXUX=.pXfXhXaX*.} { ` { #.*.sXgXkXU.w.1.:.e 0 z b ' { } #.$.$.$.#.| n B q 9 0 e :.4.r.u.y.w.X...#.$.;.*.$.#.| { { ` ^ 2 , d k x.H.<XiX*.#.#.#.{ 4 , 3 { $.} ' 3 2 3 > : . . UXUXUXUXUXUXUXUXUXUXUX",
"UXUXUXUXUXUXUXUXUXUXUXUXUXUXUXUXUXUXUXUXUXUXUXUXUXUXUXUXUXUXUXUXUXgXxXnXMXvXpX#.{ { } =.BXMXSXDXlXF.,.y 0 0 n | ;.pXhXxXnXMXbXxXhXpX&.X.B 8 8 0 y >.5.7.y.9.w.X.#.#.%.#.#.} { [ ' 4 3 < d f l W | } { ` ' ' 5 , . . , 3 > : . . : : . . . UXUXUXUXUXUXUXUXUXUXUX",
"UXUXUXUXUXUXUXUXUXUXUXUXUXUXUXUXUXUXUXUXUXUXUXUXUXUXUXUXUXUXUXUXUXhXgXcXnXgX=.} { { } =.hXnXDXDXlXF.y e 0 w ] &.sXxXmXFXGXLXGXFXAXbXhXP.] x q 9 0 e t 1.7.t.9.q.X.....} } | { ' _ 4 5 3 c s s c 5 4 4 5 5 > : .   . , 3 > : . . : : . . . UXUXUXUXUXUXUXUXUXUXUX",
"UXUXUXUXUXUXUXUXUXUXUXUXUXUXUXUXUXUXUXUXUXUXUXUXUXUXUXUXUXUXUXUXUX$.*.=.=.*.| ' _ ' ` | #.=.jXhXI.m r 0 z b | *.fXnXDXGXLXLXLXGXSXmXvXhXP...n q 8 8 0 r >.4.8.8.9.q.] [ [ { ` ' 4 4 4 b I I b < : : , , : . X   . > { #.} _ 3 > 3 > : . . UXUXUXUXUXUXUXUXUXUXUX",
"UXUXUXUXUXUXUXUXUXUXUXUXUXUXUXUXUXUXUXUXUXUXUXUXUXUXUXUXUXUXUXUXUX' ' { { ' 4 3 > 3 5 5 4 ' | ..] u 0 q < 4 { $.sXxXAXFXHXGXGXFXDXMXxXhXsX*.| z q 9 8 0 e t 1.8.7.9.q.M ] ] _ 4 5 5 _ ' { { [ _ 3 , : . .       . > ' | { 4 3 > > > : . UXUXUXUXUXUXUXUXUXUXUXUX",
"UXUXUXUXUXUXUXUXUXUXUXUXUXUXUXUXUXUXUXUXUXUXUXUXUXUXUXUXUXUXUXUXUX4 4 5 5 3 > , : : : : : : > 2 < q 8 q < 5 ' | *.aXxXnXmXAXAXMXnXxXfXpX=.$.{ b < @ 9 8 8 0 y >.4.8.8.6.m b 5 2 > 5 _ ` } $.$.#.| ' 3 . . . . . . . : , : : 7 . . . . UXUXUXUXUXUXUXUXUXUXUXUXUX",
"UXUXUXUXUXUXUXUXUXUXUXUXUXUXUXUXUXUXUXUXUXUXUXUXUXUXUXUXUXUXUXUX#.#.#.$.$.$.#.} { _ 5 , : : : , = 9 8 q < 5 ) ` } *.pXhXgXxXxXxXgXfXsX=.*.#.[ 4 3 < @ q 9 8 0 r :.4.7.5.u c 2 > , > 5 ' | $.*.=.=.$.| ' 5 :   . . .       . . . . UXUXUXUXUXUXUXUXUXUXUXUXUXUXUX",
"UXUXUXUXUXUXUXUXUXUXUXUXUXUXUXUXUXUXUXUXUXUXUXUXUXUXUXUXUXUX$.*.pXhXxXMXMXmXMXnXhX=.#.' 5 3 3 5 < q 9 @ < 3 5 _ ` } $.*.=.pXpXpXpXpXpX=.$.| ' 3 , > 3 < q 9 8 0 e :.1.2.u < > : : , 5 _ ` } $.pXhXhXaXpX=.UXUXUXUXUXUXUXUXUXUXUXUXUXUXUXUXUXUXUXUXUXUXUXUXUXUXUX",
"UXUXUXUXUXUXUXUXUXUXUXUXUXUXUXUXUXUXUXUXUXUXUXUXUXUXUXUXUXUX*.=.aXxXMXDXJXHXHXHXDXnXhX=.} ' ) 5 b c z < , : , 3 5 ' { } #.$.$.$.;.;.$.#.{ ' 5 > , > 2 3 z z q 9 0 e t y w < > : : , 3 4 ' { #.=.hXxXvXvXvXcXUXUXUXUXUXUXUXUXUXUXUXUXUXUXUXUXUXUXUXUXUXUXUXUXUXUX",
"UXUXUXUXUXUXUXUXUXUXUXUXUXUXUXUXUXUXUXUXUXUXUXUXUXUXUXUXUXUX=.pXaXhXvXMXAXDXFXHXHXFXAXvXpX$.{ _ _ ` ` 4 , . : , 3 4 ' { } #.#.$.#.#.| [ ' 5 3 , : : , > 4 _ c q 8 0 0 0 q < , : . : 3 4 _ ' { *.sXgXcXMXMXcXvXvXUXUXUXUXUXUXUXUXUXUXUXUXUXUXUXUXUXUXUXUXUXUXUXUX",
"UXUXUXUXUXUXUXUXUXUXUXUXUXUXUXUXUXUXUXUXUXUXUXUXUXUXUXUXsX=.$.$.*.=.pXfXhXxXvXnXmXAXAXMXvXfX*.| ' _ 5 > : : , 3 ) { #.*.pXsXsXpX=.$.} [ _ 5 3 , : : : , 5 ) c q 8 8 8 9 @ , : ; X ; > 3 5 5 ' } *.sXhXvXnXMXMXnXvXUXUXUXUXUXUXUXUXUXUXUXUXUXUXUXUXUXUXUXUXUXUXUX",
"UXUXUXUXUXUXUXUXUXUXUXUXUXUXUXUXUXUXUXUXUXUXUXUXUXUXUXsXpX*.} ` [ | #.%.$.*.=.pXjXgXvXMXMXcXhX-.| 4 , : : , > 3 _ } ;.}.aXfXjXsX=.%.{ ' 4 3 6 , : $ . : > 5 < @ 9 9 9 @ @ , , , * , > > > > 5 ' | $.=.aXxXMXmXMXcXcXUXUXUXUXUXUXUXUXUXUXUXUXUXUXUXUXUXUXUXUXUXUX",
"UXUXUXUXUXUXUXUXUXUXUXUXUXUXUXUXUXUXUXUXUXUXUXUXUXUXUX=.*.#.' 3 3 4 ) _ ' ` [ { } $.=.fXxXcXvXhX=.{ 5 > : * $ * 6 6 S S I ' I S 5 6 , , * $ $ $ $ $ . . : > > * + + + + + : 1 W ! W 1 : ; ; , 3 _ { } $.=.fXxXMXAXAXMXcXUXUXUXUXUXUXUXUXUXUXUXUXUXUXUXUXUXUXUXUX",
"UXUXUXUXUXUXUXUXUXUXUXUXUXUXUXUXUXUXUXUXUXUXUXUXUXUXUX-.$.| b < = 1 c c c c c b b I ` %.pXhXgXgXsX$.{ ' _ 4 6 $ # # & & & # # o o o # & % C C C C % 6 6 6 6 , , : $ . . . : P C.$XD.W I I I I 5 5 4 ' { } ;.pXxXmXDXmXMXnXUXUXUXUXUXUXUXUXUXUXUXUXUXUXUXUXUXUXUX",
"UXUXUXUXUXUXUXUXUXUXUXUXUXUXUXUXUXUXUXUXUXUXUXUXUXMXBXtX#.] U l l l l l l l l d i < 3 _ { #.*.=.=.*.*.pXjXpX} C % V C C C % & # # & % Z G /./././.~.G F D Z C % $ $ . . X . c E $X%X&X&X,X,X>X! 5 2 3 ^ ' | $.pXhXcXAXDXAXnXxXUXUXUXUXUXUXUXUXUXUXUXUXUXUXUXUXUX",
"UXUXUXUXUXUXUXUXUXUXUXUXUXUXUXUXUXUXUXUXUXUXUXUXbXcXhXP.X.E x.l.l.l.l.k.k.h.0.j f i < < 3 4 ' | #.$.*.pXjXsXo.S Z D G G F Z C % % C D ~.`.[. X X|.[.'.`.(.^.G D Z C % * + * a L n.%X-X3X8X0X3X>X! I W W  .` [ @.*.fXnXDXAXnXxXxXUXUXUXUXUXUXUXUXUXUXUXUXUXUXUXUX",
"UXUXUXUXUXUXUXUXUXUXUXUXUXUXUXUXUXUXUXUXUXUXUXUXUXaX<XH.C.c.Z.$X%X$X$XA.n.c.j.g.k k l i * 7 , 3 4 ' {  .I S F F G ~././.~.G Z C C F (.].XXoXoXOXOXoXoX.X X[.].`./.H D A p d k h.c.m.%X-X;X3X3X4X,X,X4X,X>XI 4 _ | *.jXxXnXnXnXMXUXUXUXUXUXUXUXUXUXUXUXUXUXUXUXUX",
"UXUXUXUXUXUXUXUXUXUXUXUXUXUXUXUXUXUXUXUXUXUXUXUXP.H.H.C.n.$X=X-X-X-X-X=X%X$Xb.z.k.j.h.f q O X + 5 | %. .S Z J G /.`.'.'.(./.F Z D ~.].XXoXOX+X+X+XOXoX.XXX X X|.[.'.(./.Q K L h.j.b.n.$X=X-X-X:X;X6X0X8X,X>X! I ' { %.=.jXgXxXxXUXUXUXUXUXUXUXUXUXUXUXUXUXUXUXUX",
"UXUXUXUXUXUXUXUXUXUXUXUXUXUXUXUXUXUXUXUXUXUXMXzXI.B.z.n.%X-X:X3X3X3X3X3X:X-X$Xn.b.c.j.g.f d @ + _ =.gX}.o.D G ~.(.].|.[.'.(.H F G (.|..XoX+X+X+XOXoXXX[.{.].[.|. XXX X|.`.).Q L h.j.l.b.n.A.$X%X=X-X;X3X6X7X,XH.I 5 _ { #.=.pXpX=.*.UXUXUXUXUXUXUXUXUXUXUXUXUXUX",
"UXUXUXUXUXUXUXUXUXUXUXUXUXUXUXUXUXUXUXUXUXUXvXkXI.C.b.%X:X6X6X6X6X3X3X3X:X-X%XA.n.b.z.h.0.g d i ] dXcXjXo.F H (.'. X.XXX[.'./.H ^.`. XoXOX+X+X+XOX.X[.'.(.(.`.].|.XX.XXX[.`.).~ h.h.k.l.b.b.n.A.$X=X-X:X6X8X7X,X>X! I 4 ' @.$.*.$.$.UXUXUXUXUXUXUXUXUXUXUXUXUXUX",
"UXUXUXUXUXUXUXUXUXUXUXUXUXUXUXUXUXUXUXUXUXUXaX<X>XD.%X:X8X9X9X9X8X6X3X-X-X%X$Xn.n.b.l.j.h.j g g M.lXvXjXo.F ^.`.[..XoXoXXX].(././.'. X.XOX+X+XOXoX X'.(.^.H /.(.'.{.[.[.{.'._.~ h.h.k.l.l.l.c.b.n.$X%X=X-X;X3X8X7X,X! I 4 ` | | | | UXUXUXUXUXUXUXUXUXUXUXUXUXUX",
"UXUXUXUXUXUXUXUXUXUXUXUXUXUXUXUXUXUXUXUXUXUX%.&.H.&X:X8XqXqXqX9X8X6X3X-X=X%XA.b.b.c.l.j.h.0.j j M.lXvXjXo.F ~.`.|..XoXoXXX[.'.(.(.'. X@XOX+XOXoXXX].(./.G F G ~././.H H ~./.Q ~ k 0.h.j.j.j.k.l.b.n.$X$X=X-X:X3X6X-X#XE P I 4 4 4 4 UXUXUXUXUXUXUXUXUXUXUXUXUXUX",
"UXUXUXUXUXUXUXUXUXUXUXUXUXUXUXUXUXUXUXUXUXUX ...>X4X8XqXwXeXqX9X8X6X3X-X=X$Xn.l.l.l.z.j.h.0.g k M.lXvXjXo.F ^.`.[..XoX@XXX[.'.`.`.]. X.XOXOXoXXX{.`./.G J Z Z F F Z V V Z F Q K g j 0.g.g.g.h.j.l.b.b.n.$X%X=X=X=X%X$XC.E c > , , , UXUXUXUXUXUXUXUXUXUXUXUXUXUX",
"UXUXUXUXUXUXUXUXUXUXUXUXUXUXUXUXUXUXUXUXhXI.R C.&X8XqXwXwXwXwXqX9X6X;X-X%XA.b.l.k.j.j.h.h.0.g g M.<XvXjXo.F ^.(.]. X.XXX|.].`.(.`.]. X.XoXOXoX X'./.H D - = - A C % # # % C A d g g j j 0.g.h.h.h.j.k.l.b.n.n.n.b.c.E Y P 1 > , , , : : UXUXUXUXUXUXUXUXUXUXUXUX",
"UXUXUXUXUXUXUXUXUXUXUXUXUXUXUXUXUXUXUXBXhX<XC.Z.-XqXwXwXwXwXwXeX9X6X-X%X$Xn.b.l.j.h.g.g.g.0.k L H.lXxX}.o.F G (.'.[. X|.].'.(.(.(.]. X.XoXoX.X[.`.~.F A = @ @ - V % # # & % - d g g g g j 0.g.g.0.0.0.g.h.x.x.x.L L v b ^ _ _ ) 5 5 3 > , UXUXUXUXUXUXUXUXUXUXUX",
"UXUXUXUXUXUXUXUXUXUXUXUXUXUXUXUXUXUXUXaXsXI.D.$X-X9XeXwXwXwXeXqX6X-X%X$XA.b.l.j.h.g.g.0.j x.H.<XlXkXhX}.Q F G /.(.].|.[.'.`.(.(.(.]. X.XoXoXXX].(.^.D C @ @ @ - C % # # & % - d g g g g g j j j j j j j l s a c c I  .#.;.=.=.*.#.{ ' 4 5 UXUXUXUXUXUXUXUXUXUXUX",
"UXUXUXUXUXUXUXUXUXUXUXUXUXUXUXUXUXUXUX&.I.H.D.%X-X8X9XqXeXqX9X8X-X$Xn.n.n.b.k.h.g.0.0.g g B.I.cXbXgXpX%.Q D F H /.`.].].'.`.(.(.`.]. X.X.X.X X'./.G Z A a d s A Z C % % % C - d g g g g g g g g h h f d i < 3 ^ ` } *.pXfXhXfXpX$.} ` ' 4 UXUXUXUXUXUXUXUXUXUXUX",
"UXUXUXUXUXUXUXUXUXUXUXUXUXUXUXUXUXUXUXB.B.C.$X=X:X3X6X8X8X6X3X-X=X$Xn.b.b.l.j.h.0.j j h h T I.zXBXpX%. .S Z D G /.(.'.].'.'.`.(.`.[..X.X.XXX[.`./.F Z Q #X&X#X_.^.F J Z C UXUXf h g g g g g g g h f i = 1 b { $.tXaXfXfXfXpX=.$.| ' 4 5 5 UXUXUXUXUXUXUXUXUXUXUX",
"UXUXUXUXUXUXUXUXUXUXUXUXUXUXUXUXUXUXUX0.h.l.n.%X=X-X-X-X-X-X=X%X$Xn.b.c.z.j.h.0.j g g l B.H.<XhXsX$.[ S S Z Z F H (.'.].].].'.'.].|..X.X.X X].(./.Q Q _.,X7XrX_./.G F D UXUXUXUXh f f d d d d f l s c 5 _ | $.=.aXfXsX=.*.#.{ ' 4 5 3 > , UXUXUXUXUXUXUXUXUXUXUX",
"UXUXUXUXUXUXUXUXUXUXUXUXUXUXUXUXUXUXUXg.h.j.l.b.n.$X$X$X$X$X$XA.n.b.l.k.h.g.j j h h k H.lXzXhXpX$.` 5 6 C C Z D H (.'.].[.[.[.[.[. XXXXX X[.`.~.)._.,X7X6X6X,X_./.G F D UXUXUXUXUXUX* + + * < c b '  .| #.*.=.=.*.$.} ` _ 5 3 > , : : : : UXUXUXUXUXUXUXUXUXUXUX",
"UXUXUXUXUXUXUXUXUXUXUXUXUXUXUXUXUXUXUXT T B.M.N.C.c.b.b.b.n.n.b.b.l.j.h.0.j g h h h k H.kXxXaX$.{ 4 > * $ % C Z F /.(.'.].[.[.[.[.|.|.|.[.'.~.G Q #X7X9X8X;X&X_.G D Z Z UXUXUXUXUXUX; : , 2 5 ' [ | @.#.$.$.$.#.| ` _ 5 5 5 5 5 5 5 2 , , UXUXUXUXUXUXUXUXUXUXUX",
"UXUXUXUXUXUXUXUXUXUXUXUXUXUXUXUXUXUXUX| ..#.&.O.M.x.j.z.l.c.c.l.k.h.g.j j g g h h h l G.P.iX$.{ _ 3 : . X $ % C D G /.(.`.'.].].].].].'.`.(.G Z S #X7X0X5X-X#XQ D C V % UXUXUXUXUXUX> 2 5 ' { } #.#.#.| { { ' _ 5 5 5 4 ' | #.#.} { ' 5 3 UXUXUXUXUXUXUXUXUXUXUX",
"UXUXUXUXUXUXUXUXUXUXUXUXUXUXUXUXUXUX' [ } %.-.<XI.I.H.H.H.V.x.g.0.0.j g g h h g l R X.O.&.#.{ 4 3 : . X   X % V C Z F H /./.(.(.(.(.(./.H F Z V A _.4X8X:X%XC.Q Z V % UXUXUXUXUXUX. : , 3 5 ' ` { { ` ' _ 4 5 5 3 5 ' { $.pXhXaXpX$.{ _ 5 UXUXUXUXUXUXUXUXUXUXUX",
"UXUXUXUXUXUXUXUXUXUXUXUXUXUXUXUX' ' ' ' { #.=.aXgXxXxXhXsXH.R k g g g h g h h k R I.P.;.| ' 4 3 : .     UXUXUX% % C Z Z D F F G G G G F Z C % % A ! *X:X=XA.v.K C V UXUXUXUXUX    . : : , , > 3 3 3 > , > > 3 5 5 ' | *.fXcXMXcXfX=.| _ 5 UXUXUXUXUXUXUXUXUXUXUX",
"UXUXUXUXUXUXUXUXUXUXUXUXUXUXUX{ { | | { { | #.%.*.=.pXaXaX<XI.H.T k h h g l T W O.&.$.} ' 5 3 : .       UXUXUXUX% % % % V C C C C C C V % % A K ~ #X%X%XA.b.v.K UXUXUXUXUXUX> 3 3 5 5 5 3 , : : : : . : : > 5 5 ' { %.=.fXxXvXhX=.$.| ' UXUXUXUXUXUXUXUXUXUXUXUX",
"UXUXUXUXUXUXUXUXUXUXUXUXUXUX{ | $.=.=.*.$.} { ` ` [ } $.<XsXaXsXH.T k f f l X.%.#.{ ` _ 5 3 : . X       UXUXUXUXUX# # & & % % % % % % % % A K #X%X$XA.n.b.l.l.UXUXUXUXUX> 3 4 ` | #.#.| ` 4 3 , : . . . : 3 5 _ ' | $.=.pXsXpX$.| ` UXUXUXUXUXUXUXUXUXUXUXUXUXUX",
"UXUXUXUXUXUXUXUXUXUXUXUX_ ` | $.aXxXcXcXxXhXsX*.#.{ ` ` { @.$.*.&.O.X.W v I ] { [ _ 5 3 , : .       UXUXUXUXUXUXUXUXUX= d d d d s K L L L ~ v.$X$Xm.b.b.l.UXUXUXUXUXUXUX5 _ { *.aXgXxXgXaX*.} _ > : : : > 3 5 _ ' { } #.$.*.$.| ' 4 UXUXUXUXUXUXUXUXUXUXUXUXUXUX",
"UXUXUXUXUXUXUXUXUXUXUX4 _ ` } *.fXnXAXDXDXAXMXxXsX$.{ ' 5 4 ' { %.*.*.#.` _ _ 4 5 3 , : . .       UXUXUXUXUXUXUXUXUXUXUXh g j 0.h.j.l.b.n.n.m.m.n.b.c.l.UXUXUXUXUXUXUXUX4 ' #.pXxXMXDXDXMXxXsX$.` 4 5 3 3 5 5 5 4 ' ` { | } | ` ^ 5 UXUXUXUXUXUXUXUXUXUXUXUXUXUX",
"UXUXUXUXUXUXUXUXUX#.{ ` ' ' ' { #.=.aXxXcXmXAXmXcXhX=.#.` ^ 5 5 ' { } } { ' 5 , : . . X       UXUXUXUXUXUXUXUXUXUXUXUXUXUXUXUXUXUXUXUXUXUXUXUXUXUXUXUXUXUXUXUXUXUXUX: : 3 4 ` $.pXhXxXcXnXbXxXfX=.#.{ _ 5 5 3 > 3 5 5 _ ' ' ' ' UXUXUXUXUXUXUXUXUXUXUXUXUXUXUXUX",
"UXUXUXUXUXUXUXUX#.$.$.$.$.#.{ { ` { } ;.pXhXvXnXcXxXaX*.| ' 5 > > 5 4 ' ` _ > .             UXUXUXUXUXUXUXUXUXUXUXUXUXUXUXUXUXUXUXUXUXUXUXUXUXUXUXUXUXUXUXUXUXUXUXUX, 2 5 ' | $.=.pXsXfXhXxXxXxXhXsX*.} ` 4 3 , , , > 3 3 3 3 3 UXUXUXUXUXUXUXUXUXUXUXUXUXUXUXUX",
"UXUXUXUXUXUX' { #.=.aXxXvXxXhXpX#.` ' ' ' | $.=.iX=.*.#.{ ' 4 5 > : : , 3 > : .         UXUXUXUXUXUXUXUXUXUXUXUXUXUXUXUXUXUXUXUXUXUXUXUXUXUXUXUXUXUXUXUXUXUXUXUXUXUX5 ' #.=.fXhXgXhXpX=.=.pXsXhXgXhXfXpX$.{ 4 > , : : : . . . . UXUXUXUXUXUXUXUXUXUXUXUXUXUXUXUX",
"UXUXUXUXUX4 _ ' } *.fXcXAXDXmXcXaX$.{ 4 3 5 ^ ' { | | { ' ' 4 5 , . . . . . . .       UXUXUXUXUXUXUXUXUXUXUXUXUXUXUXUXUXUXUXUXUXUXUXUXUXUXUXUXUXUXUXUXUXUXUXUXUXUXUX5 ' $.sXgXvXcXxXhXsXpX=.=.pXsXsXsXpX*.} ' 5 , : . .         UXUXUXUXUXUXUXUXUXUXUXUXUXUXUXUX",
"UXUXUXUXUX5 5 _ ` #.=.hXnXDXSXSXmXxXpX} _ 3 , , > 5 4 _ _ ) 5 > : .               UXUXUXUXUXUXUXUXUXUXUXUXUXUXUXUXUXUXUXUXUXUXUXUXUXUXUXUXUXUXUXUXUXUXUXUXUXUXUXUXUX, 5 { $.pXhXxXvXcXvXgXaXpX*.#.#.#.#.#.} { 4 > : . .         UXUXUXUXUXUXUXUXUXUXUXUXUXUXUXUX",
"UXUXUXUXUX> 5 5 ' { #.*.aXxXMXAXDXAXvXpX#.' 3 : : : , > 3 5 3 > : .             UXUXUXUXUXUXUXUXUXUXUXUXUXUXUXUXUXUXUXUXUXUXUXUXUXUXUXUXUXUXUXUXUXUXUXUXUXUXUXUXUX3 3 5 _ { } $.*.pXsXfXfXaXpX*.%.} { { ` ` ' 4 3 , : . .     UXUXUXUXUXUXUXUXUXUXUXUXUXUXUXUXUX",
"UXUXUX: , 3 5 _ ' ` { | #.*.pXhXcXmXMXvXfX;.` 5 , : . . 7 : , > : . .       UXUXUXUXUXUXUXUXUXUXUXUXUXUXUXUXUXUXUXUXUXUXUXUXUXUXUXUXUXUXUXUXUXUXUXUXUXUXUXUXUX_ _ _ _ _ _ _ _ 4 4 ' ` | $.pXsXpX=.$.{ ' 4 5 5 5 5 > : . . UXUXUXUXUXUXUXUXUXUXUXUXUXUXUXUXUXUXUX",
"UXUXUX5 4 ` } $.*.=.=.=.*.*.*.=.sXhXxXxXhXpX$.{ 5 : .     . : : : .       UXUXUXUXUXUXUXUXUXUXUXUXUXUXUXUXUXUXUXUXUXUXUXUXUXUXUXUXUXUXUXUXUXUXUXUXUXUXUXUXUXUX' ' { | #.$.$.$.#.| { ` ` | #.$.$.$.#.{ ` _ 5 3 > > : . .   UXUXUXUXUXUXUXUXUXUXUXUXUXUXUXUXUXUXUX",
"UXUXUX' { $.pXhXvXnXMXcXxXaX=.$.$.$.*.pXaXsX=.$.` 3 : .     . . .     UXUXUXUXUXUXUXUXUXUXUXUXUXUXUXUXUXUXUXUXUXUXUXUXUXUXUXUXUXUXUXUXUXUXUXUXUXUXUXUXUXUXUXUX_ ' { $.=.fXxXxXhXsX=.$.} { ` ' ' ` { { { ' 4 3 , : .       UXUXUXUXUXUXUXUXUXUXUXUXUXUXUXUXUXUXUX",
"UXUXUX4 ' | *.aXxXMXDXDXDXMXxXfX=.$.#.#.$.$.$.#.{ _ 3 : . .         UXUXUXUXUXUXUXUXUXUXUXUXUXUXUXUXUXUXUXUXUXUXUXUXUXUXUXUXUXUXUXUXUXUXUXUXUXUXUXUXUXUXUXUXUX, > 5 ' { #.*.=.pXpXsXpX=.$.{ ' 4 5 5 4 4 5 3 > : . .   UXUXUXUXUXUXUXUXUXUXUXUXUXUXUXUXUXUXUXUXUX",
"UXUXUX> 5 _ { $.pXBXMXDXSXSXDXMXhX=.#.{ ' ' { { { ' _ 3 : . .     UXUXUXUXUXUXUXUXUXUXUXUXUXUXUXUXUXUXUXUXUXUXUXUXUXUXUXUXUXUXUXUXUXUXUXUXUXUXUXUXUXUXUXUXUXUX. . : , 5 _ ` | $.*.pXjXaX=.#.{ _ 5 > , , : : : . . . UXUXUXUXUXUXUXUXUXUXUXUXUXUXUXUXUXUXUXUXUXUX",
"UXUXUX: , 3 4 ' { #.*.pXfXxXcXvXgXaX*.| ' 5 5 5 4 _ 4 3 , : . .   UXUXUXUXUXUXUXUXUXUXUXUXUXUXUXUXUXUXUXUXUXUXUXUXUXUXUXUXUXUXUXUXUXUXUXUXUXUXUXUXUXUXUXUXUXUX5 _ ' | $.=.pXpX*.$.#.#.$.$.$.#.{ ' 5 , . . . . .     UXUXUXUXUXUXUXUXUXUXUXUXUXUXUXUXUXUXUXUXUXUX",
"UXUXUX: > 5 _ ' _ _ ' ` { $.=.sXfXaX=.#.' 5 , : > 3 3 > : : . . . UXUXUXUXUXUXUXUXUXUXUXUXUXUXUXUXUXUXUXUXUXUXUXUXUXUXUXUXUXUXUXUXUXUXUXUXUXUXUXUXUXUXUXUXUXUX` { #.=.aXxXMXvXaX*.#.{ { } $.$.} { _ 3 : .           UXUXUXUXUXUXUXUXUXUXUXUXUXUXUXUXUXUXUXUXUXUX",
"UXUXUX5 _ | $.*.#.{ ' 4 5 4 ' { #.*.$.#.{ ^ > : : : : : : : .     UXUXUXUXUXUXUXUXUXUXUXUXUXUXUXUXUXUXUXUXUXUXUXUXUXUXUXUXUXUXUXUXUXUXUXUXUXUXUXUXUXUXUXUXUXUX4 _ { #.=.hXcXnXvXgXaX=.$.} { ` ` ` ' _ 5 , .     UXUXUXUXUXUXUXUXUXUXUXUXUXUXUXUXUXUXUXUXUXUXUXUX",
"UXUXUX' { *.hXhXsX*.#.` 4 3 > 5 _ { | | { ' 5 , : . . . . .     UXUXUXUXUXUXUXUXUXUXUXUXUXUXUXUXUXUXUXUXUXUXUXUXUXUXUXUXUXUXUXUXUXUXUXUXUXUXUXUXUXUXUXUXUXUXUX, > 5 ` #.=.aXhXgXgXhXaX=.#.` _ _ _ _ 4 5 , .   UXUXUXUXUXUXUXUXUXUXUXUXUXUXUXUXUXUXUXUXUXUXUXUXUX",
"UXUXUX' } =.xXnXnXvXhX=.@.' 5 > > 5 4 ' ` ' 4 3 : . . .     UXUXUXUXUXUXUXUXUXUXUXUXUXUXUXUXUXUXUXUXUXUXUXUXUXUXUXUXUXUXUXUXUXUXUXUXUXUXUXUXUXUXUXUXUXUXUXUXUX. : , 5 _ ` { } #.#.*.=.pX*.#.` 4 3 , : : .     UXUXUXUXUXUXUXUXUXUXUXUXUXUXUXUXUXUXUXUXUXUXUXUXUX",
"UXUXUX' { *.fXxXnXnXvXhXpX#.' 3 , , > 5 _ _ 4 5 , : .       UXUXUXUXUXUXUXUXUXUXUXUXUXUXUXUXUXUXUXUXUXUXUXUXUXUXUXUXUXUXUXUXUXUXUXUXUXUXUXUXUXUXUXUXUXUXUXUXUX. . : > 5 ' ` { [ { | #.$.$.$.} ' > : .         UXUXUXUXUXUXUXUXUXUXUXUXUXUXUXUXUXUXUXUXUXUXUXUXUX",
"UXUXUX3 4 { $.=.sXfXxXvXgXpX| _ 3 , , 2 5 5 5 5 > : . .     UXUXUXUXUXUXUXUXUXUXUXUXUXUXUXUXUXUXUXUXUXUXUXUXUXUXUXUXUXUXUXUXUXUXUXUXUXUXUXUXUXUXUXUXUXUXUXUXUXUXUX5 4 ` #.*.=.$.} { ' ' | #.#.{ 5 , .     UXUXUXUXUXUXUXUXUXUXUXUXUXUXUXUXUXUXUXUXUXUXUXUXUXUXUX",
"UXUXUX, > 5 ' { #.$.=.jXfXpX$.| _ 3 , , , 3 5 5 3 : : .   UXUXUXUXUXUXUXUXUXUXUXUXUXUXUXUXUXUXUXUXUXUXUXUXUXUXUXUXUXUXUXUXUXUXUXUXUXUXUXUXUXUXUXUXUXUXUXUXUXUXUXUXUX{ #.pXxXxXaX-.} ' 5 _ ` ` ' 4 3 : .   UXUXUXUXUXUXUXUXUXUXUXUXUXUXUXUXUXUXUXUXUXUXUXUXUXUXUX",
"UXUXUX: : > 5 5 _ ` { #.$.*.=.$.{ 4 > , : > 3 5 > : : UXUXUXUXUXUXUXUXUXUXUXUXUXUXUXUXUXUXUXUXUXUXUXUXUXUXUXUXUXUXUXUXUXUXUXUXUXUXUXUXUXUXUXUXUXUXUXUXUXUXUXUXUXUXUX#.*.hXmXmXvXjX*.{ 5 > , , > 5 3 , : : UXUXUXUXUXUXUXUXUXUXUXUXUXUXUXUXUXUXUXUXUXUXUXUXUXUXUX",
"UXUXUX: , 5 ' { | } { ` ` | #.#.{ _ 5 , : , > > , : . UXUXUXUXUXUXUXUXUXUXUXUXUXUXUXUXUXUXUXUXUXUXUXUXUXUXUXUXUXUXUXUXUXUXUXUXUXUXUXUXUXUXUXUXUXUXUXUXUXUXUXUXUXUXUX{ } =.hXgXfXpX$.{ 4 , . . . : : : : : UXUXUXUXUXUXUXUXUXUXUXUXUXUXUXUXUXUXUXUXUXUXUXUXUXUXUX",
"UXUXUX: 3 { *.pXaXpX$.' 5 4 ' ` ' ' 4 > : : : : : . . UXUXUXUXUXUXUXUXUXUXUXUXUXUXUXUXUXUXUXUXUXUXUXUXUXUXUXUXUXUXUXUXUXUXUXUXUXUXUXUXUXUXUXUXUXUXUXUXUXUXUXUXUXUXUX3 5 ' { } #.#.| ' 4 > : .     . : : , UXUXUXUXUXUXUXUXUXUXUXUXUXUXUXUXUXUXUXUXUXUXUXUXUXUXUX",
"UXUXUX: 4 $.hXcXnXvXpX| 4 5 5 5 4 _ 5 2 : : : . . .   UXUXUXUXUXUXUXUXUXUXUXUXUXUXUXUXUXUXUXUXUXUXUXUXUXUXUXUXUXUXUXUXUXUXUXUXUXUXUXUXUXUXUXUXUXUXUXUXUXUXUXUXUXUXUX: : , 3 5 5 5 5 3 , : : . . . : , 5 ' #.*.#.| UXUXUXUXUXUXUXUXUXUXUXUXUXUXUXUXUXUXUXUXUXUXUX",
"UXUXUX> ' =.vXAXDXmXgX$.' 5 > , 3 5 5 > : : . .       UXUXUXUXUXUXUXUXUXUXUXUXUXUXUXUXUXUXUXUXUXUXUXUXUXUXUXUXUXUXUXUXUXUXUXUXUXUXUXUXUXUXUXUXUXUXUXUXUXUXUXUXUXUXUX: 7 . . . . . : : : : : : : : , 5 ' | $.*.$.#.} UXUXUXUXUXUXUXUXUXUXUXUXUXUXUXUXUXUXUXUXUXUX",
"UXUXUXUXUXpXgXcXMXMXxX=.} _ > : , > > , : . .     UXUXUXUXUXUXUXUXUXUXUXUXUXUXUXUXUXUXUXUXUXUXUXUXUXUXUXUXUXUXUXUXUXUXUXUXUXUXUXUXUXUXUXUXUXUXUXUXUXUXUXUXUXUXUXUXUX3 > : : . : : > 5 5 5 5 5 > : > 5 ' | $.=.=.=.=.*.$.UXUXUXUXUXUXUXUXUXUXUXUXUXUXUXUXUXUXUXUX",
"UXUXUXUXUX=.=.pXhXgXfX=.#.' 5 , : : : : : . .     UXUXUXUXUXUXUXUXUXUXUXUXUXUXUXUXUXUXUXUXUXUXUXUXUXUXUXUXUXUXUXUXUXUXUXUXUXUXUXUXUXUXUXUXUXUXUXUXUXUXUXUXUXUXUXUX} { ' 5 > > 5 ' { #.%.#.} [ 4 3 3 5 ' | $.=.sXaXaXpX*.*.UXUXUXUXUXUXUXUXUXUXUXUXUXUXUXUXUXUXUX",
"UXUXUXUXUX' ' { } #.#.#.| ` 4 3 , : : . . . . . UXUXUXUXUXUXUXUXUXUXUXUXUXUXUXUXUXUXUXUXUXUXUXUXUXUXUXUXUXUXUXUXUXUXUXUXUXUXUXUXUXUXUXUXUXUXUXUXUXUXUXUXUXUXUXUXxXjX=.#.{ _ ' @.-.fXxXcXxXjX=.@.' 4 4 _ { #.=.pXaXaXsXpXpXpX=.#.{ _ UXUXUXUXUXUXUXUXUXUXUXUXUXUX",
"UXUXUXUXUX: : , 3 5 _ ' ` ' _ 5 > : . .   . : : > UXUXUXUXUXUXUXUXUXUXUXUXUXUXUXUXUXUXUXUXUXUXUXUXUXUXUXUXUXUXUXUXUXUXUXUXUXUXUXUXUXUXUXUXUXUXUXUXUXUXUXUXUXUXlXlXdX<X$.| ` | P.lXNXVXVXNXlX<X&.| ' 5 5 ' { #.$.*.=.=.=.=.=.*.#.` _ I UXUXUXUXUXUXUXUXUXUXUXUXUX",
"UXUXUXUXUX    . . : > 5 4 _ ' 4 3 : . . . . : > 5 ' ' UXUXUXUXUXUXUXUXUXUXUXUXUXUXUXUXUXUXUXUXUXUXUXUXUXUXUXUXUXUXUXUXUXUXUXUXUXUXUXUXUXUXUXUXUXUXUXUXUXUXUXUX&X>XH.O.| ' _  .>X4X4X4X&XD.C.M.X.| ` 5 > 3 5 _ ' ' ` { | #.#.} [ _ I ! &X-XUXUXUXUXUXUXUXUXUXUXUX",
"UXUXUXUXUX5 3 > , , , > 5 5 5 5 > : . . . : > 4 ' { } } UXUXUXUXUXUXUXUXUXUXUXUXUXUXUXUXUXUXUXUXUXUXUXUXUXUXUXUXUXUXUXUXUXUXUXUXUXUXUXUXUXUXUXUXUXUXUXUXUXUXUXn.b.E I 4 2 3 I #X:X-X$Xb.j.g.l Y ] _ 3 : : : : , , > 5 5 _ ' ' ^ 5 I E Z.$X$XUXUXUXUXUXUXUXUXUXUX",
"UXUXUX` { #.$.#.{ ' 4 5 3 > , : : . . . . , 5 ' #.*.*.$.#.#.UXUXUXUXUXUXUXUXUXUXUXUXUXUXUXUXUXUXUXUXUXUXUXUXUXUXUXUXUXUXUXUXUXUXUXUXUXUXUXUXUXUXUXUXUXUXUXUXUXb.z.L c , ; : I #X:X-XA.l.h.j l v b 5 , . . . . . . : : : : , > > , 1 v x.l.b.n.A.UXUXUXUXUXUXUXUX",
"UXUXUX;.-.jXxXgXsX*.#.{ ' 5 3 , : : . : : 3 _ { $.pXpX=.*.$.$.UXUXUXUXUXUXUXUXUXUXUXUXUXUXUXUXUXUXUXUXUXUXUXUXUXUXUXUXUXUXUXUXUXUXUXUXUXUXUXUXUXUXUXUXUXUXUXUXh.h.l i . X . P #X=X$Xc.h.0.j f v 5 2 : .         . . . . . : : : : < d k j.l.c.b.UXUXUXUXUXUXUXUX",
"UXUXUXxXvXmXSXDXMXxXaX=.$.| ' 5 3 , : , 3 4 ' } *.pXsXpX=.*.$.#.#.UXUXUXUXUXUXUXUXUXUXUXUXUXUXUXUXUXUXUXUXUXUXUXUXUXUXUXUXUXUXUXUXUXUXUXUXUXUXUXUXUXUXUXUXUXUXj j g UXUXUXUXUX$XA.c.h.j h UXUXUXUXUXUXUXUXUXUXUXUXUXUXUXUXUXUXUXUXUXUXUXUXh.h.h.UXUXUXUXUXUXUXUX",
"UXUXUXIXIXIXIXNXVXMXbXxXaX=.#.{ 4 3 > 3 5 4 ' { #.*.*.*.$.#.#.#.$.=.UXUXUXUXUXUXUXUXUXUXUXUXUXUXUXUXUXUXUXUXUXUXUXUXUXUXUXUXUXUXUXUXUXUXUXUXUXUXUXUXUXUXUXUXUXUXUXUXUXUXUXUXUXc.l.j.0.UXUXUXUXUXUXUXUXUXUXUXUXUXUXUXUXUXUXUXUXUXUXUXUXUXUXUXUXUXUXUXUXUXUXUXUXUX",
"UXUXUX9X6X%XZ.L.lXMXmXbXgXsX*.} ' 5 > 3 5 5 4 ' ` { { ` ' { | #.;.-.*.| _ 5 UXUXUXUXUXUXUXUXUXUXUXUXUXUXUXUXUXUXUXUXUXUXUXUXUXUXUXUXUXUXUXUXUXUXUXUXUXUXUXUXUXUXUXUXUXUXUXUXUXh.h.h.UXUXUXUXUXUXUXUXUXUXUXUXUXUXUXUXUXUXUXUXUXUXUXUXUXUXUXUXUXUXUXUXUXUXUXUXUXUX",
"qX9X6X;X=Xb.j.B.I.hXgXaX=.;.} ` 5 , : : , > > 3 5 5 5 5 5 _ ` | @.#...W U L v.Z.UXUXUXUXUXUXUXUXUXUXUXUXUXUXUXUXUXUXUXUXUXUXUXUXUXUXUXUXUXUXUXUXUXUXUXUXUXUXUXUXUXUXUXUXUXUXUXUXUXUXUXUXUXUXUXUXUXUXUXUXUXUXUXUXUXUXUXUXUXUXUXUXUXUXUXUXUXUXUXUXUXUXUXUXUXUXUXUX",
"9X8X:X%Xb.h.k l X.&.$.@.{ ' 4 3 : . . . . . : : : : : : , 3 _ ' ' _ b v L j.c.n.n.UXUXUXUXUXUXUXUXUXUXUXUXUXUXUXUXUXUXUXUXUXUXUXUXUXUXUXUXUXUXUXUXUXUXUXUXUXUXUXUXUXUXUXUXUXUXUXUXUXUXUXUXUXUXUXUXUXUXUXUXUXUXUXUXUXUXUXUXUXUXUXUXUXUXUXUXUXUXUXUXUXUXUXUXUXUXUX",
"3X:X%Xb.j.0.g l P ` ' ) 5 2 , : .             . . . . . . : > 3 > : = d k 0.h.z.c.n.A.UXUXUXUXUXUXUXUXUXUXUXUXUXUXUXUXUXUXUXUXUXUXUXUXUXUXUXUXUXUXUXUXUXUXUXUXUXUXUXUXUXUXUXUXUXUXUXUXUXUXUXUXUXUXUXUXUXUXUXUXUXUXUXUXUXUXUXUXUXUXUXUXUXUXUXUXUXUXUXUXUXUXUXUXUX",
"%X$Xn.k.0.j g f v c 1 > : : . .                         . . : : .   O q f j 0.h.z.b.n.n.UXUXUXUXUXUXUXUXUXUXUXUXUXUXUXUXUXUXUXUXUXUXUXUXUXUXUXUXUXUXUXUXUXUXUXUXUXUXUXUXUXUXUXUXUXUXUXUXUXUXUXUXUXUXUXUXUXUXUXUXUXUXUXUXUXUXUXUXUXUXUXUXUXUXUXUXUXUXUXUXUXUXUXUX",
"l.z.z.UXUXUXUXUXf d d UXUXUXUXUXUXUXUXUXUXUXUXUXUXUXUXUXUXUXUXUXUXUXUXUXUXUXUXUXj.j.k.k.UXUXUXUXUXUXUXUXUXUXUXUXUXUXUXUXUXUXUXUXUXUXUXUXUXUXUXUXUXUXUXUXUXUXUXUXUXUXUXUXUXUXUXUXUXUXUXUXUXUXUXUXUXUXUXUXUXUXUXUXUXUXUXUXUXUXUXUXUXUXUXUXUXUXUXUXUXUXUXUXUXUXUXUX",
"g.g.g.UXUXUXUXUXg g g UXUXUXUXUXUXUXUXUXUXUXUXUXUXUXUXUXUXUXUXUXUXUXUXUXUXUXUXUXUXg.g.g.UXUXUXUXUXUXUXUXUXUXUXUXUXUXUXUXUXUXUXUXUXUXUXUXUXUXUXUXUXUXUXUXUXUXUXUXUXUXUXUXUXUXUXUXUXUXUXUXUXUXUXUXUXUXUXUXUXUXUXUXUXUXUXUXUXUXUXUXUXUXUXUXUXUXUXUXUXUXUXUXUXUXUXUX"
};
