/* XPM */
static const char *bos2b2[] = {
/* columns rows colors chars-per-pixel */
"128 128 250 2 ",
"   c #0C0C0C",
".  c #040404",
"X  c #141415",
"o  c #1C1C1C",
"O  c #161619",
"+  c #111111",
"@  c #291C13",
"#  c #1C3814",
"$  c #2B230F",
"%  c #2D2511",
"&  c #28251C",
"*  c #332B13",
"=  c #3C2E16",
"-  c #342A1B",
";  c #3C321B",
":  c #3C3118",
">  c #322910",
",  c #1D1E21",
"<  c #242424",
"1  c #2C2A24",
"2  c #2C2C2C",
"3  c #262729",
"4  c #342D25",
"5  c #3D3423",
"6  c #33312B",
"7  c #383428",
"8  c #2D2E32",
"9  c #343333",
"0  c #3C3C3C",
"q  c #373837",
"w  c #2C342E",
"e  c #1E2023",
"r  c #7C0202",
"t  c #6A1D1D",
"y  c #462B15",
"u  c #433219",
"i  c #4A361B",
"p  c #4D391D",
"a  c #423117",
"s  c #523C1E",
"d  c #59371B",
"f  c #52280D",
"g  c #672A06",
"h  c #742B00",
"j  c #702700",
"k  c #7B3302",
"l  c #7A3606",
"z  c #6B3913",
"x  c #453826",
"c  c #553D21",
"v  c #593F23",
"b  c #433E35",
"n  c #4D2D26",
"m  c #6F332E",
"M  c #421B04",
"N  c #254F1B",
"B  c #314B2D",
"V  c #346929",
"C  c #376F2C",
"Z  c #784615",
"A  c #49442A",
"S  c #5C4222",
"D  c #564426",
"F  c #494539",
"G  c #574836",
"H  c #5A5633",
"J  c #634525",
"K  c #6D4B29",
"L  c #684828",
"P  c #724D2B",
"I  c #774C29",
"U  c #6A5829",
"Y  c #7C522E",
"T  c #765428",
"R  c #665838",
"E  c #7C5532",
"W  c #6A4B35",
"Q  c #766936",
"!  c #736932",
"~  c #55431E",
"^  c #3C3E41",
"/  c #3F4041",
"(  c #434344",
")  c #4B4B4B",
"_  c #484747",
"`  c #544A47",
"'  c #58534A",
"]  c #535353",
"[  c #5B5B5B",
"{  c #595756",
"}  c #4D5050",
"|  c #665A49",
" . c #645B56",
".. c #734C47",
"X. c #676159",
"o. c #74695C",
"O. c #73684B",
"+. c #5F6062",
"@. c #636464",
"#. c #6C6C6C",
"$. c #686867",
"%. c #766B67",
"&. c #797268",
"*. c #747474",
"=. c #7C7C7C",
"-. c #787677",
";. c #6E7071",
":. c #576856",
">. c #970606",
",. c #971818",
"<. c #870707",
"1. c #A80303",
"2. c #B80303",
"3. c #B21818",
"4. c #833C04",
"5. c #872929",
"6. c #903131",
"7. c #AD3333",
"8. c #C30000",
"9. c #CB0101",
"0. c #DC0000",
"q. c #D30000",
"w. c #CB1212",
"e. c #EB0101",
"r. c #E40101",
"t. c #F50303",
"y. c #EC1313",
"u. c #DF2D2D",
"i. c #8D4B0B",
"p. c #884408",
"a. c #94540E",
"s. c #9B5C13",
"d. c #965816",
"f. c #8C4E10",
"g. c #9C6216",
"h. c #9D620E",
"j. c #A56D1A",
"k. c #A26716",
"l. c #AC761D",
"z. c #B1791B",
"x. c #85572D",
"c. c #825631",
"v. c #8C5C35",
"b. c #865A34",
"n. c #915E36",
"m. c #885430",
"M. c #9B653C",
"N. c #966339",
"B. c #90712D",
"V. c #AA7925",
"C. c #B17E21",
"Z. c #A26A3E",
"A. c #A4722E",
"S. c #914D4D",
"D. c #8C7351",
"F. c #A96D42",
"G. c #B67549",
"H. c #A6774B",
"J. c #847A77",
"K. c #8E7568",
"L. c #AB6F6C",
"P. c #A74B4B",
"I. c #C37D4E",
"U. c #D85D5D",
"Y. c #3C822F",
"T. c #439037",
"R. c #4CA53F",
"E. c #53AE48",
"W. c #6B9766",
"Q. c #6BD563",
"!. c #90873B",
"~. c #B48324",
"^. c #B88A28",
"/. c #BD922C",
"(. c #BA912B",
"). c #A78837",
"_. c #B89736",
"`. c #AB8D33",
"'. c #BCA23B",
"]. c #C3992E",
"[. c #C49D32",
"{. c #C19D3E",
"}. c #CAA434",
"|. c #CAA939",
" X c #D3B33D",
".X c #D9B93E",
"XX c #D1AD38",
"oX c #968D4C",
"OX c #A99250",
"+X c #B9AE49",
"@X c #948675",
"#X c #A98E71",
"$X c #9BAA72",
"%X c #CC8957",
"&X c #C9B347",
"*X c #D5B943",
"=X c #C8AB48",
"-X c #C8AF72",
";X c #DCC54A",
":X c #D4CB55",
">X c #E2CB4B",
",X c #E9D855",
"<X c #E6D152",
"1X c #F3E65D",
"2X c #EEE15D",
"3X c #F4EC63",
"4X c #F9F368",
"5X c #EEE862",
"6X c #CAC17D",
"7X c #7E7F81",
"8X c #7F8181",
"9X c #848484",
"0X c #8C8C8C",
"qX c #888887",
"wX c #968987",
"eX c #939394",
"rX c #9B9C9C",
"tX c #989897",
"yX c #8F918D",
"uX c #A49B97",
"iX c #A99188",
"pX c #B3A68E",
"aX c #9E9FA1",
"sX c #9FA1A2",
"dX c #A4A4A4",
"fX c #ABACAC",
"gX c #A6A7A7",
"hX c #B3B3B3",
"jX c #BBBBBB",
"kX c #B8B8B7",
"lX c #B2AEAC",
"zX c #C7B28C",
"xX c #C7B8B1",
"cX c #CC8F8F",
"vX c #D3C69E",
"bX c #BDBEC0",
"nX c #BDC1C1",
"mX c #C3C3C3",
"MX c #CCCCCB",
"NX c #C8C8C7",
"BX c #D3D3D3",
"VX c #DCDCDC",
"CX c #DAD7D5",
"ZX c #CDD0CE",
"AX c #E4E4E4",
"SX c #EBEBEB",
"DX c #F0F0F0",
"FX c #E0D9CC",
"GX c None",
"HX c black",
/* pixels */
"GXGXGXGXGXGXGXGXGXGXGXGXGXGXGXGXGXGXGXGXGXGXGXGXGXGXGXe.e.e.e.r.0.q.8.2.7.L.uXgXfXfXfXfXfXfXfXhXhXkXkXkXkXkXkXkXkXjXjXmXmXmXmXNXNXNXZXBXZXxXU.u.t.t.t.e.e.e.r.r.r.0.0.q.q.9.9.8.8.8.8.8.8.8.GXGXGXGXGXGXGXGXGXGXGXGXGXGXGXGXGXGXGXGXGXGXGXGXGXGXGXGXGXGXGXGXGXGX",
"GXGXGXGXGXGXGXGXGXGXGXGXGXGXGXGXGXGXGXGXGXGXGXGXGXGXe.e.e.r.0.q.8.3.3.6.S.K.wXeXtXtXtXrXrXdXdXfXfXfXfXfXfXfXfXfXfXhXkXkXkXkXkXjXnXnXxXxXcXU.U.u.t.t.e.e.r.0.0.q.9.9.8.2.2.2.1.1.1.1.1.1.1.1.>.GXGXGXGXGXGXGXGXGXGXGXGXGXGXGXGXGXGXGXGXGXGXGXGXGXGXGXGXGXGXGXGXGX",
"GXGXGXGXGXGXGXGXGXGXGXGXGXGXGXGXGXGXGXGXGXGXGXGXe.e.e.r.0.9.2.1.,.6.S.K.*.*.*.-.=.9XqX0XeXtXtXrXdXdXrXtXtXtXtXtXtXrXdXdXdXdXdXgXgXfXiXU.u.y.y.e.e.r.0.q.9.8.2.2.1.1.1.>.>.<.<.<.r r r r r r r r <.<.>.>.>.GXGXGXGXGXGXGXGXGXGXGXGXGXGXGXGXGXGXGXGXGXGXGXGXGXGXGX",
"GXGXGXGXGXGXGXGXGXGXGXGXGXGXGXGXGXGXGXGXGXGXe.e.e.r.q.8.2.1.,.6.S.K.wXtXaXrXrXaXdXdXfXfXdXgXfXlXhXfXfXdXrXrXrXrXtXeX0X0XyXyXyXiXL.U.u.u.t.e.e.0.q.9.2.1.1.7.7.P.P.S.6.6.6.m m m m m m m m m t t t t t t t n 4 GXGXGXGXGXGXGXGXGXGXGXGXGXGXGXGXGXGXGXGXGXGXGXGXGX",
"GXGXGXGXGXGXGXGXGXGXGXGXGXGXGXGXGXGXGXGXr.e.e.r.0.9.2.1.>.5...%.9XtXfXjXNXZXBXBXVXBXBXNXmXjXjXmXNXmXkXhXfXfXfXfXdXtX0XqXqX0XwXL.u.y.e.e.r.0.q.8.2.1.>.>.6.S.wXuXeX9X*.*.*.-.-.*.*.#.#.$.@. .[ { ] ] ` ) _ ( ( ( GXGXGXGXGXGXGXGXGXGXGXGXGXGXGXGXGXGXGXGXGXGXGXGX",
"GXGXGXGXGXGXGXGXGXGXGXGXGXGXGXGXGXGX` 5.3.q.0.q.8.1.,.5.m ..J.eXgXkXNXBXCXVXVXVXVXBXMXNXjXkXkXkXkXkXkXkXhXhXhXhXfXfXgXdXdXdXuXL.u.0.0.0.9.8.2.1.1.,.6.S.K.wXeXyX9X-.$.@.@.$.#.-.=.8X9X9X9X9XqXqX0X0X0X0XqXqX9X9XqXqX0XqX9X=.-.*.#.GXGXGXGXGXGXGXGXGXGXGXGXGXGXGX",
"GXGXGXGXGXGXGXGXGXGXGXGXGXGXGXGXGX_ _ m ,.8.9.2.1.>.5...%.8XtXfXjXNXBXVXVXVXVXBXBXNXNXjXkXkXkXhXfXlXhXhXkXkXkXjXbXnXxXxXnXjXlXiXU.u.w.2.1.1.>.,.,.S.K.wXtXyXqX=.#.@.[ ] ] [ $.-.9X0XtXtXrXdXfXkXjXmXNXNXNXNXmXkXfXdXtXeX0XqX=.-.*.#.#.GXGXGXGXGXGXGXGXGXGXGXGXGX",
"GXGXGXGXGXGXGXGXGXGXGX9X=.#.@.] } _ _ m ,.2.8.1.>.<.6.K.yXsXfXhXjXNXBXBXVXVXBXBXMXNXmXmXmXmXmXjXkXkXhXhXhXjXNXBXBXMXNXNXNXNXxXlXiXL.P.6.>.>.5.S.K.J.qX0XqX=.#.$.[ ] ] [ @.#.=.qXeXrXdXhXkXmXMXBXVXVXAXAXAXAXAXVXBXNXjXhXfXrXeXqX=.-.*.*.#.@.] ] ) GXGXGXGXGXGXGX",
"GXGXGXGXGXGXGXGXGX=.qXqX=.#.[ ] } ) ` m ,.2.2.3.,.6.S.wXdXlXhXkXkXjXmXNXNXNXNXNXjXkXhXlXhXhXhXhXhXfXfXfXfXkXNXMXBXZXMXNXNXNXmXkXgXtXJ.S.6.5.S.K.qX0X9X=.*.$.[ ] ] ] [ @.*.9X0XtXrXfXhXmXMXBXAXAXSXSXDXDXDXDXDXSXAXVXBXNXjXhXdXtX0XqX=.=.*.#.[ ] ] ) GXGXGXGXGXGX",
"GXGXGXGXGXGXGX#.#.=.qX0X9X#.[ } } } ' m ,.1.3.P.L.iXrXrXdXfXhXkXkXkXfXfXfXhXkXhXdXtXeXqXqXqXqX0XeXtXrXdXfXfXhXkXjXNXMXMXNXmXkXlXdXtX0XJ.%.%.&.9XqX9X-.#.@.] ) ) ] [ $.*.9X0XtXdXfXhXjXNXBXVXAXSXSXDXDXDXDXDXSXSXAXAXVXBXNXjXhXdXrXtXeXqX9X=.#.@.] ) _ ( GXGXGXGX",
"GXGXGXGXGXGXGX*.-.=.qX0XqX#.[ ) ) ] { ..m t 5.S.wXrXrXtXeXrXfXkXjXkXhXlXhXhXhXfXrX0XqXqXqXqX0XtXrXfXhXkXjXjXkXkXkXkXjXjXkXkXhXhXfXfXrXqX-.;.-.=.=.-.#.[ ] ) _ _ ] @.;.=.qXeXrXdXfXkXmXNXBXVXAXAXSXSXSXSXSXSXSXAXAXVXVXBXNXjXhXfXdXtXeX0XqX=.*.$.[ ] ) _ _ GXGXGX",
"GXGXGXGXGXGXGX9X9XqX0X0X9X#.] ) ) ] [ ] ` ` ] $.J.qXqXqXqXeXdXkXmXNXNXNXmXjXhXfXrXeXeXtXrXdXfXkXmXNXBXBXBXBXMXmXkXfXdXdXdXfXlXkXmXmXhXeX-.$.#.*.*.#.[ ) _ ( ( ) ] $.-.=.qXeXtXdXfXkXjXmXNXBXBXVXAXAXAXAXAXAXVXVXVXBXMXNXjXkXfXdXtXeX0XqX9X-.#.@.[ ] ) ) ) GXGXGX",
"GXGXGXGXGX#.=.qXeXeX0XqX=.$.] ) _ ) ] @.-.qXyXtXtXtXeXqXqXeXdXkXmXNXBXMXNXkXfXdXdXdXfXkXmXNXMXMXMXBXBXBXMXNXjXhXgXtXeXeXrXfXkXmXNXNXkXtX=.#.$.$.$.[ ) 0 0 0 ( ) ] $.*.=.qXeXtXdXfXhXkXkXmXNXNXMXBXBXBXBXBXBXMXMXNXNXbXkXhXfXdXtXeX0XqX9X=.*.$.[ ] ] ) ) ) GXGXGX",
"GXGXGX@.$.#.=.eXrXtX0X=.*.@.] ) ( ( ) #.eXhXjXkXfXdXrXtXeXtXfXkXmXNXMXNXjXfXdXdXfXjXNXBXVXVXVXMXNXbXjXjXkXhXfXrXtXqXqXqXrXfXjXNXNXmXfXeX-.$.[ [ { ) 0 9 9 q 0 _ ] [ #.=.9X0XtXrXdXfXfXhXhXkXkXkXjXmXmXmXmXjXjXkXkXhXfXfXdXrXtXeX0XqX9X=.*.#.@.] ] ) ) _ ( GXGXGX",
"GXGXGX$.#.-.qXrXdXrXqX*.$.[ ] ) 0 0 ( { =.tXdXgXdXdXdXdXdXfXhXkXkXkXkXkXfXdXrXdXkXMXVXVXVXBXmXfXtXeXtXdXdXdXrXtXeX0XqX0XrXfXkXkXfXdX0X-.[ ] } ] } _ 0 2 2 9 0 ( ) ] @.#.=.qX0XeXtXrXrXdXdXdXgXfXfXfXfXfXfXfXfXfXdXdXdXrXtXtXeX0XqX9X=.-.#.$.[ ] ) _ ( 0 0 q 9 2 ",
"GXGXGX#.*.=.eXdXfXrX=.$.{ ] ) _ 0 2 2 0 ] *.9XeXrXdXfXhXhXkXkXhXfXgXdXrXrXrXdXhXNXVXVXBXNXhXtX=.@.[ @.#.=.9X0XeXeXeX0XeXtXrXrXtX0X=.#.[ ) _ _ ) ) ( 9 2 3 2 q 0 _ ) [ @.#.=.=.9XqXqXqXqX0X0XeXeXtXtXtXtXtXtXtXeXeX0X0XqXqXqX9X9X=.=.*.#.$.[ ] ) _ ( 0 0 q 9 2 2 ",
"GXGXGX=.=.qXtXfXfXtX-.[ ) ) ) ( 9 o O o 9 ) @.9XrXlXkXkXkXhXfXdXrXeXqXqXeXdXkXNXBXVXBXjXrX=.@.( 2 o o 2 q ] *.qXeXtXtXyXqX=.*.#.$.@.[ ] ) _ _ _ ( 0 2 < < < 2 q 0 _ ) ] @.$.#.#.#.#.#.#.#.*.-.=.=.=.=.=.=.=.-.-.*.*.#.#.$.$.@.$.@.@.@.[ [ ] ) ( 0 0 0 q 9 2 2 2 ",
"GXGXGX=.qXeXdXfXfXtX#.) ( _ ) ( 2 O     O 2 ) =.dXmXNXjXkXhXfXdXtX0X9XqXtXhXNXBXBXMXkXtX#.) 9 o   . .   o 0 @.=.0XeX0XqX=.#.$.$.#.#.#.@.[ ] ) _ 0 9 < o o < < 2 q 0 ( ) ) ] ] ] ] ] ] ] { [ [ [ @.@.@.[ [ ] ] ] ) ) ) ) _ _ ) ) ) ) ) ) _ ( 0 q q 9 2 2 2 < < < ",
"_ ) [ *.qXtXdXhXfXeX#.) 0 _ ) _ 9 O . .   o ( =.lXMXBXmXkXlXfXgXdXtX0XeXdXjXBXBXNXkXtX#.0 o           O < ( $.=.qX9X=.-.*.*.-.9XeXrXtX0X=.#.[ ) 0 2 < o o o < < 2 2 9 q 0 0 ( ( _ _ _ _ _ _ _ _ _ _ _ ( 0 0 0 q 9 9 9 9 9 9 q 0 0 0 q q 9 9 9 2 2 < < o o o o o ",
"( ) ] #.9XeXdXdXaX9X[ 0 q ( ) ) 0 <   . . O q #.dXmXmXkXfXdXrXtXtX0XqX0XdXkXNXmXfX0X#.) <   . .   X o 2 0 [ =.0XqX=.#.#.=.qXtXdXhXkXhXdXeX=.@._ 9 < o o O O O o o < < 2 2 2 9 9 q q q 9 9 9 9 q 0 0 _ ) ] [ @.$.$.@.[ ) ( q 9 2 2 2 2 2 2 < < < < o O O O O O O ",
"( ) ] #.9X0XtXtX0X*.) 9 2 0 ) ] _ 9 < o o < ( #.tXhXkXfXdXrXtXeX0XqX9XqXtXhXjXfX0X$.) 2 O       O < 0 ) $.9XtXdXtX=.$.#.9XdXkXmXNXmXkXfXtX9X@.F 2 o o o O O O O O O o o < < < < < < < < < 2 2 q ( ] $.-.qXtXdXfXfXfXtX9X$.) 0 q 2 2 < < < < o o o O o o o o o o ",
"] [ $.=.0XeXeXqX=.[ ( 2 2 0 ) ) ) ( ( ) [ *.qXdXjXMXMXNXjXkXlXdXrX0X9X9X0XdXfXrX=.] q < O O O < q ) $.qXtXdXfXfXtX=.$.#.qXfXmXNXmXkXfXdXeX=.[ 0 2 < 2 2 2 < < o O O O O O o o o o o O O < q ) #.9XeXdXhXjXNXBXBXMXNXkXfXtX9X#.] ( q 2 3 < o O O O o < < < 2 2 2 ",
"[ @.*.9XeXtXeX9X*.[ ( 2 2 9 ( ) ] [ #.=.tXhXNXBXAXAXAXVXBXMXmXhXdXtXqX9XqXtXdX0X#.) 9 2 < 2 0 ) @.=.tXhXmXmXkXfXtX=.#.#.0XfXmXmXkXfXrXyX9X#.] q 2 < 9 0 0 q 9 2 2 2 < < < < < < < 2 2 q ( [ 7XaXkXmXNXMXBXBXBXNXjXhXfXfXfXdXeX=.$.] _ 0 9 2 < < < 2 2 2 9 9 9 9 ",
"[ [ #.=.0XtXtXeXqX#.] 0 9 9 0 _ @.=.tXhXmXBXVXAXSXSXSXAXVXMXkXdXtXeXeXeXtXtXtXqX#.] _ _ ) ] #.=.tXfXmXMXBXmXfXeX=.#.$.*.0XfXjXkXfXtXqX=.#.[ _ 2 < < 2 q 0 _ ) ) ] ] ) ) ) _ _ ) ] [ #.qXtXfXkXjXmXjXkXhXdXtX0X9X-.*.*.=.qXtXtXtX0X9X*.@.] ) _ 0 0 ( _ 0 q 2 < < ",
") ] [ $.-.9XqXqXqX-.[ ) 0 q q ( [ =.tXhXNXVXAXSXSXSXAXBXNXfXeX=.-.=.0XtXrXaXrXeX=.#.$.#.-.9XtXfXjXNXMXMXmXfX0X-.#.$.#.-.0XdXfXdXtX9X-.$.[ ) 0 2 o o < 2 q b ) ] [ @.$.#.#.;.-.=.qXtXdXkXNXNXjXlXdXtXqX=.#.[ ] ) ( ( _ ] @.*.=.qX0X0XqX=.-.#.$.[ ] ] ) _ q 2 o O ",
"0 ^ _ ) ] [ @.#.#.#.@.] ) 0 q q ( ] #.0XhXBXAXSXSXVXNXfXeX-.] ( ( [ =.tXdXfXfXfXrXeX0XeXtXdXhXmXNXNXjXfXtX9X$.] [ $.-.=.qX0X0XqX=.#.[ ] _ 0 2 < o O O O o < 9 0 ) ] $.*.qXtXdXhXjXmXNXmXkXdX0X-.@.] _ 0 9 8 2 2 2 2 2 9 q / ) [ #.-.=.qXqXqX9X-.$.] _ 0 q GXGXGX",
"0 0 0 0 0 ( _ ) } ] } ) _ 0 9 2 8 q ) #.rXNXVXAXAXBXkX0X#.) 9 3 9 ] =.rXfXkXkXkXfXfXdXrXrXtXrXrXrXtXqX=.#.[ ] ) ] $.-.=.=.-.#.$.[ ] _ 0 2 < o O O O O O O O o < 2 0 _ ] @.;.=.qXyXeX0XqX=.#.[ _ 0 6 1 & & & & & & - 4 1 1 1 6 0 _ ] [ #.#.#.#.@.] ( q 2 2 GXGXGX",
"GXGXGX9 9 9 9 9 9 q q q q 6 2 3 < < 9 { qXkXBXVXBXNXrX*.) q 2 2 0 $.0XfXkXkXkXhXfXfXdXtXqX=.#.$.[ [ ] ] ) ) ) ] [ $.;.#.$.[ ) _ ( 0 2 < O X + X O O O O O O O O O o < < 2 2 9 q 0 0 q 9 6 2 2 2 2 4 5 u : = * * : : a : * * - 1 2 2 q 0 0 0 0 0 9 2 < o O GXGXGX",
"GXGXGX- - - 4 4 5 5 5 5 5 5 4 4 & & 2 ] 9XlXNXMXNXhX0X@.0 q 0 ) @.9XdXhXkXhXdXtX0X=.*.$.[ [ ] ] ] ] [ @.$.$.$.$.@.[ ] ) ( 0 9 2 < < o O O O O o & < < < < < < < & & & % - - - - - - - ; x x 5 5 5 x c S s p i i i s s i a = * * & - - - 4 4 1 - & & o GXGXGXGXGX",
"GXGXGX* * * : i p p p p p i i x 5 7 ( @.0XlXmXNXjXfXqX$.) ) @.=.qXtXdXfXfXrX0X=.#.[ ] ] ] ] [ @.#.#.-.=.=.=.-.#.$.] ) ( 0 9 2 2 2 2 2 2 2 2 9 q q q 9 9 9 9 q 9 7 5 a u i i p p p s v J L L J J J L P P K L S S S S S s i a = * * * * * * * % % % GXGXGXGXGXGXGX",
"GXGXGX> * = i v J J S v s S J L | o.=.eXfXjXNXNXNXjXgXeX9X9X0XtXrXrXtXeXqX*.$.@.$.#.-.=.qXeXeXeX0XqXqX=.*.$.{ ] ] [ $.$.$.@.@.@.@.$.$.$.$.$.@.[ [ ] ) ( 0 0 q 9 7 x s s s s S L I E Y Y Y c.n.M.M.v.Y P Y b.v.b.P J c c p i a = * * * = = * * * * GXGXGXGXGXGXGX",
"GXGXGX* * a c K Y Y P L L K Y b.D.wXdXhXbXNXMXMXMXNXjXhXfXdXdXdXtX0X9X-.#.@.@.#.=.0XrXdXfXfXfXrXeXqX-.$.[ ] ] ] @.-.qX0XyX0X0X0X0XqXqXqX=.=.*.#.@.[ ) ( 0 9 8 6 x v J J S S K b.M.F.M.v.c.n.F.I.I.F.b.Y c.M.F.M.b.L S c c c i a = * = = = = * * * GXGXGXGXGXGXGX",
"GXGXGX= : p L c.N.n.c.I Y x.n.F.K.iXgXkXNXBXBXBXMXNXmXkXhXdXtXqX=.#.[ [ $.=.0XrXfXkXkXkXfXtXqX-.$.] _ 0 _ [ -.0XtXdXdXdXdXdXdXtXeXqX=.-.#.@.] ) ( 0 9 2 2 3 3 6 x L Y Y P P Y M.G.G.G.M.v.M.G.%X%XG.N.c.v.M.F.Z.b.K S S S S s i a : : a a = * % % GXGXGXGXGXGXGX",
"GXGXGXu i c P N.Z.M.v.Y c.n.Z.H.#XiXdXhXmXZXBXBXMXNXjXkXfXtX9X#.@.[ [ #.=.tXfXkXjXkXhXdX0X=.$.] ( 0 q 0 _ [ =.eXtXtXeX0XqXqX7X-.#.[ ] ) _ ( 0 9 2 2 2 2 2 2 4 x D E v.v.b.Y v.F.G.I.G.M.n.M.G.%X%XG.M.v.n.F.G.F.v.P J S J J v p a : a a a = > % $ GXGXGXGXGXGXGX",
"GXGXGXp s S Y M.F.Z.v.Y c.n.Z.H.#X@XtXgXkXmXNXMXNXNXkXdXeX=.@.] ] $.9XtXdXkXjXkXfXtXqX-.$.] _ 0 9 q ( ] @.#.#.*.*.#.$.[ ] ) ( 0 9 2 < < < < < 2 2 9 0 ( F b x S K v.M.N.v.c.v.F.G.I.G.M.n.M.G.%X%XG.M.v.N.F.G.F.v.P J J J J S s u : a a a = * % $ GXGXGXGXGXGXGX",
"GXGXGXi p S Y M.F.Z.v.Y c.n.Z.H.H.K.qXeXdXhXkXjXjXkXrXqX*.@.[ [ $.=.tXdXfXfXfXrXqX-.#.@.[ [ [ [ [ $.*.9X0XeXeXeXqX=.*.$.] ( 9 2 < o o < 2 9 0 ) ] [ @.X.{ G D S K c.v.v.c.Y b.M.G.I.G.N.b.n.F.I.I.F.n.b.v.Z.F.Z.b.K S S S S c p a a a a a = * % $ GXGXGXGXGXGXGX",
"GXGXGXu i v P n.Z.M.v.Y Y v.M.F.D.o.;.=.0XrXdXfXdXrX9X$.] ] [ #.=.0XrXdXrXeXqX-.@.] ) ] [ $.*.=.qXtXdXfXhXkXkXkXfXrX0X=.+.) q 2 < < 2 9 ( ] $.=.qX0XqXJ.%.| D s d K Y Y P P Y n.F.G.Z.v.c.b.M.G.G.M.v.c.b.N.M.n.Y J S s s s p i a : a a : = > % $ GXGXGXGXGXGXGX",
"GXGXGX= a p J c.v.v.Y K P Y b.b...| { @.;.=.qX0X0X9X#.) ( ) @.=.qX0XqXqX=.;.@.] ( q 9 q ( ) [ $.-.9X0XtXrXrXrXtX0X9X*.@.) 0 2 < < 2 9 0 ) @.-.0XtXrXrXyXJ.X.G p i s v J K Y Y c.c.b.v.v.n.n.v.v.v.n.N.n.v.E I K L S S p i a : = = * * * * > % $ $ GXGXGXGXGXGXGX",
"GXGXGX= = i v P Y Y K J J K P P W G F _ ] [ $.#.#.#.{ ( 0 ( [ -.=.=.#.@.[ ) _ 0 9 2 2 2 q ^ ) [ $.*.=.qXqXqXqX=.-.#.[ ] ( 9 2 < < < 2 0 ) [ *.qXeXtXeXqX-.X.G p a a i c L Y Y P J J I v.M.N.c.P K Y v.N.b.K S s s S c p : * * * * * % % $ $ $ $ $ GXGXGXGXGXGXGX",
"GXGXGX= = i v K P P J S S S J J v x x x b ( ) } ] ] ) 0 0 0 ) ] [ ] _ 0 0 9 2 2 2 9 q ( ) [ $.*.=.9X0XeXtXeX0XqX=.#.@.] _ q 2 < < < < 2 0 ) [ #.*.-.*.#.X.' D i u a a p S K K J S S K E v.c.P J S L P I K S p i p p p i = * * * * * % % $ $ GXGXGXGXGXGXGXGXGXGX",
"GXGXGX= = a s J K L S s s s c s p u = : 4 6 9 0 0 ( 0 0 q q 0 0 0 0 q 9 9 q 0 0 _ ) ] $.*.9X0XtXrXdXfXfXfXfXdXrXeXqX-.#.[ ) 0 9 2 < < < 2 9 0 _ } ] ] ) _ F x u a = = u d S J S s s S K P K J s p s s d d i i a a a a : * * * * * > % $ $ $ GXGXGXGXGXGXGXGXGXGX",
"GXGXGX* * = i c S S s i i i p i i = * * * - - 4 6 9 9 2 2 2 2 2 2 9 q 0 _ ] [ $.#.*.=.qXtXdXhXjXNXNXNXNXNXNXmXjXhXdXeX9X-.$.[ ) 0 2 < o O o < 2 9 9 q q 7 7 x a a = a u p s s p i u i s S s p i u i i p p p i i a = * * * * * % % % $ $ $ $ GXGXGXGXGXGXGXGXGXGX",
"GXGXGX* * = a p s s i u a a u a : = * * * * * - - 1 < < < < < < < 2 2 q 0 ) ] [ [ $.#.=.qXtXrXdXfXfXfXfXfXfXdXdXtXqX=.-.#.@.] ) 0 9 < o O X O O o , , < 6 F | o.&.&.&.O.R D i u a a a a i D | %.&.J.&.&.o.o.X.| ' ` F b ; * > $ $ $ $ $ $ GXGXGXGXGXGXGXGXGXGXGX",
"GXGXGX* * * : i i i u a = a a = = * * * * * * * % % & o o , < < 2 < < < 2 2 9 q 0 0 _ ] [ $.#.*.-.-.-.-.-.*.#.#.@.[ ] ) ) _ ( 0 9 2 < O O O O O o O O < 0 $.0XfXjXmXkXuX%.G i u p x p p D O.wXkXMXZXNXxXhXgXuXyXqX@X%.' A ; % $ % % % GXGXGXGXGXGXGXGXGXGXGXGXGX",
"GXGXGX> * * = a i u a a = = = = = * * * > $ $ $ $ % & & < 2 9 q q 2 2 < < 2 2 9 q 0 ( _ ) ] ] [ [ [ [ [ [ ] ] ) _ 0 q 9 9 2 2 2 2 < < < o o o o < 2 0 ) [ -.0XtXaXrXeX-.{ F F ' o.J.@XwXiXpXpXzX-XzXzXvXvXzX6X-X#XOXD.R F 7 1 3 1 1 GXGXGXGXGXGXGXGXGXGXGXGXGXGX",
"GXGXGX; ; ; ; : a a a = = = = = : ; ; - * % % % % % & 1 9 0 _ ) ) ( q 2 2 2 9 q 0 _ ) ) ] ] [ @.$.#.#.#.#.@.[ ] ) ( q 2 2 2 2 < < < < < < 2 2 9 0 ] #.9XqX0XqXqX-.#.[ } _ _ ] =.rXjXMXCXFXvX-XOX/.[. X;X<X,X,X;XXX/.V.x.R F b 7 7 7 7 GXGXGXGXGXGXGXGXGXGXGXGXGX",
"( _ _ _ _ F b ; * > > > > > * * 5 F F F 0 6 1 & & & 1 9 b ] @.*.*.@.) 0 0 q 0 0 _ ] [ $.*.=.qXtXdXfXfXhXhXfXdXtXqX-.@.] ) ) ( 0 0 q 2 2 < 9 _ [ -.eXfXkXjXkXfXrXqX*.@.{ ] [ *.rXmXCXFXzX-X=X&X*X;X>X,X1X1X1X,X>X X[.(.V.B.B.T Z Z z z GXGXGXGXGXGXGXGXGXGXGXGXGX",
"0 0 ( ) ] ] ` F A A F F F F A F ` ] [ ] _ 0 2 < o o < 9 0 ] $.*.*.$.] _ 0 0 ( _ ] @.#.=.qXtXdXhXmXMXBXVXVXBXNXjXfXtXqX-.#.$.[ ] ) ( 0 9 9 0 [ =.tXfXmXMXMXmXhXsXqX*.@.@.#.=.yXgXxXxXzX%X(.[..X,X5X4X4X4X3X2X<X;X X[.(.^.C.l.k.a.i.p.p.GXGXGXGXGXGXGXGXGXGXGXGXGX",
"2 2 q ^ ) ] X.$.*.J.0XeXyXqXJ.*.#.$.[ ) 0 9 3 < o o < < 2 q ( ) ) ( 0 q 0 0 ) ] [ #.-.9XqX0XtXdXhXkXNXNXMXNXjXhXdXtXqX9X=.=.-.#.[ } ) ) ) ] $.=.qXtXdXfXfXrX0X8X#.] ] $.0XfXlX#XH.Z.A._.|.;X,X3X4X4X3X2X<X*XXX}./.^.C.l.j.k.s.i.p.p.p.GXGXGXGXGXGXGXGXGXGXGXGXGX",
"o o < 2 0 ( ) [ $.*.8XqXqX7X-.#.[ ] _ 0 2 < , o O o o < < 2 9 q 0 q 9 9 9 0 ( ) ] @.#.#.*.-.=.qX0XtXrXdXdXdXrXtX0XqX9X=.-.*.#.@.] ) _ _ ) ] [ $.;.-.7X7X=.;.@.{ } ) ] *.dXmXxX#Xn.i.h.^.XX;X,X1X5X2X<X;X X}./.^.C.l.j.k.s.a.i.p.4.4.l GXGXGXGXGXGXGXGXGXGXGXGXGX",
"O O O < < 2 9 q 0 ( ( _ _ ( 0 0 9 2 < < o o o O o o < 2 2 q 0 ( ( 0 q 9 2 2 9 q 0 _ ) ) ] ] [ [ @.$.#.*.-.-.*.*.*.;.#.#.@.] ) _ 0 q 9 9 9 q ( ) ] [ X.X.{ ) F 0 ( ) [ 9XfXMXxX#XN.i.s.z.].XX*X*X*X*XXX}./.^.~.l.j.k.s.a.i.p.4.k k h h GXGXGXGXGXGXGXGXGXGXGXGXGX",
"< 2 9 0 ) [ $.#.*.*.*.#.$.[ ) ( q < < < 2 9 9 2 2 2 9 0 ( ) ] ] ] ) 0 q 2 2 2 2 9 q 0 0 0 0 0 ( ( _ ) ] ] ] ] ] ] ] ) ) ( 0 9 2 2 3 < , , 3 A R D.oXOXOXOXoXB.Q O.X.;.0XhXNXxX#Xn.p.i.k.z.~.^.^.^.~.z.j.k.k.g.s.s.a.i.p.4.l k h h h h GXGXGXGXGXGXGXGXGXGXGXGXGX",
"( ) [ #.qXrXfXjXNXNXjXkXdXeX=.$.) 0 2 q _ ] ] ) 0 0 ( ) ] [ @.$.@.] ) 0 0 q q 0 0 0 ( ( ( ( _ _ _ ) ) } ] ] ] ) ) ( 0 q 9 2 2 2 < < < o & ; U ).&X<X1X3X5X,X;X=XOX@XwXtXfXkXlXK.c.l l i.d.s.s.s.s.a.i.p.p.p.p.p.p.p.4.l k h h h h h GXGXGXGXGXGXGXGXGXGXGXGXGXGX",
"#.*.9XtXkXNXBXVXAXAXVXBXNXhXtX9X$.) ( ) @.-.-.$.] _ ( _ ) ) ) ] ] ] ) ) ] [ $.#.*.-.=.9XqX0XyXeXeXtXtXeXeXqX9X=.*.#.@.[ ] ] ) ( ^ 0 F H Q !.+X:X2X4X4X3X2X>X.X&X-XzXhXhXgXtXqXo.G c c v J L Z l 4.4.k k k k k k k k k k h h h h GXGXGXGXGXGXGXGXGXGXGXGXGXGXGXGX",
"qX0XrXhXMXVXAXSXSXSXAXVXBXmXfXtX=.[ ] [ =.0X0X=.[ ) ( 0 0 0 0 ( _ ) ] @.#.=.0XtXrXdXfXkXmXNXBXBXBXBXBXMXNXjXhXdXtXeXqX9X=.*.#.X.{ | O.oX=X;X,X3X4X4X5X<X;XXX[.{.-XvXMXbXaX9X;.@.[ [ { { ] ` L z z g g g g h h h h h h h h h h GXGXGXGXGXGXGXGXGXGXGXGXGXGXGXGXGX",
"9XqXtXfXNXVXAXSXSXAXAXVXMXjXfXtX=.@.] @.9XtXtX9X@.) _ 0 0 0 0 _ ) ] @.#.=.0XrXfXfXkXjXNXBXVXAXAXSXSXAXVXBXNXjXhXfXdXtXeX9X-.%.o.D.)._.|.*X;X<X2X2X,X;X X[.~.l.V.OXpXkXfXeX=.-.9XtXdXdXaXtXqX&.| G b x x f g h h h h h h h h h GXGXGXGXGXGXGXGXGXGXGXGXGXGXGXGXGX",
"*.=.qXdXjXMXBXVXVXVXBXMXNXkXdXeX-.[ ] [ =.0XqX-.[ ) 0 0 q q 0 0 _ ] [ #.=.qXtXdXfXkXjXNXZXBXVXAXAXAXAXVXBXNXjXhXfXdXrXeX7X;.$.D.)._.}.XX X*X;X>X;X*X}./.~.V.A.H.#X@XeXeX0XqXtXfXNXMXNXhXsXyX7X;.[ ) ^ 9 4 y f g g j h h h h h GXGXGXGXGXGXGXGXGXGXGXGXGXGXGXGXGX",
"@.#.=.eXfXkXNXNXMXMXNXmXkXfXrXqX#.] _ ) @.*.#.[ ) 0 q 2 2 2 2 9 q 0 ) ] @.-.qXeXrXdXfXkXjXNXNXBXBXBXBXMXNXjXfXdXrXtXeX9X;.[ { O.!._.}. X X*X XXX}./.z.j.A.#XpXpXyX*.$.-.eXfXmXBXVXBXkXyX*.$.#.*.#.[ ) 0 2 & @ $ f g h k GXGXGXGXGXGXGXGXGXGXGXGXGXGXGXGXGXGXGXGX",
"] [ #.qXrXfXkXjXmXmXjXkXlXdXtX9X$.) 0 0 ) [ [ ] _ 0 9 2 < 2 2 9 q 0 0 _ ] +.#.=.qXeXrXdXfXfXkXjXmXjXkXkXfXdXtX0X9X=.*.$.] _ F R B./.}.XXXX|.].(.~.V.A.H.@X@XqXqX-.#.#.=.rXkXmXbXlXuXL.P.6.6... .[ ) 0 9 3 o O X $ f h GXGXGXGXGXGXGXGXGXGXGXGXGXGXGXGXGXGXGXGXGX",
") ] @.=.eXdXfXhXkXkXhXfXdXtX0X=.@._ q 0 ) ] [ ] ) _ 0 9 2 9 0 ( _ ( 0 0 ( ) [ $.*.=.qXqX0XtXtXdXdXdXrXtXqX9X-.#.$.[ ] ) / q b R B._.[.[.[./.~.j.j.H.#XiXyX*.[ ) ] $.=.yXdXhXfX0X$.' 6.3.w.w.5.n 0 9 2 < o O O X GXGXGXGXGXGXGXGXGXGXGXGXGXGXGXGXGXGXGXGXGXGXGXGX",
") ) [ #.qXeXrXdXdXdXdXdXtX0X9X*.[ _ 0 _ [ *.-.#.@.[ ] ) ) ) [ #.$.[ ) ( ( ( ) ) ] [ $.#.#.*.=.9XqXqX=.-.#.[ ] ) ) [ $.$.@.[ { | O.D.D.D.D.D.D.D.D.D.%.#.$.@.+.[ [ [ @.*.qXtXtX9X#. ...5.,.5.m ` ( 8 < O X X X GXGXGXGXGXGXGXGXGXGXGXGXGXGXGXGXGXGXGXGXGXGXGXGXGX",
"_ ) ] $.=.qX0XeXtXtXtXeX0X9X-.#.] ) ) [ =.tXtX0X=.#.$.$.#.-.qXeX0X=.$.] _ ( 0 0 0 ( _ ) ) ] [ @.$.$.@.[ ] ) 0 0 } #.9XqXqX=.*.#.@.X.@.#.*.=.9XqXqX*.] 0 ( [ *.=.#.] ) ] $.-.=.=.-.#.[ _ 0 0 ( ) _ 0 4 & & GXGXGXGXGXGXGXGXGXGXGXGXGXGXGXGXGXGXGXGXGXGXGXGXGXGXGX",
"_ ) ] @.#.=.9XqX0X0X0XqX9X-.#.@.[ [ @.=.tXhXhXtX9X*.-.=.0XtXfXkXkXdXqX*.[ _ q 9 9 q q 0 0 ( ( _ _ _ 0 0 0 _ ] $.=.0XtXtX0X=.*.#.#.#.=.0XsXfXfXgXrX7X+.) ) [ *.=.*.@.] ] ] ] [ [ [ ] _ 0 8 3 3 3 6 D U B.B.GXGXGXGXGXGXGXGXGXGXGXGXGXGXGXGXGXGXGXGXGXGXGXGXGXGXGX",
"( _ ) ] @.#.-.=.9X9X=.=.*.$.+.[ $.*.9XtXfXjXkXrX9X-.=.0XrXhXmXBXMXjXfX0X*.] 0 9 2 2 2 2 9 9 9 8 2 9 9 q 0 ] #.=.qXeXtXtX0X9X=.=.=.qXtXfXjXNXNXjXfXtX-.@.[ [ @.$.@.[ ] ) _ ( 0 0 0 q 8 3 < & & ; ~ ! ).].}.GXGXGXGXGXGXGXGXGXGXGXGXGXGXGXGXGXGXGXGXGXGXGXGXGXGXGX",
"0 0 ( ) ] @.#.*.*.*.#.$.@.[ [ @.-.0XdXfXkXkXfXtX=.*.=.qXrXhXNXVXVXMXjXdXqX#.] _ q 2 2 < < < < o < 2 ( [ #.#.*.*.*.-.=.=.qXtXrXdXdXfXfXhXkXjXmXmXjXfXtX=.#.] ) ( ( _ _ ( 0 8 2 < < < o O O ; U !._._.[.[.[.GXGXGXGXGXGXGXGXGXGXGXGXGXGXGXGXGXGXGXGXGXGXGXGXGXGXGX",
"9 9 0 ( ) ] [ [ @.[ ] ] ) ] ] $.9XdXkXjXjXkXfX0X=.*.=.eXdXjXBXAXAXVXZXjXdXqX#.] ( 9 < < o o < 2 0 ) #.qX0XqX=.#.@.[ ] @.=.tXfXjXNXNXNXmXkXkXkXkXhXfXrX0X=.[ _ q 9 9 9 2 3 < o O X O & 5 H Q `.&X*XXX[.(.(.GXGXGXGXGXGXGXGXGXGXGXGXGXGXGXGXGXGXGXGXGXGXGXGXGXGXGX",
"< 2 2 q ( _ ) ) ) _ ( 0 ( ) [ #.qXfXjXNXmXkXdX0X-.#.=.tXkXNXVXAXSXSXVXBXkXtX=.$.) 0 2 o O o 2 ) #.9XtXdXfXtXqX#.[ _ 0 ) $.0XfXmXBXVXVXMXjXhXdXtXeXeXtXeXqX#.] _ q 2 < O O O O + X & H !.&X;X;X*X X[.(.~.z.GXGXGXGXGXGXGXGXGXGXGXGXGXGXGXGXGXGXGXGXGXGXGXGXGXGXGX",
"< < 2 2 9 q q q q 9 2 9 ( [ -.0XdXkXNXNXjXhXrX9X#.$.=.tXkXNXVXAXAXAXVXBXjXdX0X-.@.) 0 2 , < 0 $.0XdXfXdXdXtX0X9X*.[ ) ] [ -.qXdXjXMXBXBXNXjXfXtXqXqXqXqX=.-.$.[ _ q 2 , O O & A ! !.+X:X,X,X>X X}.(.V.j.k.GXGXGXGXGXGXGXGXGXGXGXGXGXGXGXGXGXGXGXGXGXGXGXGXGXGXGX",
"3 3 2 2 2 2 2 2 9 2 2 q ) -.tXhXmXNXNXmXkXdX0X*.[ [ #.eXhXNXBXVXVXVXBXNXkXdXtXqX-.$.] 0 2 2 ) =.rXfXgXrXtXtXrXrXeX9X*.#.@.[ @.-.eXfXkXNXNXNXhXtXqX=.-.#.#.#.#.$.[ ) 0 2 , & A !.:X5X4X1X,X>X*X}.(.C.j.s.s.GXGXGXGXGXGXGXGXGXGXGXGXGXGXGXGXGXGXGXGXGXGXGXGXGXGXGX",
"2 2 2 9 0 ( ) [ @.$.$.#.=.tXkXNXBXBXMXmXfXtX=.@.) ) #.0XfXmXMXBXBXBXNXjXfXrX0X9X-.#.[ ) 0 0 ] -.tXdXdXdXdXhXkXjXkXgXtX9X$.] ) ] $.=.0XdXkXjXhXdX0X=.$.] ] ] [ [ ] ) ( 9 3 < A oX:X1X1X,X>X*X}.(.~.z.j.GXGXGXGXGXGXGXGXGXGXGXGXGXGXGXGXGXGXGXGXGXGXGXGXGXGXGXGXGX",
"2 9 q 0 ( ) +.*.=.9X9XqXtXfXNXBXBXBXMXkXdXqX*.] _ ) @.0XfXmXNXMXMXNXjXhXdXtXqX=.*.#.[ ) ( ( ] #.9X0XtXrXdXhXjXmXjXhXrXqX#.) 0 0 ( ) @.=.tXdXdXtX0X-.[ ( 0 0 ( _ _ ( 0 9 3 < A Q +X<X<X>X*X}./.~.l.l.GXGXGXGXGXGXGXGXGXGXGXGXGXGXGXGXGXGXGXGXGXGXGXGXGXGXGXGXGXGX",
"GXGXGX9 q 0 _ } [ +.$.#.9XdXmXBXBXMXmXfXeX=.@.) ( _ @.qXfXjXNXNXNXmXkXfXrXeXqX=.#.$.[ ) ( ( _ ] @.#.*.=.9X0XtXtXtX0X=.#.[ ) 0 9 2 9 0 ] #.-.=.9X=.#.) 0 9 9 q q q q q 2 , , 5 ! _.*X*X X}./.C.j.k.g.GXGXGXGXGXGXGXGXGXGXGXGXGXGXGXGXGXGXGXGXGXGXGXGXGXGXGXGXGXGX",
"GXGXGXB B B B B F } [ #.qXdXjXNXNXmXhXtX=.@.) ( 0 ( [ qXdXkXmXNXmXjXhXdXtX0X=.*.$.[ ] ) F 0 0 / _ ) { @.#.=.qXeX0XqX-.#.[ ) 0 2 < < 2 q _ ] [ $.$.[ _ 9 2 2 2 2 2 2 2 6 5 A U !.'.*X X}./.~.j.s.a.i.GXGXGXGXGXGXGXGXGXGXGXGXGXGXGXGXGXGXGXGXGXGXGXGXGXGXGXGXGXGX",
"GXGXGXV V V V V V :.;.qXrXfXkXjXkXfXtX=.@.) 0 q q ( [ =.tXfXkXjXjXkXhXdXtXqX-.#.[ ] ) ( 0 9 w 2 2 0 ) [ *.qXtXdXdXtXqX-.[ ) 0 2 < < < 2 q 0 ) ) ) _ q 2 < , o o o , 1 A Q ).|.&X*X X|.].~.j.s.i.p.p.GXGXGXGXGXGXGXGXGXGXGXGXGXGXGXGXGXGXGXGXGXGXGXGXGXGXGXGXGXGX",
"GXGXGXY.Y.Y.Y.Y.T.T.W.yXrXdXfXgXrX0X=.@.) 9 2 2 8 0 ] -.0XaXfXhXhXhXfXdXeX9X*.@.] ) 0 8 3 3 7 H ! Q | { [ #.=.qXqX=.;.@.] ( q 2 < o o < 2 9 q 0 0 q 2 < o O O O X O & A B.'. X.XXX[.(.V.k.s.a.i.p.GXGXGXGXGXGXGXGXGXGXGXGXGXGXGXGXGXGXGXGXGXGXGXGXGXGXGXGXGXGXGX",
"GXGXGXT.T.T.R.R.E.W.W.qXyXeXeX0X9X#.[ ) 0 6 3 3 2 q ) $.=.0XtXdXdXdXdXtX0X=.#.[ ) 0 2 < < 4 H !.&X+XoXR 0 ^ _ ] ] ] ) ) ( q 2 2 < o o o < < 2 2 2 2 < o O O O X X X & p x.`.].].~.z.k.a.i.p.GXGXGXGXGXGXGXGXGXGXGXGXGXGXGXGXGXGXGXGXGXGXGXGXGXGXGXGXGXGXGXGXGXGX",
"GXGXGXY.T.T.E.E.Q.Q.W.yX0XqX9X-.@.} ( F H U U D 4 2 0 ] #.=.qX0XeXtXeXqX=.#.[ ) q 2 6 A Q oX+X:X;X&XB.A 2 8 ^ ) ] ] { ] ) ( 0 2 < o O o o o < < < < o o O +   + > ~ U B.j.V.l.j.g.s.i.p.k k GXGXGXGXGXGXGXGXGXGXGXGXGXGXGXGXGXGXGXGXGXGXGXGXGXGXGXGXGXGXGXGXGXGX",
"GXGXGXC Y.T.E.Q.Q.Q.yXqX9X=.;.@.] F F U B._.`.! x < 2 ^ ] @.*.=.9X9X=.=.#.[ _ q 3 , 7 Q +X5X1X,X*X_.Q G q q / ) ] [ @.[ ] ) 0 9 < o O O O O O o O O O O O O O - S B.~.~.l.g.a.i.p.p.l k h h GXGXGXGXGXGXGXGXGXGXGXGXGXGXGXGXGXGXGXGXGXGXGXGXGXGXGXGXGXGXGXGXGXGX",
"GXGXGXC C T.E.Q.Q.Q.W.W.*.@.[ ' | Q B.`.|.*X+XB.x o , 8 ( ) [ #.#.*.#.#.[ ) 0 8 , O 4 ! +X,X,X*X[.`.oX&.#.{ _ 0 q 0 ( ( 0 9 < o O X       X X O O X X O < ^ { o.D.A.V.k.s.a.p.4.l k h h GXGXGXGXGXGXGXGXGXGXGXGXGXGXGXGXGXGXGXGXGXGXGXGXGXGXGXGXGXGXGXGXGXGXGXGX",
"GXGXGXV V Y.E.Q.Q.Q.W.$.{ ) ( F Q ).|.;X,X,X:XoX! A 4 6 9 0 _ ] [ +.@.[ ] _ 0 q 7 A R !.+X;X*X[.~.A.D.@X=.@.) 0 q 0 _ ) ) _ _ _ _ ( ( 0 0 0 0 0 q 9 2 6 ( @.9XwX@XN.d.i.p.4.l k h h l GXGXGXGXGXGXGXGXGXGXGXGXGXGXGXGXGXGXGXGXGXGXGXGXGXGXGXGXGXGXGXGXGXGXGXGXGX",
"GXGXGXN N V T.E.E.E.:._ 0 8 8 b Q OX;X2X4X4X5X<X&X).! A 1 3 8 0 _ ] ] ] ) 0 q H oX+X:X:X;X*X|.^.j.d.E ' } } } ] [ $.*.9X0XrXfXhXkXjXjXkXfXdXtX0X9X=.-.*.-.7XqX@XD.x.i.4.k k h h h l c.K.eXdXGXGXGXGXGXGXGXGXGXGXGXGXGXGXGXGXGXGXGXGXGXGXGXGXGXGXGXGXGXGXGXGXGXGX",
"GXGXGXN N N C T.E.T.V q 6 4 x S B.+X>X1X4X4X3X2X>X|.B.D & O e 2 0 ( ) ) / 9 q R OX,X3X2X;X}.^.j.a.Z d x q 0 _ ] @.#.=.0XrXhXmXMXVXAXAXVXBXNXkXgXtXeXyX0X0X0XqX@XK.D.b.Y I z z m L Y D.@XrXgXGXGXGXGXGXGXGXGXGXGXGXGXGXGXGXGXGXGXGXGXGXGXGXGXGXGXGXGXGXGXGXGXGXGX",
"GXGXGX# N N V Y.T.C B w 4 d Z g.V.[.*X>X<X,X<X>XXX(.B.p & O o < 2 9 0 0 q 8 9 H oX:X<X;X}.~.k.i.l g y 4 2 9 0 _ ] [ #.=.qXtXdXfXkXmXNXmXjXkXdXtXqXqX9XqXqX0XeXeX0X@XJ.&.X. . . .%.-.qXtXdXfXGXGXGXGXGXGXGXGXGXGXGXGXGXGXGXGXGXGXGXGXGXGXGXGXGXGXGXGXGXGXGXGXGXGX",
"GXGXGXGXGXN V V C V # & - d Z a.k.l.C.^./.].]./.~.j.f.z f > @ o , < 2 2 2 3 6 G B.+X X}.^.j.a.p.k g y - 2 8 q ( ] [ #.=.eXdXfXjXNXMXMXNXNXkXfXrXtXeXeXtXeXeXyXqX9X=.;.$.[ { [ #.=.qXeXrXdXdXGXGXGXGXGXGXGXGXGXGXGXGXGXGXGXGXGXGXGXGXGXGXGXGXGXGXGXGXGXGXGXGXGXGX",
"GXGXGXGXGXGXGXN N N # & - d z p.i.f.f.d.d.g.j.A.j.g.s.d.f.z y @ O O , < < < 3 A ! `.(.^.j.s.i.4.h g y - 2 8 q ( ] @.-.qXrXhXmXBXVXVXVXBXMXmXkXfXdXdXdXdXtX0XqX=.#.@.[ ] ) } [ #.9XeXtXtXtXtXGXGXGXGXGXGXGXGXGXGXGXGXGXGXGXGXGXGXGXGXGXGXGXGXGXGXGXGXGXGXGXGXGXGX",
"GXGXGXGXGXGXGX# # # w q b G R ..D.D.K.@X#X#XpXzXzXzXzXzXpXL.E d M @ @ O O O o ; U V.C.l.k.i.p.4.h g y - 3 2 9 0 ) [ #.=.0XrXfXjXNXZXMXNXjXhXfXrXtXyX0XqX=.-.#.@.] ] ) ) ] [ #.=.qXtXeXqXqXqX0XtXrXGXGXGXGXGXGXGXGXGXGXGXGXGXGXGXGXGXGXGXGXGXGXGXGXGXGXGXGXGXGXGX",
"GXGXGXGXGXGXGX# # w q ( ) } ] @.#.=.qXtXfXkXNXBXVXAXAXAXBXxX#Xv.z d x 6 2 2 6 x U B.B.g.f.l l k h g y - < 3 8 0 ( ) [ $.*.9X0XtXdXfXfXfXdXtX0XqX=.-.*.#.@.[ ] ) ) ) ) ] @.*.=.qX0X0XqX=.-.=.0XrXdXdXGXGXGXGXGXGXGXGXGXGXGXGXGXGXGXGXGXGXGXGXGXGXGXGXGXGXGXGXGXGX",
"GXGXGXGXGXGXGXGXGXGXw 9 q q 0 ( _ ] [ #.7XeXdXkXNXBXVXVXCXMXxXpXiX@XJ.=.-.*.#.$.X.| R G x u y f GXGXGXGXGX3 2 2 9 0 ( ) ] [ $.#.-.=.=.=.-.*.#.#.@.[ [ ] } ) ( ( _ ) ] $.=.qXeX0XqX=.-.#.#.=.eXdXhXkXGXGXGXGXGXGXGXGXGXGXGXGXGXGXGXGXGXGXGXGXGXGXGXGXGXGXGXGXGXGX",
"GXGXGXGXGXGXGXGXGXGX< < < < 2 2 2 9 0 ) [ #.=.eXaXfXhXhXhXfXgXaXtXeX0XqXqXqX7X-.$.] _ 0 8 3 < , GXGXGXGXGXGX< < < 2 9 0 0 ( _ ) ] ] ] ] ] ] ] ) ) _ ( ( 0 0 0 ( ] [ #.=.qXtXeXqX-.#.@.@.$.=.eXfXhXhXGXGXGXGXGXGXGXGXGXGXGXGXGXGXGXGXGXGXGXGXGXGXGXGXGXGXGXGXGXGX",
"GXGXGXGXGXGXGXGXGXGXo o o < < < 2 2 9 0 ) [ @.#.*.-.=.-.*.#.$.[ [ [ [ [ [ [ [ [ ] ) ( q 8 3 < O O X GXGXGXGXo o < < 2 2 9 q 0 0 0 0 0 0 0 0 0 0 q 9 2 2 9 q ( ] $.=.0XtXeXqX=.#.[ ] ] [ #.=.eXdXdXdXrXtXtXGXGXGXGXGXGXGXGXGXGXGXGXGXGXGXGXGXGXGXGXGXGXGXGXGXGXGX",
"GXGXGXGXGXGXGXGXGXGXO O o < < 2 q 0 ) [ #.=.qX0XeXeXyXqX9X-.#.[ ] ] ] ) ) ) ) ) _ ( 0 9 2 < & O O O GXGXGXGXGXO o o < < < 2 2 2 2 2 2 2 2 2 2 2 2 2 2 9 0 _ ] $.-.qX0XqX=.#.@.] _ ( ] $.-.9XqX0XeXtXtXtXtXGXGXGXGXGXGXGXGXGXGXGXGXGXGXGXGXGXGXGXGXGXGXGXGXGXGXGX",
"GXGXGXGXGXGXGXGXGXGXO o < < 9 0 ) [ #.qXrXkXNXMXBXBXMXNXkXfXtXqX=.*.$.[ { ] ) ) ( 0 q 9 2 < < o o O O GXGXGXGXGXGXo o o o o o o o o o o o o < < < 2 q ( ) [ #.*.-.=.-.#.[ ) ( 0 0 ( ] #.9XqX=.-.=.qXeXrXdXGXGXGXGXGXGXGXGXGXGXGXGXGXGXGXGXGXGXGXGXGXGXGXGXGXGXGX",
"GXGXGXGXGXGXGXGXGXGXO o < 2 0 ) [ #.9XtXkXMXVXAXAXSXAXAXVXBXNXkXfXrXeXqX=.-.#.$.[ ] _ 0 q 2 2 < o O O O GXGXGXGXGXGXGXO O O O O O o < < < < 2 2 9 0 0 ) ] [ $.#.$.[ ] ) ( q q q 0 _ [ #.=.-.#.$.#.=.0XtXrXGXGXGXGXGXGXGXGXGXGXGXGXGXGXGXGXGXGXGXGXGXGXGXGXGXGXGX",
"GXGXGXGXGXGXGXGXGXGXO o < 2 0 ) @.*.qXdXkXBXVXAXSXSXSXSXSXAXVXBXNXkXfXdXtXeXqX=.#.+.] ) 0 q 2 < o O O O X X GXGXGXGXGXGXGXX O O o < < < 2 2 9 9 q 0 ( _ ) ] ] ] ) ( 0 9 2 2 2 q _ ) [ @.#.$.@.[ @.*.9XqX0XGXGXGXGXGXGXGXGXGXGXGXGXGXGXGXGXGXGXGXGXGXGXGXGXGXGXGX",
"GXGXGXGXGXGXGXGXGXGXO o < 2 q _ ] $.=.eXfXmXBXVXAXAXAXVXVXBXNXkXfXdXtXqX9X=.-.#.[ ] ) 0 q 2 < < o O O O X X GXGXGXGXGXGXGXGXGXO O O O O o o < < < 2 2 2 9 q q q 2 2 < < < < 2 0 ) ] ] ] ] [ @.#.#.#.#.#.#.GXGXGXGXGXGXGXGXGXGXGXGXGXGXGXGXGXGXGXGXGXGXGXGXGXGXGX",
"GXGXGXGXGXGXGXGXGXGXGXo < < 2 q ( ] @.-.0XdXhXkXmXmXmXjXkXfXdXtXqX=.-.#.$.@.[ ] ) ( 0 q 9 2 < < o O O O O O GXGXGXGXGXGXGXGXGXGXX X X X X X O O O O o o < < < o o O O o < 2 0 _ ] ] ] ) _ ) [ #.#.@.[ ] ) GXGXGXGXGXGXGXGXGXGXGXGXGXGXGXGXGXGXGXGXGXGXGXGXGXGXGX",
"GXGXGXGXGXGXGXGXGXGXGXGXGX< < 2 9 0 _ ] @.*.=.9XqXqXqXqX9X=.*.#.@.[ ] ) ) _ ( 0 q q 9 q q q 9 2 < o o O O o < < < GXGXGXGXGXGXGXGXGXGXX X X X X O O O O o o o O O O O < 9 ( ) ] ] ] ) _ ( _ ) ] ] ) _ 0 0 GXGXGXGXGXGXGXGXGXGXGXGXGXGXGXGXGXGXGXGXGXGXGXGXGXGXGX",
"GXGXGXGXGXGXGXGXGXGXGXGXGXO o o < 2 9 0 ) ] [ [ @.@.$.@.@.[ ] ] ) _ 0 0 q 9 9 9 q 0 0 ( ( 0 q 2 < < < < < < 2 2 2 GXGXGXGXGXGXGXGXGXGXGXX X X X O O O < < < 2 3 < o o < q _ ) ] ] ) _ 0 q q 0 0 0 q 9 2 2 GXGXGXGXGXGXGXGXGXGXGXGXGXGXGXGXGXGXGXGXGXGXGXGXGXGXGX",
"GXGXGXGXGXGXGXGXGXGXGXGXGXGXO O o < 2 9 0 ( _ ) ) ) ) ) ) ) ) _ ( 0 q 9 9 9 9 0 ) ] [ ] ) _ 0 2 < < 2 9 q q q q q GXGXGXGXGXGXGXGXGXGXGXGXGXGXX O O < 2 9 0 0 0 q 2 < 2 q 0 _ _ _ ( 0 9 2 3 3 2 < < < o o GXGXGXGXGXGXGXGXGXGXGXGXGXGXGXGXGXGXGXGXGXGXGXGXGXGXGX",
"GXGXGXGXGXGXGXGXGXGXGXGXGXGXGXO O o < < 2 9 9 q q 0 0 0 0 0 0 0 0 0 0 0 _ ] [ $.#.*.#.@.) ( 0 9 9 q ( ) ) ) 0 q q GXGXGXGXGXGXGXGXGXGXGXGXGXGXX O O O < 2 9 0 0 q 2 2 2 9 q 0 0 0 q 9 2 < o o o o o < < 8 0 ] GXGXGXGXGXGXGXGXGXGXGXGXGXGXGXGXGXGXGXGXGXGXGXGXGX",
"GXGXGXGXGXGXGXGXGXGXGXGXGXGXGXGXGXO O o < < 2 2 9 q 0 0 0 ( ( _ ) ) ] @.*.7XqX0XqX9X-.@.) 0 0 ( ) ] [ $.$.] ( 9 2 GXGXGXGXGXGXGXGXGXGXGXGXGXGXX X X X O O < 2 2 2 2 3 2 2 2 2 2 2 2 < < o O O o < 2 9 0 ) [ @.$.@.[ [ [ GXGXGXGXGXGXGXGXGXGXGXGXGXGXGXGXGXGXGXGX",
"GXGXGXGXGXGXGXGXGXGXGXGXGXGXGXGXGXO O O < < 9 0 _ ] [ #.-.=.qX0XtXrXdXdXdXdXdXeX9X#.[ ] ) ) ] $.-.=.=.*.@.) q < o GXGXGXGXGXGXGXGXGXGXGXGXGXGXGXGXX     X O O O o o & & o o o < < < o O O O < 2 q _ [ #.-.=.=.=.#.@.X.O.oX_.GXGXGXGXGXGXGXGXGXGXGXGXGXGXGXGXGXGX",
"GXGXGXGXGXGXGXGXGXGXGXGXGXGXGXGXGXX O O < 2 q ( ] @.-.qXtXdXhXjXNXNXNXNXkXdXeX=.#.] ] ] [ #.=.0XtXtX9X#.] ( 9 < < GXGXGXGXGXGXGXGXGXGXGXGXGXGXGXGXGX< < < < < o o o o O O O O O O O O O O < 2 0 ) $.=.0XtXtXeXqX;.[ | Q A.^./.GXGXGXGXGXGXGXGXGXGXGXGXGXGXGXGXGX",
"GXGXGXGXGXGXGXGXGXGXGXGXGXGXGXGXGXGXGXGXo < 2 q ( ] @.*.9XyXrXdXfXfXdXrXqX*.[ ] ) ] [ #.qXtXdXfXdXeX#.) q 9 q 0 0 GXGXGXGXGXGXGXGXGXGXGXGXGXGXGXGXGX@.@.[ [ ] ) 0 9 < o O O O o o < < < 3 9 F ] $.=.eXrXrXtXqX-.+.) F J Z d.j.~./.}.GXGXGXGXGXGXGXGXGXGXGXGXGXGX",
"GXGXGXGXGXGXGXGXGXGXGXGXGXGXGXGXGXGXGXGXO O < 3 9 0 ) ] @.#.-.=.=.=.-.#.[ ) 0 0 ) [ *.0XfXkXkXfXtX=.[ 0 9 q _ ] [ GXGXGXGXGXGXGXGXGXGXGXGXGXGXGXGXGXqXqX=.-.$.[ ) q 2 < o o o < < 2 2 9 0 _ ] @.#.9X0XeX0X9X-.@.) 0 6 u z p.s.j.C.~.~.GXGXGXGXGXGXGXGXGXGXGXGXGX",
"GXGXGXGXGXGXGXGXGXGXGXGXGXGXGXGXGXGXGXGXO O o < < 2 9 0 0 _ _ ) _ _ ( 0 0 q 0 ) @.=.tXfXmXNXhX0X#.] ) _ _ ] @.#.*.GXGXGXGXGXGXGXGXGXGXGXGXGXGX-.=.=.qXqX=.#.[ ) 0 9 2 < o o o < 2 q 0 ) ] [ @.#.#.*.-.*.#.@.[ ) 0 2 < o GXGXGXa.a.a.a.GXGXGXGXGXGXGXGXGXGXGXGXGX",
"GXGXGXGXGXGXGXGXGXGXGXGXGXGXGXGXGXGXGXGXGXO o o < < 2 9 q q 9 2 2 2 < 2 9 0 ) @.=.rXfXkXjXkXtX#.) 0 ) ] @.$.$.$.$.GXGXGXGXGXGXGXGXGXGXGXGXGX=.qX0X0X0XqX=.$.] ( q 9 2 < < < 2 q _ ] @.#.-.-.*.#.#.$.+.[ ] ) F 9 3 o O + GXGXGXGX4.GXGXGXGXGXGXGXGXGXGXGXGXGXGXGX",
"GXGXGXGXGXGXGXGXGXGXGXGXGXGXGXGXGXGXGXGXGXGXGX< < < 9 0 _ ( q 2 < < < 2 0 ) $.=.rXkXjXkXdXeX*.) q q ] #.-.#.[ ) _ GXGXGXGXGXGXGXGXGXGX@.$.*.qXrXfXdXtX9X*.[ ) 0 q 9 2 2 2 2 0 ) $.-.qXtXrXtX9X#.@.] ) _ 0 q 2 < o O O X GXGXGXGXGXGXGXGXGXGXGXGXGXGXGXGXGXGXGXGX",
"GXGXGXGXGXGXGXGXGXGXGXGXGXGXGXGXGXGXGXGXGXGXGXGX< 2 0 ) [ [ } ( 0 q q 0 ) $.=.eXfXkXhXrX9X#.] 0 q 0 ] #.*.@.) 0 q GXGXGXGXGXGXGXGX#.#.*.=.qXrXhXkXhXtX9X#.[ ) 0 q 8 2 2 2 q ) $.qXrXfXkXkXfXeX-.@.) 0 9 2 < o O O O GXGXGXGXGXGXGXGXGXGXGXGXGXGXGXGXGXGXGXGXGXGX",
"GXGXGXGXGXGXGXGXGXGXGXGXGXGXGXGXGXGXGXGXGXGXGXGX< 2 ( [ #.#.$.[ ] ) ) ) [ -.qXtXdXfXrX9X+._ 0 0 0 _ ] [ [ ] 0 9 2 GXGXGXGXGXGXGX[ [ $.-.9XeXdXhXkXdXeX=.$.] ) 0 q 2 2 2 2 q ) #.eXfXkXjXkXfXeX*.[ _ 9 < O O O X GXGXGXGXGXGXGXGXGXGXGXGXGXGXGXGXGXGXGXGXGXGXGXGX",
"GXGXGXGXGXGXGXGXGXGXGXGXGXGXGXGXGXGXGXGXGXGXGXGXGXGX_ ] [ @.#.*.#.$.[ [ $.=.0XtXtXeXqX#.) q q 0 _ ) ) ) ( q 2 o O GXGXGXGXGXGXGX0 ( ) ] @.#.-.=.=.-.#.[ ) _ 0 q 2 < < o < 2 0 ] #.=.qX0XqX=.$.) 0 9 < o O O X X GXGXGXGXGXGXGXGXGXGXGXGXGXGXGXGXGXGXGXGXGXGXGXGX",
"GXGXGXGXGXGXGXGXGXGXGXGXGXGXGXGXGXGXGXGXGXGXGXGXGXGXGX0 0 ) [ #.*.$.[ [ $.=.qXqXqX=.#.] 0 2 2 0 _ _ 0 q 2 < o O X GXGXGXGXGXGXGXq 0 _ ] @.#.#.#.$.[ ] _ 0 q 2 2 < o o o < 2 0 } $.*.=.=.*.@.) q 2 < o O O O O X GXGXGXGXGXGXGXGXGXGXGXGXGXGXGXGXGXGXGXGXGXGXGXGX",
"GXGXGXGXGXGXGXGXGXGXGXGXGXGXGXGXGXGXGXGXGXGXGXGXGXGXGX< < 9 ( ) ] ] ) ) [ #.=.-.#.[ ) 0 2 < < 2 9 9 2 < < o GXGXGXGXGXGXGXGXGXGX[ +.;.qXrXdXtXqX=.#.{ ) 0 w < o O O o < q _ [ =.tXgXgXrX0X-.] q < o O O O GXGXGXGXGXGXGXGXGXGXGXGXGXGXGXGXGXGXGXGXGXGXGXGXGXGXGX",
"GXGXGXGXGXGXGXGXGXGXGXGXGXGXGXGXGXGXGXGXGXGXGXGXGXGXGXGXO < 9 0 0 0 0 0 ( ) ] ] ) _ 0 9 2 < < < < < o O O O O GXGXGXGXGXGXGXGXGXO.D.@X#XpXzXpX#XK.o. .) 0 2 < O O o < 6 F | D.#XpXzXzXpX#XK.' q < o O X X GXGXGXGXGXGXGXGXGXGXGXGXGXGXGXGXGXGXGXGXGXGXGXGXGXGXGX",
"GXGXGXGXGXGXGXGXGXGXGXGXGXGXGXGXGXGXGXGXGXGXGXGXGXGXGXGXGXGX9 9 2 2 2 < 2 2 2 9 q 0 0 0 0 q 2 < O O O O O O X X X GXGXGXGXGXGXGXV.V.`.{.&X&X=X_.A.B.R ` / 8 < o o , 1 x T B.`.{.&X&X=X_.).B.U x 2 , O O X GXGXGXGXGXGXGXGXGXGXGXGXGXGXGXGXGXGXGXGXGXGXGXGXGXGXGX",
"GXGXGXGXGXGXGXGXGXGXGXGXGXGXGXGXGXGXGXGXGXGXGXGXGXGXGXGXGX] 0 2 < < < < < 2 q ( ) [ @.$.$.@.] _ 0 2 < o O O O O O GXGXGXGXGXGXGX^.(.}.*X<X<X>X X/.B.Q F 0 8 < o o e 4 U B.~.[..X>X<X>X.X[.A.U 5 < , O O GXGXGXGXGXGXGXGXGXGXGXGXGXGXGXGXGXGXGXGXGXGXGXGXGXGXGXGX",
"GXGXGXGXGXGXGXGXGXGXGXGXGXGXGXGXGXGXGXGXGXGXGXGXGXGXGX#.$.] ( 2 < < < 2 q _ [ #.=.0XtXtXtX0X9X*.@.} 0 2 < < < 2 2 GXGXGXGXGXGXGX(.].XX>X5X3X2X>X&X).Q F q GXGXGXGXGXGXGX^./.}.;X2X3X1X<X&X).U 5 o X GXGXGXGXGXGXGXGXGXGXGXGXGXGXGXGXGXGXGXGXGXGXGXGXGXGXGXGXGXGX",
"GXGXGXGXGXGXGXGXGXGXGXGXGXGXGXGXGXGX[ #.=.eXtXtX0X7X#.[ ] _ q 2 < 2 2 0 ) [ -.qXtXfXhXhXfXdXtXqX=.#.] _ 0 q q 0 ) @.=.GXGXGXGXGXj.V.(.XX<X<X;XXX/.).B.GXGXGXGXGXGXGXGXGXg.k.V./.*X;X*X[.~.A.T GXGXGXGXGXGXGXGXGXGXGXGXGXGXGXGXGXGXGXGXGXGXGXGXGXGXGXGXGXGXGXGXGX",
"GXGXGXGXGXGXGXGXGXGXGXGXGXGXGXGXGX[ [ $.*.=.9X9X=.;.[ ) 0 9 2 2 9 0 ) { #.=.qXtXdXhXkXkXfXdXrXeXqX-.$.] ) ( ( ) { #.=.qXwXGXGXGXa.s.j.^.[.}.].^.C.z.GXGXGXGXGXGXGXGXGXGXGXp.a.g.C.~.V.j.s.s.GXGXGXGXGXGXGXGXGXGXGXGXGXGXGXGXGXGXGXGXGXGXGXGXGXGXGXGXGXGXGXGXGXGX",
"GXGXGXGXGXGXGXGXGXGXGX-.-.-.-.*.$.[ [ ] ] ] ] } ) _ 0 8 3 2 9 ^ } @.-.qXeXtXtXrXdXdXdXrXtXtXeXqX9X-.$.] ) ( 0 ( ) +.#.&.D.A.V.z.GXGXGXs.g.g.g.GXGXGXGXGXGXGXGXGXGXGXGXGXGXGXGXp.p.i.i.i.GXGXGXGXGXGXGXGXGXGXGXGXGXGXGXGXGXGXGXGXGXGXGXGXGXGXGXGXGXGXGXGXGXGXGXGX",
"GXGXGXGXGXGXGXGXGXOXoXK.K.@X9X8X-.#.[ ) ( q 2 3 < 3 7 A H H R O.O.K.@X@XiXuXdXrXtXyX0XqX9X9X=.=.-.#.[ ) ( 0 0 0 ( ) ]  .b.B.j.l.GXGXGXi.p.4.GXGXGXGXGXGXGXGXGXGXGXGXGXGXGXGXGXGXj j GXGXGXGXGXGXGXGXGXGXGXGXGXGXGXGXGXGXGXGXGXGXGXGXGXGXGXGXGXGXGXGXGXGXGXGXGXGX",
"GXGXGXGXGXGXGX*X*X|.(.).oX#XiXtX0X-.@.) 0 2 < O O & H !.+X&X=X_.`.V.A.M.H.#XuXrXyXW.-.;.#.#.$.$.@.[ ) ( 0 q 9 9 9 q 0 F J Z i.s.k.l.z.GXGXGXGXGXGXGXGXGXGXGXGXGXGXGXGXGXGXGXGXGXGXGXGXGXGXGXGXGXGXGXGXGXGXGXGXGXGXGXGXGXGXGXGXGXGXGXGXGXGXGXGXGXGXGXGXGXGXGXGXGX",
"GXGXGXGXGXGX>X;X*X|.].~.V.H.OXK.K.&.@.] 0 2 1 5 D U !.&X;X>X.X[.^.l.k.g.Z.#XtXeX9X#.+.] ] ) ) ) ) _ 0 q 2 2 2 3 3 3 2 4 d z l i.a.g.k.GXGXGXGXGXGXGXGXGXGXGXGXGXGXGXGXGXGXGXGXGXGXGXGXGXGXGXGXGXGXGXGXGXGXGXGXGXGXGXGXGXGXGXGXGXGXGXGXGXGXGXGXGXGXGXGXGXGXGXGXGX",
"GXGXGX,X,X<X>X;X*X}.(.C.j.s.f.f.E |  .} 0 2 x ! ).=X*X*X*XXX[.~.l.k.s.d.M.K.wX9X;.[ ) ^ 0 9 9 9 9 2 2 < < < o o o , < - y g h k 4.p.p.GXGXGXGXGXGXGXGXGXGXGXGXGXGXGXGXGXGXGXGXGXGXGXGXGXGXGXGXGXGXGXGXGXGXGXGXGXGXGXGXGXGXGXGXGXGXGXGXGXGXGXGXGXGXGXGXGXGXGXGXGX",
"[.[.|. X*X XXX}./.~.l.g.a.p.4.l z G ( 0 2 < x Q _.*X*XXX[.^.l.g.a.i.p.p.x.O.%.$.{ _ q 2 < , o o o o o O O O O O O O o & % f j k k k k GXGXGXGXGXGXGXGXGXGXGXGXGXGXGXGXGXGXGXGXGXGXGXGXGXGXGXGXGXGXGXGXGXGXGXGXGXGXGXGXGXGXGXGXGXGXGXGXGXGXGXGXGXGXGXGXGXGXGXGXGX",
"].].].].[.].(.~.z.k.s.i.4.k h g f x 6 3 , o 5 ! _.|.|.].C.j.s.i.p.k k h z W ' } ( q 2 < O O X X O X X X X X X X O O O o GXGXGXGXh h h GXGXGXGXGXGXGXGXGXGXGXGXGXGXGXGXGXGXGXGXGXGXGXGXGXGXGXGXGXGXGXGXGXGXGXGXGXGXGXGXGXGXGXGXGXGXGXGXGXGXGXGXGXGXGXGXGXGXGXGXGX",
"~.~.~.^.GXGXGXGXGXGXGXGXGXGXGXGXGXGXGXGXGXGXGXB.~.(./.^.GXGXGXGXGXGXGXGXGXGXGXGXGXGXGXGXGXGXGXGXGXGXGXGXGXGXGXGXGXGXGXGXGXGXGXGXGXGXGXGXGXGXGXGXGXGXGXGXGXGXGXGXGXGXGXGXGXGXGXGXGXGXGXGXGXGXGXGXGXGXGXGXGXGXGXGXGXGXGXGXGXGXGXGXGXGXGXGXGXGXGXGXGXGXGXGXGXGXGXGX",
"z.z.z.GXGXGXGXGXGXGXGXGXGXGXGXGXGXGXGXGXGXGXGXGXz.z.z.GXGXGXGXGXGXGXGXGXGXGXGXGXGXGXGXGXGXGXGXGXGXGXGXGXGXGXGXGXGXGXGXGXGXGXGXGXGXGXGXGXGXGXGXGXGXGXGXGXGXGXGXGXGXGXGXGXGXGXGXGXGXGXGXGXGXGXGXGXGXGXGXGXGXGXGXGXGXGXGXGXGXGXGXGXGXGXGXGXGXGXGXGXGXGXGXGXGXGXGXGX"
};
