/* XPM */
static const char *bos2b1[] = {
/* columns rows colors chars-per-pixel */
"128 128 247 2 ",
"   c #080908",
".  c #1D150A",
"X  c #171609",
"o  c #141414",
"O  c #1C1C1C",
"+  c #191915",
"@  c #101409",
"#  c #231A0C",
"$  c #281A0C",
"%  c #221E1B",
"&  c #271B13",
"*  c #35120B",
"=  c #15290D",
"-  c #1B2718",
";  c #193511",
":  c #1C3B13",
">  c #1F3719",
",  c #17320F",
"<  c #2A220F",
"1  c #3A230E",
"2  c #292218",
"3  c #332313",
"4  c #3C2C16",
"5  c #3B2C1B",
"6  c #362818",
"7  c #28381C",
"8  c #1B1D20",
"9  c #1E2122",
"0  c #232324",
"q  c #2C2C2C",
"w  c #292827",
"e  c #352D26",
"r  c #38322B",
"t  c #2D2E30",
"y  c #333434",
"u  c #3C3C3C",
"i  c #393836",
"p  c #2C322B",
"a  c #201F20",
"s  c #580605",
"d  c #4B120C",
"f  c #780505",
"g  c #781515",
"h  c #6A0C0B",
"j  c #48260C",
"k  c #552809",
"l  c #422E1A",
"z  c #442A14",
"x  c #443219",
"c  c #4A351C",
"v  c #4B381C",
"b  c #533B1E",
"n  c #563817",
"m  c #5B300F",
"M  c #742C00",
"N  c #782E00",
"B  c #7C3402",
"V  c #793806",
"C  c #68300A",
"Z  c #473725",
"A  c #543C22",
"S  c #583D23",
"D  c #453B37",
"F  c #52302D",
"G  c #6F312D",
"H  c #1E4116",
"J  c #244B1A",
"K  c #214618",
"L  c #28551D",
"P  c #3F521B",
"I  c #2B5A21",
"U  c #30472B",
"Y  c #2E6323",
"T  c #346A27",
"R  c #37752C",
"E  c #3B7A30",
"W  c #784717",
"Q  c #6F491A",
"!  c #5C4123",
"~  c #574425",
"^  c #49433A",
"/  c #564938",
"(  c #585134",
")  c #634425",
"_  c #6D4A29",
"`  c #674727",
"'  c #734D2B",
"]  c #764D29",
"[  c #7B522E",
"{  c #765529",
"}  c #7C5633",
"|  c #695231",
" . c #756635",
".. c #52411C",
"X. c #3D3E40",
"o. c #3E4041",
"O. c #434444",
"+. c #4B4B4B",
"@. c #474747",
"#. c #544D48",
"$. c #58534B",
"%. c #535354",
"&. c #5B5B5B",
"*. c #585756",
"=. c #4E5051",
"-. c #655949",
";. c #6C514F",
":. c #726753",
">. c #5E6063",
",. c #636363",
"<. c #6C6C6C",
"1. c #666768",
"2. c #756C68",
"3. c #737373",
"4. c #7B7C7C",
"5. c #777878",
"6. c #71716F",
"7. c #5A5D61",
"8. c #890404",
"9. c #980303",
"0. c #8F1616",
"q. c #A70404",
"w. c #B40101",
"e. c #BB0101",
"r. c #AD1717",
"t. c #823D05",
"y. c #823E0B",
"u. c #8A2F2F",
"i. c #A83131",
"p. c #C40101",
"a. c #CB0000",
"s. c #D70101",
"d. c #D61111",
"f. c #E80000",
"g. c #FD0000",
"h. c #F20000",
"j. c #EC1212",
"k. c #F52525",
"l. c #894609",
"z. c #914E0B",
"x. c #93520E",
"c. c #9A570D",
"v. c #8A5617",
"b. c #9B5C13",
"n. c #945916",
"m. c #894C13",
"M. c #9D6317",
"N. c #A36818",
"B. c #AB741C",
"V. c #B47C1E",
"C. c #835631",
"Z. c #8B5B35",
"A. c #875A34",
"S. c #915F37",
"D. c #84562A",
"F. c #956139",
"G. c #9B653C",
"H. c #9D673E",
"J. c #92722F",
"K. c #A97923",
"L. c #A1693E",
"P. c #AF7B21",
"I. c #8D5454",
"U. c #8B6F4E",
"Y. c #A56C41",
"T. c #AA6E42",
"R. c #AB7245",
"E. c #B67649",
"W. c #BD7D50",
"Q. c #876969",
"!. c #867977",
"~. c #957670",
"^. c #AD6F6F",
"/. c #B14E4E",
"(. c #C47D4F",
"). c #D45B5B",
"_. c #3E8533",
"`. c #3E822F",
"'. c #418A34",
"]. c #47973A",
"[. c #4AA03E",
"{. c #56B84B",
"}. c #4FA743",
"|. c #4A9F40",
" X c #65D95C",
".X c #6AE562",
"XX c #5DC854",
"oX c #B78827",
"OX c #BD932D",
"+X c #AE8D33",
"@X c #BCA23C",
"#X c #C2982C",
"$X c #C49C32",
"%X c #CAA737",
"&X c #D3B33D",
"*X c #D1AD39",
"=X c #A98D49",
"-X c #B8A646",
";X c #8B8677",
":X c #A8986C",
">X c #CA8254",
",X c #D3895A",
"<X c #D7BA42",
"1X c #C7B349",
"2X c #D39D65",
"3X c #DDC346",
"4X c #DBC75C",
"5X c #E2CA4A",
"6X c #E7D654",
"7X c #ECDF60",
"8X c #7D7E80",
"9X c #7E8484",
"0X c #838383",
"qX c #8C8C8C",
"wX c #878787",
"eX c #939393",
"rX c #9C9C9C",
"tX c #999594",
"yX c #90908F",
"uX c #AE9691",
"iX c #B3A590",
"pX c #9EA2A3",
"aX c #A3A3A3",
"sX c #ABABAB",
"dX c #A9A6A6",
"fX c #B3B4B4",
"gX c #BBBBBB",
"hX c #B6B6B8",
"jX c #B2AFAD",
"kX c #9F9FA0",
"lX c #C6B9B5",
"zX c #C8A398",
"xX c #D5CFB6",
"cX c #BEBFC1",
"vX c #BFC1C2",
"bX c #C4C4C4",
"nX c #CCCCCC",
"mX c #C8C7C7",
"MX c #D3D3D3",
"NX c #DBDBDB",
"BX c #D7D7D8",
"VX c #D0D0CD",
"CX c #E3E3E3",
"ZX c #EBEBEB",
"AX c #F0F0F0",
"SX c None",
"DX c black",
/* pixels */
"SXSXSXSXSXSXSXSXSXSXSXSXSXSXSXSXSXSXSXSXSXSXSXSXSXSXSXSXSXSXSXSXSXSXSXSXSXSXSXh.h.h.h.g.g.g.SXSXeXeXeXeXtXrXaXsXhXgXmXmXmXbXgXhXhXhXhXfXsXaXaXaXaXaXaXaXaXaXrXpXSXSXg.g.g.g.g.g.g.SXSXSXSXSXSXSXSXSXSXSXSXSXSXSXSXSXSXSXSXSXSXSXSXSXSXSXSXSXSXSXSXSXSXSXSXSXSXSX",
"SXSXSXSXSXSXSXSXSXSXSXSXSXSXSXSXSXSXSXSXSXSXSXSXSXSXSXSXSXSXSXSXSXSXSXSXSXSXs.s.f.f.f.h.h.g.SXSXuXsXsXsXsXaXaXsXsXfXfXfXsXsXsXsXsXsXsXsXaXaXaXsXfXhXhXhXfXfXsXuXSXSXg.h.h.h.f.f.f.f.SXSXSXSXSXSXSXSXSXSXSXSXSXSXSXSXSXSXSXSXSXSXSXSXSXSXSXSXSXSXSXSXSXSXSXSXSXSX",
"SXSXSXSXSXSXSXSXSXSXSXSXSXSXSXSXSXSXSXSXSXSXSXSXSXSXSXSXSXSXSXSXSXSXSXSXw.w.e.p.p.a.s.s.f.h.g.k.).lXVXnXbXhXsXaXaXrXeXqXqXeXeXeXeXeXeXrXrXkXsXhXbXnXnXnXmXnXlX).k.g.h.f.s.a.p.p.a.s.f.f.SXSXSXSXSXSXSXSXSXSXSXSXSXSXSXSXSXSXSXSXSXSXSXSXSXSXSXSXSXSXSXSXSXSXSXSX",
"SXSXSXSXSXSXSXSXSXSXSXSXSXSXSXSXSXSXSXSXSXSXSXSXSXSXSXSXSXSXSXSXSXSXSXQ.I././.)./.r.w.e.a.s.f.j.).).zXlXfXrXqXqXeXeXqXqXeXeXeXeXeXeXeXqXwXwXqXrXaXfXgXmXlXzX).).j.f.s.p.w.q.9.i.i.r.p.a.SXSXSXSXSXSXSXSXSXSXSXSXSXSXSXSXSXSXSXSXSXSXSXSXSXSXSXSXSXSXSXSXSXSXSXSX",
"SXSXSXSXSXSXSXSXSXSXSXSXSXSXSXSXSXSXSX%.%.&.<.<.<.<.3.3.4.4.0XeXrXqX4.4.yXdXlXmXzX/.r.q.w.p.a.s.s.d./.uXeX9X3.4.qXeXrXaXaXsXsXsXaXaXtXwX4.4.3.4.0XqXkXfXiX).d.s.s.a.w.q.9.0.u.Q.Q.i.r.q.SXSXSXSXSXSXSXSXSXSXSXSXSXSXSXSXSXSXSXSXSXSXSXSXSXSXSXSXSXSXSXSXSXSXSXSX",
"SXSXSXSXSXSXSXSXSXSXSXSXSXSXSXy O.%.,.,.<.3.4.4.3.3.3.3.4.4.0XeXrXeX0XwXrXfXbXVXmXzX^.i.q.w.e.p.p.e.i.~.wXqXyXtXaXsXsXfXhXhXgXgXhXfXaXrXeXqXqXeXeXqXyXeX~.i.w.w.q.9.9.0./.^.uXsXdX~.I.I.!.0X4.4.3.<.,.&.&.%.%.%.@.O.u u SXSXSXSXSXSXSXSXSXSXSXSXSXSXSXSXSXSXSXSX",
"SXSXSXSXSXSXSXSXSXSXSXSXSXSXu u +.,.3.0XqXeXrXeXwX0X4.4.4.3.4.wXeXeXeXrXaXfXhXbXnXVXlX^.0.9.q.q.q.0.u.Q.wXrXsXfXhXgXbXmXnXnXnXnXnXbXhXsXaXaXsXsXaXrXeXwXQ.u.0.8.8.f f g ^.mXNXVXgXaXqX0X4.4.0X0X4.<.,.,.&.&.&.&.%.@.@.O.O.SXSXSXSXSXSXSXSXSXSXSXSXSXSXSXSXSXSXSX",
"SXSXSXSXSXSXSXSXSXSXSXSXSXu @.%.<.4.eXaXhXhXhXfXsXaXeXwX4.3.3.4.0XeXaXsXsXsXsXsXfXhXdXI.g f 8.0.u.I.!.eXaXsXhXbXnXMXMXNXNXNXNXNXNXMXnXmXhXhXfXhXhXhXfXaXyXQ.;.G f f f g Q.jXmXvXfXrXwX4.3.3.0XqX0X3.<.<.<.<.<.<.<.,.,.&.%.@.@.O.O.SXSXSXSXSXSXSXSXSXSXSXSXSXSXSX",
"SXSXSXSXSXSXSXSXSXSXSXSXu O.%.<.0XrXhXnXMXMXnXbXhXfXaXeX0X4.3.<.3.qXsXhXsXkXrXrXrXkXtXQ.G g f 0.;.4.eXsXhXgXbXnXMXNXCXCXZXZXZXCXCXCXCXNXMXnXmXbXmXmXvXhXaXyX3.;.G g h h I.kXfXfXsXeX0X3.3.4.wXeX0X3.<.<.3.4.0X0XwXwXwX0X4.<.&.%.+.@.SXSXSXSXSXSXSXSXSXSXSXSXSXSX",
"SXSXSXSXSXSXSXSXSXSXq y u +.,.0XrXhXnXNXCXCXMXmXhXsXaXrXeX0X3.<.3.wXsXfXaXeXeXeXeXeXqXwX!.;.g g I.yXsXgXnXMXMXMXnXMXCXZXZXZXZXZXZXZXZXZXZXCXNXMXnXbXgXhXsXrXqX!.2.;.h h ;.tXsXsXaXwX3.3.4.0XqXeX0X3.<.3.4.wXeXaXsXhXhXhXfXaXqX3.,.%.@.@.SXSXSXSXSXSXSXSXSXSXSXSX",
"SXSXSXSXSXSXSXSXSXSXy u @.&.3.qXaXgXMXNXCXNXnXhXsXaXrXrXeX0X3.<.<.0XsXfXaXeXqX0X0X0XwXyXqXQ.;.G ~.aXhXmXMXNXCXNXMXMXCXCXZXZXZXZXZXZXCXZXZXZXNXMXnXgXhXfXdXrXqX0X5.2.;.;.Q.tXaXaXeX0X3.5.0XwX0X4.4.3.3.4.0XeXrXfXbXnXMXMXnXgXsXqX3.&.+.@.SXSXSXSXSXSXSXSXSXSXSXSX",
"SXSXSXSXSXSXSXSXSXSXu O.%.,.4.eXsXgXnXMXMXmXhXaXrXeXeXeXwX4.3.<.<.0XaXhXfXaXqX3.3.4.0XwXwX4.2.3.tXhXmXnXMXCXZXCXNXNXMXMXNXNXCXZXZXNXNXNXCXCXMXnXbXhXfXsXrXeX0X4.3.3.!.qXtXrXrXrXqX4.3.4.qXqX3.<.<.4.0X0XqXeXrXfXmXMXMXMXnXmXhXrX0X<.%.+.SXSXSXSXSXSXSXSXSXSXSXSX",
"SXSXSXSXSXSXSXSXy u O.@.%.,.4.qXaXfXgXgXhXfXaXrXeXqXqXwX0X3.<.,.<.0XaXhXhXsXyX3.<.3.4.4.4.3.<.5.rXgXnXMXNXNXCXCXNXMXmXgXmXMXNXZXZXCXNXNXCXNXnXbXhXhXhXhXfXaXeX;X3.3.4.wXeXeXeXwX0X3.3.0XeXeX3.,.<.4.wXqXeXeXrXsXhXmXnXnXnXmXhXaXqX3.&.%.@.SXSXSXSXSXSXSXSXSXSXSX",
"SXSXSXSXSXSXSXq y u O.@.%.&.3.0XeXaXsXsXaXaXrXeXqXwX0X0X3.<.,.&.,.4.aXhXhXfXeX<.,.<.<.3.<.<.,.3.eXhXnXMXNXNXMXNXNXnXhXfXhXnXNXZXZXCXNXNXNXMXnXxXgXgXbXmXmXhXaXwX5.3.3.4.0XqXwX4.3.3.4.wXrXqX<.&.,.4.wXeXeXeXeXrXsXhXbXmXmXgXfXaXqX4.<.&.@.O.SXSXSXSXSXSXSXSXSXSX",
"SXSXSXSXSXSXSXq y u O.@.+.&.<.4.wXeXrXrXrXrXeXqXwX0X4.3.<.,.&.%.&.3.rXhXgXfXqX,.&.,.<.3.<.<.,.<.wXsXgXnXMXNXCXNXNXnXhXhXcXnXNXCXCXCXBXBXBXMXnXmXnXVXMXnXnXhXsXeX0X4.3.4.0XwX0X3.3.3.4.wXeXwX<.%.,.3.0XwXyXqXyXeXrXsXfXhXhXfXsXrXeX0X3.&.+.O.SXSXSXSXSXSXSXSXSXSX",
"SXSXSXSXSXSXSXq q u O.@.@.%.,.<.4.0XqXqXqXwX0X0X4.4.3.<.,.&.%.+.%.3.aXhXgXsX0X&.%.,.<.<.1.&.%.&.4.eXsXgXnXNXNXNXMXnXgXhXmXMXNXNXNXMXVXnXnXnXnXnXnXnXnXmXhXsXaXeX0X3.3.3.4.0X4.6.<.3.0XqXeX0X,.%.&.<.4.0X0XwXwXeXrXrXaXaXaXaXrXeXqX4.3.&.+.O.u SXSXSXSXSXSXSXSXSX",
"SXSXSXSXSXSXSX0 q y O.@.@.+.*.,.<.3.3.4.3.3.<.<.,.,.,.&.%.%.+.@.%.3.aXgXgXsX0X%.@.&.,.&.%.@.@.@.>.4.eXsXgXmXnXMXMXnXbXhXbXnXnXMXnXnXmXgXhXgXmXmXgXfXsXaXrXeXwX4.<.,.,.,.3.4.3.,.,.3.0XqXqX4.,.+.%.<.3.4.4.0X0XqXeXrXeXeXqXqXwX0X0X3.<.&.+.@.u u SXSXSXSXSXSXSXSX",
"SXSXSXSXSXSXSXq q y u @.@.@.%.&.,.,.,.,.,.&.&.&.%.%.%.%.%.+.%.%.,.0XsXhXhXaX4.%.@.%.%.+.@.@.@.+.&.<.wXsXbXnXMXNXNXMXmXhXhXhXhXgXhXfXsXsXsXfXhXgXgXhXjXaXeX0X3.,.&.%.%.%.<.4.3.,.&.3.0XqXqX4.&.@.%.,.<.<.3.3.4.0X0X0X0X0X4.4.4.4.4.3.,.&.+.@.u u y SXSXSXSXSXSXSX",
"SXSXSXSXSXy y y y u u u O.@.@.%.%.&.&.%.%.%.+.+.+.%.%.%.%.%.&.<.4.eXsXfXaXeX3.+.O.@.@.u u @.&.,.,.,.0XsXmXMXCXCXCXNXnXhXsXrXaXsXaXrXeXrXaXsXfXhXbXnXbXsXeX4.,.%.%.+.@.%.,.3.<.&.&.<.0XwXqX4.&.@.+.&.,.<.<.<.<.<.<.3.3.3.3.3.4.4.3.<.,.&.%.@.u u y SXSXSXSXSXSXSX",
"SXSXSXSXSXq y u o.O.O.O.u u O.@.+.=.+.+.@.@.@.@.@.+.+.+.%.&.,.0XrXsXsXaXqX3.&.@.O.o.u u u %.<.3.&.@.+.,.4.rXhXMXCXCXNXmXsXrXeXrXeXeXeXaXhXbXnXmXfXrX0X<.&.%.+.%.&.&.+.@.%.,.&.+.%.<.qXeXeX0X&.@.@.%.&.&.,.,.,.,.,.<.<.<.3.3.3.3.<.<.,.&.%.@.u u y SXSXSXSXSXSXSX",
"SXSXSXSXSX0 q y @.@.+.@.O.u O.@.@.@.@.@.@.@.@.+.+.+.%.&.,.<.4.rXhXhXsXeX<.%.@.@.@.u u y u &.4.4.&.y O o 0 @.3.sXNXZXCXMXgXaXeXeXeXeXaXhXnXMXNXmXeX%.y O O q @.,.4.3.%.O.@.%.+.O.@.3.eXaXrX0X,.@.@.+.%.%.&.&.&.&.,.,.,.<.<.<.<.,.,.&.&.%.@.O.u u y SXSXSXSXSXSXSX",
"SXSXSXSXSXO 0 q u @.%.%.%.+.+.+.@.@.@.O.O.@.@.+.%.&.6.0XeXaXsXgXbXsXeX3.%.u u @.@.u y y u ,.qXeX<.u O     + u 4.bXCXZXCXnXsXrXeXeXrXsXbXNXMXhXeX&.q @   o u <.wXrXqX&.u u @.@.u @.3.eXaXaXqX,.@.O.@.+.%.%.%.%.%.%.&.&.&.&.&.*.%.+.@.@.@.O.u u y y q SXSXSXSXSXSX",
"SXSXSXSXSXO O 0 q u +.&.&.&.&.&.&.&.&.&.&.&.,.<.3.0XeXsXhXmXnXbXfXeX<.%.u y u +.@.u q y u <.rXsX0X&.y O     o %.rXmXCXCXMXhXaXrXrXsXhXnXNXbXwX%.q @     0 &.eXsXfXrX,.u u O.O.u @.<.wXaXsXrX3.%.@.@.@.@.+.+.+.+.+.+.+.@.@.@.@.O.u u u u u u u u u u y SXSXSXSXSX",
"SXSXSXSXSXSXSXO 0 y O.%.&.,.3.4.wXeXrXrXaXaXsXfXhXgXbXmXmXgXfXrX0X<.%.u y y O.%.+.y q y @.3.fXmXfXwX&.q o     q &.eXnXCXMXhXsXaXsXbXMXMXnXrX%.O @     @ y 8XgXmXhXeX,.u y y u O.+.&.3.eXhXhXqX<.%.@.O.O.@.@.@.@.@.@.O.u u u u y y y y y y u u O.@.%.%.SXSXSXSXSX",
"SXSXSXSXSXSXSXSXO w y u @.%.,.3.0XrXsXsXfXhXhXhXhXhXfXsXrXqX4.<.%.@.u y y y @.%.+.y q u %.3.rXhXgXfXwX%.y o   O u 3.hXNXnXhXsXaXsXmXMXnXsX4.q       0 O.<.sXnXmXaX0X&.u y y u @.%.%.&.0XhXmXsXqX3.&.+.@.@.@.@.@.@.@.O.u u u u u u u u O.@.@.+.%.%.%.&.SXSXSXSXSX",
"SXSXSXSXSXSXSXSXSXO 0 0 q y u @.&.<.4.wXqXqX0X0X3.<.<.,.%.@.u q q 0 q q y u @.%.@.y q @.,.<.<.4.sXbXfXwX,.y O 0 @.3.sXmXgXsXaXaXsXhXgXsX0X&.0   @ q &.rXmXnXmXsXqX<.+.u q y u %.&.@.O.<.aXmXmXhXaX0X<.&.%.%.%.%.+.+.+.@.@.@.@.+.%.&.,.,.,.,.1.,.%.@.u SXSXSXSXSX",
"SXSXSXSXSXSXSXSXSXSX6 6 6 e w q y O.+.%.%.%.%.@.O.u i y q w 0 O O O 0 q y u @.%.@.y q @.,.,.%.&.0XaXsXaXeX<.%.%.,.0XsXbXlXhXfXsXfXgXhXrX4.,.@.@.%.<.eXmXMXnXsXqX<.%.O.y q q u %.&.@.u %.4.rXfXhXhXaXrXwX0X0X0X4.4.3.3.3.3.3.3.3.3.3.3.<.,.&.%.+.@.u SXSXSXSXSXSX",
"SXSXSXSXSXSXSXSXSXSX! ! ~ Z 5 2 2 0 0 0 0 0 0 0 0 0 2 2 0 0 0 0 O 0 q y u O.@.@.u q q O.&.&.+.+.&.<.qXsXhXsXrXqXwXeXsXbXmXnXnXmXmXbXhXrX4.4.0XeXaXhXgXgXhXaXqX3.%.O.y q q q u %.&.+.u u @.&.4.rXsXfXfXsXsXsXsXaXaXrXrXeXeXeXeXwX0X3.<.&.@.u q 0 0 SXSXSXSXSXSXSX",
"SXSXSXSXSXSXSXSXSXSXC.[ ` ! A Z Z 5 6 6 5 5 5 5 5 5 6 6 6 6 2 % O a w y u u O.u y 0 0 y +.&.,.<.,.,.3.eXaXaXrX0X<.4.aXgXnXNXNXMXnXgXsX0X<.3.rXfXsXaXtXwX0X4.<.,.&.@.y 0 0 0 y @.@.u y q q y =.,.3.3.4.4.4.5.3.3.<.<.1.,.,.,.&.%.#.#.#.^ D e 2 SXSXSXSXSXSXSXSXSX",
"SXSXSXSXSXSXSXSXSXSXF.Z.[ _ ' [ ' ) S ! ) ! ~ ~ ~ ~ b v x 4 6 & % O 0 q y y y q q 0 0 q O.&.3.4.3.<.3.4.0XeXqX<.+.&.0XsXnXCXCXCXnXsXqX<.%.<.rXfXrX4.<.,.,.,.&.,.&.%.u 0 0 q q y y q 0 O O 0 q y i i i u u i i i i y r y q w 0 2 2 6 5 l l l SXSXSXSXSXSXSXSXSXSX",
"SXSXSXSXSXSXSXSXA.Z.F.F.F.F.G.G.F.C.[ C.A.[ ` ` ' [ ` b c x 4 6 3 % % 0 0 q 0 0 0 0 q y O.+.&.<.0XeX0X<.3.qXrX3.@.@.%.3.sXNXZXCXnXqX&.@.@.&.wXrX0X<.6.0X0X4.<.&.@.@.%.%.@.y q q 0 0 O O O 2 2 3 5 5 e 6 6 5 Z Z Z Z e 6 5 5 5 5 5 4 x x x x SXSXSXSXSXSXSXSXSXSX",
"SXSXSXSXSXSXSXZ.Z.Z.Z.F.R.E.E.T.Y.Y.Y.R.T.G.C.} A.Z.' b c x x 4 6 3 % % 0 q q q q y u O.@.@.O.%.0XaXeX<.<.0XeX4.&.@.O.&.rXMXZXZXbX3.O.u %.,.4.0X0X4.wXeXeX0X<.%.@.%.,.<.&.@.u u y q 0 0 0 2 & 3 z b b l l x c S ) ) S c Z A S S b b b b b A SXSXSXSXSXSXSXSXSXSX",
"SXSXSXSXSXSXSXY.L.Z.[ S.E.,XE.H.T.>X,X,X(.E.Y.G.L.G.[ b c x x 4 4 6 3 6 r u O.@.%.&.&.%.@.O.u +.3.eXeX0X3.<.<.4.4.<.%.&.rXNXZXCXhX3.@.&.0X0X3.3.eXsXsXeX3.%.@.%.,.<.<.,.&.&.&.,.,.%.X.t 0 % & 1 c ) _ ) S A A ` C.A.' ) ) _ ' ' ' _ ) ` ' [ SXSXSXSXSXSXSXSXSXSX",
"SXSXSXSXSXSXSXE.T.Z.' A.W.,XE.H.R.,X2X,XW.E.E.E.Y.F.' ! b ! ! v x 4 4 5 D +.&.<.4.qXeX0X6.&.+.@.&.3.0XwX4.,.&.3.eXeX0XwXhXCXZXCXbXeX3.3.0X0X4.0XrXjXrX3.&.@.@.&.<.3.<.,.3.4.0X0X4.,.@.y 2 & 3 5 b ' [ [ [ ` ~ ' F.L.S.C.[ [ C.Z.Z.[ _ ' Z.F.SXSXSXSXSXSXSXSXSXSX",
"SXSXSXSXSXSXSXR.Y.Z.' A.E.,XW.T.E.,X2XE.H.R.>X(.Y.C._ ) ` [ } ) c 4 4 Z ^ &.<.0XrXgXnXbXsXqX<.%.@.@.<.qXwX,.%.3.rXfXgXnXNXZXZXCXMXbXsXwX<.3.eXaXrXwX<.+.@.&.<.<.<.<.<.4.eXaXaXeX4.&.u r 6 3 6 l S ' A.F.F.[ ) } Y.E.R.G.S.A.Z.G.G.C.` [ G.R.SXSXSXSXSXSXSXSXSXSX",
"SXSXSXSXSXSXSXG.F.Z.C.S.E.,X>XE.>X,X,XR.S.Y.>X(.F.' _ ' [ A.C.) c 4 4 Z ^ %.<.0XaXxXMXNXMXhXeX<.+.@.,.qXqX<.%.<.eXsXmXNXCXZXZXCXMXgXaX0X<.3.eXrX4.&.%.&.,.<.3.3.<.3.eXsXhXhXsXeX3.%.u r 6 4 l v S _ C.L.T.A.' Z.E.(.(.E.L.Z.S.T.E.Z._ [ G.R.T.SXSXSXSXSXSXSXSXSX",
"SXSXSXSXSXSXSXA.A.Z.Z.H.E.>X>X>X,X,X>XT.S.Y.(.E.A.` ' Z.Z.C.' S x 4 SXSXi O.%.3.eXsXbXNXCXMXhXeX<.%.,.0X0X<.,.<.4.eXhXnXCXZXZXCXnXaX0X3.4.4.0X4.&.@.%.4.qX4.3.3.4.eXhXMXnXhXrX0X<.+.u y SXSXA A S ) C.T.E.F.C.S.E.>X,X(.T.Z.S.E.(.F._ ' Z.L.L.G.F.SXSXSXSXSXSXSX",
"SXSXSXSXSXSXSX' [ A.F.L.R.E.>X,X,X(.E.T.Y.T.E.Y.[ ) [ G.F.[ ! v 4 6 SXSXt y @.,.4.eXsXnXCXNXMXhXqX<.,.,.,.<.<.,.,.4.rXgXMXCXZXNXbXeX<.3.0X3.&.%.&.<.4.wXwX3.,.4.rXhXnXnXgXaXwX<.%.u q w SXSX_ ) ! S ' G.E.G.A.S.E.(.,X>XT.A.Z.E.(.G.' _ C.S.G.G.L.SXSXSXSXSXSXSX",
"SXSXSXSXSXSXSXS ` C.G.L.L.Y.>X,X>XR.L.T.E.E.Y.F.[ _ C.G.S._ v 4 6 3 SXSXSXy u +.,.4.eXhXnXNXNXnXsXwX<.&.%.,.,.&.+.,.qXfXnXNXCXMXhX0X,.<.4.3.%.%.3.eXeX0X3.,.<.wXhXnXmXhXaXwX<.%.u q 0 SXSXSX[ ' ) b ) F.T.G.S.S.L.E.>X>XT.[ [ Y.E.G.[ _ ' } S.H.Y.SXSXSXSXSXSXSX",
"SXSXSXSXSX. $ 4 S [ G.Y.G.H.W.,X>XG.Z.Y.E.T.S.C.[ [ Z.Z.[ ! x 6 3 < SXSXSXSXu u @.>.4.eXfXnXNXNXmXaXwX3.,.&.%.@.@.&.wXsXmXMXnXhXrX4.,.&.&.<.4.eXrXkXwX,.&.<.0XaXbXmXhXaX0X<.%.u q q SXSXSXSX[ ' ) b ) Z.L.L.G.F.A.F.E.(.Y.' ' G.R.G.A.' ) ` C.F.L.SXSXSXSXSXSXSX",
"SXSXSXSXSX. # 3 c ' F.H.Z.S.R.>XE.A.[ G.E.G.[ ' C.A.A.[ ) v 4 3 3 SXSXSXSXSXSXy u @.&.4.eXfXnXMXnXhXaXwX3.&.+.O.O.%.4.aXgXnXhXrX0X<.&.&.,.3.eXaXrXqX3.%.&.4.rXfXhXfXrX0X<.%.u y 0 SXSXSXSXSXSX' ) b ! [ Z.G.Y.F.[ C.Y.E.G.' _ C.F.F.Z.' S S ' Z.F.SXSXSXSXSXSXSX",
"SXSXSXSXSX. # 3 l ` A.Z.[ [ F.E.Y.[ _ A.L.Z._ _ } A.[ ! c 4 6 3 SXSXSXSXSXSXSXq q u @.&.4.eXsXhXbXbXsXeX4.,.+.u y @.<.eXfXbXaX4.&.%.&.<.wXeXqX0X3.,.&.&.<.qXsXsXaXeX4.,.+.u y SXSXSXSXSXSXSXSXSX) ! ! ) ' F.T.G.[ [ G.R.F.' ` _ [ A.Z.' A c ) [ C.SXSXSXSXSXSXSX",
"SXSXSXSXSX. # < 4 A _ _ ) ) [ Z.} ` ) ' } ' ! ! _ ' ! c 4 3 < SXSXSXSXSXSXSXSX0 q q y @.&.<.0XeXaXsXrX0X4.<.,.@.u u %.3.eXaXqX,.@.+.&.3.0X0X3.<.,.<.<.<.3.eXaXrX0X3.&.+.O.y SXSXSXSXSXSXSXSXSXSXSX) ! b ! C.G.F.[ ' Z.L.F.C._ ) ) [ Z.' A l b ) ! Z SXSXSXSXSXSX",
"SXSXSXSXSX. # # 3 4 Z Z v v A ! ! ~ A ~ ~ A A A b v x 6 3 # # SXSXSXSXSXSXSXSXSXSX0 0 q u +.,.3.4.4.3.<.<.4.4.,.@.u O.%.3.0X3.&.%.&.<.3.3.<.&.&.<.0X4.3.3.0XqX0X<.&.@.u y SXSXSXSXSXSXSXSXSXSXSXSX` ) b b ' Z.A.' ' C.Z.Z.A.' ! S ' C.' c 6 l c Z i U @.+.=.SXSX",
"SXSXSXSXSX. # # # 3 4 4 4 4 x Z Z v v x x c v v x 6 3 $ # . SXSXSXSXSXSXSXSXSXSXSXSX0 0 q y @.%.&.&.%.+.%.<.4.3.,.%.+.+.*.,.3.0XeXrXaXrXeXqX0X0X0X0X4.,.&.<.3.<.%.O.y q SXSXSXSXSXSXSXSXSXSXSXSXSXSX! b b ! ) _ _ _ ' [ [ [ ' S Z ! ' ) l 6 l Z ^ $.&.1.<.,.=.@.",
"SXSXSXSXSX# . . # $ 3 3 < < 6 4 l l l 6 3 4 x x 6 < # # $ SXSXSXSXSXSXSXSXSXSXSXSXSXSX0 0 q y u O.O.u u O.&.<.3.3.<.,.&.%.&.0XhXMXMXnXgXfXsXaXrXqX4.,.+.@.%.&.%.O.y q 0 0 SXSXSXSXSXSXSXSXSXSXSXSXSXSX..b v x c ! ) ) ! ` ' ` b l c A b 4 6 l D -.6.0XwX;X2.-.$.",
"SXSXSX@.r & X X X . . # # # < 3 4 4 5 3 $ $ < < # # 2 w l g 9.SXSXSXSXSXSXSXSXSXSXSXSXSXO 0 q q y y y y y u @.%.,.<.3.4.4.0XaXmXMXmXhXsXaXeX0X3.,.%.@.@.O.@.+.O.y q 0 O SXSXSXSXSXSXSXSXSXSXSXSXSXSXSX~ v 4 < 6 Z A c l b ` ) l 3 1 z 1 $ 3 r #.6.yXtX:XR.J.J.J.",
"SXSX@.O.D i r D D ^ ^ D 2 . . $ < 6 3 $ . . . # 2 w q y F 8.9.q.SXSXSXSXSXSXSXSXSXSXSXy y y O.O.O.u y y y y u O.+.&.<.4.0XeXaXhXhXaXeXqX0X3.&.+.@.@.@.@.+.@.@.@.@.O.u y y SXSXSXSXSXSXSXSXSXSXSXSXSXSX..v 6 & 2 6 6 3 3 l S b 4 $ $ 3 & # 2 u &.4.tX:X-X#X$X%X%X",
"SXSXq y @.<.0XtXaXhXlXtX#.. X . # # # # . . . 2 ^ #.o.q d f 9.q.9.9.SXSXSXSXSXSXSXO.@.&.<.3.4.4.<.,.+.u u u O.u u O.+.&.,.3.0XqXqX0X3.<.,.&.+.@.+.%.&.,.&.+.@.,.0X0X4.<.&.+.@.SXSXSXSXSXSXSXSXSXSXSXSXSXSXe w 0 O + . # 3 l l 3 < 2 2 % + 0 @.1.;X=X1X4X7X5X<X&X",
"SXSXO 0 u ,.0XeXaXmXNXmXqX,.$.$.$.#.^ D r e e r @.@.i 0 * h 8.9.9.9.SXSXSXSXSXSXSX@.%.<.qXaXsXaXqX4.,.@.O.O.O.O.O.@.%.,.3.wXeXaXaXrXeXwX0X4.3.<.<.<.<.1.,.%.%.4.aXfXaXqX<.%.@.SXSXSXSXSXSXSXSXSXSXSXSXSXSXO.u u u ^ @.#.-.2.2.-.$.$.%.+.u D $.:.=X%X3X7X7X6X&X%X",
"SXSXo o 0 y O.@.&.0XfXnXnXnXbXhXdXtX0X3.,.*.%.@.i q 9 O * s f 8.9.9.SXSXSXSXSXSXSX%.,.0XaXhXgXhXrX0X<.%.@.u u O.%.,.3.wXaXgXnXNXCXNXMXnXgXhXsXaXeX4.<.&.%.&.<.qXhXgXfXrX4.,.%.SXSXSXSXSXSXSXSXSXSXSXSX@.@.+.%.,.4.wXtXaXgXnXmXsXrXaXaXeX3.:.} M.oX<X6X7X6X&XOXP.",
"SXSXq q q y y y u %.3.qXrXaXkXeXwX4.<.>.%.@.O.u q q o.%.;.0.9.9.q.q.SXSXSXSXSXSX@.&.3.eXsXhXhXsXrX0X<.&.@.u u O.@.&.<.4.eXsXhXhXhXhXfXsXaXrXqX4.3.,.%.@.@.&.3.qXsXhXfXaXwX<.&.@.SXSXSXSXSXSXSXSXSXSXy u O.@.%.,.4.qXrXjXmXBXnXsXkXfXbXsX0X:.C.M.oX*X3X<X%XoXN.c.",
"SXSX@.@.+.+.+.@.O.@.@.%.%.%.#.@.@.O.u i y q q q u +.6.qX^.i.w.w.w.w.SXSXSXSXSXu @.,.4.eXsXsXrXeXwX4.<.%.@.u u O.@.+.&.<.4.qXeXqXwX0X0X0X4.3.,.%.@.@.u u @.%.<.4.qXrXaXrXwX3.&.@.u SXSXSXSXSXSXSXSXy y u u O.@.%.,.3.0XeXaXfXsXwX0XaXmXfX0X:.} b.B.OXOXoXB.M.m.l.",
"y u +.&.,.<.3.3.3.<.<.,.%.+.O.u u @.@.u y y u %.0XrXqX3.I.r.e.e.w.e.SXSXSXy u @.%.<.4.wXeXqX0X3.<.,.%.O.u u @.%.&.<.4.wXrXsXfXhXhXhXhXhXsXrXqX4.3.,.%.u u O.%.,.3.4.4.4.3.<.&.+.@.@.@.SXSXSXSXSXSXu u @.@.@.@.@.+.%.&.,.<.3.3.,.<.rXmXhXqX2.Z.M.N.B.N.M.x.D.} ;.",
"u O.%.<.0XeXrXaXsXaXrXwX3.&.@.O.#.<.<.%.@.+.,.0XfXgXyX$.G q.a.p.w.q.SXSXt y u +.&.<.3.3.3.<.,.%.%.@.@.O.@.+.&.<.4.0XeXkXsXfXgXmXnXMXMXnXgXhXsXaXrXwX3.&.@.O.O.@.%.&.&.&.&.&.&.%.@.@.O.O.SXSXSXSXO.O.@.%.%.%.%.%.&.&.,.>.&.*.%.%.,.eXbXcXrX!.U.n.x.x.x.m.D.:.2.5.",
"@.%.<.0XaXhXnXMXNXMXnXhXrX4.,.&.3.rXsX0X<.4.eXkXkXeXI.0.9.p.s.a.w.0.G o.i u u @.%.%.%.%.%.+.O.u O.@.%.,.<.3.4.0XqXeXeXeXqXwXwXqXqXqXqX0X0X0XqXrXaXsXaXeX4.,.%.@.u u u O.@.+.+.@.@.u u @.&.&.%.@.O.u O.@.%.&.<.4.eXaXaXrXwX3.,.+.%.wXgXmXfXtXU.y.B B W } Q.!.wXqX",
"&.<.0XaXgXMXCXZXAXZXCXMXhXrX4.3.yXbXMXsXeXaXhXfXyX2.u.q.e.s.s.a.q.0.F o.y t y i u u u u y y q q y u +.&.<.<.3.4.;X0X8X4.4.4.4.4.4.4.3.<.1.<.3.4.qXrXrXqX4.,.@.u y y u @.+.%.&.,.&.%.%.%.&.&.%.%.@.O.u O.@.&.3.qXsXmXnXnXhXrX4.&.%.4.sXbXbXdXQ.G m C _ 2.wXeXrXaX",
"<.3.eXhXnXCXZXAXZXAXZXNXgXaXwX4.rXnXCXnXfXgXnXhX9X;.u.w.s.s.s.e.9.g F u w O + O O 0 0 0 0 0 0 0 q y y y u u @.+.%.&.,.6.0XeXrXaXaXaXrXqX4.<.>.&.%.%.%.+.@.u q q y u +.&.<.3.0XeXeXeX0X3.&.%.&.,.&.@.O.u u @.&.4.aXbXNXCXMXgXrX<.&.3.tXfXmXgXwX$.D ^ $.4.rXdXsXfX",
",.3.eXfXnXCXZXZXZXZXZXMXhXrX0X3.eXnXNXmXsXhXnXjXQ.G 0.p.s.f.s.q.f h F y 0 + o O O 0 0 0 0 0 0 0 q q q q y u @.%.&.,.<.4.eXsXhXgXbXgXhXaXqX4.<.,.%.+.O.u y q 0 0 q u @.&.<.0XeXaXsXsXaX0X,.%.%.&.,.,.&.@.u u +.<.wXsXnXNXNXnXaX3.&.&.3.rXbXbXqX%.o.O.*.0XsXhXbXmX",
"%.,.0XaXgXMXNXCXCXCXNXmXaXwX3.<.qXbXMXfXeXrXfXuX/.q.e.s.s.s.p.8.h z r y w O 0 q y y y u u y y q q q q y O.%.<.3.4.0XqXrXsXgXnXMXNXMXmXhXaXeXqX0X3.,.%.u q q 0 0 q q u @.,.4.eXaXsXfXsXrX4.&.@.@.,.0X4.%.u u u %.3.eXfXmXnXgXaX3.%.@.%.!.hXbXwX+.u u %.0XsXbXnXMX",
"@.%.<.qXaXhXmXnXnXnXmXfXeX4.<.3.eXbXmXrX5.9XeX~.i.w.p.s.s.p.q.g F D #.@.y 0 q y u u O.O.O.u u y q q q y @.,.3.0XwXeXaXfXbXMXNXCXZXCXNXmXfXaXrXeX0X<.%.u q 0 0 0 0 q y O.&.3.qXaXfXgXhXsXqX3.%.O.%.<.3.3.,.@.u @.,.4.eXaXaXrX0X>.+./ ' ~.jXhXqX&.X.u @.3.rXsXfXhX",
"u @.&.3.wXrXaXsXsXsXaXeX4.<.<.4.rXgXgXwX&.,.2.I.i.w.p.a.p.q.0.G &.1.,.&.O.t y O.@.@.@.@.@.@.u u t q q y @.&.3.4.0XeXaXhXmXMXNXCXCXCXNXmXsXaXrXqX4.<.%.u q 0 O O 0 q y u %.<.wXaXhXbXmXhXaX0X&.u u @.&.4.0X&.u u %.,.3.4.4.<.,.*.( { n.R.iXsXyX<.+.y u >.4.wXqXeX",
"u O.+.,.3.4.0X0X0X4.3.<.&.&.<.0XaXcXhX9X#.D G 0.q.p.a.p.w.8.g I.yXwX,.+.@.O.+.&.&.&.&.%.%.+.@.u y y q 0 q u @.&.<.4.eXaXsXsXhXhXgXgXhXaXeXwX0X4.<.%.O.q 0 O O O O 0 y u %.,.4.eXsXbXnXbXsXwX&.u q y @.<.4.,.@.u u u +.%.%.=.$. .J.K.B.=XuXrXeX0X&.y q +.,.<.<.<.",
"y y O.+.&.,.,.,.,.,.&.%.@.%.<.eXsXgXfX4.#.F h 8.w.a.a.e.9.g G !.kXqX&.@.+.&.<.3.3.<.<.,.,.%.+.O.u y q 0 O 0 q u @.&.<.4.0XwXqXeXeXeXeX0X3.<.,.&.+.u q 2 + + O O O 0 q u @.&.3.yXsXbXMXnXhXeX,.u q 0 y %.,.,.%.O.q w r ^ / /  .+X%X#XoX=X;XqXeXqX,.y 0 u @.%.%.%.",
"q q y u @.+.%.%.%.%.+.@.u @.3.rXsXfXaX4.*.G g 9.w.p.e.q.0.I.2.0XwX3.&.%.,.3.0XwXwX0X4.3.<.,.%.@.u y q 0 O O O 0 q u O.=.&.,.<.3.3.4.3.,.%.+.@.O.y 0 % + . o o o O 0 q y @.&.3.eXfXnXNXNXmXaX3.@.t 0 0 y @.&.1.%.y 6 n W v.J.+X1X3X&X#X+X2.3.wXyX<.u q q y u @.@.",
"0 0 q y u u O.@.@.O.u u y @.3.aXsXrXwX6.*.G g 9.w.p.w.9.u.Q.qX9X<.,.>.<.4.eXrXrXrXqX0X4.3.,.%.@.u y y 0 a o o o O 0 q y D @.%.%.&.&.%.@.u y y q a o # 1 j 1 1 & + O 0 y O.&.4.rXhXMXCXCXnXsX4.=.D 5 6 2 y %.<.&.i 6 m t.c.B.#X<X5X3X%X+XU.:.!.0X<.@.y 0 0 q u O.",
"O O 0 q y y u u u y q q y @.0XsXaX4.,.&.*.G g 9.w.w.9.f G ~.rX5.&.&.3.0XeXaXsXsXaXeXwX4.<.&.%.@.u y q 0 O O o o o O 0 0 q y i u u u y y q 0 0 O o @ 1 C V l.V k & O 0 y @.&.4.aXmXNXZXCXMXsX5.$.) W C 5 t +.,.*.i 6 k V z.N.OX%X<X3X<X#XK.Z.U.6.1.%.O.q 0 0 q y ",
"o O O 0 q q y y y q 0 q u &.0XaXqX&.O.+.%.F h 8.q.q.0.G ;.!.qX<.%.,.0XaXfXgXbXxXhXrXwX4.<.&.+.O.u y w O % 1 j j j $ + o O a 0 0 0 0 0 O O O o o # * k V l.z.z.W Q v e t o.&.4.aXbXNXCXCXnXsX5.$.' n.v.Q S / #.O.t e k M l.M.P.#X*X&X*X#XB.n.} &.7.&.=.u q 0 O O ",
"o o O O O 0 q q q 0 0 y %.<.0XwX<.O.q u +.F h f 9.9.u.$.,.5.4.,.%.3.rXhXnXMXMXnXgXaXqX4.,.&.+.O.y w O + 3 m V B M k $ @ o o O O O o o o o o   X d C B t.l.x.b.N.B.J.~ e u %.3.eXfXnXNXNXmXaX6.#.{ K.B.N.v.) r q w e j M t.x.N.oX#X$X#XoXB.n.| #.%.&.&.@.y 0 o   ",
"0 O O o o o O O 0 q u %.3.0X4.,.@.q 0 y D F d f 8.9.G $.>.1.<.&.&.4.aXmXMXNXNXnXgXaXqX4.,.%.+.u q % 3 j C V B B M M k j * SXSXSXSXSXSXSXSXSXSXSXk M t.l.b.N.oX#X$XOXJ.{ ( $.,.0XaXhXmXmXhXeX,.#. .+XoXV.M.) e w q w 6 z m l.c.N.B.oXoXoXB.M.v._ | *.&.%.@.q o   ",
"0 0 O O O O 0 0 y O.&.<.4.4.&.u q 9 O w t l d s 8.8.G $.*.*.%.%.&.4.sXnXNXCXNXnXhXaXwX3.&.%.@.i e 1 k V t.B M M M M M M SXSXSXSXSXSXSXSXSXSXSXSXM M V z.N.oX#X*X<X&X$XK.} #.%.3.qXkXsXsXrX0X*.^  .+X$XoXK.` e w q q 9 % z V l.z.b.N.N.B.B.N.x.l.W | $.*.%.y o   ",
"o O 0 t u O.%.,.3.3.3.<.%.O.q a O O O 9 0 * d s f f G $.%.+.@.+.&.0XsXnXNXCXMXbXsXeX0X<.&.@.y e n W l.l.l.t.t.B M M SXSXSXSXSXSXSXSXSXSXSXSXSXSXM M V z.N.oX$X<X5X5X*XoX .^ O.&.3.0XqXqX0X<.@.i  .@X*X#XK._ e q t q 9 % 1 C B l.l.z.z.z.z.z.l.l.V C S #.*.+.SXSX",
"- - p U U @.%.<.5.3.,.=.U 7 - - + O O O O $ * s s h G $.=.X.u @.,.wXhXMXCXCXMXhXaXwX3.,.%.^ Z b W N.N.x.l.l.l.B M M SXSXSXSXSXSXSXSXSXSXSXSXSXSXM M B l.b.B.OX&X5X5X&X+X .r y @.&.<.<.<.,.*./ | J.@X%XoXN.{ ~ Z t w a % 1 C N B t.m.S.H.Y.Y.Y.H.S.A.} :.,.<.SXSX",
"I I I L 7 2 0 y u i q p U I J : - - O O O $ * s s s F $.+.i y @.<.eXbXNXCXCXnXfXeX4.,.=.O.~ Q n.K.oXP.M.x.l.l.B M M SXSXSXSXSXSXSXSXSXSXSXSXSXSXM M B t.x.N.oX$X<X<X*X+X{ e 0 y O.@.+.@.O./ J.+XoXoXP.N.M.n.v.Q r 0 8 % 1 C M M V U.uXlXnXVXxXlXjXdXtXwX4.3.3.<.",
"n ..P L L > > 7 7 U U T _._.R I J > - O O # * * * * F +.O.q q @.3.aXnXCXZXCXnXsXyX6.%.X.y ~ J.oX%X%XOXN.x.l.V B M SXSXSXSXSXSXSXSXSXSXSXSXSXSXSXSXM N B t.x.M.P.OX#XoXK.Q 2 O 0 q y u i y ^  .J.J.J.A.} { ] ] Q ! v e w e S G G } ~.kXhXvXmXbXgXhXjXaXqX4.3.<.,.",
"f h n T R R T I I E }.{.XX{.|.E I J > - O o . . & 0 i O.u w q +.4.aXMXCXCXNXmXsXwX,.@.y e | +X<X<X&XOXN.z.V M M SXSXSXSXSXSXSXSXSXSXSXSXSXSXSXSXSXSXSXM B t.l.x.b.N.N.n.n < + 0 q y u O.o.@.#.*.&.&.&.*.$.@.D ! W W ~ i u @.$.,.2.4.wXqXqXeXeXrXrXeXyX0X3.,.&.&.",
"f h n T _.].'.R T '.{. X.X X}.E I : = = + X @ o - q y u / |  .:.3.rXmXNXNXnXhXrX4.%.u Z _ J.1X5X3X%XoXb.l.B M M SXSXSXSXSXSXSXSXSXSXSXSXSXSXSXSXSXSXSXM M B l.l.l.z.z.l.m 6 q ^ %.,.3.4.4.0XwXqXyXyXwX8X6.>.%./ ) ! Z y y u @.*.,.6.4.wXrXaXsXsXaXrXeX4.<.&.&.%.",
"s d v T _.|.}.'.E ].{. X.X.X{.E L = @ @ X X + O w t t y ( J.+XU.1.0XfXmXmXhXaXqX<.@.Z { K.$X3X5X<X#XB.x.t.B M SXSXSXSXSXSXSXSXSXSXSXSXSXSXSXSXSXSXSXSXM M V l.l.l.l.l.W ) ^ %.<.0XeXaXsXsXsXfXfXfXsXaXeX0X3.,.+.u q 0 0 q y u +.&.<.4.eXhXmXbXhXsXkXwX3.&.%.%.%.",
"s s z L R |.}.].'.].{. X.X.X{.E L ; @     O y u y t 0 0 ~ K.+XJ.$.<.eXsXsXaXqX3.-.` Q M.oX%X<X<X%XoXN.z.t.B SXSXSXSXSXSXSXSXSXSXSXSXSXSXSXSXSXSXSXSXSXSXSXB B t.t.l._ -.2.wXrXaXsXsXaXrXqXwX0X0X0X4.5.<.<.,.&.+.y w 0 0 y O.%.,.3.0XrXsXgXbXhXsXeX0X3.,.&.%.+.+.",
"s s 1 : Y ].|.].'.].}.XX X X{.`.I ; @     0 @.=.u q 2 5 ) K.+X .^ %.5.wXqXwX3.&./ W x.B.OX%X&X%XOXB.b.l.t.SXSXSXSXSXSXSXSXSXSXSXSXSXSXSXSXSXSXSXSXSXSXSXSXSXM V W ] -.<.wXkXsXsXaXeX0X3.,.&.&.&.&.%.+.@.@.@.@.u q 0 O 0 y +.,.<.4.wXrXaXaXaXrXwX3.,.&.%.%.@.@.O.",
"SXSX< : L _.].'.'.'.].}.XXXX{.'.Y : @     q %.*.u w x W M.oX+X{ r u %.,.<.<.*.@./ W b.P.#X%X%X#XP.M.z.V M SXSXSXSXSXSXSXSXSXSXSXSXSXSXSXSXSXSXSXSXSXSXSXSXSXSXS / -.2.8X0X0X4.<.,.%.+.@.O.@.@.+.+.@.^ y q q y q 0 O o o q @.%.&.,.<.<.<.<.<.,.&.%.+.@.@.O.u u u ",
"SXSX, ; J T _.'.'._._.].}.{.|.E I : = @ + p @.@.q % n v.B.oXoXJ.| ( ^ @.%.*.+.u A W M.B.oXoXoXP.N.x.l.B M SXSXSXSXSXSXSXSXSXSXSXSXSXSXSXSXSXSXSXSXSXSXSXSXSXSXO.=.&.<.3.<.&.%.@.@.@.+.&.,.<.4.0X4.3.<.&.+.O.u q 0 O o o 0 u @.@.@.@.+.@.@.@.@.@.O.u u u u u u u ",
"SXSX, ; H L R '.]._.R R _.].`.T J ; = , : 7 q 0 o . j m.N.B.oX$X@XJ.^ y o.+.@.u A W b.N.M.N.M.b.x.l.l.SXSXSXSXSXSXSXSXSXSXSXSXSXSXSXSXSXSXSXSXSXSXSXSXSXSXq y o.+.%.%.#.@.O.O.@.%.,.4.eXsXbXnXMXMXmXhXsXeX3.%.u q O O O 0 q y y q y u u u u u u y y y y y u SXSX",
"SXSXSX; : K L R E R I L Y Y I J : , = : H ; + @   @ j l.c.N.B.oX#XJ.Z 0 y u y q Z W z.x.z.z.l.l.t.B B SXSXSXSXSXSXSXSXSXSXSXSXSXSXSXSXSXSXSXSXSXSXSXSXSXq q y u O.O.u u u u @.%.<.4.rXfXnXCXCXCXCXMXmXhXrX4.&.O.q 0 0 0 0 0 q y u u y u @.@.u y O.%.%.@.u y SXSX",
"SXSXSXSXSX, : L I L J K K K : : ; ; : H H , @     @ j V m.n.N.P.K.Z.^ y X.O.u y Z C l.l.l.t.B M M M M SXSXSXSXSXSXSXSXSXSXSXSXSXSXSXSXSXSXSXSXSXSXSXSX0 0 q y y y t y y u +.&.3.0XeXaXgXMXNXNXMXnXgXfXaXwX<.%.u q 0 0 0 O O q @.%.@.u @.&.&.@.y +.<.<.%.u SXSXSX",
"SXSXSXSXSX, ; H J J K H H : H H K J J J J ; = @   @ & Z | U.:XiXzXiXtXeXeXeXqX0X2.-.) W l.t.M M M SXSXSXSXSXSXSXSXSXSXSXSXSXSXSXSXSXSXSXSXSXSXSXSXSXSX0 0 0 0 0 0 0 y O.%.<.3.0XqXeXaXsXhXhXhXsXaXrXqX0X<.&.@.y q 0 0 0 0 q u %.&.@.u @.,.<.+.y u %.&.%.SXSXSXSX",
"SXSXSXSXSX, ; : H H H K J J L Y T T T Y L K = @ @ o w O.,.0XaXhXgXbXbXgXhXhXhXfXrX5.&.| W V B M SXSXSXSXSXSXSXSXSXSXSXSXSXSXSXSXSXSXSXSXSXSXSXSXSXSXSX0 0 O O O O w u @.,.3.4.0X0XwXqXeXeXeXeXqX0X4.3.,.%.@.y q 0 0 O O 0 y O.+.+.u y O.&.,.+.y y u O.SXSXSXSXSX",
"SXSXSXSXSXSXSX; : : H J I T '.].[.].'.R Y J ; = - q @.,.3.4.0X0X0X8X4.4.4.0XwXqXeXrXeX5.-.| SXSXSXSXSXSXSXSXSXSXSXSXSXSXSXSXSXSXSXSXSXSXSXSXSXSXSXSXSXo o o O O 0 y u @.%.&.,.,.<.<.3.3.4.4.4.3.<.,.&.+.O.y q 0 O o o o 0 y u y q 0 0 q u O.u SXSXSXSXSXSXSXSXSX",
"SXSXSXSXSXSXSXSX, : H J Y E ].{.{.}.].E Y L H > p u %.<.3.<.,.,.,.,.<.,.,.,.<.3.4.eXrX0X6.,.SXSXSXSXSXSXSXSXSXSXSXSXSXSXSXSXSXSXSXSXSXSXSXSXSXSXSXSXSX@ o O O 0 q q y u u O.@.@.+.%.%.&.&.,.,.,.&.%.@.u y q 0 0 O o o o 0 y y 0 O o O 0 q q SXSXSXSXSXSXSXSXSXSX",
"SXSXSXSXSXSXSXSXSX: H J L T '.].].].`.R Y L K K U @.+.%.%.%.%.,.3.0XeXeX0X3.<.,.&.,.<.4.0X3.%.O.SXSXSXSXSXSXSXSXSXSXSXSXSXSXSXSXSXSXSXSXSXSXSXSXSXSXSXO O 0 q q 0 0 0 0 q y y y y u O.@.@.@.+.+.@.O.u y q q 0 0 SXSXSXSXSXSXSXSXSXSXSXSXSXSXSXSXSXSXSXSXSXSXSXSX",
"SXSXSXSXSXSXSXSXSXSXH K J L Y T T Y I L J H : 7 i O.@.@.+.&.<.0XrXsXgXbXfXrX0X<.&.%.%.<.4.3.&.@.O.SXSXSXSXSXSXSXSXSXSXSXSXSXSXSXSXSXSXSXSXSXSXSXSXSXSXq q y u u y y q q q y y q q q y y y u u u u y q q 0 0 O O SXSXSXSXSXSXSXSXSXSXSXSXSXSXSXSXSXSXSXSXSXSXSXSX",
"SXSXSXSXSXSXSXSXSXSXSXSX; ; : : : : ; = = = = - p u u @.&.3.qXaXhXnXCXCXCXMXfXqX<.%.+.&.<.<.&.%.@.u y SXSXSXSXSXSXSXSXSXSXSXSXSXSXSXSXSXSXSXSXSXSXSXSXy u O.@.@.@.@.@.@.@.u u u u y q q y y y y q q 0 O O o o o SXSXSXSXSXSXSXSXSXSXSXSXSXSXSXSXSXSXSXSXSXSXSXSX",
"SXSXSXSXSXSXSXSXSXSXSXSXSXSXSXSXSXSXSXSXSXSXSX- q y u @.&.3.qXaXhXnXCXZXZXCXmXaX0X,.+.@.@.@.+.@.O.u u O.SXSXSXSXSXSXSXSXSXSXSXSXSXSXSXSXSXSXSXSXSXSXSXq q y u u @.+.%.,.,.<.<.<.<.,.&.%.+.@.u y q 0 O o o o o SXSXSXSXSXSXSXSXSXSXSXSXSXSXSXSXSXSXSXSXSXSXSXSXSX",
"SXSXSXSXSXSXSXSXSXSXSXSXSXSXSXSXSXSXSXSXSXSXSXSXq y u @.&.<.0XeXaXhXnXNXCXNXmXaXwX3.&.@.u y u u u u O.O.O.SXSXSXSXSXSXSXSXSXSXSXSXSXSXSXSXSXSXSXSXSXSXO O 0 q q u @.%.,.3.4.wXeXrXeXqX0X3.,.%.O.y 0 o @   SXSXSXSXSXSXSXSXSXSXSXSXSXSXSXSXSXSXSXSXSXSXSXSXSXSXSX",
"SXSXSXSXSXSXSXSXSXSXSXSXSXSXSXSXSXSXSXSXSXSXSXSXy y u O.+.,.3.4.qXrXfXbXnXnXhXrXwX3.,.&.@.O.y y q q y y y SXSXSXSXSXSXSXSXSXSXSXSXSXSXSXSXSXSXSXSXSXSXO O 0 q y y u O.@.%.&.3.wXrXaXsXaXeX4.&.O.q 0 o o SXSXSXSXSXSXSXSXSXSXSXSXSXSXSXSXSXSXSXSXSXSXSXSXSXSXSXSX",
"SXSXSXSXSXSXSXSXSXSXSXSXSXSXSXSXSXSXSXSXSXSXSXSXy y y u O.%.&.,.3.0XeXrXsXsXaXqX4.3.<.,.&.+.O.y q q q q y SXSXSXSXSXSXSXSXSXSXSXSXSXSXSXSXSXSXSXSXSXSXO O 0 q y u O.@.@.@.@.&.<.0XeXrXeXwX3.%.u q 0 O SXSXSXSXSXSXSXSXSXSXSXSXSXSXSXSXSXSXSXSXSXSXSXSXSXSXSXSXSX",
"SXSXSXSXSXSXSXSXSXSXSXSXSXSXSXSXSXSXSXSXSXSXSXSX0 0 q y y u O.@.%.,.3.4.0XwX0X4.3.<.,.&.&.%.%.+.@.u u y y SXSXSXSXSXSXSXSXSXSXSXSXSXSXSXSXSXSXSXSXSXSXO O 0 y u +.&.<.<.<.&.%.%.%.%.&.&.%.+.u q q SXSXSXSXSXSXSXSXSXSXSXSXSXSXSXSXSXSXSXSXSXSXSXSXSXSXSXSXSXSXSX",
"SXSXSXSXSXSXSXSXSXSXSXSXSXSXSXSXSXSXSXSXSXSXSXSXSXO O 0 0 q y u O.+.%.&.,.<.<.<.,.&.%.+.@.@.+.+.+.@.@.O.u SXSXSXSXSXSXSXSXSXSXSXSXSXSXSXSXSXSXSXSXSXSXO O 0 q u +.,.4.wXwX0X3.&.+.@.O.O.@.@.y q SXSXSXSXSXSXSXSXSXSXSXSXSXSXSXSXSXSXSXSXSXSXSXSXSXSXSXSXSXSXSXSX",
"SXSXSXSXSXSXSXSXSXSXSXSXSXSXSXSXSXSXSXSXSXSXSXSXSXSXo o O 0 0 y u u u @.@.%.%.&.%.@.u u y y y u O.@.@.@.@.SXSXSXSXSXSXSXSXSXSXSXSXSXSXSXSXSXSXSXSXSXSXSXSX0 0 y O.&.4.eXaXaXrX4.,.%.@.@.%.%.SXSXSXSXSXSXSXSXSXSXSXSXSXSXSXSXSXSXSXSXSXSXSXSXSXSXSXSXSXSXSXSXSXSX",
"SXSXSXSXSXSXSXSXSXSXSXSXSXSXSXSXSXSXSXSXSXSXSXSXSXSXSX0 0 O O 0 q q y y u u O.O.O.u u u u O.@.@.O.u u u u SXSXSXSXSXSXSXSXSXSXSXSXSXSXSXSXSXSXSXSXSXSXSXSXq q q y O.,.4.eXrXeX4.,.%.O.O.@.@.u SXSXSXSXSXSXSXSXSXSXSXSXSXSXSXSXSXSXSXSXSXSXSXSXSXSXSXSXSXSXSXSXSX",
"SXSXSXSXSXSXSXSXSXSXSXSXSXSXSXSXSXSXSXSXSXSXSXSXSXSXSXy y 0 0 0 q y u u u u u O.O.O.@.+.%.&.&.%.O.y q q q SXSXSXSXSXSXSXSXSXSXSXSXSXSXSXSXSXSXSXSXSXSXSXSXu y q 0 q O.%.,.3.<.,.&.@.u y u y q 0 q SXSXSXSXSXSXSXSXSXSXSXSXSXSXSXSXSXSXSXSXSXSXSXSXSXSXSXSXSXSXSX",
"SXSXSXSXSXSXSXSXSXSXSXSXSXSXSXSXSXSXSXSXSXSXSXSXSXSXSXu O.O.@.+.%.,.3.3.3.3.3.3.3.3.3.3.<.&.@.u q q y O.@.SXSXSXSXSXSXSXSXSXSXSXSXSXSXSXSXSXSXSXSX*.%.+.@.u y q 0 0 q y u O.O.u u y q q q q q u &.0XSXSXSXSXSXSXSXSXSXSXSXSXSXSXSXSXSXSXSXSXSXSXSXSXSXSXSXSXSXSX",
"SXSXSXSXSXSXSXSXSXSXSXSXSXSXSXSXSXSXSXSXSXSXSXSXSXSXSXO.@.+.%.,.<.0XeXrXrXeXeXeXeXqXwX4.<.%.y q q y O.%.%.SXSXSXSXSXSXSXSXSXSXSXSXSXSXSXSXSXSXSX$.%.%.&.%.O.y q 0 O O O 0 y y y q q 0 O O 0 y +.3.rXaXSXSXSXSXSXSXSXSXSXSXSXSXSXSXSXSXSXSXSXSXSXSXSXSXSXSXSXSXSX",
"SXSXSXSXSXSXSXSXSXSXSXSXSXSXSXSXSXSXSXSXSXSXSXSXSXSXSXSXSXy u @.%.<.4.wXeXeXqX0X3.<.&.%.@.u q y @.%.%.@.@.SXSXSXSXSXSXSXSXSXSXSXSXSXSXSXSXSXb.v.| $.>.3.3.&.@.q O O O 0 u %.&.&.+.u q O o 0 u ,.wXsXfXrX0XSXSXSXSXSXSXSXSXSXSXSXSXSXSXSXSXSXSXSXSXSXSXSXSXSXSXSX",
"SXSXSXSXSXSXSXSXSXSXSXSXSXSXSXSXSXSXSXSXSXSXSXSXSXSXSXSXSX0 0 q y @.%.,.<.3.<.&.%.O.u y u u @.%.&.,.&.@.u SXSXSXSXSXSXSXSXSXSXSXSXSXSXSXSXSXc.v.` ^ %.<.<.&.O.q O O y @.<.wXeXqX4.,.O.q O 2 u *.4.eXeX0X3.<.SXSXSXSXSXSXSXSXSXSXSXSXSXSXSXSXSXSXSXSXSXSXSXSXSXSX",
"SXSXSXSXSXSXSXSXSXSXSXSXSXSXSXSXSXSXSXSXSXSXSXSXSXSXSXSXSX0 0 O O 0 q y y y y u y q q y O.&.3.4.<.,.&.SXSXSXSXSXSXSXSXSXSXSXSXSXSXSXSXSXSXSXl.W n e y o.O.u q 0 O y &.0XaXhXbXbXfXqX,.O.0 O 0 y @.*.&.%.%.&.<.0XeXkXSXSXSXSXSXSXSXSXSXSXSXSXSXSXSXSXSXSXSXSXSXSX",
"SXSXSXSXSXSXSXSXSXSXSXSXSXSXSXSXSXSXSXSXSXSXSXSXSXSXSXSXSXSX0 O O O 0 q q y O.%.&.&.,.<.3.0XeXqX<.%.@.SXSXSXSXSXSXSXSXSXSXSXSXSXSXSXSXSXSXSXt.V m e w t q w 0 0 0 O.3.eXeXeXrXaXaXeX4.,.O.q 0 0 w y u @.%.3.wXrXsXjXiXSXSXSXSXSXSXSXSXSXSXSXSXSXSXSXSXSXSXSXSXSX",
"SXSXSXSXSXSXSXSXSXSXSXSXSXSXSXSXSXSXSXSXSXSXSXSXSXSXSXSXSXSXSX0 0 q y O.@.&.3.qXaXsXfXhXhXsXrX0X&.O.y SXSXSXSXSXSXSXSXSXSXSXSXSXSXSXSXSXSXSXM M SXSXSXt q 0 O 0 y @.<.4.<.%.&.3.0XeXeX0X,.@.q O O O q @.<.eXfXcXvXlX2X$X#XSXSXSXSXSXSXSXSXSXSXSXSXSXSXSXSXSXSXSX",
"SXSXSXSXSXSXSXSXSXSXSXSXSXSXSXSXSXSXSXSXSXSXSXSXSXSXSXSXSXSXSXu u @.&.,.,.3.eXhXmXbXgXhXjXrX0X,.@.y y SXSXSXSXSXSXSXSXSXSXSXSXSXSXSXSXSXSXSXSXSXSXSXSX9 O O O O 0 y +.,.<.3.0XkXsXhXsXeX3.+.q O o o 0 @.,.eXfXjXrX;X=XOX%X5XSXSXSXSXSXSXSXSXSXSXSXSXSXSXSXSXSXSX",
"SXSXSXSXSXSXSXSXSXSXSXSXSXSXSXSXSXSXSXSXSXSXSXSXSXSXSXSXSXSXSX@.%.,.4.wX4.4.aXnXMXbXsXaXeX4.&.@.u y q SXSXSXSXSXSXSXSXSXSXSXSXSXSXSXSXSXSXSXSXSXSXSXSXo o o O o o O y +.<.qXsXgXmXcXsXqX<.@.q o @ o 0 y %.4.eXwX,.-.A.K.$X3X6XSXSXSXSXSXSXSXSXSXSXSXSXSXSXSXSXSX",
"SXSXSXSXSXSXSXSXSXSXSXSXSXSXSXSXSXSXSXSXSXSXSXSXSXSXSXSXSXSXSX@.=.<.qXrXwX0XsXnXMXhXrX0X3.&.@.u y q q SXSXSXSXSXSXSXSXSXSXSXSXSXSXSXSXSXSXSXSXSXSXSXSXSXSXo o o o 0 u %.,.3.4.4.4.3.,.%.O.y 0 O o o O 0 y @.&.=.u Z Q n.P.%X<X<X<XSXSXSXSXSXSXSXSXSXSXSXSXSXSXSX",
"SXSXSXSXSXSXSXSXSXSXSXSXSXSXSXSXSXSXSXSXSXSXSXSXSXSXSXSXSXSXSXu O.&.4.0X4.3.qXsXsXeX4.<.%.@.u y q q SXSXSXSXSXSXSXSXSXSXSXSXSXSXSXSXSXSXSXSXSXSXSXSXSXSXSXSXo o O 0 o.%.=.+.$.-.:.-.( ( ( ^ e - o o o o O 0 q w 0 6 m l.b.P.OX%X*X&XSXSXSXSXSXSXSXSXSXSXSXSXSXSX",
"SXSXSXSXSXSXSXSXSXSXSXSXSXSXSXSXSXSXSXSXSXSXSXSXSXSXSXSXSXSXSX0 0 y @.+.@.@.%.,.,.,.&.+.O.u q 0 0 SXSXSXSXSXSXSXSXSXSXSXSXSXSXSXSXSXSXSXSXSXSXSXSXSXSXSXSXSXSXo o O q y t q ( =X1X1X-X-X1X=X( w 8 SXSXSXSXO O O O & k N t.z.M.P.oXOXSXSXSXSXSXSXSXSXSXSXSXSXSXSX",
"SXSXSXSXSXSXSXSXSXSXSXSXSXSXSXSXSXSXSXSXSXSXSXSXSXSXSXSXSXSXSX0 O 0 q q q q y u u u y y q q 0 0 SXSXSXSXSXSXSXSXSXSXSXSXSXSXSXSXSXSXSXSXSXSXSXSXSXSXSXSXSXSXSXSXo O 0 q 8 O ~ @X5X5X3X5X5X1X .p SXSXSXSXSXSXO O O & j M B t.z.M.N.B.SXSXSXSXSXSXSXSXSXSXSXSXSXSX",
"SXSXSXSXSXSXSXSXSXSXSXSXSXSXSXSXSXSXSXSXSXSXSXSXSXSXSXSXSXu u y q q 0 O 0 0 y u y q 0 O O O 0 0 SXSXSXSXSXSXSXSXSXSXSXSXSXSXSXSXSXSXSXSXSXSXSXSXSXSXSXSXSXSXSXSXSXSXSXSXo O ..J.%X&X<X&X%X$XSXSXSXSXSXSXSXSXSXSXSXSXSXSXSXSXSXb.b.b.SXSXSXSXSXSXSXSXSXSXSXSXSXSX",
"SXSXSXSXSXSXSXSXSXSXSXSXSXSXSXSXSXSXSXSXSXSXSXSXSXSXSXSX3.3.3.3.,.+.y q y @.,.4.4.,.+.u 0 0 0 q SXSXSXSXSXSXSXSXSXSXSXSXSXSXSXSXSXSXSXSXSXSXSXSXSXSXSXSXSXSXSXSXSXSXSXSXSXSXb v.B.OX#XOXB.N.SXSXSXSXSXSXSXSXSXSXSXSXSXSXSXSXSXSXSXSXSXSXSXSXSXSXSXSXSXSXSXSXSXSX",
"SXSXSXSXSXSXSXSXSXSXSXSXSXSXSXSXSXSXSXSXSXSXSXSXSXSXSX<.4.rXsXaXqX<.@.O.%.<.eXhXhXaX0X&.u y q q SXSXSXSXSXSXSXSXSXSXSXSXSXSXSXSXSXSXSXSXSXSXSXSXSXSXSXSXSXSXSXSXSXSXSXSXSXSXSXl.z.N.B.N.x.l.SXSXSXSXSXSXSXSXSXSXSXSXSXSXSXSXSXSXSXSXSXSXSXSXSXSXSXSXSXSXSXSXSXSX",
"SXSXSXSXSXSXSXSXSXSXSXSXSXSXSXSXSXSXSXSXSXSXSXaXrXwX,.+.%.3.0X4.<.%.u u @.>.4.qXqX4.<.%.u q 0 q @.,.SXSXSXSXSXSXSXSXSXSXSXSXSXSXSXSXSXSXSXSXSXSXSXSXSXSXSXSXSXSXSXSXSXSXSXSXSXSXSXb.N.b.z.SXSXSXSXSXSXSXSXSXSXSXSXSXSXSXSXSXSXSXSXSXSXSXSXSXSXSXSXSXSXSXSXSXSXSX",
"SXSXSXSXSXSXSXSXSXSXSXSXSXSXSXSXSXSXSXSXSXSXeXrXrXeX3.@.O.@.+.@.O.u u O.*.<.3.4.4.3.<.&.@.y 0 q @.,.<.SXSXSXSXSXSXSXSXSXSXSXSXSXSXSXSXSXSXSXSXSXSXSXSXSXSXSXSXSXSXSXSXSXSXSXSXSXSXb.b.b.SXSXSXSXSXSXSXSXSXSXSXSXSXSXSXSXSXSXSXSXSXSXSXSXSXSXSXSXSXSXSXSXSXSXSXSX",
"SXSXSXSXSXSXSXSXSXSXSXSXSXSXSXSXSX3X&X$XoXU.2.0XaXhXrX4.&.O.y 0 q u %.3.eXjXhXhXhXhXsXwX,.@.q 0 u %.&.SXSXSXSXSXSXSXSXSXSXSXSXSXSXSXSXSXSXSXSXSXSXSXSXSXSXSXSXSXSXSXSXSXSXSXSXSXSXSXSXSXSXSXSXSXSXSXSXSXSXSXSXSXSXSXSXSXSXSXSXSXSXSXSXSXSXSXSXSXSXSXSXSXSXSXSXSX",
"SXSXSXSXSXSXSXSXSXSXSXSXSXSXSXSX<X%XOXoXN.A.-.<.qXaXaXeX3.@.q a 0 ^ 2.:XzXxXxXxXxXxXfXrX0X&.y 0 y O.@.SXSXSXSXSXSXSXSXSXSXSXSXSXSXSXSXSXSXSXSXSXSXSXSXSXSXSXSXSXSXSXSXSXSXSXSXSXSXSXSXSXSXSXSXSXSXSXSXSXSXSXSXSXSXSXSXSXSXSXSXSXSXSXSXSXSXSXSXSXSXSXSXSXSXSXSXSX",
"SXSXSXSXSXSXSXSXSXSXSXSXSXSXSX6X*XK.x.z.m.] $.%.*.,.4.qX4.&.u t y  .-X4X4X4X4X7X4X;X3.wXeX3.u 0 0 q q SXSXSXSXSXSXSXSXSXSXSXSXSXSXSXSXSXSXSXSXSXSXSXSXSXSXSXSXSXSXSXSXSXSXSXSXSXSXSXSXSXSXSXSXSXSXSXSXSXSXSXSXSXSXSXSXSXSXSXSXSXSXSXSXSXSXSXSXSXSXSXSXSXSXSXSXSX",
"SXSXSXSXSXSXSXSXSXSXSXSXSXSX3X<XOXn.B B V S ^ X.u u &.3.<.%.u t p  .-X5X5X&X3X3X-X:.+.,.3.,.u 0 0 O O SXSXSXSXSXSXSXSXSXSXSXSXSXSXSXSXSXSXSXSXSXSXSXSXSXSXSXSXSXSXSXSXSXSXSXSXSXSXSXSXSXSXSXSXSXSXSXSXSXSXSXSXSXSXSXSXSXSXSXSXSXSXSXSXSXSXSXSXSXSXSXSXSXSXSXSXSX",
"SXSXSXSXSXSXSXSXSXSXSXSX<X&X$XoXM.l.M M M m r q q q u +.+.O.y 0 2 ~ +X%X&X&X&X%XJ.( y u @.O.y q O o o SXSXSXSXSXSXSXSXSXSXSXSXSXSXSXSXSXSXSXSXSXSXSXSXSXSXSXSXSXSXSXSXSXSXSXSXSXSXSXSXSXSXSXSXSXSXSXSXSXSXSXSXSXSXSXSXSXSXSXSXSXSXSXSXSXSXSXSXSXSXSXSXSXSXSXSXSX",
"SXSXSXSXSXSXSXSXSXSXSXSX$XOXP.M.z.t.C j j 3 % O O 0 q y y q 0 8 % c v.B.oXOXoXB.W x 0 0 q w 0 O O SXSXSXSXSXSXSXSXSXSXSXSXSXSXSXSXSXSXSXSXSXSXSXSXSXSXSXSXSXSXSXSXSXSXSXSXSXSXSXSXSXSXSXSXSXSXSXSXSXSXSXSXSXSXSXSXSXSXSXSXSXSXSXSXSXSXSXSXSXSXSXSXSXSXSXSXSXSXSX",
"SXSXSXSXSXSXSXSXSXSXSXSXB.B.b.l.l.SXSXSXO + o o O O 0 0 0 O O + O z V x.N.B.N.z.C 1 o o O O o o SXSXSXSXSXSXSXSXSXSXSXSXSXSXSXSXSXSXSXSXSXSXSXSXSXSXSXSXSXSXSXSXSXSXSXSXSXSXSXSXSXSXSXSXSXSXSXSXSXSXSXSXSXSXSXSXSXSXSXSXSXSXSXSXSXSXSXSXSXSXSXSXSXSXSXSXSXSXSXSX",
"SXSXSXSXSXSXSXSXSXSXSXSXx.x.z.SXSXSXSXSXSXSXSXSXSXSXSXSXSXSXSXSXSXSXSXSXb.M.b.SXSXSXSXSXSXSXSXSXSXSXSXSXSXSXSXSXSXSXSXSXSXSXSXSXSXSXSXSXSXSXSXSXSXSXSXSXSXSXSXSXSXSXSXSXSXSXSXSXSXSXSXSXSXSXSXSXSXSXSXSXSXSXSXSXSXSXSXSXSXSXSXSXSXSXSXSXSXSXSXSXSXSXSXSXSXSXSXSX",
"SXSXSXSXSXSXSXSXSXSXSXSXl.l.l.SXSXSXSXSXSXSXSXSXSXSXSXSXSXSXSXSXSXSXSXSXb.b.b.SXSXSXSXSXSXSXSXSXSXSXSXSXSXSXSXSXSXSXSXSXSXSXSXSXSXSXSXSXSXSXSXSXSXSXSXSXSXSXSXSXSXSXSXSXSXSXSXSXSXSXSXSXSXSXSXSXSXSXSXSXSXSXSXSXSXSXSXSXSXSXSXSXSXSXSXSXSXSXSXSXSXSXSXSXSXSXSXSX"
};
