/* XPM */
static const char *bos2e2[] = {
/* columns rows colors chars-per-pixel */
"128 128 254 2 ",
"   c #0C0D0D",
".  c #060908",
"X  c #0D1909",
"o  c #1A160D",
"O  c #141414",
"+  c #1C1C1C",
"@  c #171817",
"#  c #100F11",
"$  c #3D0101",
"%  c #360B08",
"&  c #251A0C",
"*  c #271B17",
"=  c #361818",
"-  c #35150B",
";  c #13280C",
":  c #1A3812",
">  c #1A2B14",
",  c #2B210E",
"<  c #2A2317",
"1  c #342413",
"2  c #3A2917",
"3  c #343115",
"4  c #1D2122",
"5  c #232324",
"6  c #2B2B2C",
"7  c #292826",
"8  c #362925",
"9  c #39342A",
"0  c #333333",
"q  c #3B3B3B",
"w  c #3A3635",
"e  c #2E3131",
"r  c #1D1E21",
"t  c #430101",
"y  c #4C0302",
"u  c #4C0B07",
"i  c #530404",
"p  c #580807",
"a  c #571708",
"s  c #491717",
"d  c #511611",
"f  c #660505",
"g  c #780202",
"h  c #691314",
"j  c #781A1A",
"k  c #621A06",
"l  c #422C19",
"z  c #4C351D",
"x  c #47341C",
"c  c #553A1D",
"v  c #53270A",
"b  c #662606",
"n  c #732B00",
"m  c #702501",
"M  c #7B3403",
"N  c #783709",
"B  c #6E370F",
"V  c #472728",
"C  c #582727",
"Z  c #493724",
"A  c #573C24",
"S  c #453C38",
"D  c #543835",
"F  c #703232",
"G  c #23491A",
"H  c #28551E",
"J  c #36531A",
"K  c #2C5C22",
"L  c #374F2F",
"P  c #2E6324",
"I  c #326825",
"U  c #38762C",
"Y  c #3C7A32",
"T  c #1E4016",
"R  c #4B501A",
"E  c #724A17",
"W  c #5A4426",
"Q  c #504A38",
"!  c #674728",
"~  c #744D28",
"^  c #7A522C",
"/  c #775634",
"(  c #655539",
")  c #4F7327",
"_  c #746728",
"`  c #69641D",
"'  c #3E3F41",
"]  c #3E4142",
"[  c #434343",
"{  c #4B4B4B",
"}  c #494846",
"|  c #554A44",
" . c #535353",
".. c #5B5B5B",
"X. c #585756",
"o. c #57584A",
"O. c #655A56",
"+. c #735049",
"@. c #54694F",
"#. c #6E6655",
"$. c #636363",
"%. c #6C6C6C",
"&. c #696867",
"*. c #766B66",
"=. c #787369",
"-. c #747474",
";. c #7B7B7B",
":. c #787978",
">. c #6E7171",
",. c #5F6263",
"<. c #860101",
"1. c #980202",
"2. c #851B1C",
"3. c #A90303",
"4. c #B60202",
"5. c #AB1515",
"6. c #833D06",
"7. c #892828",
"8. c #942D2D",
"9. c #9A3535",
"0. c #873737",
"q. c #A33B3B",
"w. c #B82929",
"e. c #C70101",
"r. c #D80202",
"t. c #D11616",
"y. c #E50303",
"u. c #F20000",
"i. c #CF2727",
"p. c #894609",
"a. c #94540E",
"s. c #985A12",
"d. c #8B5011",
"f. c #996418",
"g. c #A36918",
"h. c #AB751D",
"j. c #B27B1F",
"k. c #865933",
"l. c #8D592D",
"z. c #966725",
"x. c #98643A",
"c. c #90722C",
"v. c #A87825",
"b. c #A2693F",
"n. c #AB7523",
"m. c #8F5352",
"M. c #A94444",
"N. c #AD5151",
"B. c #8B6F52",
"V. c #A86D41",
"C. c #B87648",
"Z. c #AF7145",
"A. c #8F7270",
"S. c #A76969",
"D. c #C76C58",
"F. c #3D8533",
"G. c #3C8531",
"H. c #438C35",
"J. c #47983B",
"K. c #5A8B34",
"L. c #6AA33E",
"P. c #549839",
"I. c #4DA643",
"U. c #54B449",
"Y. c #57BA4C",
"T. c #51AE47",
"R. c #6FB44B",
"E. c #61995A",
"W. c #5CC753",
"Q. c #5DCA55",
"!. c #62CD56",
"~. c #65DB5D",
"^. c #64D65B",
"/. c #78D157",
"(. c #78E15F",
"). c #6AE361",
"_. c #6CEA65",
"`. c #73F76B",
"'. c #75F76C",
"]. c #978E33",
"[. c #B78827",
"{. c #B19234",
"}. c #B2A63B",
"|. c #95A33B",
" X c #C1972D",
".X c #C59D34",
"XX c #CAA536",
"oX c #D4B43D",
"OX c #CEB03C",
"+X c #948A53",
"@X c #AF964A",
"#X c #B2AC4A",
"$X c #918671",
"%X c #A98F71",
"&X c #B9AA74",
"*X c #82B767",
"=X c #D6BA44",
"-X c #C5AD4A",
";X c #CBB768",
":X c #92D557",
">X c #B2F668",
",X c #A4DF5A",
"<X c #DCC549",
"1X c #CECA51",
"2X c #E3CB4B",
"3X c #E8D755",
"4X c #E6D14E",
"5X c #EFE35B",
"6X c #D7C671",
"7X c #F7F268",
"8X c #DDEA66",
"9X c #7D7E80",
"0X c #7E8182",
"qX c #838383",
"wX c #8B8B8B",
"eX c #878888",
"rX c #988886",
"tX c #8D9091",
"yX c #949494",
"uX c #9B9B9B",
"iX c #989696",
"pX c #92928E",
"aX c #AB948F",
"sX c #AFA796",
"dX c #9DA0A1",
"fX c #A4A4A4",
"gX c #ACACAC",
"hX c #A9A7A7",
"jX c #B8AAA7",
"kX c #B3B3B3",
"lX c #BCBCBC",
"zX c #B9B7B7",
"xX c #B2B2AE",
"cX c #C3BCBA",
"vX c #C9B3AC",
"bX c #C2AA95",
"nX c #D1CCB4",
"mX c #DAD184",
"MX c #BFC3C3",
"NX c #C3C3C3",
"BX c #CCCCCC",
"VX c #C9C7C7",
"CX c #D3CBCB",
"ZX c #D3D3D3",
"AX c #DBDBDB",
"SX c #D8D9D8",
"DX c #CFD0D0",
"FX c #E3E3E3",
"GX c #EBEBEB",
"HX c #F1F3F3",
"JX c #DDDFDD",
"KX c #B7C4B5",
"LX c None",
"PX c black",
/* pixels */
"LXLXLXLXLXLXLXLXLXLXLXLXLXLXLXLXLXLXLXLXLXLXLXLXLXLXLXLXLXLXLXLXLXLXLXLXLXLXLXLXLXLXLXLXLXLXLXLXLXLXLXLXLXLXLXLXLXLXLXLXLXLXLXLXLXLXLXLXLXLXLXr.e.e.3.1.<.g f i i y LXLXLXLXLXLXLXLXLXLXLXLXLXLXLXLXLXLXLXLXLXLXLXLXLXLXLXLXLXLXLXLXLXLXLXLXLXLXLXLXLXLXLXLXLXLX",
"LXLXLXLXLXLXLXLXLXLXLXLXLXLXLXLXLXLXLXLXLXLXLXLXLXLXLXLXLXLXLXLXLXLXLXLXLXLXLXLXLXLXLXLXLXLXLXLXLXLXLXLXLXLXLXLXLXLXLXLXLXLXLXLXLXLXLXLXLXLXe.4.4.3.1.<.g f i i y y y LXLXLXLXLXLXLXLXLXLXLXLXLXLXLXLXLXLXLXLXLXLXLXLXLXLXLXLXLXLXLXLXLXLXLXLXLXLXLXLXLXLXLXLXLX",
"LXLXLXLXLXLXLXLXLXLXLXLXLXLXLXLXLXLXLXLXLXLXLXLXLXLXLXLXLXLXLXLXLXLXLXLXLXLXLXLXLXLXLXLXLXLXLXLXLXLXLXLXLXLXLXLXLXLXLXLXLXLXLXLXLXLXLXy.r.e.3.1.<.g f f p p p i i i i i LXLXLXLXLXLXLXLXLXLXLXLXLXLXLXLXLXLXLXLXLXLXLXLXLXLXLXLXLXLXLXLXLXLXLXLXLXLXLXLXLXLXLXLX",
"LXLXLXLXLXLXLXLXLXLXLXLXLXLXLXLXLXLXLXLXLXLXLXLXLXLXLXLXLXLXLXLXLXLXLXLXLXLXLXLXLXLXLXLXLXLXLXLXLXLXLXLXLXLXLXLXLXLXLXLXLXLXLXLXLXLXr.e.4.3.<.g h C F +.m.A.A.A.A.A.A.A.jXLXLXLXLXLXLXLXLXLXLXLXLXLXLXLXLXLXLXLXLXLXLXLXLXLXLXLXLXLXLXLXLXLXLXLXLXLXLXLXLXLXLXLX",
"LXLXLXLXLXLXLXLXLXLXLXLXLXLXLXLXLXLXLXLXLXLXLXLXLXLXLXLXLXLXLXLXLXLXLXLXLXLXLXLXLXLXLXLXLXLXLXLX{ X.%.qXuXzXNXZXBXzXuXwX:.X.[ w C 4.e.3.1.g f p C ..:.uXzXZXAXFXAXSXZXBXBXBXNXzXgXfXiXeX:.&.O.+.LXu.y.y.r.e.4.3.3.1.1.LXLXLXLXLXLXLXLXLXLXLXLXLXLXLXLXLXLXLXLXLX",
"LXLXLXLXLXLXLXLXLXLXLXLXLXLXLXLXLXLXLXLXLXLXLXLXLXLXLXLXLXLXLXLXLXLXLXLXLXLXLXLXLXLXLXLX6 q  ...$.%.:.eXuXzXNXNXgXyX:.%.X.] V j 5.4.3.<.f s V D O.qXfXMXAXGXHXGXGXGXFXAXZXBXNXzXgXuXtX0X-.m.w.t.y.r.e.4.3.1.<.<.<.g g g LXLXLXLXLXLXLXLXLXLXLXLXLXLXLXLXLXLXLXLX",
"LXLXLXLXLXLXLXLXLXLXLXLXLXLXLXLXLXLXLXLXLXLXLXLXLXLXLXLXLXLXLXLXLXLXLXLXLXLXLXLXLXLXLXLX6 q { ,.%.;.eXuXgXkXkXuXqX%.X.[ w V h 3.e.1.g p s S  .%.eXfXlXBXAXFXAXSXAXAXZXBXNXlXzXgXuXrXA.m.m.w.y.y.e.4.1.g f p p p i i f f f LXLXLXLXLXLXLXLXLXLXLXLXLXLXLXLXLXLXLX",
"LXLXLXLXLXLXLXLXLXLXLXLXLXLXLXLXLXLXLXLXLXLXLXLXLXLXLXLXLXLXLXLXLXLXLXLXLXLXLXLXLXLX@ 5 6 q { ..-.eXuXzXNXhX:.%...{ ] e V 2.4.4.1.g u V } ..:.yXhXzXlXNXNXlXzXzXlXlXzXzXgXfXiXeX;.m.i.t.t.t.e.4.1.g f u = 8 8 * % t y i i f f LXLXLXLXLXLXLXLXLXLXLXLXLXLXLXLXLX",
"LXLXLXLXLXLXLXLXLXLXLXLXLXLXLXLXLXLXLXLXLXLXLXLXLXLXLXLXLXLXLXLXLXLXLXLXLXLXLXLXLXLX@ < 8 S Q O.#.=.$XpXiXA...{ [ w 6 4 = 1.4.1.g F +.*.0XyXhXzXNXBXBXBXNXzXgXfXuXuXiXyXtXrXS.N.m.w.y.u.r.4.1.g p d C S } { } 0 6 D F +.m.m.S.LXLXLXLXLXLXLXLXLXLXLXLXLXLXLXLXLX",
"LXLXLXLXLXLXLXLX!.~._._._.`.'.'.'.`.).!.U.I.J.J.J.LXLXLXLXLXLXLXLXLXLXLXLXLXLXLXLXLX@ < Z W ~ ^ ^ ( Q D D | X.{ w 5 @ O = g 1.g F aXcXNXBXZXZXSXAXFXFXAXZXBXzXfXwX;.:.-.-.m.i.y.y.r.r.e.3.<.f d 8 } $.:.;.;.-.X. .;.fXcXCXCXSXFXFXAXZXBXzXfXiXiXLXLXLXLXLXLXLXLX",
"LXLXLXLXLXLXLXY.W.!.^.~.)._._.`.`._.).!.U.I.J.J.J.J.LXLXLXLXLXLXLXLXLXLXLXLXLXLXLX! 2 Z ! k.x.l.~ ! A c c A S 0 5 O @ q O.m.S.S.aXCXFXFXFXFXFXFXFXGXFXFXFXSXBXkXuXqX-.*.M.w.r.y.r.e.4.1.g p s S X.;.tXeX;.:.:.%.:.fXNXAXGXHXHXGXGXFXSXBXzXgXfXuXwXLXLXLXLXLXLXLX",
"LXLXLXLXLXLXU.Y.W.W.W.Q.^.~.)._._.).^.W.U.J.J.J.J.I.J.J.*XSXGXFXJXSXZXZXLXLXLXLXB.k.! ! k.b.Z.x.! ! ^ ^ ~ c 1 8 0 5 0 -.fXkXcXBXAXGXGXGXFXSXAXFXFXFXFXFXFXSXZXNXgXuXeXA.w.r.r.e.4.1.<.f p V } %.yXhXhX9X$.,.%.:.yXzXZXFXGXGXGXGXGXFXAXZXNXkXgXfXeX:.LXLXLXLXLXLX",
"LXLXLXLXT.U.Y.W.!.~.~.).).).).).^.W.U.I.J.J.J.U.Y.W.W.Y.R.*XKXSXSXZXBXNXkXhXzXcXjX%XB.^ x.V.k.^ ~ k.x.k.! l 1 O.qXqXqXyXhXkXMXZXFXGXGXFXSXZXSXFXFXAXSXZXZXBXNXlXzXgXuXrXm.q.5.1.<.f s V D X.:.uXkXgXyX$.[ X.%.qXfXlXZXFXGXGXGXGXGXGXFXZXNXgXfXuXqX:.X.[ LXLXLXLX",
"LXLXLXLXU.Y.W.^.)._.`.`._.`._.).Q.U.I.J.J.I.Y.Q.~.~.^.Q.I.J.*XVXBXNXlXzXgXfXhXkXlXjXA.B.x.k.! ! k.x.x.^ A Z | pXBXBXlXgXhXgXzXNXZXAXAXSXZXBXBXSXZXBXNXNXzXkXgXgXgXgXgXfXtXA.7.h p s 9 [ ..;.uXzXMXfX:.{ q  .-.wXhXzXBXAXFXFXFXFXFXFXAXDXlXhXuXyXqX-.X.[ LXLXLXLX",
"LXLXU.U.Y.W.~._.`.'.'.'.'.'.'._.).W.U.I.I.!.)._.).!.W.T.J.G.E.kXlXkXgXhXhXuXqX;.tXfXhXrX/ c ! k.b.x.~ z Z *.hXDXAXSXBXMXzXgXgXzXNXBXBXNXNXlXNXBXNXlXkXhXuXyXwXyXuXhXkXzXgXiX*.| 8 7 q X.:.uXzXNXzXwX$.[ q { $.qXiXhXzXDXSXAXAXFXFXAXZXNXkXfXiXeX;.%.X.[ 0 5 LXLX",
"LXLXY J.Y.Y.T.Q.`.'.'.'.`.~.Q.~._.^.W.U.W.)._._.Q.J.G.U I I @.$XwXwXeXqXeXqX%.$.-.eXfXuX*.( ^ k.x.^ z W #.fXSXGXGXFXZXBXNXzXgXgXkXlXNXlXzXzXzXzXgXuXeX;.:.:.:.qXyXgXlXBXNXkXtX&.q 0 [ %.uXlXBXBXkX;.{ q q [ X.-.qXiXgXlXBXZXZXSXSXZXNXzXhXuXwXqX:.$.{ q 6 5 LXLX",
"LXLX; K U.I.P J.).'.'.'._.I.Y Y._.~.Q.^.~._.).!.J.H : ; : K I I @.$...X.X.$.$.%.%.:.qXtXdXrXB.^ ! c Z *.xXZXFXGXGXFXAXZXNXlXgXuXuXkXlXlXzXgXhXuXqX:.$.X...%.:.qXuXkXBXSXSXNXfX:.X.[ { qXNXAXSXBXgX%.q 0 0 q { ..%.qXiXhXkXlXNXBXBXNXkXfXyXqX;.:.%.X.[ w 6 5 LXLX",
"LXLX. G I.I.Y I.).`.`.'.`.W.I.Q.).~.^.~.).~.Y.H.K ; X ; T P H H L  .{ [ [ { -.wXuXyXqXeXfXrX/ c x Q *.fXZXFXGXGXGXGXFXZXNXzXgXwXeXuXgXzXgXuXqX-.$.$.$.%.;.wXuXfXgXlXBXZXZXNXuX:...X.$.iXZXGXFXNXuX$.0 5 6 0 [ { X.%.:.;.eXyXiXuXuXiXeX:.%.$.$... .[ q 6 5 5 LXLX",
"LXLX; G J.T.I.Y.^.)._.`.`._.).).~.Q.Q.^.!.Y.H.H > ; > G P U I H L { { { { ..wXgXzXgXqX:.eX=.Q 2 1 O.gXBXAXGXGXGXFXFXAXlXgXhXuXqX;.eXuXfXuXqX%.X...%.qXuXkXlXlXzXzXzXzXlXlXgXqX%...$.:.gXAXGXFXNXyX..w 5 + 6 q [ {  .X.X...$.$.$.$.$.X.{ [ [ [ [ 0 6 6 5 + @ LXLX",
"I.H.I I G.F.F.J.T.W.Q.~.~.~.!.W.T.I.I.T.I.J.U G : G P G.J.I.F.P G e } $.qXfXkXgXwX-.$.,.%.-.*.| < | dXBXFXHXGXGXFXSXlXqX%.:.qX;.:.:.:.qX:.%.%.:.wXhXlXBXZXSXBXzXfXiXuXuXfXiX;.$.X.$.qXgXAXGXFXlXeX$.[ 6 @ 5 6 w q q q q q [ [ [ q q w 0 6 6 6 6 5 5 + @ @ O     ",
"J.H.G.) ) ) ) K.R.R./././././.R.R.L.P.H.G.U P H K Y J.U.Y.Y.J.I G L ..wXlXDXzXyX%.X. .X...>.qX%.w } ;.zXFXHXGXFXBXzXyX..[ ..-.:.-.$...$.$.$.:.uXlXZXAXAXZXNXgXwX:.%.qXiXuXiXqX%...$.qXkXSXGXFXkXqX-.$.[ 6 5 5 6 6 6 6 6 6 6 6 6 5 5 5 5 5 + r + @ @ @ @ 5 5 @   ",
"H.Y I ) c.].].}.#X1X1X8X8X8X8X8X1X1X|.) K P I U H.U.Q.^.W.T.G.K Q %.yXkXDXVXeX$.%.-.-.%.X...-.:.%.X. .yXAXHXFXDXgX;.X.X.X.%.%.$.X.{ { { ..:.uXBXSXAXZXzXuX:.{ q w  .eXkXlXkXiX:...$.eXgXZXAXZXfX-.;.eX:. .0 @ + + + + + + + + + @ @ @ @ @ @ @ @ O @ + 6  .X.0 @ ",
"I I R R d.s.z.v.[.{.{.-X-X-X-X-X{.{.v._ ) ) ) U F.T.W.W.T.F.P H @.yXzXVXvXaXm.F A.uXiXqX$.X...%.:.%.$.iXSXGXFXBXgX;.$.-.qXwXwX;.%.X. .X.-.iXzXNXlXgXyX:.X.w @ O + [ eXzXBXNXuX;.$.%.wXgXNXBXNXwX$.:.iXuXeX$.q 6 5 + + 5 6 q [ [ { { [ q 6 5 + + 5 w { $.:.%.q 5 ",
"G J E N a u a a a a a a a a a a a a b z.[.v._ R P G.H.H.U H : : @.uXDXCXD.5.4.i.aXlXkXuX:...{ { ..:.uXlXSXFXSXDXNXgXuXfXgXzXlXzXhXqX:.:.yXkXkXuX:.{ w 5 @ @ O @ 6  .eXkXNXzXiX:.$.%.wXgXlXlXgX:. .$.qXgXlXgXqX..[ 0 w [ X.:.eXiXuXuXwX:.X.[ w q  .-.yXuXyX%.q 5 ",
": 3 B m y $ $ $ $ $ $ $ $ $ $ $ $ $ y N d.d.E E ` ` R K G : ; > @.iXVXVXN.1.4.t.N.D.sXuX;...[ q { %.uXlXZXZXBXlXkXgXhXgXgXzXNXBXNXgXuXwXiXgXuX:.{ 5 @ O @ 5 0 [ [ X.qXuXfXiX:... ...qXuXgXgXuX-.{ { ,.wXxXlXzXuXqX;.;.wXuXkXNXBXBXBXlXgXiXqX-.%.;.yXfXuX:. .6 + ",
"> 3 b k y t t t t t t t t t t t t t t t t t a p.d.p.c 3 > ; ; > o.eXkXjXm.<.1.3.e.w.S.wX:...] 0 w X.qXgXNXlXgXfXiXyXyXyXyXuXgXzXMXzXhXwXeXwXqX$.[ 6 6 w [ { $.-.$.X.-.;.:.%. .[ q  .:.yXfXfXyX%.[ 0 w o.$XhXNXNXNXNXNXNXBXBXBXBXBXNXNXlXkXgXuXiXiXiXeX-.{ 6 @ O ",
"% % u y t t t t t t $ t t t t t $ t $ $ $ $ y k b a u % , G H K o.>.tXpXF f g 1.3.5.+.%...{ q 0 6 [ %.yXhXfXwXqX:.-.$...X...%.:.qXqX;.%.%.:.:.:.;.qXeXyXuXuXiXeX$. .X.X.X. .[ w 0 { -.eXuXiXqX$.[ 6 5 0 o.=.pXgXzXzXzXgXdXyXeXqX;.:.-.%.%.&.%.-.-.%.X.[ 6 @ O   ",
"u u u y t t t y i p p y y y u p p u i y y t t t t u a v R ) F.Y @.X.%.*.D p f <.1.1.F | [ q q e 5 q X.:.eX;.%.$... .[ q q q [ {  . .{ } { X.%.qXuXzXBXBXNXzXuX9XX.[ [ { X.X.} q e [ %.qXwXqX-.X.[ 5 @ + 6 Q O.:.eXeXqX:.%.X.} [ S w e 6 7 7 w [ [ ] 6 4 @ O     ",
"J R B b y t y h j 7.8.j h h j 7.8.7.j h p y t $ a N ` K.T.W.U.J.Y q { X.| D d f <.1.1.j V e 0 6 4 6 [ X.$...{ [ q q q } X.$...} q 0 e 6 0 q  .%.wXgXlXlXhXeX%.{ w w { $.qXqX%.{ 0 q ..-.:.%.X.{ q 5 @ @ @ 5 e Q [ q q Q Q Z Z Z 9 2 1 < * & * 5 5 + @ @     LXLX",
"G.) E M u y p j 9.q.q.7.j 7.q.M.M.9.7.h p y y a E c.L.!.^.Q.T.Y H 7 0 [ } [ s i g <.1.<.h V 7 5 = = e q [ q 0 w ' }  ...%.eXA.| 8 * * * * 7 w { &.0XwXeX:...S 8 * 8 O.wXgXgXwX$.w w  .,.$.X.{ q e < O # O @ * 8 9 2 2 A c c c A z l 1 , & & o O O O O O     LXLX",
"F.K.f.N u y h 8.M.q.8.7.8.M.N.N.M.8.j h i y k a.]./.~.).!.I.U G ; @ 7 q q w s y i f g <.<.h = = p u * 5 6 5 5 q ..>.:.:.qXhXiXD $ t t t % * 5 6 q [ { { ] w = t $ C A.lXZXNXfX-.q 6 [ {  .{ q 0 5 @ O   # & 2 A ~ ! ~ k.^ ! ! ^ ! z 2 1 1 1 & o o o LXLXLXLXLXLX",
"F.K.v.d.u y h 8.q.8.j 7.q.N.N.M.8.j h i a B z.|.:X).).^.T.Y G ; X + 7 6 e 7 = % y i f g <.g u u f i % * * @ 5 [ X.%.qXwXwXA.+.s y h h i $ % = C C C V = = % $ t F A.jXDXZXlXiX$.w 5 0 q q w 6 5 @ @ O     & z ^ x.k.l.b.x.~ ^ l.^ c l l 2 1 , & & & LXLXLXLXLXLX",
"G.K.{.z.k i h 2.8.j h 7.N.M.q.7.h p y t b n.}.:X_._.^.U.G.G ; X + 6 6 5 5 5 5 * % t y i f f g f i y t % + LXLX[ { X.:.uXiXF u t h 7.7.h u p h 7.7.j h y u d d C rXNXDXBXzXuX:. .6 5 5 5 5 5 + @ @ @ @   o 2 ! x.V.x.x.C.V.k.k.b.k.z x Z x 1 1 , & o LXLXLXLXLXLX",
"LXL.*X|.z.N k h 2.j h 7.q.9.7.h p y t $ b [.1X:X_.~.Y.H.K : X X @ 5 5 4 + + + @ & % $ y y i i i y y LXLXLXLXLXw q [ $.dXhXm.j j j 7.7.j j 7.7.7.2.j f p +.A.rXaXcXZXBXkXuX;...[ 6 5 5 + @ @ + 5 6 5 * < 2 W ^ x.V.Z.C.C.C.x.x.V.k.Z z A z 1 1 1 & o LXLXLXLXLXLX",
"LXLXW.*X}.z.a p h h j 7.7.j h p y t t a E }.,X(.~.Y.H.P : ; X X O @ @ @ @ @ @ O O o % t t t t t t LXLXLXLXLXLX7 6 S O.rXaXS.q.9.8.7.7.8.9.q.8.7.7.0.0.0.aXBXSXZXZXBXxXyX:...[ w 6 6 6 6 6 6 6 0 0 6 5 8 A ^ x.x.b.C.C.C.Z.Z.V.x.^ z z A z 1 1 2 * & LXLXLXLXLXLX",
"LXLXT.R.-Xn.a y p f f h j h p y t $ a z.}.:X(.^.U.H.K : ; X X O O @ @ @ @ @ @ O LXLXLXLXLXLXLXLXLXLXLXLXLXLXLX+ 5 C 0.N.N.M.q.q.M.M.M.M.q.8.j h m.bXvXjXcXZXBXNXzXhXeX%.X.[ w 0 w [ { X.,.X.{ q 6 r @ < A k.V.x.x.C.C.V.b.Z.x.^ W z z A x 1 1 1 & & LXLXLXLXLXLX",
"LXLXF.L.#X|.^ b p y i i p y u b E E l.#X,X(.Q.I.Y H : ; X X # O O O O O O O O O LXLXLXLXLXLXLXLXLXLXLXLXLXLXLX8 V F q.q.q.M.M.M.M.M.q.9.M.S.m.m.rXDXSXBXBXNXkXuXwX:.X.{ [ [ {  ...%.:.-.%.X.{ w 5 @ @ 1 A x.V.x.x.C.C.x.x.V.x.! c c z Z l 1 1 1 & & LXLXLXLXLXLX",
"LXLXI H.!.,X1Xc.a t y y y t a v.=X<X1X:X(.W.J.P G : ; X X O O O O O O LXLXLXLXLXLXLXLXLXLXLXLXLXLXLXLXLXLXLXLX7.8.q.M.N.N.N.M.q.8.7.j j m.cXCXcXzXlXzXgXhXuXwX:.X.[ w 0 [ X.:.wXyXiXyX-.{ w 6 5 + @ @ l ! x.b.x.b.C.Z.k.k.x.k.A z W A l l l 1 , LXLXLXLXLXLXLXLX",
"LXLXLXF.Y.(.,X#Xz.l.z.z.c.z.c.#X>X>X,X/.T.F.K : ; ; X X X O O O O O LXLXLXLXLXLXLXLXLXLXLXLXLXLXLXLXLXLXLXLX9.q.q.q.q.q.9.8.F j h p j m.sXZXSXMXkXhXiXeX:.%.X. .[ [ { X.-.eXuXuXeX:.$.{ e w [ [ w 5 * Z ^ k.x.x.b.V.x.k.^ ^ ! z z W c 2 l x 1 & LXLXLXLXLXLXLXLX",
"LXLXLXLXJ.Y.~.:X-X<X4X5X7X5X1X,X'.).!.J.U G > X X LXLXLXLXLXLXLXLXLXLXLXLXLXLXLXLXLXLXLXLXLXLXLXLXLXLXLXLXLX9.q.q.q.9.7.j p t t y u +.cXAXNXkXfXiXeX:.,.{ q w q { ..:.yXgXkXgXwX$.[ e 6 e { %.%. .w 7 A ^ ^ ^ x.x.x.k.^ ! W z l z A z 1 l x 1 & LXLXLXLXLXLXLXLX",
"LXLXLXLXK Y U./.:X,X>X>X>X>X,X(.W.J.Y H G : LXLXLXLXLXLXLXLXLXLXLXLXLXLXLXLXLXLXLXLXLXLXLXLXLXLXLXLXLXLXLXLXLXLXLXaXaX0.p t $ $ C A.jXSXZXkXuXqX-.,.{ 0 w q [ X.:.wXuXfXfXyX:.X.[ 0 6 { :.qXqX&.{ w 8 A ~ ! ! k.x.^ ~ ~ ! z l l x z l 1 1 2 , & LXLXLXLXLXLXLXLX",
"LXLXLXLX: H G.I.U.Q.~._._.).!.I.F.I G > ; LXLXLXLXLXLXLXLXLXLXLXLXLXLXLXLXLXLXLXLXLXLXLXLXLXLXLXLXLXLXLXLXLXLXLXLXGXVX+.t $ u C m.VXFXBXkXuXqX%. .q 6 + 6 q X.%.eXiXiXeX:.$.[ w q [ X.qXkXhX;.X.q 8 l A ! A W ^ ^ ! W ! A l 2 l 2 2 1 1 , , & & LXLXLXLXLXLXLXLX",
"LXLXLXLXLXT G K U F.J.U.Y.I.G.P G G LXLXLXLXLXLXLXLXLXLXLXLXLXLXLXLXLXLXLXLXLXLXLXLXLXLXLXLXLXLXLXLXLXLXLXLXLXLXLXHXCXm.t $ C rXVXSXDXkXyX:.X.[ 0 5 + + 6 w { X.X.X.{ [ q q w [ $.eXkXMXzXyX$.[ e 8 l Z Z z z W W c z z x 1 1 1 1 , , , & & o LXLXLXLXLXLXLXLXLX",
"LXLXLXLXLXLX> : G P Y J.I.G.H : > LXLXLXLXLXLXLXLXLXLXLXLXLXLXLXLXLXLXLXLXLXLXLXLXLXLXLXLXLXLXLXLXLXLXLXLXLXLXLXLXGXVX+.t $ F cXGXBXgXeX%. .q 6 6 6 q } X.%.-.:.:.%.X.[ w 0 q X.eXzXSXBXfX:.{ 0 5 2 l 2 2 2 2 l l 2 2 2 1 , 9 O.O.o.Q Q 9 8 0 LXLXLXLXLXLXLXLXLX",
"LXLXLXLXLXLXLXLXLXLXLXLXLXLXLXLXLXLXLXLXLXLXLXLXLXLXLXLXLXLXLXLXLXLXLXLXLXLXLXLXLXLXLXLXLXLXLXLXLXLXLXLXLXLXLXLXLXDXjX+.t $ F jXZXgXqXX.[ 0 6 6 w { %.eXhXlXNXBXZXNXhXqX$.{ { %.hXNXBXkXqXX.q 5 * < 2 1 1 1 1 1 1 2 2 1 , , o.gXNXxXiX:.,. .{ [ LXLXLXLXLXLXLXLX",
"LXLXLXLXLXLXLXLXLXLXLXLXLXLXLXLXLXLXLXLXLXLXLXLXLXLXLXLXLXLXLXLXLXLXLXLXLXLXLXLXLXLXLXLXLXLXLXLXLXLXLXLXLXLXLXLXLXNXfXF u +.A.kXkX0XX.q 6 5 5 6 [ $.:.eXfXzXBXZXAXAXBXkXyX-.X.%.hXlXzXyX$.[ 6 + + 9 | o.O.#.*.=.=.A.A.=.=.=.iXNXMXfXqX&. .} ] q LXLXLXLXLXLXLXLX",
"LXLXLXLXLXLXLXLXLXLXLXLXLXLXLXLXLXLXLXLXLXLXLXLXLXLXLXLXLXLXLXLXLXLXLXLXLXLXLXLXLXLXLXLXLXLXLXLXLXLXLXLXLXLXLXLXLXlXuX+.C aXBXkXeX .w 6 5 5 6 0 { $.%.%.:.eXuXzXlXNXBXNXgXqXX...iXgXuX-.[ e 7 + 5 [ %.eXuXhXkXNXDXZXDXBXBXDXBXlXuX=.O.| Q w 9 0 LXLXLXLXLXLXLXLX",
"LXLXLXLXLXLXLXLXLXLXLXLXLXLXLXLXLXLXLXLXLXLXLXLXLXLXLXLXLXLXLXLXLXLXLXLXLXLXLXLXLXLXLXLXLXLXLXLXLXLXLXLXLXLXLXLXLXhXuXrXrXzXzXqXX.w 6 q 0 + @ 5 6 q [  .X.%.;.yXuXiXwXqX:.$.[  .qXwX:.X.w 5 + 5 0 { &.:.eXyXfXzXNXBXZXFXJXDXnXmX;X#X@X+Xc.c.^ E LXLXLXLXLXLXLXLX",
"LXLXLXLXLXLXLXLXLXLXLXLXLXLXLXLXLXLXLXLXLXLXLXLXLXLXLXLXLXLXLXLXLXLXLXLXLXLXLXLXLXLXLXLXLXLXLXLXLXLXLXLXLXLXLXLXLXqXwXgXlXgXeXX.w 6 0 [ w @ O @ @ 5 q  .$.%.qXyXiXwX:.$. .q 0 [ %.%.X.[ 6 5 6 q X.%.-.:.:.;.eXuXgXlXBXAXZXnXmX5X5X3X4X=XXX Xh.s.LXLXLXLXLXLXLXLX",
"LXLXLXLXLXLXLXLXLXLXLXLXLXLXLXLXLXLXLXLXLXLXLXLXLXLXLXLXLXLXLXLXLXLXLXLXLXLXLXLXLXLXLXLXLXLXLXLXLXLXLXLXLXLXLXLXLXX.$.wXuXqX..w 5 6 0 w 6 + @ 5 e [ $.qXuXgXlXBXZXBXNXuX$.q 5 6 {  .[ e 5 0 X.:.uXgXgXhXuXeXeXuXkXZXAXDXnXmX8X7X7X3X4X=XXX[.g.d.LXLXLXLXLXLXLXLX",
"LXLXLXLXLXLXLXLXLXLXLXLXLXLXLXLXLXLXLXLXLXLXLXLXLXLXLXLXLXLXLXLXLXLXLXLXLXLXLXLXLXLXLXLXLXLXLXLXLXLXLXLXLXLXLXLXLXLX .%.-.$.[ 5 @ 5 5 5 5 + 5 0 [ X.:.iXgXzXBXAXFXFXSXzX:.{ 6 5 0 w 6 6 q X.qXkXBXZXNXkXuXqXqXfXlXAXSXvXmX3X5X7X7X3X2XoX Xh.a.6.LXLXLXLXLXLXLXLX",
"LXLXLXLXLXLXLXLXLXLXLXLXLXLXLXLXLXLXLXLXLXLXLXLXLXLXLXLXLXLXLXLXLXLXLXLXLXLXLXLXLXLXLXLXLXLXLXLXLXLXLXLXLXLXLXLXLXLXLX[ { LXLX@ @ @ @ @ @ @ 6 [  .X.%.;.wXuXgXlXBXBXzXfXqX..0 5 5 5 5 q %.yXzXZXFXZXlXuX;.%.;.gXBXAXnX;X-X4X3X3X3X3X<XXX[.f.p.M LXLXLXLXLXLXLXLX",
"LXLXLXLXLXLXLXLXLXLXLXLXLXLXLXLXLXLXLXLXLXLXLXLXLXLXLXLXLXLXLXLXLXLXLXLXLXLXLXLXLXLXLXLXLXLXLXLXLXLXLXLXLXLXLXLXLXLXLXLXLXLXLXw 0 6 5 @ @ 5 6 w q [ { X.%.:.wXuXgXhXyXqXqX%.q w { [ 6  .wXkXBXAXAXNXuX:.$.%.wXlXSXDXvX-XXX<X4X4X<X=X.X[.g.a.6.n LXLXLXLXLXLXLXLX",
"LXLXLXLXLXLXLXLXLXLXLXLXLXLXLXLXLXLXLXLXLXLXLXLXLXLXLXLXLXLXLXLXLXLXLXLXLXLXLXLXLXLXLXLXLXLXLXLXLXLXLXLXLXLXLXLXLXLXLXLXLXLXLX$... .q 5 + 5 5 5 5 6 q [ X.$.;.wXuXyX:.-.:.%.[ { :.%.{ %.uXlXBXDXNXuX:.X.X.;.gXZXZXkX%X@X.XOX=X=XXX[.g.s.d.p.LXLXLXLXLXLXLXLXLXLX",
"LXLXLXLXLXLXLXLXLXLXLXLXLXLXLXLXLXLXLXLXLXLXLXLXLXLXLXLXLXLXLXLXLXLXLXLXLXLXLXLXLXLXLXLXLXLXLXLXLXLXLXLXLXLXLXLXLXLXLXLXLXLX .%.-.$.{ 6 + @ 5 6 q { X.>.qXuXkXlXNXNXgXwX%.{ w [ %.:.%.qXfXzXNXzXfX;... .$.uXBXAXnX%Xx.n.j.j.[.[.h.s.a.p.6.M LXLXLXLXLXLXLXLXLXLX",
"LXLXLXLXLXLXLXLXLXLXLXLXLXLXLXLXLXLXLXLXLXLXLXLXLXLXLXLXLXLXLXLXLXLXLXLXLXLXLXLXLXLXLXLXLXLXLXLXLXLXLXLXLXLXLXLXLXLXLXLXLXq { %.:.$.{ 6 @ @ 5 q { $.:.yXgXNXZXFXFXFXZXgX-.[ 6 w X.%.:.qXyXfXhXuX;.,.{ X.:.zXSXVXaXl.p.a.s.a.a.a.d.p.6.6.M n LXLXLXLXLXLXLXLXLXLX",
"LXLXLXLXLXLXLXLXLXLXLXLXLXLXLXLXLXLXLXLXLXLXLXLXLXLXLXLXLXLXLXLXLXLXLXLXLXLXLXLXLXLXLXLXLXLXLXLXLXLXLXLXLXLXLXLXLXLXLXLXLXq [ $.%...[ 5 @ + 6 q { ..%.qXiXhXzXNXBXBXlXgXuX:.{ q {  .X.$.>.:.;.%...{ { %.yXBXCX%Xl.p.p.p.p.p.p.M M M M M n LXLXLXLXLXLXLXLXLXLXLX",
"LXLXLXLXLXLXLXLXLXLXLXLXLXLXLXLXLXLXLXLXLXLXLXLXLXLXLXLXLXLXLXLXLXLXLXLXLXLXLXLXLXLXLXLXLXLXLXLXLXLXLXLXLXLXLXLXLXLXLXLXLX0 q { X.{ 0 5 @ 5 5 6 q [  .$.-.qXwXiXuXiXwXeXyXqXX.[ q ' [ o.=.+X$XB.#.( o.$XkXDXcXB.B E ^ ~ E 6.M n n n n n LXLXLXLXLXLXLXLXLXLXLXLX",
"LXLXLXLXLXLXLXLXLXLXLXLXLXLXLXLXLXLXLXLXLXLXLXLXLXLXLXLXLXLXLXLXLXLXLXLXLXLXLXLXLXLXLXLXLXLXLXLXLXLXLXLXLXLXLXLXLXLXLX@ + 6 w q q w 6 @ @ @ @ @ + 5 0 [  .$.$.$.$.X.{  .$.$.{ q 6 6 q #.#X1X1X=X-Xv.z.%XNXNXhX&.| #.*.O.( B n n n n n LXLXLXLXLXLXLXLXLXLXLXLXLX",
"LXLXLXLXLXLXLXLXLXLXLXLXLXLXLXLXLXLXLXLXLXLXLXLXLXLXLXLXLXLXLXLXLXLXLXLXLXLXLXLXLXLXLXLXLXLXLXLXLXLXLXLXLXLXLXLXLXLX{ q w q q q 6 5 + @ O @ + 5 6 q  .$.;.wXwXeX;.%... .{ [ w 6 + 2 ! ].2X5X7X5X2X[.g.aXVXgXqX%.%.yXiX-.X.A v v v m LXLXLXLXLXLXLXLXLXLXLXLXLXLX",
"LXLXLXLXLXLXLXLXLXLXLXLXLXLXLXLXLXLXLXLXLXLXLXLXLXLXLXLXLXLXLXLXLXLXLXLXLXLXLXLXLXLXLXLXLXLXLXLXLXLXLXLXLXLXLXLXLX$.$....... .q 6 @ O O O @ 5 q X.%.eXhXNXZXZXZXNXgXyX>.{ 6 5 + @ x z.OX7X7X7X7X4X[.z.aXNXtX%.:.yXNXcXqXO.w 5 @ o LXLXLXLXLXLXLXLXLXLXLXLXLXLXLX",
"LXLXLXLXLXLXLXLXLXLXLXLXLXLXLXLXLXLXLXLXLXLXLXLXLXLXLXLXLXLXLXLXLXLXLXLXLXLXLXLXLXLXLXLXLXLXLXLXLXLXLXLXLXLXLXLX:.qXwXwXeX:.$.[ 6 @ O @ @ + 6 [ $.;.uXzXZXFXGXGXAXNXhXqX..[ q e 7 W [.<X7X7X7X5X=Xh.s.%XxXeX:.iXzXNXbXN.8.V 4 O # LXLXLXLXLXLXLXLXLXLXLXLXLXLXLX",
"LXLXLXLXLXLXLXLXLXLXLXLXLXLXLXLXLXLXLXLXLXLXLXLXLXLXLXLXLXLXLXLXLXLXLXLXLXLXLXLXLXLXLXLXLXLXLXLXLXLXLXLXLXLXLX;.qXfXzXgXuXqX%.X.[ 0 5 5 5 5 0 [ $.;.uXkXBXFXGXGXFXBXhXqX%.X.{ S S / {.<X7X7X7X<X{.g.l.$XuXeXeXkXNXkXS.i.5.s + @ O LXLXLXLXLXLXLXLXLXLXLXLXLXLXLX",
"LXLXLXLXLXLXLXLXLXLXLXLXLXLXLXLXLXLXLXLXLXLXLXLXLXLXLXLXLXLXLXLXLXLXLXLXLXLXLXLXLXLXLXLXLXLXLXLXLXLXLXLXLXLX-.yXgXlXNXgXwX%...%.-.%.X.q 6 6 6 q  .%.qXuXzXBXZXZXZXlXuX:.X.[ w Z ~ v.XX<X2X2X=X[.n.@XsXpXqXqXiXlXNXyX*.F C * @ LXLXLXLXLXLXLXLXLXLXLXLXLXLXLXLXLX",
"LXLXLXLXLXLXLXLXLXLXLXLXLXLXLXLXLXLXLXLXLXLXLXLXLXLXLXLXLXLXLXLXLXLXLXLXLXLXLXLXLXLXLXLXLXLXLXLXLXLXLXLXLX:.qXfXNXNXzXyX:.%.-.wXfXfXqXX.q 6 6 0 [ X.>.eXuXgXzXzXkXuX:.X.[ e 4 2 d.j.XXXXXX{.[.s.s.%XNXyX>.qXuXkXfX-.{ q 6 @ LXLXLXLXLXLXLXLXLXLXLXLXLXLXLXLXLXLX",
"LXLXLXLXLXLXLXLXLXLXLXLXLXLXLXLXLXLXLXLXLXLXLXLXLXLXLXLXLXLXLXLXLXLXLXLXLXLXLXLXLXLXLXLXLXLXLXLXLXLXLXLXLXuXfXzXNXkXyX%...qXgXNXBXNXhX:. .q 6 6 e [ X.-.qXeXwXeXqX%. .q 6 @ O 1 d.g.j.j.g.s.a.6.N %XkX9XX.qXfXyX:.X.q 5 @ LXLXLXLXLXLXLXLXLXLXLXLXLXLXLXLXLXLXLX",
"LXLXLXLXLXLXLXLXLXLXLXLXLXLXLXLXLXLXLXLXLXLXLXLXLXLXLXLXLXLXLXLXLXLXLXLXLXLXLXLXLXLXLXLXLXLXLXLXLXLXLXLXLXgXzXlXzXwX%...%.hXBXAXFXSXzXeX$.[ 6 + 5 6 q { X.$.$...X.{ 0 + @ o - v p.s.s.a.p.6.M d.B.$XiX$.{ :.tX-. .q 5 @ LXLXLXLXLXLXLXLXLXLXLXLXLXLXLXLXLXLXLXLX",
"LXLXLXLXLXLXLXLXLXLXLXLXLXLXLXLXLXLXLXLXLXLXLXLXLXLXLXLXLXLXLXLXLXLXLXLXLXLXLXLXLXLXLXLXLXLXLXLXLXLXLXLXyXgXNXzXiX$.{ $.yXNXFXFXFXAXNXuX%.[ 6 @ @ + 5 6 0 q q q w 0 6 5 + 1 v N p.p.p.N M n N B.uXyX:.{ [ $.:.X.w + @ LXLXLXLXLXLXLXLXLXLXLXLXLXLXLXLXLXLXLXLXLX",
"LXLXLXLXLXLXLXLXLXLXLXLXLXLXLXLXLXLXLXLXLXLXLXLXLXLXLXLXLXLXLXLXLXLXLXLXLXLXLXLXLXLXLXLXLXLXLXLXLXLXLXLXgXzXzXiX%.{ { qXzXSXGXGXFXAXNXdX:.{ 6 @ @ @ @ @ 5 5 5 5 @ 6 $.qX:.*.#.B.B.+.! A A A +.rXgXwXX.[ q  .X.q 5 O . LXLXLXLXLXLXLXLXLXLXLXLXLXLXLXLXLXLXLXLXLX",
"LXLXLXLXLXLXLXLXLXLXLXLXLXLXLXLXLXLXLXLXLXLXLXLXLXLXLXLXLXLXLXLXLXLXLXLXLXLXLXLXLXLXLXLXLXLXLXLXLXLXLXlXlXzXgX:.{ [ ..dXZXFXGXGXFXZXMXuX:.X.w 5 @ O O O @ @ @ + 5 { uXNXzXuXqXqXqX:.$. .{  .$.eXuX-.[ q q q 0 5 + < 3 LXLXLXLXLXLXLXLXLXLXLXLXLXLXLXLXLXLXLXLXLX",
"LXLXLXLXLXLXLXLXLXLXLXLXLXLXLXLXLXLXLXLXLXLXLXLXLXLXLXLXLXLXLXLXLXLXLXLXLXLXLXLXLXLXLXLXLXLXLXLXLXLXhXzXNXgXwXX.q  .;.zXFXGXGXFXAXZXzXyX-. .q 6 @ @ O O O @   5 %.uXgXhXwXqX;.0XwXyXuXeX%... .X.X.[ 0 6 6 6 5 O < _ {.{. XLXLXLXLXLXLXLXLXLXLXLXLXLXLXLXLXLXLXLX",
"LXLXLXLXLXLXLXLXLXLXLXLXLXLXLXLXLXLXLXLXLXLXLXLXLXLXLXLXLXLXLXLXLXLXLXLXLXLXLXLXLXLXLXLXLXLXLXLXLXLXkXzXzXuX%.[ w $.uXBXGXGXGXFXZXNXhX;.$.{ w 5 + @ o & & @ 7 { eXgXiXqX:.:.;.0XqXwXuXiXqX%. .q 0 7 5 5 5 @ + 0 o.#XoXXX XLXLXLXLXLXLXLXLXLXLXLXLXLXLXLXLXLXLXLX",
"LXLXLXLXLXLXLXLXLXLXLXLXLXLXLXLXLXLXLXLXLXLXLXLXLXLXLXLXLXLXLXLXLXLXLXLXLXLXLXLXLXLXLXLXLXLXLXLXLXLXBXNXgX;.{ 0 w :.kXZXGXGXFXSXBXgXqXO.[ w 6 + @ O - b a LX0XeXqX:.%.-.qXyXyXqX$.X.$.:.eXqX$.[ 6 5 + + @ O 6 ;.sX;XoXXX XLXLXLXLXLXLXLXLXLXLXLXLXLXLXLXLXLXLXLX",
"LXLXLXLXLXLXLXLXLXLXLXLXLXLXLXLXLXLXLXLXLXLXLXLXLXLXLXLXLXLXLXLXLXLXLXLXLXLXLXLXLXLXLXLXLXLXLXLXLXDXBXzXyX$.q e [ eXNXAXFXFXSXBXzXyX%.{ w 6 + @ * l b n LXLXtXqX;.:.;.eXuXuXiXqX%.X.{ X.%.%.$.{ 0 5 @ @ @   7 9XjX;XoXXX XLXLXLXLXLXLXLXLXLXLXLXLXLXLXLXLXLXLXLX",
"LXLXLXLXLXLXLXLXLXLXLXLXLXLXLXLXLXLXLXLXLXLXLXLXLXLXLXLXLXLXLXLXLXLXLXLXLXLXLXLXLXLXLXLXLXLXLXLXBXBXNXhX:.{ 0 q $.fXZXFXFXSXBXlXuX:.X.q 6 + @ @ v N M n LXLX,.%.qXuXgXkXgXuXqX;.:.&.{ [ q [ { [ q 5 @ O O @ 6 ..$X-XoXXX XLXLXLXLXLXLXLXLXLXLXLXLXLXLXLXLXLXLXLX",
"LXLXLXLXLXLXLXLXLXLXLXLXLXLXLXLXLXLXLXLXLXLXLXLXLXLXLXLXLXLXLXLXLXLXLXLXLXLXLXLXLXLXLXLXLXLXLXLXBXNXzXyX$.[ 0 { ;.zXSXAXSXZXlXhXqX$.[ 0 4 O < c B M M n LXLXeXwXhXlXNXlXfXqX.. ..... .[ 0 6 0 0 0 6 + @ + { %...#.@XoX X[.LXLXLXLXLXLXLXLXLXLXLXLXLXLXLXLXLXLXLX",
"LXLXLXLXLXLXLXLXLXLXLXLXLXLXLXLXLXLXLXLXLXLXLXLXLXLXLXLXLXLXLXLXLXLXLXLXLXLXLXLXLXLXLXLXLXLXLXLXZXNXhX;.X.S S $.iXNXAXSXBXNXgXeX%.{ q 5 + < c d.p.n n n LXLXfXhXlXBXBXkXeX$.q 6 q { { [ 0 5 5 5 5 5 5 O 5 :.iX..Q {.OX[.j.LXLXLXLXLXLXLXLXLXLXLXLXLXLXLXLXLXLXLX",
"LXLXLXLXLXLXLXLXLXLXLXLXLXLXLXLXLXLXLXLXLXLXLXLXLXLXLXLXLXLXLXLXLXLXLXLXLXLXLXLXLXLXLXLXLXLXLXLXBXzXyX>. .! ^ $XgXBXSXZXNXgXyX%. .q 6 @ 2 E d.d.6.n n LXLXLX:.qXgXlXgXeX$.[ 0 6 6 6 w w w 0 6 5 @ @ @   @ ..:.} Q {.OX[.j.LXLXLXLXLXLXLXLXLXLXLXLXLXLXLXLXLXLXLX",
"LXLXLXLXLXLXLXLXLXLXLXLXLXLXLXLXLXLXLXLXLXLXLXLXLXLXLXLXLXLXLXLXLXLXLXLXLXLXLXLXLXLXLXLXLXLXLXBXNXgXqX=.#.l.g.%XzXDXZXNXgXyX:. .q 6 7 3 E f.s.p.M n LXLXLXLXLX%.qXwX:...[ 0 w q [ q 6 5 6 6 6 5 @ O @ 7 q X.X.0 Q {.OX[.j.LXLXLXLXLXLXLXLXLXLXLXLXLXLXLXLXLXLXLX",
"LXLXLXLXLXLXLXLXLXLXLXLXLXLXLXLXLXLXLXLXLXLXLXLXLXLXLXLXLXLXLXLXLXLXLXLXLXLXLXLXLXLXLXLXLXLXBXNXkXyX:.+X#X[.v.%XzXNXNXkXyX-.X.q 7 r Z c.v.a.p.M n n n LXLXLXLXLX{ { [ w 6 0 { $.:.$.0 + @ @ + 5 r @ r $.tX%.[ 6 Q {.OX[.j.LXLXLXLXLXLXLXLXLXLXLXLXLXLXLXLXLXLXLX",
"LXLXLXLXLXLXLXLXLXLXLXLXLXLXLXLXLXLXLXLXLXLXLXLXLXLXLXLXLXLXLXLXLXLXLXLXLXLXLXLXLXLXLXLXLXLXlXkXuX9X%.+X<XoX.X&XkXlXzXuX:.X.q 5 7 W c.[.j.p.M n n n LXLXLXLXLXLX5 5 6 6 w { %.;.;.,.0 5 5 + @ @ @   @ %.uX%.Q ( c.}.XXj.g.LXLXLXLXLXLXLXLXLXLXLXLXLXLXLXLXLXLXLX",
"LXLXLXLXLXLXLXLXLXLXLXLXLXLXLXLXLXLXLXLXLXLXLXLXLXLXLXLXLXLXLXLXLXLXLXLXLXLXLXLXLXLXLXLXLXLXgXuX9X%.O.+X2X2X=X&XgXgXfXqX$.q 5 @ x ].XX[.g.p.M n n LXLXLXLXLXLXLX+ + 5 0 { $.qX;...' 6 6 0 6 + O     + ..qXX.Q @X<XOX[.g.s.LXLXLXLXLXLXLXLXLXLXLXLXLXLXLXLXLXLXLX",
"LXLXLXLXLXLXLXLXLXLXLXLXLXLXLXLXLXLXLXLXLXLXLXLXLXLXLXLXLXLXLXLXLXLXLXLXLXLXLXLXLXLXLXLXLXLXyXqX%.#.c.{.XX X[.%XuXdXiX-.{ 6 @   3 {.XXh.a.6.n n n LXLXLXLXLXLXLXLX@ @ 5 w { X. .q 6 6 6 6 5 @     0 X.%.%.} Q @X<XXXv.g.s.LXLXLXLXLXLXLXLXLXLXLXLXLXLXLXLXLXLXLX",
"LXLXLXLXLXLXLXLXLXLXLXLXLXLXLXLXLXLXLXLXLXLXLXLXLXLXLXLXLXLXLXLXLXLXLXLXLXLXLXLXLXLXLXLXLXLXqX:.%.B.@X{.{.n.z.B.eXtXqX$.q 5 O < W v.[.g.p.M n n LXLXLXLXLXLXLXLXLXLXO @ 5 7 6 5 + r 6 5 @ @ O   @ { :.>.X.{ ( @XoX[.h.f.s.LXLXLXLXLXLXLXLXLXLXLXLXLXLXLXLXLXLXLX",
"LXLXLXLXLXLXLXLXLXLXLXLXLXLXLXLXLXLXLXLXLXLXLXLXLXLXLXLXLXLXLXLXLXLXLXLXLXLXLXLXLXLXLXLXLXLXqXqXeXiXsXsXaX$XB.=.-.:.%.{ e O < _ ].v.g.a.6.n n LXLXLXLXLXLXLXLXLXLXLXLXLX@ @ @ @ @ @ @ @         @ w { } | +X#X=XoX[.g.a.p.LXLXLXLXLXLXLXLXLXLXLXLXLXLXLXLXLXLXLX",
"LXLXLXLXLXLXLXLXLXLXLXLXLXLXLXLXLXLXLXLXLXLXLXLXLXLXLXLXLXLXLXLXLXLXLXLXLXLXLXLXLXLXLXLXLXLXwXuXgXlXVXBXNXgXtX:.$... .q 6 9 _ }.XXg.p.p.M n n LXLXLXLXLXLXLXLXLXLXLXLXLX@ @ @ @ + 5 5 5 6 6 6 q [  .X...*.#X4X<XXX[.g.p.6.LXLXLXLXLXLXLXLXLXLXLXLXLXLXLXLXLXLXLX",
"LXLXLXLXLXLXLXLXLXLXLXLXLXLXLXLXLXLXLXLXLXLXLXLXLXLXLXLXLXLXLXLXLXLXLXLXLXLXLXLXLXLXLXLX;.eXuXkXNXZXJXFXFXDXkXeX$.{ q 7 9 ].-XOX[.s.6.M n n n LXLXLXLXLXLXLXLXLXLXLXLXLX@ + 5 6 0 q { X.%.-.;.eXiXfXgXzXzX6X=XOX[.h.s.p.p.LXLXLXLXLXLXLXLXLXLXLXLXLXLXLXLXLXLXLX",
"LXLXLXLXLXLXLXLXLXLXLXLXLXLXLXLXLXLXLXLXLXLXLXLXLXLXLXLXLXLXLXLXLXLXLXLXLXLXLXLXLXLXLXLX:.qXuXkXVXBXBXZXZXZXNXhX;.X.q r 9 @X2X.Xg.p.M n n n LXLXLXLXLXLXLXLXLXLXLXLXLXLX@ + 5 0 w [ { X.$.-.:.qXiXgXlXDXZXnXmX6X;Xv.a.p.d.aXLXLXLXLXLXLXLXLXLXLXLXLXLXLXLXLXLXLX",
"LXLXLXLXLXLXLXLXLXLXLXLXLXLXLXLXLXLXLXLXLXLXLXLXLXLXLXLXLXLXLXLXLXLXLXLXLXLXLXLXLXLXLXLX-.qXuXkXcXlXkXgXkXlXNXlXhX-.[ r 3 ].XXn.d.M n n n LXLXLXLXLXLXLXLXLXLXLXLXLXLXLXO @ + 5 6 0 w q q [ { X.%.qXuXzXBXZXSXJXnX@Xa.p.x.jXBXLXLXLXLXLXLXLXLXLXLXLXLXLXLXLXLXLX",
"LXLXLXLXLXLXLXLXLXLXLXLXLXLXLXLXLXLXLXLXLXLXLXLXLXLXLXLXLXLXLXLXLXLXLXLXLXLXLXLXLXLXLXqXwXfXzXBXSXZXBXlXgXfXuXgXgXeX..e 2 z.j.a.6.n n n LXLXLXLXLXLXLXLXLXLXLXLXLXLXLXLXO @ @ + + 5 5 5 6 0 q [ { ..-.qXuXhXzXBXVXbX%XB.B.rXdXkXLXLXLXLXLXLXLXLXLXLXLXLXLXLXLXLX",
"LXLXLXLXLXLXLXLXLXLXLXLXLXLXLXLXLXLXLXLXLXLXLXLXLXLXLXLXLXLXLXLXLXLXLXLXLXLXLXLXLXLX:.qXhXNXZXFXGXGXFXZXzXyX:.eXuXeX%.] 9 E d.N b n n LXLXLXLXLXLXLXLXLXLXLXLXLXLXLXLXLXO O O O @ @ @ 5 6 q {  .X.,.%.-.;.qXyXfXgXzXgXwX:.:.eXhXkXLXLXLXLXLXLXLXLXLXLXLXLXLXLXLX",
"LXLXLXLXLXLXLXLXLXLXLXLXLXLXLXLXLXLXLXLXLXLXLXLXLXLXLXLXLXLXLXLXLXLXLXLXLXLXLXLXLXLX9XyXkXBXSXFXFXGXGXFXBXiX%.$.$.%.$.} w Z l 1 - LXLXLXLXLXLXLXLXLXLXLXLXLXLXLXLXLXLXLXLXLXO O @ 5 0 [ X.%.qXiXfXhXgXgXgXfXiXqX9XqXqX;.qXyXiXwXfXBXLXLXLXLXLXLXLXLXLXLXLXLXLXLX",
"LXLXLXLXLXLXLXLXLXLXLXLXLXLXLXLXLXLXLXLXLXLXLXLXLXLXLXLXLXLXLXLXLXLXLXLXLXLXLXLXLXLX-.qXfXzXBXZXZXSXAXSXBXuX%.{ [ [ { [ w 6 4 @ # LXLXLXLXLXLXLXLXLXLXLXLXLXLXLXLXLXLXLXLXLXO @ @ 6 [ X.%.eXhXzXNXBXZXZXBXlXgXwX;.:.;.qXwXuXyX;.iXlXZXLXLXLXLXLXLXLXLXLXLXLXLXLX",
"LXLXLXLXLXLXLXLXLXLXLXLXLXLXLXLXLXLXLXLXLXLXLXLXLXLXLXLXLXLXLXLXLXLXLXLXLXLXLXLXLXLX{ X.-.wXfXkXlXNXNXNXNXhXqXX.0 7 7 6 0 6 5 @ O LXLXLXLXLXLXLXLXLXLXLXLXLXLXLXLXLXLXLXLXLXO @ @ 5 q { $.;.uXgXzXNXNXBXBXNXlXkXgXhXgXgXuXqX:.qXyXhXNXFXLXLXLXLXLXLXLXLXLXLXLXLX",
"LXLXLXLXLXLXLXLXLXLXLXLXLXLXLXLXLXLXLXLXLXLXLXLXLXLXLXLXLXLXLXLXLXLXLXLXLXLXLXLXLX .[ { X.$.:.qXwXyXiXuXfXiX;.X.q 5 @ + 5 5 + @ LXLXLXLXLXLXLXLXLXLXLXLXLXLXLXLXLXLXLXLXLXLXLX@ @ + 6 q { ..:.qXyXuXfXhXhXhXhXhXfXuXuXiXqX%.:.uXuXuXNXFXHXLXLXLXLXLXLXLXLXLXLXLX",
"LXLXLXLXLXLXLXLXLXLXLXLXLXLXLXLXLXLXLXLXLXLXLXLXLXLXLXLXLXLXLXLXLXLXLXLXLXLXLXLX....X.X.{ {  . .X...$.-.:.:.%.X.[ 6 @ @ @ @ @ LXLXLXLXLXLXLXLXLXLXLXLXLXLXLXLXLXLXLXLXLXLXLXLXLXO @ + 5 6 w [ X...%.%.%.%.%.-.:.:.-.%.$.$.%.eXgXkXhXNXFXHXLXLXLXLXLXLXLXLXLXLXLX",
"LXLXLXLXLXLXLXLXLXLXLXLXLXLXLXLXLXLXLXLXLXLXLXLXLXLXLXLXLXLXLXLXLXLXLXLXLXLXLXLX%.:.eXeX;.%.X.[ q q q [ { { { [ w 5 @ @ O O O LXLXLXLXLXLXLXLXLXLXLXLXLXLXLXLXLXLXLXLXLXLXLXLXLXLX@ @ @ + 5 6 0 q [ [ [ [ [ [ [ [ {  ...:.iXfXfXhXkXBXAXFXAXLXLXLXLXLXLXLXLXLXLX",
"LXLXLXLXLXLXLXLXLXLXLXLXLXLXLXLXLXLXLXLXLXLXLXLXLXLXLXLXLXLXLXLXLXLXLXLXLXLXLXLX:.eXgXlXkXiX-.X.[ w 0 6 6 6 6 6 5 + @ @ O O O LXLXLXLXLXLXLXLXLXLXLXLXLXLXLXLXLXLXLXLXLXLXLXLXLXLXLXO @ @ @ @ + 5 5 5 5 5 5 5 5 5 w { %.yXkXgXwXuXlXBXBXZXSXLXLXLXLXLXLXLXLXLXLX",
"LXLXLXLXLXLXLXLXLXLXLXLXLXLXLXLXLXLXLXLXLXLXLXLXLXLXLXLXLXLXLXLXLXLXLXLXLXLXLXLX$.:.gXNXBXNXkXuXqX%.X.[ 6 5 + @ @ @ @ @ O O LXLXLXLXLXLXLXLXLXLXLXLXLXLXLXLXLXLXLXLXLXLXLXLXLXLXLXLXLXO O     O @ @ @ @ + @ + 5 w { %.eXiXiXwXeXfXNXzXfXzXZXLXLXLXLXLXLXLXLXLXLX",
"LXLXLXLXLXLXLXLXLXLXLXLXLXLXLXLXLXLXLXLXLXLXLXLXLXLXLXLXLXLXLXLXLXLXLXLXLXLXLXLX..%.wXhXzXlXlXkXfXwX:...[ 0 5 @ @ O O O O LXLXLXLXLXLXLXLXLXLXLXLXLXLXLXLXLXLXLXLXLXLXLXLXLXLXLXLXLXLXLX        O O O @ @ + 5 0 [ $.:.eXqX%.:.wXhXkXiX:.uXBXLXLXLXLXLXLXLXLXLXLX",
"LXLXLXLXLXLXLXLXLXLXLXLXLXLXLXLXLXLXLXLXLXLXLXLXLXLXLXLXLXLXLXLXLXLXLXLXLXLXLXLX-.%.$.$.-.;.eXyXyXeX;.-.$. .q 6 @ @ O LXLXLXLXLXLXLXLXLXLXLXLXLXLXLXLXLXLXLXLXLXLXLXLXLXLXLXLXLXLXLXLXLXLXO O O O O O @ + 5 6 q { ..%.$.X.{ %.fXhXeX%...eXlXLXLXLXLXLXLXLXLXLXLX",
"LXLXLXLXLXLXLXLXLXLXLXLXLXLXLXLXLXLXLXLXLXLXLXLXLXLXLXLXLXLXLXLXLXLXLXLXLXLXLXLXuXqXX.q [  ...%.%.%.$.X. .[ w 5 @ O O LXLXLXLXLXLXLXLXLXLXLXLXLXLXLXLXLXLXLXLXLXLXLXLXLXLXLXLXLXLXLXLXLXLXLXO O O O O @ @ 5 5 6 q [ [ [ q q $.fXuX%.{ { :.gXLXLXLXLXLXLXLXLXLXLX",
"LXLXLXLXLXLXLXLXLXLXLXLXLXLXLXLXLXLXLXLXLXLXLXLXLXLXLXLXLXLXLXLXLXLXLXLXLXLXLXLXBXhXX.6 0 q {  . .{ q 0 6 5 + @ O     LXLXLXLXLXLXLXLXLXLXLXLXLXLXLXLXLXLXLXLXLXLXLXLXLXLXLXLXLXLXLXLXLXLXLXLXLXLXO O O O @ @ + 5 5 5 + 6 [ %.iXqXX.q q &.iXLXLXLXLXLXLXLXLXLXLX",
"LXLXLXLXLXLXLXLXLXLXLXLXLXLXLXLXLXLXLXLXLXLXLXLXLXLXLXLXLXLXLXLXLXLXLXLXLXLXLXLXZXgXX.0 [ $.qXeX:.%.X.[ w 5 @ O     LXLXLXLXLXLXLXLXLXLXLXLXLXLXLXLXLXLXLXLXLXLXLXLXLXLXLXLXLXLXLXLXLXLXLXLXLXLXLXLXO     O @ 5 5 5 + @ 5 [ $.qX-.[ 0 q ..qXuXzXLXLXLXLXLXLXLXLX",
"LXLXLXLXLXLXLXLXLXLXLXLXLXLXLXLXLXLXLXLXLXLXLXLXLXLXLXLXLXLXLXLXLXLXLXLXLXLXLXLXlXuXX.[ %.yXkXkXiXqX%.X.q 6 @ O   LXLXLXLXLXLXLXLXLXLXLXLXLXLXLXLXLXLXLXLXLXLXLXLXLXLXLXLXLXLXLXLXLXLXLXLXLXLXLXLXLXLX    @ + 6 0 0 6 5 5 ] ..:.$.q 6 q  .:.iXgXLXLXLXLXLXLXLXLX",
"LXLXLXLXLXLXLXLXLXLXLXLXLXLXLXLXLXLXLXLXLXLXLXLXLXLXLXLXLXLXLXLXLXLXLXLXLXLXLXgXgXwXX.$.uXkXfXqX..{ [ 0 5 @ O     LXLXLXLXLXLXLXLXLXLXLXLXLXLXLXLXLXLXLXLXLXLXLXLXLXLXLXLXLXLXLXLXLXLXLXLXLXLXLXLXLXLXLXLXO @ 5 w [ q 5 5 w  .$.X.q 0 w { $.0XyXLXLXLXLXLXLXLXLX",
"LXLXLXLXLXLXLXLXLXLXLXLXLXLXLXLXLXLXLXLXLXLXLXLXLXLXLXLXLXLXLXLXLXLXLXLXLXLXgXhXyX:...-.gXgX:. .0 6 5 + O         LXLXLXLXLXLXLXLXLXLXLXLXLXLXLXLXLXLXLXLXLXLXLXLXLXLXLXLXLXLXLXLXLXLXLXLXLXLXLXLXLXLXLXLXLX@ 5 0 [ [ 6 6 0 [ X.{ q 6 6 q  .$.%.LXLXLXLXLXLXLXLX",
"LXLXLXLXLXLXLXLXLXLXLXLXLXLXLXLXLXLXLXLXLXLXLXLXLXLXLXLXLXLXLXLXLXLXLXLXLXLXgXuX:.X...-.wX;.[ 6 6 0 w 5 @       LXLXLXLXLXLXLXLXLXLXLXLXLXLXLXLXLXLXLXLXLXLXLXLXLXLXLXLXLXLXLXLXLXLXLXLXLXLXLXLXLXLXLXLXLXLXLX+ 5 w q w 6 6 0 [ [ q 6 5 6 q } { LXLXLXLXLXLXLXLX",
"LXLXLXLXLXLXLXLXLXLXLXLXLXLXLXLXLXLXLXLXLXLXLXLXLXLXLXLXLXLXLXLXLXLXLXLXLXLXwX;.X.[ X.$.$.{ 6 6 q q 0 5 @     LXLXLXLXLXLXLXLXLXLXLXLXLXLXLXLXLXLXLXLXLXLXLXLXLXLXLXLXLXLXLXLXLXLXLXLXLXLXLXLXLXLXLXLXLXLXLXLXLX+ 6 0 w 6 5 5 w w 0 5 + 5 6 0 0 LXLXLXLXLXLXLXLX",
"LXLXLXLXLXLXLXLXLXLXLXLXLXLXLXLXLXLXLXLXLXLXLXLXLXLXLXLXLXLXLXLXLXLXLXLXLXLX.. .w 0 { { 6 5 5 w [ q 6 @ @ O LXLXLXLXLXLXLXLXLXLXLXLXLXLXLXLXLXLXLXLXLXLXLXLXLXLXLXLXLXLXLXLXLXLXLXLXLXLXLXLXLXLXLXLXLXLXLXLXLXLXLX+ 5 6 6 + + 5 6 6 5 @ + 5 5 + LXLXLXLXLXLXLXLX",
"LXLXLXLXLXLXLXLXLXLXLXLXLXLXLXLXLXLXLXLXLXLXLXLXLXLXLXLXLXLXLXLXLXLXLXLXLXLX6 6 + 5 0 e + + 6 w w 6 + @ LXLXLXLXLXLXLXLXLXLXLXLXLXLXLXLXLXLXLXLXLXLXLXLXLXLXLXLXLXLXLXLXLXLXLXLXLXLXLXLXLXLXLXLXLXLXLXLXLXLXLXLXLXLX+ 5 5 @ @ @ + + @ O @ @ @ O LXLXLXLXLXLXLXLX",
"LXLXLXLXLXLXLXLXLXLXLXLXLXLXLXLXLXLXLXLXLXLXLXLXLXLXLXLXLXLXLXLXLXLXLXLXLXLX+ @ @ @ @ @ @ 5 0 6 + @ @ LXLXLXLXLXLXLXLXLXLXLXLXLXLXLXLXLXLXLXLXLXLXLXLXLXLXLXLXLXLXLXLXLXLXLXLXLXLXLXLXLXLXLXLXLXLXLXLXLXLXLXLXLXLXLXLX@ @ @ O O O @ O   O O O   LXLXLXLXLXLXLXLX",
"LXLXLXLXLXLXLXLXLXLXLXLXLXLXLXLXLXLXLXLXLXLXLXLXLXLXLXLXLXLXLXLXLXLXLXLXLX$.[ 6 5 @ @ O @ + 5 + @ O LXLXLXLXLXLXLXLXLXLXLXLXLXLXLXLXLXLXLXLXLXLXLXLXLXLXLXLXLXLXLXLXLXLXLXLXLXLXLXLXLXLXLXLXLXLXLXLXLXLXLXLXLXLXLXLXLX@ O O O O O @ @ @ @ @ @ @ 5 6 LXLXLXLXLXLX",
"LXLXLXLXLXLXLXLXLXLXLXLXLXLXLXLXLXLXLXLXLXLXLXLXLXLXLXLXLXLXLXLXLXLXLXLXqX;.%.X.[ w 6 5 5 5 5 @ @ 5 LXLXLXLXLXLXLXLXLXLXLXLXLXLXLXLXLXLXLXLXLXLXLXLXLXLXLXLXLXLXLXLXLXLXLXLXLXLXLXLXLXLXLXLXLXLXLXLXLXLXLXLXLXLXLXLXLX+ + @ @ + 5 6 e 0 6 6 6 0 q [ X.LXLXLXLXLX",
"LXLXLXLXLXLXLXLXLXLXLXLXLXLXLXLXLXLXLXLXLXLXLXLXLXLXLXLXLXLXLXLXLXlXgXfXgXgXhXiX;.%.X.{ [ q 6 5 5 [ :.LXLXLXLXLXLXLXLXLXLXLXLXLXLXLXLXLXLXLXLXLXLXLXLXLXLXLXLXLXLXLXLXLXLXLXLXLXLXLXLXLXLXLXLXLXLXLXLXLXLXLXLXLXLXLXLXq q 0 0 q { X...X.X.{  .X.$.%.qXyXLXLXLXLX",
"LXLXLXLXLXLXLXLXLXLXLXLXLXLXLXLXLXLXLXLXLXLXLXLXLXLXLXLXLXLXLXLXhXgXgXkXNXBXNXkXiX:.$.X.{ q 0 6 0  .:.$XLXLXLXLXLXLXLXLXLXLXLXLXLXLXLXLXLXLXLXLXLXLXLXLXLXLXLXLXLXLXLXLXLXLXLXLXLXLXLXLXLXLXLXLXLXLXLXLXLXLXLXLXLXLXyX%... .X.%.qXiXiXyXqX:.:.:.;.eXiXhXzXLXLXLX",
"LXLXLXLXLXLXLXLXLXLXLXLXLXLXLXLXLXLXLXLXLXLXLXLXLXLXLXLXLXNXkXdXyXyXgXNXZXZXlXhXeX%.X.{ q w 0 0 w  .>.B.v.LXLXLXLXLXLXLXLXLXLXLXLXLXLXLXLXLXLXLXLXLXLXLXLXLXLXLXLXLXLXLXLXLXLXLXLXLXLXLXLXLXLXLXLXLXLXLXLXLXLXLXLXzXgXwX;.:.qXfXlXBXBXNXkXfXiXwXtXyXhXzXVXZXLXLX",
"LXLXLXLXLXLXLXLXLXLXLXLXLXLXLXLXLXLXLXLXLXLXLXLXLXLXLXLX&XiX%X%X&X&X&X&XjXgXyX:...{ q 0 6 6 5 5 6 '  ./ f.h.LXLXLXLXLXLXLXLXLXLXLXLXLXLXLXLXLXLXLXLXLXLXLXLXLXLXLXLXLXLXLXLXLXLXLXLXLXLXLXLXLXLXLXLXLXLXLXLXLXLXZXMXgXeX:.;.iXnXSXFXAXBXkXuXwXeXeXwXiXdXgXxXmX5X",
"LXLXLXLXLXLXLXLXLXLXLXLXLXLXLXLXLXLXLXLXLXLXLXLXLXLXLXOX+X#.+.v.XX<XXXv.B.-...[ 0 5 + @ @ @ @ @ @ 5 0 c p.g.[.LXLXLXLXLXLXLXLXLXLXLXLXLXLXLXLXLXLXLXLXLXLXLXLXLXLXLXLXLXLXLXLXLXLXLXLXLXLXLXLXLXLXLXLXLXLXLXLXSXDXzXuX>.$.:.uXBXFXFXZXzXuXqX:.-.-.>.%.-.;.$X;X3X",
"LXLXLXLXLXLXLXLXLXLXLXLXLXLXLXLXLXLXLXLXLXLXLXLXLXXX Xj.^ 9 c a.j. Xh.d.W w 6 5 @ @ @ @ @ @ @ @ @ @ + l M a.h.LXLXLXLXLXLXLXLXLXLXLXLXLXLXLXLXLXLXLXLXLXLXLXLXLXLXLXLXLXLXLXLXLXLXLXLXLXLXLXLXLXLXLXLXLXNXBXBXBXzXuX:. . .;.fXDXJXZXlXuX:.$.X.{ [ [ L q q ( {.oX",
"LXLXLXLXLXLXLXLXLXLXLXLXLXLXLXLXLXLXLXLXLXLXLXLXLX[.j.s.c < l p.s.g.s.N l @ O O O O O O O O O O O O O - n p.d.LXLXLXLXLXLXLXLXLXLXLXLXLXLXLXLXLXLXLXLXLXLXLXLXLXLXLXLXLXLXLXLXLXLXLXLXLXLXLXLXLXLXLXLXbXvXnXMXzXuX:. .q | $XsXnXnXnXuX-.X.[ w 6 5 5 + + @ 2 c.[.",
"LXLXLXLXLXLXLXLXLXLXLXLXLXLXLXLXLXLXLXLXLXLXLXLXLXa.a.LXLXLXLXLXp.p.p.LXLXLXLXLXLXLXLXLXLXLXLXLXLXLXLXLXLXM M LXLXLXLXLXLXLXLXLXLXLXLXLXLXLXLXLXLXLXLXLXLXLXLXLXLXLXLXLXLXLXLXLXLXLXLXLXLXLXLXLXLXLX3X=X-XsXhXyX:. .q 0 ( @X6XmX7X6X+X} e 5 + @ @ @ @ @ # 1 E g.",
"LXLXLXLXLXLXLXLXLXLXLXLXLXLXLXLXLXLXLXLXLXLXLXLXLX6.LXLXLXLXLXLXLXp.LXLXLXLXLXLXLXLXLXLXLXLXLXLXLXLXLXLXLXLXn LXLXLXLXLXLXLXLXLXLXLXLXLXLXLXLXLXLXLXLXLXLXLXLXLXLXLXLXLXLXLXLXLXLXLXLXLXLXLXLXLXLX4X<X Xv.B.;.%.X.0 6 e ( }.4X7X5XoXc.8 + @ @ O O O O O # 1 N p.",
"LXLXLXLXLXLXLXLXLXLXLXLXLXLXLXLXLXLXLXLXLXLXLXLXLXLXLXLXLXLXLXLXLXLXLXLXLXLXLXLXLXLXLXLXLXLXLXLXLXLXLXLXLXLXLXLXLXLXLXLXLXLXLXLXLXLXLXLXLXLXLXLXLXLXLXLXLXLXLXLXLXLXLXLXLXLXLXLXLXLXLXLXLXLXLXLX3X=X Xs.N ! { [ w 5 r 7 Q {.oX3X2XXX_ < # @ O LXLXLXLXLXLXLXn M ",
"LXLXLXLXLXLXLXLXLXLXLXLXLXLXLXLXLXLXLXLXLXLXLXLXLXLXLXLXLXLXLXLXLXLXLXLXLXLXLXLXLXLXLXLXLXLXLXLXLXLXLXLXLXLXLXLXLXLXLXLXLXLXLXLXLXLXLXLXLXLXLXLXLXLXLXLXLXLXLXLXLXLXLXLXLXLXLXLXLXLXLXLXLXLXLX<X=X{.g.p.b l 6 5 5 + + + Z z. XoXXXh.W o   LXLXLXLXLXLXLXLXLXLXLX",
"LXLXLXLXLXLXLXLXLXLXLXLXLXLXLXLXLXLXLXLXLXLXLXLXLXLXLXLXLXLXLXLXLXLXLXLXLXLXLXLXLXLXLXLXLXLXLXLXLXLXLXLXLXLXLXLXLXLXLXLXLXLXLXLXLXLXLXLXLXLXLXLXLXLXLXLXLXLXLXLXLXLXLXLXLXLXLXLXLXLXLXLXLXLXLXLX[.g.p.M b 1 @ @ @ LXLXO 1 d.h.[.j.p.v o LXLXLXLXLXLXLXLXLXLXLXLX",
"LXLXLXLXLXLXLXLXLXLXLXLXLXLXLXLXLXLXLXLXLXLXLXLXLXLXLXLXLXLXLXLXLXLXLXLXLXLXLXLXLXLXLXLXLXLXLXLXLXLXLXLXLXLXLXLXLXLXLXLXLXLXLXLXLXLXLXLXLXLXLXLXLXLXLXLXLXLXLXLXLXLXLXLXLXLXLXLXLXLXLXLXLXLXLXd.d.p.LXLXLXLXLXLXLXLXLXLXLXLXs.s.s.LXLXLXLXLXLXLXLXLXLXLXLXLXLXLX",
"LXLXLXLXLXLXLXLXLXLXLXLXLXLXLXLXLXLXLXLXLXLXLXLXLXLXLXLXLXLXLXLXLXLXLXLXLXLXLXLXLXLXLXLXLXLXLXLXLXLXLXLXLXLXLXLXLXLXLXLXLXLXLXLXLXLXLXLXLXLXLXLXLXLXLXLXLXLXLXLXLXLXLXLXLXLXLXLXLXLXLXLXLXLXLXn n LXLXLXLXLXLXLXLXLXLXLXLXLXLXp.p.LXLXLXLXLXLXLXLXLXLXLXLXLXLXLX"
};
