/* XPM */
static const char *bos2h6[] = {
/* columns rows colors chars-per-pixel */
"128 128 250 2 ",
"   c #141414",
".  c #1C1C1C",
"X  c #191815",
"o  c #17150F",
"O  c #261A15",
"+  c #361717",
"@  c #32100A",
"#  c #14270D",
"$  c #17330F",
"%  c #1A2716",
"&  c #193411",
"*  c #1C3C13",
"=  c #183614",
"-  c #0F270C",
";  c #2B230E",
":  c #2F290C",
">  c #2B2315",
",  c #342A13",
"<  c #3B2D16",
"1  c #382817",
"2  c #3C3217",
"3  c #273713",
"4  c #1D1E20",
"5  c #1E2122",
"6  c #232424",
"7  c #2B2B2B",
"8  c #282826",
"9  c #362926",
"0  c #333333",
"q  c #3B3B3B",
"w  c #393736",
"e  c #31322C",
"r  c #231F21",
"t  c #490605",
"y  c #570404",
"u  c #471616",
"i  c #581717",
"p  c #4D1707",
"a  c #680404",
"s  c #780303",
"d  c #721917",
"f  c #592607",
"g  c #442D18",
"h  c #43321A",
"j  c #4C381C",
"k  c #543B1D",
"l  c #512B0C",
"z  c #6A2705",
"x  c #742B00",
"c  c #722700",
"v  c #7B3402",
"b  c #793608",
"n  c #7A3C15",
"m  c #69340F",
"M  c #472727",
"N  c #572626",
"B  c #483926",
"V  c #553E22",
"C  c #463A36",
"Z  c #553939",
"A  c #652828",
"S  c #713333",
"D  c #1E4216",
"F  c #244C19",
"G  c #224517",
"H  c #29571E",
"J  c #394917",
"K  c #2C5C21",
"L  c #315127",
"P  c #2E6222",
"I  c #336A26",
"U  c #38762B",
"Y  c #3B7931",
"T  c #54481C",
"R  c #7A4519",
"E  c #6E4713",
"W  c #5C4324",
"Q  c #46433D",
"!  c #574737",
"~  c #59513F",
"^  c #674726",
"/  c #754C29",
"(  c #7B522C",
")  c #735231",
"_  c #6F742E",
"`  c #4F6B28",
"'  c #3B3C44",
"]  c #33336C",
"[  c #3D4141",
"{  c #434444",
"}  c #4B4B4B",
"|  c #484847",
" . c #574948",
".. c #4E5252",
"X. c #535353",
"o. c #5C5C5C",
"O. c #575859",
"+. c #56534B",
"@. c #764949",
"#. c #6B5551",
"$. c #6E6557",
"%. c #5B6363",
"&. c #636363",
"*. c #6B6B6B",
"=. c #676968",
"-. c #766967",
";. c #6D7273",
":. c #747474",
">. c #7C7C7C",
",. c #777878",
"<. c #71706D",
"1. c #545967",
"2. c #840101",
"3. c #8C0101",
"4. c #850B0B",
"5. c #940101",
"6. c #9B0202",
"7. c #970C0C",
"8. c #911818",
"9. c #A50202",
"0. c #AB0101",
"q. c #A60D0D",
"w. c #B30101",
"e. c #BA0505",
"r. c #B01616",
"t. c #813C05",
"y. c #803F18",
"u. c #8E3333",
"i. c #AF3030",
"p. c #C80202",
"a. c #D80101",
"s. c #D51818",
"d. c #C81414",
"f. c #E80202",
"g. c #F50303",
"h. c #EA1515",
"j. c #CF2E2E",
"k. c #E92F2F",
"l. c #894508",
"z. c #95550D",
"x. c #985B13",
"c. c #884E18",
"v. c #9B6517",
"b. c #A46A17",
"n. c #AA741C",
"m. c #B27D1E",
"M. c #8A5B34",
"N. c #855833",
"B. c #925E38",
"V. c #8B5526",
"C. c #98633B",
"Z. c #946E2B",
"A. c #A97724",
"S. c #A66E35",
"D. c #914E4C",
"F. c #AA4E4E",
"G. c #946E4C",
"H. c #A76D42",
"J. c #B67548",
"K. c #AA734D",
"L. c #876967",
"P. c #857977",
"I. c #94746E",
"U. c #AC716A",
"Y. c #CF4C4C",
"T. c #C57D4F",
"R. c #C56767",
"E. c #3E8432",
"W. c #428A35",
"Q. c #47953A",
"!. c #4F8B32",
"~. c #599D3C",
"^. c #4DA642",
"/. c #52AC46",
"(. c #56B64B",
"). c #5CBC54",
"_. c #5FA152",
"`. c #5DC753",
"'. c #5CC854",
"]. c #64D85B",
"[. c #60CD56",
"{. c #6BE662",
"}. c #73F66B",
"|. c #B68827",
" X c #B48F31",
".X c #989536",
"XX c #C2992F",
"oX c #CBA838",
"OX c #D2B13B",
"+X c #958850",
"@X c #918579",
"#X c #A9896D",
"$X c #AA9A4D",
"%X c #CB8456",
"&X c #D6BA43",
"*X c #C4A24F",
"=X c #DDC448",
"-X c #CEC55A",
";X c #E2CC4D",
":X c #E8D754",
">X c #E1CF53",
",X c #F0E45C",
"<X c #F4EC62",
"1X c #FAF76A",
"2X c #FDFC72",
"3X c #ECE369",
"4X c #A2C653",
"5X c #3030AD",
"6X c #5757A9",
"7X c #7D8383",
"8X c #848484",
"9X c #8B8C8C",
"0X c #868888",
"qX c #958987",
"wX c #8C9292",
"eX c #949494",
"rX c #9B9B9B",
"tX c #959898",
"yX c #97928F",
"uX c #A69A98",
"iX c #AE908A",
"pX c #B2A598",
"aX c #9DA1A1",
"sX c #A3A4A4",
"dX c #ABABAB",
"fX c #A7A9A9",
"gX c #B6ABA7",
"hX c #B3B4B4",
"jX c #BBBCBC",
"kX c #B6B9B9",
"lX c #B3B2AD",
"zX c #9597A6",
"xX c #C6BBB6",
"cX c #C8B5AD",
"vX c #D3ABA3",
"bX c #CCC3B7",
"nX c #BEC1C2",
"mX c #C4C4C4",
"MX c #CBCCCC",
"NX c #C6C7C8",
"BX c #D3D3D3",
"VX c #DBDBDB",
"CX c #D7D8D8",
"ZX c #D1CFD0",
"AX c #E3E3E3",
"SX c #EBEBEB",
"DX c #F0F0F0",
"FX c #E2D7D7",
"GX c #BFC0A0",
"HX c None",
/* pixels */
"HXHXHXHXHXHXHXHXHXHXHXHXHXHXHXHXHXHXHXHXHXHXHXHXHXHXa.a.p.e.0.6.3.2.s s s s 2.4.u.I.sXhXjXmXMXMXBXMXMXNXNXNXNXmXjXhXdXsXeX7X;.=.%.O.u.d.f.g.g.g.f.f.a.a.a.p.p.w.0.0.0.0.0.0.0.0.9.9.HXHXHXHXHXHXHXHXHXHXHXHXHXHXHXHXHXHXHXHXHXHXHXHXHXHXHXHXHXHXHXHXHXHXHXHXHXHX",
"HXHXHXHXHXHXHXHXHXHXHXHXHXHXHXHXHXHXHXHXHXHXHXHXHX0.0.0.9.5.3.4.8.S S u.u.u.D.F.U.uXlXjXmXNXMXBXBXMXMXNXNXMXNXNXmXkXdXsXqXU.F.D.u.u.i.e.p.p.p.p.p.w.0.0.0.9.6.3.2.2.3.3.5.6.9.9.9.0.0.HXHXHXHXHXHXHXHXHXHXHXHXHXHXHXHXHXHXHXHXHXHXHXHXHXHXHXHXHXHXHXHXHXHXHXHXHX",
"HXHXHXHXHXHXHXHXHXHXHXHXHXHXHX{ { | | S 8.p.a.p.0.5.s a y y y N @.P.qXuXsXgXhXxXxXNXMXMXZXBXBXBXBXMXMXNXMXMXMXNXjXhXdXuXU.j.h.h.a.p.e.9.5.5.5.5.2.s a a a a a y y y y a s 2.5.6.9.9.9.9.9.HXHXHXHXHXHXHXHXHXHXHXHXHXHXHXHXHXHXHXHXHXHXHXHXHXHXHXHXHXHXHXHXHXHXHX",
"HXHXHXHXHXHXHXHXHXHXHXHXHXX.O.o.o.@.u.8.q.0.9.5.s a i N M Z Z #.P.rXhXnXMXCXVXAXAXVXCXCXCXCXCXCXBXMXMXNXNXmXnXkXhXuXR.Y.j.h.f.a.p.0.7.d S S S S S @.@.@.@.@.@.#.#.#.@.@.@.D.D.D.D.D.u.u.S S | HXHXHXHXHXHXHXHXHXHXHXHXHXHXHXHXHXHXHXHXHXHXHXHXHXHXHXHXHXHXHXHXHX",
"HXHXHXHXHXHXHXHXHXHXHXHXo.&.*.-.D.i.d.w.6.s a y t u M | o.=.,.9XsXhXNXCXAXAXSXSXSXSXAXAXAXVXCXCXBXMXMXNXnXjXlXsXiXU.k.g.f.a.p.9.2.d A  .o.=.:.>.8X9XtXrXuXsXdXhXhXdXsXrXtXtXeXeXeX9XP.<.&.X.} } HXHXHXHXHXHXHXHXHXHXHXHXHXHXHXHXHXHXHXHXHXHXHXHXHXHXHXHXHXHXHXHX",
"HXHXHXHXHXHXHXHXHXHX%.,.7XqXU.i.r.r.9.3.s y t u M C } o.*.>.eXsXhXNXCXAXSXSXDXDXDXSXSXSXAXAXVXCXBXMXMXmXkXdXiXR.Y.k.h.f.p.0.2.d A Z  .&.:.>.0XwXrXdXhXjXmXMXBXCXBXMXmXjXkXhXdXfXsXrXwX0X,.=.o.X.} { HXHXHXHXHXHXHXHXHXHXHXHXHXHXHXHXHXHXHXHXHXHXHXHXHXHXHXHXHXHX",
"HXHXHXHXHXHXHXHX%.=.<.P.qXU.Y.s.p.6.s y t t u M { X.o.=.,.9XsXhXjXMXCXAXSXDXSXSXSXSXSXSXAXAXVXCXMXMXmXjXgXiXR.k.g.f.a.p.9.s i N Z O.=.,.0X9XtXrXdXjXNXBXCXAXAXAXAXCXBXMXNXmXjXhXdXsXsXtX0X,.=.o.X.} } HXHXHXHXHXHXHXHXHXHXHXHXHXHXHXHXHXHXHXHXHXHXHXHXHXHXHXHXHX",
"HXHXHXHXHXHXq } *.0XqXU.j.s.d.0.5.s y t + 9 w { X.&.*.,.0XtXdXhXmXMXCXAXSXSXSXSXSXSXSXAXAXCXCXBXMXnXhXiXR.k.h.g.f.p.0.2.d N Z | O.&.:.0XeXtXsXdXhXmXMXCXAXAXSXSXAXVXCXMXNXmXjXhXhXdXdXsXtX0X,.<.&.o.} q 0 HXHXHXHXHXHXHXHXHXHXHXHXHXHXHXHXHXHXHXHXHXHXHXHXHXHXHX",
"HXHXHXHXHXHX} O.,.rXuXR.s.p.0.2.a i i M C C { X.o.*.,.0XeXsXdXjXNXMXCXVXAXAXAXAXAXAXAXVXCXBXZXMXmXkXdXiXY.h.g.f.p.e.8.A Z Z } O.&.*.>.0XtXrXsXdXhXmXMXCXAXAXAXAXAXVXCXZXNXxXjXhXhXhXdXdXrXeX8X,.*.&.X.{ w 0 HXHXHXHXHXHXHXHXHXHXHXHXHXHXHXHXHXHXHXHXHXHXHXHXHXHX",
"HXHXHXHXHXHXo.=.8XaXuXR.j.w.3.a i N  .X.} } X.o.=.:.>.0XtXsXhXjXMXBXCXVXVXVXVXVXVXVXCXCXBXMXNXmXjXhXsXU.Y.h.f.p.w.8.D.-.=.o.o.o.&.<.,.0X9XtXtXsXhXjXMXBXCXVXVXVXVXCXCXMXmXjXhXhXdXdXdXsXrXeX8X,.*.&.X.} { q HXHXHXHXHXHXHXHXHXHXHXHXHXHXHXHXHXHXHXHXHXHXHXHXHXHX",
"HXHXHXHXq ..%.-.I.U.Y.j.r.6.s y t M { } ..X.o.&.:.>.0XeXtXsXdXjXNXMXBXCXCXCXCXCXCXCXBXBXMXNXnXkXgXiXR.Y.k.g.a.w.5.8.@.,.,.*.&.&.=.*.:.>.0X9XeXrXsXhXjXmXNXMXMXMXMXMXNXxXhXdXdXdXsXsXsXaXtX9X8X,.:.&.o.X.{ q 0 HXHXHXHXHXHXHXHXHXHXHXHXHXHXHXHXHXHXHXHXHXHXHXHXHX",
"HXHXHXw q } %.-.F.s.f.p.0.3.a y u 9 0 q } X.o.*.,.0X9XtXrXsXdXhXjXNXMXZXBXBXBXBXZXMXMXMXMXNXjXdXiXY.h.g.g.f.p.6.s A #.:.:.*.&.&.&.*.:.,.8X0X9XtXrXsXdXhXhXhXjXjXjXjXhXdXsXsXrXrXrXtXtXtX9X0X>.,.:.=.&.X.} q 0 7 8 HXHXHXHXHXHXHXHXHXHXHXHXHXHXHXHXHXHXHXHXHXHXHX",
"HXHXHXq { } O.#.u.d.a.p.6.4.d Z Z C q q } X.&.=.:.>.0X9XtXsXdXhXhXjXmXMXMXMXMXMXMXMXMXNXNXjXhXsXiXY.h.g.f.p.r.u.@.#.o.o.o.%.&.&.&.=.*.,.8X0X9XtXtXsXsXsXsXsXsXdXdXsXsXrXtXtXeX9X9X0X0X0X>.,.:.:.*.=.&.X.} q w 7 7 HXHXHXHXHXHXHXHXHXHXHXHXHXHXHXHXHXHXHXHXHXHXHX",
"HXHXHX{ { } ..#.u.d.p.w.5.s S #.o...{ { } o.&.=.*.:.>.0XeXrXdXdXhXhXjXmXMXMXMXMXMXNXNXmXjXhXfXrXU.Y.s.f.a.p.r.D.L.;.o.} } O.&.&.&.&.=.:.>.0X0X9XeXtXtXtXtXtXtXtXtXtXeX9X0X0X0X>.,.:.:.:.*.=.=.=.&.&.o.X.} { w 0 7 HXHXHXHXHXHXHXHXHXHXHXHXHXHXHXHXHXHXHXHXHXHXHX",
"HXHXHXq q { }  .u.r.e.0.3.s A  .} } { { X.o.&.=.*.:.,.0X9XtXsXsXdXdXhXjXmXNXNXNXNXmXjXjXhXdXaXeXI.F.s.a.p.w.r.D.-.=.X.} } O.&.&.o.o.&.*.:.,.,.>.8X0X0X9X9X9X9XwX9X0X0X8X8X>.:.:.*.&.&.&.o.o.o.o.o.o.X...} q w 0 7 HXHXHXHXHXHXHXHXHXHXHXHXHXHXHXHXHXHXHXHXHXHXHX",
"HXHXw q { { }  .S 7.0.9.6.4.d Z { [ { } X.o.&.&.=.*.:.>.0XeXtXrXsXfXdXhXjXjXmXmXjXjXhXhXdXsXrXwXI.F.r.p.p.w.r.D.-.&...{ { X.o.o.o.o.o.&.=.*.*.:.:.,.>.>.8X8X8X8X>.,.:.:.*.=.&.&.o.o.X.X.X.X.X.X.X.X.} | { w 0 7 7 HXHXHXHXHXHXHXHXHXHXHXHXHXHXHXHXHXHXHXHXHXHXHX",
"7 0 w q { } .. .S 4.5.9.0.7.d M w q [ { } X.o.o.&.=.:.,.8X0XeXtXrXsXdXhXhXjXhXhXhXdXdXdXdXsXrXeXI.D.q.0.w.w.r.D.P.;.X.q w { } } X.X.o.o.o.%.&.&.=.=.*.:.:.:.:.:.:.*.=.&.o.X.X.X.} } } } | { { { } } { q w 0 7 8 6 HXHXHXHXHXHXHXHXHXHXHXHXHXHXHXHXHXHXHXHXHXHXHX",
"7 7 0 w q [ { | A d 3.9.0.9.d M 0 w q { { } ..X.o.&.=.:.>.0X9XeXtXtXsXdXhXhXdXdXdXdXsXsXrXtXeXwXP.D.8.5.0.w.i.F.qX>.X.w 7 0 w [ { } } } } } } X.X.X.o.&.:.,.8X0X0X0X>.:.=.o.X.} { q q q q q q q q q w 0 7 7 6 . . HXHXHXHXHXHXHXHXHXHXHXHXHXHXHXHXHXHXHXHXHXHXHX",
"6 6 8 7 0 0 w C N s 3.9.0.9.d M 0 0 w q { { } o.&.=.:.>.8X0X0X9XeXtXrXsXdXdXdXdXdXdXsXtXeX9XeXtXP.D.d 2.6.w.r.F.qX,...7 8 7 0 0 w w w w w w w q { | X.=.8XtXsXdXdXdXsXtX0X:.&.X.{ w w 0 0 w w w 0 7 7 7 8 6 . X X HXHXHXHXHXHXHXHXHXHXHXHXHXHXHXHXHXHXHXHXHXHXHX",
"X X . 6 7 7 0 e u y s 6.w.9.d 9 7 7 7 w { o.*.0XrXdXdXsXrXeX9X9XeXtXrXsXdXdXdXsXdXdXsXtXwXeXfXhXuXD.d s 3.9.8.S +...' 7 7 7 7 7 8 6 8 8 7 7 0 w { X.*.9XdXNXMXBXCXBXMXmXhXdXtX>.&.X.q 0 7 7 7 8 8 6 6 . . X X X X HXHXHXHXHXHXHXHXHXHXHXHXHXHXHXHXHXHXHXHXHXHXHX",
"X X . 7 0 w { C M p a 2.9.9.4.i M 9 7 0 } o.:.9XsXdXhXhXdXrXeX9X9XeXtXrXsXsXsXsXsXsXsXtX9XtXhXNXgXL.d a s 2.s i M 9 9 7 7 0 0 0 7 7 7 0 w ' } X.&.:.0XsXjXMXBXCXBXBXMXNXjXhXsXeX>.&.X.q 0 7 7 8 6 . . . . X X     HXHXHXHXHXHXHXHXHXHXHXHXHXHXHXHXHXHXHXHXHXHXHX",
"6 8 0 q } o.=.&. .i y a s 3.9.e.q.d 9 0 [ } } } } o.:.9XtXrXrXtX9X0X9XtXtXrXtXtXrXrXtX9X0XeXdXjXgXL.i y y a s s s d u O 8 w { { } } X.&.*.>.9XtXtXtXtXtXtXtXtXtXtXeX9X0X0X8X8X>.,.;.&.X.} { q w e 7 8 6 6 X X     HXHXHXHXHXHXHXHXHXHXHXHXHXHXHXHXHXHXHXHXHXHXHX",
"8 7 0 { X.%.*.*.#.Z i i y s 5.w.e.7.d N A A A i u M Z o.:.9XrXtX0X>.8X0XeXeXeXeXeXeXeX0X8X0XrXdXuX-.N u t y a s 2.a u O 8 w { X.o.=.:.>.0XeXtXrXeX0X,.*.&.o.o.o.X.X.} } } } } X.O.O.X.X.} { { w w 7 7 8 6 X X     HXHXHXHXHXHXHXHXHXHXHXHXHXHXHXHXHXHXHXHXHXHXHX",
"6 8 7 0 q } X.o.o.o. .Z u t y a s 3.6.9.0.0.0.6.3.a u 9 } ;.9X0X>.:.:.8X9X9X9X9X9X9X0X>.:.,.9XtXeX:.+.C u t t y y y + 6 8 0 q } &.:.>.0X0X8X:.=.O.{ w 0 7 8 6 6 . . . . . . . 6 8 7 7 0 w w w w 7 7 6 . . X X     HXHXHXHXHXHXHXHXHXHXHXHXHXHXHXHXHXHXHXHXHXHXHX",
"6 6 8 9 9 w C Q  . .Q M + @ @ t y a s 3.3.3.3.2.s y @ X 7 X.*.:.:.*.:.P.0X0X0X0X0X0X8X,.:.:.>.0X0X7X*.O.C + @ @ @ + 9 q w 0 7 w { X.O.o.O...{ q 0 7 > > > > O X X O O O O X X O O O O 6 6 8 8 6 6 . X X X X X HXHXHXHXHXHXHXHXHXHXHXHXHXHXHXHXHXHXHXHXHXHXHXHXHX",
"HXHXHX1 1 1 < g g g 1 > X o @ @ t t t t t t t t t @ @ X 8 { X.&.=.*.:.>.8X0X8X8X8X>.>.:.*.*.:.,.>.8X>.*...0 8 8 8 0 | X.} w 8 6 8 7 7 8 8 6 6 > > , < 2 h h 2 < < 2 h h < , , , , > O X X X X X X   X X     HXHXHXHXHXHXHXHXHXHXHXHXHXHXHXHXHXHXHXHXHXHXHXHXHXHX",
"HXHXHX; , 1 g g g 1 1 O X X X O + + + + + + + @ @ O O 7 w } X.&.=.*.:.,.>.>.>.>.,.:.:.*.=.&.&.&.&.&.&.%.X.} } { { } } X.} { q 0 9 1 1 1 < , > , 2 j j j j j V W W V j j j j j h < , ; > > > > ; O O X X HXHXHXHXHXHXHXHXHXHXHXHXHXHXHXHXHXHXHXHXHXHXHXHXHXHXHXHX",
"HXHXHX; ; 1 h h g 1 , O X X X . 6 6 6 6 6 6 6 5 4 8 e w { } X.o.&.&.=.*.:.:.:.:.*.=.&.&.&.o.o.X.X...} } X.X.X.X.X.X.} } } } } Q B h h j j j V V ^ ^ / ^ ^ ^ / / / / ^ ^ ^ W V j h < < , , , , , ; ; ; HXHXHXHXHXHXHXHXHXHXHXHXHXHXHXHXHXHXHXHXHXHXHXHXHXHXHXHXHX",
"HXHXHX; ; , < g g 1 , O X     X X X . 4 5 6 8 8 7 7 w w [ { } } } X.o.o.&.&.&.&.&.o.o.o.X.X.X.} } } { { { { { { { { { | { { Q C V V k k W ^ ( M.N.( ( B.S.S.B.( / N.C.M.) W k j B h 2 , , < < < , , , HXHXHXHXHXHXHXHXHXHXHXHXHXHXHXHXHXHXHXHXHXHXHXHXHXHXHXHXHX",
"HXHXHX; ; , 1 < < 1 1 > O O X     X X . . 4 6 8 7 e w w q q { { { } } X.o.o.o.o.o.o.X.X.X.} } } } | { { w w 0 w w w q { ' q w C W ^ ^ ^ ^ N.C.H.C.M.M.H.T.T.H.N.( B.H.C.N.^ V V V j h < < < 2 < , , : HXHXHXHXHXHXHXHXHXHXHXHXHXHXHXHXHXHXHXHXHXHXHXHXHXHXHXHXHX",
"HXHXHX; ; ; 1 1 1 < < g h < > X X X X . 4 6 8 7 e 0 w w w w q ' { | } X.X.o.o.o.o.X.X.X.X.} } } } { { { q w w w q { { } { [ C ! ) ( ( / ( C.J.T.H.B.B.K.%X%XJ.M.N.C.H.H.N.^ W W W V j h 2 h h < , : ; HXHXHXHXHXHXHXHXHXHXHXHXHXHXHXHXHXHXHXHXHXHXHXHXHXHXHXHXHX",
"HXHXHXHX; ; ; , , < g h h h < 1 > X X 6 w X.&.=.*.&.X.{ w 0 0 w w { { } } } } } } } } } { { { { q w w { o.:.8X0X0X9XeXtX9X8X:.-.G.C.M.N.N.C.J.T.J.C.B.K.%X%XJ.C.M.C.J.H.M.^ W ^ ^ W j h h h h < , ; ; HXHXHXHXHXHXHXHXHXHXHXHXHXHXHXHXHXHXHXHXHXHXHXHXHXHXHXHXHX",
"HXHXHXHXHXHX; ; , < h g g g h j h > O 7 O.8XtXdXdXtX,.X.{ 0 8 7 7 w w w w w w w w w w w w w w 0 7 7 0 X.0XjXBXCXCXCXAXAXCXNXlXiX#XH.B.N.N.C.J.T.J.C.B.H.%X%XJ.C.B.S.J.H.M.^ ^ ^ ^ ^ j h < h h < , ; ; HXHXHXHXHXHXHXHXHXHXHXHXHXHXHXHXHXHXHXHXHXHXHXHXHXHXHXHXHX",
"HXHXHXHXHXHX; ; , < g < 1 1 < h h 9 0 { %.,.9XrXsXsXtX0X&.w . X 6 7 0 0 0 0 0 0 0 0 0 0 0 7 8 6 0 } <.9XdXmXMXBXBXBXCXCXBXNXjXpX#XH.B.N.N.C.J.T.J.C.B.H.%X%XJ.C.B.H.J.K.M./ ^ ^ ^ ^ j h < h h < , ; ; HXHXHXHXHXHXHXHXHXHXHXHXHXHXHXHXHXHXHXHXHXHXHXHXHXHXHXHXHX",
"HXHXHXHXHXHX9 2 B ! ! ! ! ! ~ #.+. .} } O.&.:.7X9XtXsXrX>.} 7 . 6 8 8 7 7 7 7 7 7 7 7 7 8 6 X X w =.rXhXjXjXjXjXjXjXjXjXjXhXdXiXU.H.M.N.N.C.J.T.J.B.M.H.T.%XK.B.M.C.J.H.M.^ W ^ ^ W j h < h h < , ; ; HXHXHXHXHXHXHXHXHXHXHXHXHXHXHXHXHXHXHXHXHXHXHXHXHXHXHXHXHX",
"HXHXHXHXHXHX&.=.:.@XyXuXgXlXkXlXuX:.} q { } o.=.:.8X9XeX8X=.X.q 7 . . 6 8 8 6 6 6 6 6 . . X X X 0 &.eXdXhXhXhXhXhXhXdXdXfXaXeX@XG.M.( / / B.J.J.H.M.N.C.J.J.C.M.N.C.C.C.( ^ W W W k j h g h h < , ; ; HXHXHXHXHXHXHXHXHXHXHXHXHXHXHXHXHXHXHXHXHXHXHXHXHXHXHXHXHX",
"HXHXHXHXHX*.;.:.>.0XeXsXhXkXjXhXrX*.q 7 7 w ' } O.&.*.:.:.*.&.X.q 7 7 0 w { } X.o.o.o.X.} { w 0 w X.:.0XeXtXrXrXrXrXrXtXtX9X@X-.#.) ^ / ( N.C.C.C.M.M.C.C.C.C.M.N.M.M.N./ W k j j h 2 < < < < , , ; ; HXHXHXHXHXHXHXHXHXHXHXHXHXHXHXHXHXHXHXHXHXHXHXHXHXHXHXHXHX",
"HXHXHX&.&.%.o.o.o.O.o.&.&.=.*.*.o.Q 8 X . 8 7 e w q } X.X.o.o.X.} | } X.&.>.rXhXNXMXNXjXsX9X:.o.} } } o.=.,.8X0X0X0X0X8X>.,.*.o.} C ! ) ( ( / / N.C.C.M.( ( M.C.C.( ^ W W W k h < , , , , , ; ; ; ; ; HXHXHXHXHXHXHXHXHXHXHXHXHXHXHXHXHXHXHXHXHXHXHXHXHXHXHXHXHX",
"HXHXHXo.O.X.} } +.$.G.+X+X+X+X+XG._ ) T 2 > 5 6 7 0 w { { } X.} } } X.&.>.tXhXMXVXAXAXBXnXfX9X:.&.X.{ { X.o.&.*.<.:.*.*.=.&.o.} q 0 B ^ / ^ W W / M.M.( ^ W ^ ( ( ^ j j j k j < , : , , : : ; ; ; ; ; HXHXHXHXHXHXHXHXHXHXHXHXHXHXHXHXHXHXHXHXHXHXHXHXHXHXHXHXHX",
"HXHXHX} } { C ! _  X&X=X>X>X=X&XOXoX XZ.^ > . 4 8 7 0 w q { { { { { X.=.7XtXdXjXMXBXBXxXgXuXqX>.*.o.} { { { } X.o.o.o.X.X...} q e 8 9 B W W W W ) N.M.) ) ^ ) ) ) W V B V V B h 2 2 < < , , > ; ; ; ; HXHXHXHXHXHXHXHXHXHXHXHXHXHXHXHXHXHXHXHXHXHXHXHXHXHXHXHXHX",
"HXHXHX' Q ! ^ ( Z. XOX=X;X;X=XOXoXoX|.Z.T >     . 8 7 0 w w w w q ' ] 5X5X6XzXdXhXkXgXiXY.Y.F.L.*.%.X.{ w 0 0 w q { { { [ w w 7 8 6 e Q +.#.$.P.@XiXpXgXgXgXgXpXuXqX@XP.<.<.-.$.o.+.+. .| Q Q w 1 ; ; HXHXHXHXHXHXHXHXHXHXHXHXHXHXHXHXHXHXHXHXHXHXHXHXHXHXHXHXHX",
"HXHXHX0 w V R x.b.m.|.XXoXoXXX|.|.|.n.x.m , O X X . 8 7 7 7 7 e 0 ' ] 5X5X5X6X9XtXtXqXY.s.s.i.D.=.%.X.{ w 7 8 7 7 7 0 0 7 7 8 6 + M N Z @.-.,.9XsXhXmXZXFXFXbXcXvXgXuXeX9X0X8X,.:.=.&.&.o.o.X.{ e 1 9 HXHXHXHXHXHXHXHXHXHXHXHXHXHXHXHXHXHXHXHXHXHXHXHXHXHXHXHXHX",
"HXHXHX8 9 j E l.z.z.z.x.x.x.x.z.z.z.z.l.R m l , X   . . 6 6 6 8 7 0 ' ] ] 1.%.=.;.:.-.u.r.q.u.@.o.O...{ q w 7 7 8 8 8 8 6 5 O i 7.e.d.r.r.u.@.o.;.,.P.U.Y.k.k.k.Y.F.$.%.%.o.o.o.X.X.X.X...X.} | Q Q O.,.eXHXHXHXHXHXHXHXHXHXHXHXHXHXHXHXHXHXHXHXHXHXHXHXHXHXHXHX",
"HXHXHXHX> l m b n R R V.M.C.C.H.H.H.H.C.C.M.^ h X     X X X X . 6 7 w Q } } } } } .. .A d d A Z { { { q w 0 7 7 7 0 q { { ' C d d.g.g.f.p.8.A | O.=.-.u.r.a.f.g.f.r.u.S Z  ...X.X.o.o.&.&.=.=.&.%.&.*.8X9XeXHXHXHXHXHXHXHXHXHXHXHXHXHXHXHXHXHXHXHXHXHXHXHXHXHXHX",
"HXHXHXHXHXHXx b m ! #.<.qXpXlXbXbXbXxXgXyXP.$.q .     X X X X X . 8 7 w q q q q q q q w 9 9 e 0 w w w 0 7 7 7 7 w } *.0X0X>.-.D.s.g.g.f.p.8.A ..*.0XqXF.r.0.p.a.f.f.f.d.u.#.%.=.;.,.0XeXtXrXrXtXeX0X8X>.>.0X9XtXtXHXHXHXHXHXHXHXHXHXHXHXHXHXHXHXHXHXHXHXHXHXHXHX",
"HXHXHXHXHXHXl g B | O.;.9XaXhXnXNXNXjXsX7Xo.{ w 7 7 w q w w 0 w w { X.&.*.:.:.,.P.8X8X7X7X>.,.:.:.=.&.&.o.X.X.} } &.0XaXaXwXP.F.j.f.f.p.e.8.@.*.wXdXgXI.8.2.6.w.a.f.g.h.i.$.=.;.,.8XeXrXdXhXjXjXjXhXsX9X8X0XeXtXtXtXHXHXHXHXHXHXHXHXHXHXHXHXHXHXHXHXHXHXHXHXHXHX",
"HXHXHXHXHXHX. 6 e { X.%.*.,.0XtXtXrXtX,.} 8 O 7 ' X.&.*.&.O.} X.o.*.8XtXdXhXjXNXZXCXVXCXCXZXMXmXjXdXsXrXtX9X>.=.o.=.0XrXrX9XP.F.j.a.p.w.7.u.L.wXdXmXxXI.S a s 6.w.p.f.s.i.L.<.:.:.>.0XtXsXhXmXMXBXBXjXsXeXeXtXrXrXtXtXtXHXHXHXHXHXHXHXHXHXHXHXHXHXHXHXHXHXHXHXHX",
"HXHXHXHXHXHXHXHX7 0 w { | } X.o.&.&.&.X.0 X X 8 q } o.&.o.X.} } o.:.0XrXdXjXNXMXCXAXAXAXVXCXMXmXjXhXsXrXeX0X:.&.X.o.:.0XI.F.i.j.d.p.w.6.4.u.I.fXjXnXjXuXI.D.S d 2.9.p.p.d.j.F.L.:.7X7X0XwXaXfXkXmXNXmXhXdXsXtXtXtXsXsXsXHXHXHXHXHXHXHXHXHXHXHXHXHXHXHXHXHXHXHXHX",
"HXHXHXHXHXHXHXHXHX8 8 7 7 7 7 0 w w w 7 6   X 8 0 q } X.} q w { X.&.:.0XtXsXdXhXmXMXMXMXjXhXdXsXtXtX9X0X,.=.o.} { } o.*.D.j.a.a.p.w.6.4.d D.qXdXhXdXdXfXsXqX#.A a s 6.w.p.a.s.i.D.L.L.L.L.I.I.iXuXdXhXkXhXfXtXwXeXrXsXsXHXHXHXHXHXHXHXHXHXHXHXHXHXHXHXHXHXHXHXHX",
"HXHXHXHXHXHXHXHXHXHXHXX X X X X . . 6 . X X   4 7 0 q { q 0 7 0 w { X.&.*.:.>.0XeXrXuXtXeX0X>.:.*.=.&.o.X.} { w 7 0 [  .S r.p.p.w.6.4.S @.-.wXrXtX0X8X>.>.:.o.Z M i a s 5.0.e.d.d.s.s.s.s.s.k.Y.U.0XwXrXaXrXtXwX0X8X0XtXhXmXHXHXHXHXHXHXHXHXHXHXHXHXHXHXHXHXHXHX",
"HXHXHXHXHXHXHXHXHXHXHXHX          X X X     X . 6 7 7 7 7 8 . . 8 7 w q { } X.o.&.=.*.=.&.o.X.} { { w w 0 7 7 8 6 8 7 w A 8.e.0.6.2.d Z o.;.7X0X,.=.o.o.X.X.} { w M u y a s 5.0.e.p.a.f.f.f.f.s.i.D.D.U.U.U.U.U.L.-.*.0XaXdXhXHXHXHXHXHXHXHXHXHXHXHXHXHXHXHXHXHX",
"HXHXHXHXHXHXHXHXHXHXHXHXHXHXHXHXHXHXHXHX6 6 6 8 8 7 7 7 8 . X X X X . 8 7 0 w w q { { { { q w 0 7 8 6 6 . X X X . 5 6 7 u d 5.5.2.a i Z } o.=.=.o.} C q { { q w w 0 9 9 u y a a s 2.3.6.9.w.w.p.p.d.s.s.h.h.h.s.i.@.o.*.>.0X9XHXHXHXHXHXHXHXHXHXHXHXHXHXHXHXHXHX",
"HXHXHXHXHXHXHXHXHXHXHXHXHXHXHXHXHXHXHXHX0 w q X.&.=.=.&.o.} w 0 7 7 w { } X.&.=.:.,.,.:.:.=.&.o.X.} { w 7 . X X X . 5 6 u a s s a y u M q | ..X.} q q { } X.X.X.X.X...| Z N N u u p y a s s 2.5.6.9.0.w.w.p.p.p.q.8.S @.#.=.:.8XHXHXHXHXHXHXHXHXHXHXHXHXHXHXHXHX",
"HXHXHXHXHXHXHXHXHXHXHXHXHXHXHXHXHXHXHXHX{ } &.0XsXhXjXhXsX0X*.o.X.} o.*.8XtXsXhXNXBXBXMXjXdXrXeX0X,.*.o.{ 7 6 . . 5 6 7 9 i a a y t u 9 e 0 w w q { } X.&.:.,.>.7X>.,.:.<.=.o.| w 9 u t t t y y y y a a a s 2.3.6.9.7.d Z X.=.>.0XHXHXHXHXHXHXHXHXHXHXHXHXHXHXHX",
"HXHXHXHXHXHXHXHXHXHXHXHXHXHXHXHXHXHXHXHXX.o.:.tXjXBXCXCXMXhXrX>.%.X.&.>.tXdXmXBXVXSXSXCXmXdXrX0X>.*.&...q 7 8 8 8 0 [ | Z i y y t t @ + 6 8 7 e q } o.=.:.8X0X9XtXtXrXrXaXrXwX,.&. .C + + @ @ @ + + u t t y y a a s s i M w } o.=._.).HXHXHXHXHXHXHXHXHXHXHXHXHX",
"HXHXHXHXHXHXHXHXHXHXHXHXHXHXHXHXHXHXHXHXo.o.:.9XdXmXMXMXMXmXlX9X=.X.&.>.tXdXjXMXCXAXVXMXhXrX0X:.&.X.{ w 0 7 7 w { X.=.:.-.@.A i y t @ O . 4 6 7 { X.&.:.,.8X0XeXtXsXdXhXjXjXhXsX0X:.X.q 7 8 . . 6 8 + @ @ t t t t t t + r 7 w | O._.).'.].HXHXHXHXHXHXHXHXHXHXHX",
"HXHXHXHXHXHXHXHXHXHXHXHXHXHXHXHXHXHXHXHX} } X.&.:.0XeXtXsXsXrX0X=.o.o.*.>.eXsXhXjXNXmXhXtX0X:.o.} q w 7 7 w { o.:.0XtXsXdXgXuXL.A t @ o . 5 8 0 { o.&.*.:.:.>.0X9XtXsXdXhXjXhXdXsX9X:.o.} w 8 6 6 6 6 O + 9 9 9 9 + + r r 7 L Y Q./.).`.'.'.[.HXHXHXHXHXHXHXHXHX",
"HXHXHXHXHXHXHXHXHXHXHXHXHXHXHXHXHXHXHXHXHX{ { { } X.&.*.:.7X8X:.&.o.X.X.o.=.>.0XtXrXtX9X>.=.o.} w 0 7 7 0 q } &.>.eXsXhXmXMXNXuXL.S M + O O 6 e { X.o.o.o.&.=.:.,.0X9XtXrXsXdXsXsXtX0X,.&.} w 7 8 6 6 6 6 8 8 7 8 8 6 6 7 L U Q.^./.(.).`.`.'.[.HXHXHXHXHXHXHXHX",
"HXHXHXHXHXHXHXHXHXHXHXHXHXHXHXHXHXHXHXHXHXHXHXw w w { } X.o.o.o.X.} { q w { X.o.&.:.:.=.o...{ 0 7 7 7 0 w { } o.&.:.0XtXsXdXhXlXdXuXL.N u @ O 8 0 { { { { { } o.&.=.:.:.8X0X9XeXtXeX9X0X:.o.} w 7 8 4 . . . . . . . > 3 L U E.Q.^.^./.(.(.(.).'.].{.HXHXHXHXHXHX",
"HXHXHXHXHXHXHXHXHXHXHXHXHXHXHXHXHXHXHXHXHXHXHX. 6 8 7 w q { { } { { w 0 7 7 w q { } } } { w 7 8 8 7 w w w w { } X.&.:.>.0X9XtXaXfXsXqX-.Z M 6 6 8 0 w w w q { { } X.o.&.=.:.,.>.8X8X8X>.:.&.} q 0 8 6 . X X   X % 3 G P Y W.Q.Q.Q.Q.Q.Q.Q.Q.^.(.[.].{.HXHXHXHXHX",
"HXHXHXHXHXHXHXHXHXHXHXHXHXHXHXHXHXHXHXHXHXHXHX  X X 6 8 7 0 w w w w 0 7 7 8 8 7 7 0 w 7 7 6 . . 8 w { { q 0 0 q { } o.&.=.<.:.>.0X0X0X0X,.o.w 6 . 8 7 0 w w w w w q { } X.o.&.=.=.=.=.=.&.X.} q 0 8 6 . X X X X = L I W.^.^.^.Q.Q.E.Y U U U E.Q.(.[.].{.}.HXHXHX",
"HXHXHXHXHXHXHXHXHXHXHXHXHXHXHXHXHXHXHXHXHXHXHXHXHX    X . 5 6 6 6 6 6 5 4 . . . . 4 . . X X . 5 7 q } } w 7 8 7 0 w ' { } ..X.o.o.&.=.*.=.o.} w 7 8 5 8 7 7 7 8 8 7 0 w q { { } } } } } { q w e 8 6 . X X X % * K Y Q./.`.`.).^.Q.E.U K F F H I W./.'.].{.HXHXHX",
"HXHXHXHXHXHXHXHXHXHXHXHXHXHXHXHXHXHXHXHXHXHXHXHXHXHXO O O O O O > > > O O O O O O O O O O O O 6 7 { X.X.{ e 8 8 9 9 B C C w w w w q { { } } } { w 7 . . 6 6 . . . . 6 8 8 7 7 0 0 0 7 7 7 8 8 6 % . X X % & G P Y Q.(.'.].].[.(.^.W.I H * # & F I W.(.].{.HXHXHX",
"HXHXHXHXHXHXHXHXHXHXHXHXHXHXHXHXHXHXHXHXHXHXHXHXHXHXf f f f f f m m m f f f f f f f f f f l @ O 6 [ o.&.X.{ C V m n R R W B 6 5 8 8 7 7 7 0 w w w 0 7 8 . X X X X . . . . 4 6 6 6 6 4 . % % % & & & & * G H P U W.^.(.'.].].[.`./.Q.U H * # # * H Y /.].{.HXHXHX",
"HXHXHXHXHXHXHXHXHXHXHXHXHXHXHXHXHXHXHXHXHXHXHXHXHXHXHXx x x x v t.t.t.v v v v v v x x x x z p @ 9  .<.>.,.*.$.N.z.x.b.b.x.^ T B B j h h < < g B C } } { 0 7 6 X X X X . X X X X % % % % % & & $ $ $ * G F H P U W.Q./.`.].].].'.(.!.P 3 & $ & D H E./.[.{.{.HXHX",
"HXHXHXHXHXHXHXHXHXHXHXHXHXHXHXHXHXHXHXHXHXHXHXHXHXHXHXHXHXx x x x x v t.t.l.l.t.v v x x x x z z n L.qXrXaXtX@X+XA.m.|.|. X X|.|.A.v.x.R b b z m ) -.,.;.o.} 0 . X X X . X # # # $ & * * * D D * & & = * F F K I Y Q.^.`.].].].[./.` g @ ; 3 F P U Q./.'.{.}.}.}.",
"HXHXHXHXHXHXHXHXHXHXHXHXHXHXHXHXHXHXHXHXHXHXHXHXHXHXHXHXHXHXx x x x x v v t.t.v v v v v x x c x c.I.pXgXuX#XK. X|.XXoXOX&X&XOXOXXX|.n.z.l.v x n G.qXsXtX>.&.} w 8 . X X # # $ = * G F F F F F F D * * D F H I Y W.^./.`.'.'.'.(.!.T p p k _ _ !.W.Q./.`.].{.}.}.",
"HXHXHXHXHXHXHXHXHXHXHXHXHXHXHXHXHXHXHXHXHXHXHXHXHXHXHXHXHXHXHXHXx x x x x x x x v t.t.v x x c x c.I.gXgX#XV.x.n. XOX=X:X:X:X:X=XOXXXA.x.l.v x n G.gXNXkXtXP.=.X.q 7 . X # $ = D F H K P P P P H F D G F H I Y Q.^.(.).`.`.(.^.Q.U 2 p f V. X$X.X!.Q.^.(.[.].{.}.",
"HXHXHXHXHXHXHXHXHXHXHXHXHXHXHXHXHXHXHXHXHXHXHXHXHXHXHXHXHXHXHXHXx x x x x x x x x v v v x x c c R I.gXgX#Xv.x.m.oX=X:X<X<X,X:X>X&XoX|.b.z.t.x n U.cXCXNXdX9X:.o.} q 7 8 % & = * D F H P I I I K F * D F H P U E.Q.^./.(.(./.^.W.I 2 @ t m R Z.$X4X4X).^./.`.].{.",
"HXHXHXHXHXHXHXHXHXHXHXHXHXHXHXHXHXHXHXHXHXHXHXHXHXHXHXHXHXHXHXHXx x x x x x x x x x x x x x b n B.#XlXgX#XS.n.|.&X>X,X1X1X<X,X:X=XOXXXA.x.l.v c.U.xXVXBXhXtX,.&.X.| q 0 8 & $ $ $ * F H P I I K F * D F H K P U E.W.Q.^.^.^.Q.E.I T l p t t m .X-X-X.X~.~./.`.`.",
"HXHXHXHXHXHXHXHXHXHXHXHXHXHXHXHXHXHXHXHXHXHXHXHXHXHXHXHXHXHXHXHXHXHXx x x x x x x x x c x n G.iXgXxXjXgX#XA.|.oX;X,X1X2X2X1X1X:X=XoX|.n.x.l.v c.U.bXAXBXhXtX>.&.X.} q 0 8 % % % HXHX& = G K P P H F F H K K H K I U E.W.Q.Q.Y I ` _ .XZ.n t t f R Z..X.X.X~.Q.E.",
"HXHXHXHXHXHXHXHXHXHXHXHXHXHXHXHXHXHXHXHXHXHXHXHXHXHXHXHXHXHXHXHXHXHXHXx x x x x x x x c x c.#XbXBXxXpX#X$X|.XXOX:X<X1X2X2X1X1X:X&XXXm.b.z.t.x c.U.bXAXBXlXeX,.&.X.{ q 0 8 . X HXHXHXHX# & G H H K K P P P P H H K P U Y W.E.I H P _ .X.XZ.R m p t z v. X.X_ I K ",
"HXHXHXHXHXHXHXHXHXHXHXHXHXHXHXHXHXHXHXHXHXHXHXHXHXHXHXHXHXHXHXHXHXHXHXHXHXHXx x x x x c x c.#XxXbX#XC.v.A.|.oX&X:X<X1X2X1X<X:X;XOXXXA.x.l.v x y.U.xXVXMXdX9X:.&.X.{ q 0 8 . X HXHXHXHXHXHX& * F K I U U I I P P P P I U E.Y I H F G 3 T .XoX XR p p n v.( T G = ",
"HXHXHXHXHXHXHXHXHXHXHXHXHXHXHXHXHXHXHXHXHXHXHXHXHXHXHXHXHXHXHXHXHXHXHXHXHXHXHXx x x x c x c.I.gXgX#XV.x.n.XXOX=X:X,X1X2X1X,X;X&XoX|.n.x.l.v x n U.xXCXNXsX0X:.&.X.{ q 0 8 . X HXHXHXHXHXHXHX$ D F K P I U U I I P P P U U U I P F = # J Z.oX Xc.p y z b E l 3 - ",
"HXHXHXHXHXHXHXHXHXHXHXHXHXHXHXHXHXHXHXHXHXHXHXHXHXHXHXHXHXHXHXHXHXHXHXHXHXHXHXHXHXx x c x n I.uXpX#XS.b.|.OX=X>X:X,X1X1X<X:X&XoX|.n.b.z.l.v x n U.cXBXnXrX0X:.&.X.{ w 0 8 . X HXHXHXHXHXHXHXHXHX& = F K I U U I I P P I U U I P H D = J E Z.v.b p y f x x HXHXHX",
"HXHXHXHXHXHXHXHXHXHXHXHXHXHXHXHXHXHXHXHXHXHXHXHXHXHXHXHXHXHXHXHXHXHXHXHXHXHXHXHXHXHXx c x n G.qXyX#XS.m.XX=X:X,X<X<X<X,X:X;X&XoX|.b.z.l.v x c b G.cXMXjXtX8X*.o.} q 0 7 4 X X HXHXHXHXHXHXHXHXHXHXHX* F F F H K H H H K P P P K H F G 3 J T k m z z c HXHXHXHXHX",
"HXHXHXHXHXHXHXHXHXHXHXHXHXHXHXHXHXHXHXHXHXHXHXHXHXHXHXHXHXHXHXHXHXHXHXHXHXHXHXHXHXHXHXHXx n @.P.@X+X|.|.OX:X<X1X2X1X<X,X:X;X&XXXA.x.l.v x b n M.#XcXNXhXeX,.&.X.{ w 7 6 X X   HXHXHXHXHXHXHXHXHXHXHXHX$ & = * G F F F F F F F F F F D = $ # : l b l.HXHXHXHXHXHX",
"HXHXHXHXHXHXHXHXHXHXHXHXHXHXHXHXHXHXHXHXHXHXHXHXHXHXHXHXHXHXHXHXHXHXHXHXHXHXHXHXHXHXHXHXHXHX$.<.P.+X XoX;X<X2X2X2X2X2X1X<X:X&XXXb.z.v x b G.iXcXbXNXjXsX0X*.o.} { w 7 8 6 HXHXHXHXHXHXHXHXHXHXHXHXHXHXHXHXHXHXHX& & & $ $ & & = * & $ # - - ; l x v HXHXHXHXHXHX",
"HXHXHXHXHXHXHXHXHXHXHXHXHXHXHXHXHXHXHXHXHXHXHXHXHXHXHXHXHXHXHXHXHXHXHXHXHXHXHXHXHXHXHXHXHXHXHX&.$.G. XoX;X<X2X2X2X2X2X1X,X;XoX|.x.l.x x n U.xXAXAXNXdXeX,.&.X.{ q 0 7 6 HXHXHXHXHXHXHXHXHXHXHXHXHXHXHXHXHXHXHXHXHX- - - - # # $ $ # # - - # ; l z x HXHXHXHXHXHX",
"HXHXHXHXHXHXHXHXHXHXHXHXHXHXHXHXHXHXHXHXHXHXHXHXHXHXHXHXHXHXHXHXHXHXHXHXHXHXHXHXHXHXHXHXHXHXHXX.#.M.A.XXOX:X<X1X2X1X1X,X=XoX|.b.l.v c c n K.cXCXBXhXrX8X=.X.} { w 7 6 . HXHXHXHXHXHXHXHXHXHXHXHXHXHXHXHXHXHXHXHXHXHXHXHXHXHXHXHXHXHXHXHXHXHXHXHXHXHXHXHXHXHXHXHX",
"HXHXHXHXHXHXHXHXHXHXHXHXHXHXHXHXHXHXHXHXHXHXHXHXHXHXHXHXHXHXHXHXHXHXHXHXHXHXHXHXHXHXHXHXHXHXHX{ ! / x.n.|.oX&X;X:X>X=X&XXX|.v.z.v x c c b G.gXMXmXsX9X:.o.} { w 0 8 . X HXHXHXHXHXHXHXHXHXHXHXHXHXHXHXHXHXHXHXHXHXHXHXHXHXHXHXHXHXHXHXHXHXHXHXHXHXHXHXHXHXHXHXHX",
"HXHXHXHXHXHXHXHXHXHXHXHXHXHXHXHXHXHXHXHXHXHXHXHXHXHXHXHXHXHXHXHXHXHXHXHXHXHXHXHXHXHXHXHXHXHXHX0 9 k R z.b.n.|. XXXXX|.m.b.x.l.t.v x x x n G.pXmXhXtX>.=.X.| q w 7 6 . X HXHXHXHXHXHXHXHXHXHXHXHXHXHXHXHXHXHXHXHXHXHXHXHXHXHXHXHXHXHXHXHXHXHXHXHXHXHXHXHXHXHXHXHX",
"HXHXHXHXHXHXHXHXHXHXHXHXHXHXHXHXHXHXHXHXHXHXHXHXHXHXHXHXHXHXHXHXHXHXHXHXHXHXHXHXHXHXHXHXHXHXHX8 1 l x t.l.z.x.b.b.b.x.z.l.t.v x c x / G.I.iXgXhXaX0X:.&.X.{ w 7 8 6 . HXHXHXHXHXHXHXHXHXHXHXHXHXHXHXHXHXHXHXHXHXHXHXHXHXHXHXHXHXHXHXHXHXHXHXHXHXHXHXHXHXHXHXHXHX",
"HXHXHXHXHXHXHXHXHXHXHXHXHXHXHXHXHXHXHXHXHXHXHXHXHXHXHXHXHXHXHXHXHXHXHXHXHXHXHXHXHXHXHXHXHXHXHX7 9 g m b l.c.V.Z.S.S.v.V.c.R n n n n G.@XsXfXsXtX0X:.&.O.} { 0 8 6 HXHXHXHXHXHXHXHXHXHXHXHXHXHXHXHXHXHXHXHXHXHXHXHXHXHXHXHXHXHXHXHXHXHXHXHXHXHXHXHXHXHXHXHXHXHXHX",
"HXHXHXHXHXHXHXHXHXHXHXHXHXHXHXHXHXHXHXHXHXHXHXHXHXHXHXHXHXHXHXHXHXHXHXHXHXHXHXHXHXHXHXHXHXHXHX' C C C ! $.I.#XpXGXGXpXiX#XI.L.L.L.L.P.>.>.>.:.:.=.o.X.} { w 7 6 . HXHXHXHXHXHXHXHXHXHXHXHXHXHXHXHXHXHXHXHXHXHXHXHXHXHXHXHXHXHXHXHXHXHXHXHXHXHXHXHXHXHXHXHXHXHXHX",
"HXHXHXHXHXHXHXHXHXHXHXHXHXHXHXHXHXHXHXHXHXHXHXHXHXHXHXHXHXHXHXHXHXHXHXHXHXHXHXHXHXHXHXHXHXHXHX{ { [ { X.<.9XsXhXnXnXhXfXtX0X>.,.,.,.;.&.o.X.X.} | { { w w 7 6 . X HXHXHXHXHXHXHXHXHXHXHXHXHXHXHXHXHXHXHXHXHXHXHXHXHXHXHXHXHXHXHXHXHXHXHXHXHXHXHXHXHXHXHXHXHXHXHX",
"HXHXHXHXHXHXHXHXHXHXHXHXHXHXHXHXHXHXHXHXHXHXHXHXHXHXHXHXHXHXHXHXHXHXHXHXHXHXHXHXHXHXHXHXHXHXHXw q q { X.&.,.0X9X9X0X,.=.&.O.X.} } } } X.X.} w 7 7 7 7 8 6 . X X X HXHXHXHXHXHXHXHXHXHXHXHXHXHXHXHXHXHXHXHXHXHXHXHXHXHXHXHXHXHXHXHXHXHXHXHXHXHXHXHXHXHXHXHXHXHXHX",
"HXHXHXHXHXHXHXHXHXHXHXHXHXHXHXHXHXHXHXHXHXHXHXHXHXHXHXHXHXHXHXHXHXHXHXHXHXHXHXHXHXHXHXHXHXHXo.o.&.:.0X0X8X:.8XeXrXeX8X*.o.} { w w 0 w w q w 7 8 6 . X X   X X     HXHXHXHXHXHXHXHXHXHXHXHXHXHXHXHXHXHXHXHXHXHXHXHXHXHXHXHXHXHXHXHXHXHXHXHXHXHXHXHXHXHXHXHXHXHXHX",
"HXHXHXHXHXHXHXHXHXHXHXHXHXHXHXHXHXHXHXHXHXHXHXHXHXHXHXHXHXHXHXHXHXHXHXHXHXHXHXHXHXHXHXHXX.o.<.0XrXjXCXAXHXHXHXBXBXNXhXtX>.&.X.{ w 0 7 8 6 8 7 7 6 X X         HXHXHXHXHXHXHXHXHXHXHXHXHXHXHXHXHXHXHXHXHXHXHXHXHXHXHXHXHXHXHXHXHXHXHXHXHXHXHXHXHXHXHXHXHXHXHXHXHX",
"HXHXHXHXHXHXHXHXHXHXHXHXHXHXHXHXHXHXHXHXHXHXHXHXHXHXHXHXHXHXHXHXHXHXHXHXHXHXHXHXHXHXHXHXX.o.=.>.tXhXMXCXVXCXVXVXVXCXNXhXsX9X:.&...q 0 8 . . . . . X X X       HXHXHXHXHXHXHXHXHXHXHXHXHXHXHXHXHXHXHXHXHXHXHXHXHXHXHXHXHXHXHXHXHXHXHXHXHXHXHXHXHXHXHXHXHXHXHXHXHX",
"HXHXHXHXHXHXHXHXHXHXHXHXHXHXHXHXHXHXHXHXHXHXHXHXHXHXHXHXHXHXHXHXHXHXHXHXHXHXHXHXHXHXHXHX} X.o.*.8XtXdXjXNXMXMXMXMXNXmXjXhXsXtX@X=.X.{ w 7 6 . X X X X X X   HXHXHXHXHXHXHXHXHXHXHXHXHXHXHXHXHXHXHXHXHXHXHXHXHXHXHXHXHXHXHXHXHXHXHXHXHXHXHXHXHXHXHXHXHXHXHXHXHXHX",
"HXHXHXHXHXHXHXHXHXHXHXHXHXHXHXHXHXHXHXHXHXHXHXHXHXHXHXHXHXHXHXHXHXHXHXHXHXHXHXHXHXHXHXHX{ } X.&.,.eXdXhXjXhXlXsXrXtXtXtXtXtXeX0X,.*.%.X.} q 0 7 6 X X   HXHXHXHXHXHXHXHXHXHXHXHXHXHXHXHXHXHXHXHXHXHXHXHXHXHXHXHXHXHXHXHXHXHXHXHXHXHXHXHXHXHXHXHXHXHXHXHXHXHXHXHX",
"HXHXHXHXHXHXHXHXHXHXHXHXHXHXHXHXHXHXHXHXHXHXHXHXHXHXHXHXHXHXHXHXHXHXHXHXHXHXHXHXHXHXHX} X.o.*.8XtXdXjXNXmXjXdXtX8X,.:.:.:.>.8X>.,.:.&.o.X.{ q 0 8 X     HXHXHXHXHXHXHXHXHXHXHXHXHXHXHXHXHXHXHXHXHXHXHXHXHXHXHXHXHXHXHXHXHXHXHXHXHXHXHXHXHXHXHXHXHXHXHXHXHXHXHXHX",
"HXHXHXHXHXHXHXHXHXHXHXHXHXHXHXHXHXHXHXHXHXHXHXHXHXHXHXHXHXHXHXHXHXHXHXHXHXHXHXHXHX7 w } =.0XsXmXCXAXAXAXAXVXMXdX0X:.=.&.&.&.=.=.&.o.X.} { w w 7 6 X     HXHXHXHXHXHXHXHXHXHXHXHXHXHXHXHXHXHXHXHXHXHXHXHXHXHXHXHXHXHXHXHXHXHXHXHXHXHXHXHXHXHXHXHXHXHXHXHXHXHXHXHX",
"HXHXHXHXHXHXHXHXHXHXHXHXHXHXHXHXHXHXHXHXHXHXHXHXHXHXHXHXHXHXHXHXHXHXHXHXHXHXHXHXHX7 w } =.0XdXMXCXAXAXAXSXAXCXmXsX9X:.&.X.} } } } } { q w 0 0 7 8 6 . X HXHXHXHXHXHXHXHXHXHXHXHXHXHXHXHXHXHXHXHXHXHXHXHXHXHXHXHXHXHXHXHXHXHXHXHXHXHXHXHXHXHXHXHXHXHXHXHXHXHXHXHX",
"HXHXHXHXHXHXHXHXHXHXHXHXHXHXHXHXHXHXHXHXHXHXHXHXHXHXHXHXHXHXHXHXHXHXHXHXHXHXHXHXHX7 w } &.,.tXhXmXMXBXCXCXVXCXBXNXdXwX:.X.{ 0 7 w w w 0 7 7 7 7 7 8 8 8 HXHXHXHXHXHXHXHXHXHXHXHXHXHXHXHXHXHXHXHXHXHXHXHXHXHXHXHXHXHXHXHXHXHXHXHXHXHXHXHXHXHXHXHXHXHXHXHXHXHXHXHX",
"HXHXHXHXHXHXHXHXHXHXHXHXHXHXHXHXHXHXHXHXHXHXHXHXHXHXHXHXHXHXHXHXHXHXHXHXHXHXHXHXHX{ } &.0XrXhXNXBXCXCXMXmXkXhXjXxXhXsXwX:.X.w 7 7 7 7 8 8 8 8 8 8 4 . . HXHXHXHXHXHXHXHXHXHXHXHXHXHXHXHXHXHXHXHXHXHXHXHXHXHXHXHXHXHXHXHXHXHXHXHXHXHXHXHXHXHXHXHXHXHXHXHXHXHXHXHX",
"HXHXHXHXHXHXHXHXHXHXHXHXHXHXHXHXHXHXHXHXHXHXHXHXHXHXHXHXHXHXHXHXHXHXHXHXHXHXHXHXHXX.o.,.tXhXMXCXAXAXVXBXjXsXrXsXdXdXdXrX0X&.} w 7 8 6 . X . 4 4 . X     HXHXHXHXHXHXHXHXHXHXHXHXHXHXHXHXHXHXHXHXHXHXHXHXHXHXHXHXHXHXHXHXHXHXHXHXHXHXHXHXHXHXHXHXHXHXHXHXHXHXHXHX",
"HXHXHXHXHXHXHXHXHXHXHXHXHXHXHXHXHXHXHXHXHXHXHXHXHXHXHXHXHXHXHXHXHXHXHXHXHXHXHXHXHX{ } o.,.eXdXmXBXVXAXAXCXMXkXsXeX0X0X8X:.=.o.} q 0 8 X X X X   X       HXHXHXHXHXHXHXHXHXHXHXHXHXHXHXHXHXHXHXHXHXHXHXHXHXHXHXHXHXHXHXHXHXHXHXHXHXHXHXHXHXHXHXHXHXHXHXHXHXHXHXHX",
"HXHXHXHXHXHXHXHXHXHXHXHXHXHXHXHXHXHXHXHXHXHXHXHXHXHXHXHXHXHXHXHXHXHXHXHXHXHXHXHXHXw w } o.:.9XsXhXmXMXZXBXMXjXsX9X>.*.&.o.o.o.X.{ w 7 6               HXHXHXHXHXHXHXHXHXHXHXHXHXHXHXHXHXHXHXHXHXHXHXHXHXHXHXHXHXHXHXHXHXHXHXHXHXHXHXHXHXHXHXHXHXHXHXHXHXHXHXHXHX",
"HXHXHXHXHXHXHXHXHXHXHXHXHXHXHXHXHXHXHXHXHXHXHXHXHXHXHXHXHXHXHXHXHXHXHXHXHXHXHXHXHXw w { X.&.,.0XeXtXtXtXsXdXdXsXtX0X=.X.} } } { { w 0 8 4 X X     HXHXHXHXHXHXHXHXHXHXHXHXHXHXHXHXHXHXHXHXHXHXHXHXHXHXHXHXHXHXHXHXHXHXHXHXHXHXHXHXHXHXHXHXHXHXHXHXHXHXHXHXHXHXHX",
"HXHXHXHXHXHXHXHXHXHXHXHXHXHXHXHXHXHXHXHXHXHXHXHXHXHXHXHXHXHXHXHXHXHXHXHXHXHXHXHXHX} X.&.:.0XtXdXdXdXsXtXeX0X0X0X0X,.&.X.{ q w w w 0 7 8 6 X X     HXHXHXHXHXHXHXHXHXHXHXHXHXHXHXHXHXHXHXHXHXHXHXHXHXHXHXHXHXHXHXHXHXHXHXHXHXHXHXHXHXHXHXHXHXHXHXHXHXHXHXHXHXHXHX",
"HXHXHXHXHXHXHXHXHXHXHXHXHXHXHXHXHXHXHXHXHXHXHXHXHXHXHXHXHXHXHXHXHXHXHXHXHXHXHXHXHX&.:.0XsXjXZXVXAXVXBXjXtX>.*.=.=.&.o.X.} w 7 7 8 8 6 . X X X     HXHXHXHXHXHXHXHXHXHXHXHXHXHXHXHXHXHXHXHXHXHXHXHXHXHXHXHXHXHXHXHXHXHXHXHXHXHXHXHXHXHXHXHXHXHXHXHXHXHXHXHXHXHXHX",
"HXHXHXHXHXHXHXHXHXHXHXHXHXHXHXHXHXHXHXHXHXHXHXHXHXHXHXHXHXHXHXHXHXHXHXHXHXHXHXHXHXo.&.,.9XsXjXMXCXCXCXNXdXtX>.=.o.X.X.X.} q 0 7 8 6 . X X X       HXHXHXHXHXHXHXHXHXHXHXHXHXHXHXHXHXHXHXHXHXHXHXHXHXHXHXHXHXHXHXHXHXHXHXHXHXHXHXHXHXHXHXHXHXHXHXHXHXHXHXHXHXHXHX",
"HXHXHXHXHXHXHXHXHXHXHXHXHXHXHXHXHXHXHXHXHXHXHXHXHXHXHXHXHXHXHXHXHXHXHXHXHXHXHXHXHX} } X.&.*.0XtXdXhXjXjXhXdXeX:.X.} } } { q w 7 6 . X X   X X X . HXHXHXHXHXHXHXHXHXHXHXHXHXHXHXHXHXHXHXHXHXHXHXHXHXHXHXHXHXHXHXHXHXHXHXHXHXHXHXHXHXHXHXHXHXHXHXHXHXHXHXHXHXHXHX",
"HXHXHXHXHXHXHXHXHXHXHXHXHXHXHXHXHXHXHXHXHXHXHXHXHXHXHXHXHXHXHXHXHXHXHXHXHXHXHXHXHX0 0 0 0 w { X.&.*.:.8X9XtX9X:.&.X.} { q w w 7 6 X X   X . 8 0 q } X.HXHXHXHXHXHXHXHXHXHXHXHXHXHXHXHXHXHXHXHXHXHXHXHXHXHXHXHXHXHXHXHXHXHXHXHXHXHXHXHXHXHXHXHXHXHXHXHXHXHXHXHXHX",
"HXHXHXHXHXHXHXHXHXHXHXHXHXHXHXHXHXHXHXHXHXHXHXHXHXHXHXHXHXHXHXHXHXHXHXHXHXHXHXHXHX6 6 6 6 7 w } X.X.X.o.=.:.:.<.&.o.} q w w 0 7 8 . X X X 6 0 ' } X.X.X.HXHXHXHXHXHXHXHXHXHXHXHXHXHXHXHXHXHXHXHXHXHXHXHXHXHXHXHXHXHXHXHXHXHXHXHXHXHXHXHXHXHXHXHXHXHXHXHXHXHXHXHX",
"HXHXHXHXHXHXHXHXHXHXHXHXHXHXHXHXHXHXHXHXHXHXHXHXHXHXHXHXHXHXHXHXHXHXHXHXHXHXHXHXHX. 6 7 w X.*.0X0X,.&.X.X.X.X.o.&.o.X.{ w 0 7 8 8 8 5 X . 7 w { } } } } { { HXHXHXHXHXHXHXHXHXHXHXHXHXHXHXHXHXHXHXHXHXHXHXHXHXHXHXHXHXHXHXHXHXHXHXHXHXHXHXHXHXHXHXHXHXHXHXHXHXHX",
"HXHXHXHXHXHXHXHXHXHXHXHXHXHXHXHXHXHXHXHXHXHXHXHXHXHXHXHXHXHXHXHXHXHXHXHXHXHXHXHXHXHX7 } &.8XsXjXjXsX0X*.X.{ { } X.X.X.} ' 0 8 6 6 6 4 . . 8 0 w q ' q w w w w HXHXHXHXHXHXHXHXHXHXHXHXHXHXHXHXHXHXHXHXHXHXHXHXHXHXHXHXHXHXHXHXHXHXHXHXHXHXHXHXHXHXHXHXHXHXHXHXHX",
"HXHXHXHXHXHXHXHXHXHXHXHXHXHXHXHXHXHXHXHXHXHXHXHXHXHXHXHXHXHXHXHXHXHXHXHXHXHXHXHXHXHXHXHXtXdXmXVXAXBXhXtX*.} w w w q { } { w 7 6 . . X X . . 6 8 8 7 7 6 6 6 7 q ~ Z. XXXHXHXHXHXHXHXHXHXHXHXHXHXHXHXHXHXHXHXHXHXHXHXHXHXHXHXHXHXHXHXHXHXHXHXHXHXHXHXHXHXHXHXHXHX",
"HXHXHXHXHXHXHXHXHXHXHXHXHXHXHXHXHXHXHXHXHXHXHXHXHXHXHXHXHXHXHXHXHXHXHXHXHXHXHXHXHXHXHXHXtXsXjXCXVXBXjXrX:.} w 7 7 7 q { { w 7 8 4 . X   X X X X X . X   X X 6 e C ^ V.v.b.x.HXHXHXHXHXHXHXHXHXHXHXHXHXHXHXHXHXHXHXHXHXHXHXHXHXHXHXHXHXHXHXHXHXHXHXHXHXHXHXHXHXHX",
"HXHXHXHXHXHXHXHXHXHXHXHXHXHXHXHXHXHXHXHXHXHXHXHXHXHXHXHXHXHXHXHXHXHXHXHXHXHXHXHXHXHXHXHX,.0XrXhXmXjXhXrX,.X.q 7 6 8 0 q q w 7 8 6 X X X X       X X X X   X . 6 9 l z v l.z.z.HXHXHXHXHXHXHXHXHXHXHXHXHXHXHXHXHXHXHXHXHXHXHXHXHXHXHXHXHXHXHXHXHXHXHXHXHXHXHXHXHX",
"HXHXHXHXHXHXHXHXHXHXHXHXHXHXHXHXHXHXHXHXHXHXHXHXHXHXHXHXHXHXHXHXHXHXHXHXHXHXHXHXHXHXHXHXX.o.:.0XtXsXsXtX8X&.} w 7 7 7 7 7 7 8 6 . X X   HXHXHXHXp f f l HXHXHXHXHXHXHXHXv t.t.HXHXHXHXHXHXHXHXHXHXHXHXHXHXHXHXHXHXHXHXHXHXHXHXHXHXHXHXHXHXHXHXHXHXHXHXHXHXHXHXHX",
"HXHXHXHXHXHXHXHXHXHXHXHXHXHXHXHXHXHXHXHXHXHXHXHXHXHXHXHXHXHXHXHXHXHXHXHXHXHXHXHXHXHXHXHXq { } o.=.,.0X8X:.&.X.{ w 7 7 8 6 6 . . X   HXHXHXHXHXHXHXx x HXHXHXHXHXHXHXHXHXHXx x HXHXHXHXHXHXHXHXHXHXHXHXHXHXHXHXHXHXHXHXHXHXHXHXHXHXHXHXHXHXHXHXHXHXHXHXHXHXHXHXHX",
"HXHXHXHXHXHXHXHXHXHXHXHXHXHXHXHXHXHXHXHXHXHXHXHXHXHXHXHXHXHXHXHXHXHXHXHXHXHXHXHXHXHXHXHXw w q { } } X.X.o.o.X.} { w 7 8 . X X X HXHXHXHXHXHXHXHXHXHXHXHXHXHXHXHXHXHXHXHXHXHXHXHXHXHXHXHXHXHXHXHXHXHXHXHXHXHXHXHXHXHXHXHXHXHXHXHXHXHXHXHXHXHXHXHXHXHXHXHXHXHXHXHX",
"HXHXHXHXHXHXHXHXHXHXHXHXHXHXHXHXHXHXHXHXHXHXHXHXHXHXHXHXHXHXHXHXHXHXHXHXHXHXHXHXHXHXHXHX7 7 7 7 7 7 7 w { } } } { q 0 8 . X X X 4 HXHXHXHXHXHXHXHXHXHXHXHXHXHXHXHXHXHXHXHXHXHXHXHXHXHXHXHXHXHXHXHXHXHXHXHXHXHXHXHXHXHXHXHXHXHXHXHXHXHXHXHXHXHXHXHXHXHXHXHXHXHXHX",
"HXHXHXHXHXHXHXHXHXHXHXHXHXHXHXHXHXHXHXHXHXHXHXHXHXHXHXHXHXHXHXHXHXHXHXHXHXHXHXHXHXHXHXHX. . . X X . . 8 7 w q { { q 0 8 . . X 4 8 0 q { } } HXHXHXHXHXHXHXHXHXHXHXHXHXHXHXHXHXHXHXHXHXHXHXHXHXHXHXHXHXHXHXHXHXHXHXHXHXHXHXHXHXHXHXHXHXHXHXHXHXHXHXHXHXHXHXHXHXHX",
"HXHXHXHXHXHXHXHXHXHXHXHXHXHXHXHXHXHXHXHXHXHXHXHXHXHXHXHXHXHXHXHXHXHXHXHXHXHXHXHXHXHXHXHX8 7 0 q q w 0 0 0 0 0 0 0 7 8 4 . X . 8 7 q } o.&.&.&.HXHXHXHXHXHXHXHXHXHXHXHXHXHXHXHXHXHXHXHXHXHXHXHXHXHXHXHXHXHXHXHXHXHXHXHXHXHXHXHXHXHXHXHXHXHXHXHXHXHXHXHXHXHXHXHXHX",
"HXHXHXHXHXHXHXHXHXHXHXHXHXHXHXHXHXHXHXHXHXHXHXHXHXHXHXHXHXHXHXHXHXHXHXHXHXHXHXHXHXHXHXHX{ ..&.:.,.*.o.X.{ w 0 7 7 8 6 . . X . 7 w } o.:.>.,.*.&.&.HXHXHXHXHXHXHXHXHXHXHXHXHXHXHXHXHXHXHXHXHXHXHXHXHXHXHXHXHXHXHXHXHXHXHXHXHXHXHXHXHXHXHXHXHXHXHXHXHXHXHXHXHXHXHX",
"HXHXHXHXHXHXHXHXHXHXHXHXHXHXHXHXHXHXHXHXHXHXHXHXHXHXHXHXHXHXHXHXHXHXHXHXHXHXHXHXHXHXHXHX8XwXsXkXkXfXeX8X:.&.X.{ w 0 7 8 6 8 7 w { X.=.>.0X0X8X,.:.=.&.HXHXHXHXHXHXHXHXHXHXHXHXHXHXHXHXHXHXHXHXHXHXHXHXHXHXHXHXHXHXHXHXHXHXHXHXHXHXHXHXHXHXHXHXHXHXHXHXHXHXHXHXHX",
"HXHXHXHXHXHXHXHXHXHXHXHXHXHXHXHXHXHXHXHXHXHXHXHXHXHXHXHXHXHXHXHXHXHXHXHXHXHXHXHXHXHXHXHXGXbXbXbXbXbXhXdXtX0X,.&.X.{ w 7 7 7 0 q } X.&.:.>.7X,.:.*.&.&.=.HXHXHXHXHXHXHXHXHXHXHXHXHXHXHXHXHXHXHXHXHXHXHXHXHXHXHXHXHXHXHXHXHXHXHXHXHXHXHXHXHXHXHXHXHXHXHXHXHXHXHXHX",
"HXHXHXHXHXHXHXHXHXHXHXHXHXHXHXHXHXHXHXHXHXHXHXHXHXHXHXHXHXHXHXHXHXHXHXHXHXHXHXHXHXHXHXHX2X3X-X*X*XpXxXjXhXsXtX8X*.X.{ 0 7 0 w w { } X.o.&.o.o.X.o.o.&.:.,.:.o.| q HXHXHXHXHXHXHXHXHXHXHXHXHXHXHXHXHXHXHXHXHXHXHXHXHXHXHXHXHXHXHXHXHXHXHXHXHXHXHXHXHXHXHXHXHXHXHX",
"HXHXHXHXHXHXHXHXHXHXHXHXHXHXHXHXHXHXHXHXHXHXHXHXHXHXHXHXHXHXHXHXHXHXHXHXHXHXHXHXHXHXHX<X,X;XoXn.S.#XpXdXsXtX0X:.&...q 7 7 7 7 0 w w q { { q q q } X.o.&.=.&.+.! W / HXHXHXHXHXHXHXHXHXHXHXHXHXHXHXHXHXHXHXHXHXHXHXHXHXHXHXHXHXHXHXHXHXHXHXHXHXHXHXHXHXHXHXHXHXHX",
"HXHXHXHXHXHXHXHXHXHXHXHXHXHXHXHXHXHXHXHXHXHXHXHXHXHXHXHXHXHXHXHXHXHXHXHXHXHXHXHXHX2X<X:XOX Xn.z.c.G.:.,.;.&.o.} { w 7 4 . . . 4 6 8 8 8 8 8 7 7 w } } ..} Q ^ R l.x.n.n.HXHXHXHXHXHXHXHXHXHXHXHXHXHXHXHXHXHXHXHXHXHXHXHXHXHXHXHXHXHXHXHXHXHXHXHXHXHXHXHXHXHXHXHX",
"HXHXHXHXHXHXHXHXHXHXHXHXHXHXHXHXHXHXHXHXHXHXHXHXHXHXHXHXHXHXHXHXHXHXHXHXHXHXHXHXHX,X>XOX|.v.l.t.n ^ +...} [ w 0 7 6 . X X X X X X X X X X X . 6 7 w w 0 7 9 l m t.l.x.v.b.n.HXHXHXHXHXHXHXHXHXHXHXHXHXHXHXHXHXHXHXHXHXHXHXHXHXHXHXHXHXHXHXHXHXHXHXHXHXHXHXHXHXHX",
"HXHXHXHXHXHXHXHXHXHXHXHXHXHXHXHXHXHXHXHXHXHXHXHXHXHXHXHXHXHXHXHXHXHXHXHXHXHXHXHXHX&XoX|.x.l.v x m k B 0 0 7 8 6 . X X X                 X X X . 6 8 8 4 X O p z x t.l.z.v.n.n.HXHXHXHXHXHXHXHXHXHXHXHXHXHXHXHXHXHXHXHXHXHXHXHXHXHXHXHXHXHXHXHXHXHXHXHXHXHXHXHXHX",
"HXHXHXHXHXHXHXHXHXHXHXHXHXHXHXHXHXHXHXHXHXHXHXHXHXHXHXHXHXHXHXHXHXHXHXHXHXHXHXHXHXA.A.b.HXHXHXHXHXm m l g HXHXHXHXHXHXHXHXHXHXHXHXHXHXHXHXHXHXHXHXHXHXHXHXHXHXHXHXHXHXHXz.z.z.HXHXHXHXHXHXHXHXHXHXHXHXHXHXHXHXHXHXHXHXHXHXHXHXHXHXHXHXHXHXHXHXHXHXHXHXHXHXHXHXHX",
"HXHXHXHXHXHXHXHXHXHXHXHXHXHXHXHXHXHXHXHXHXHXHXHXHXHXHXHXHXHXHXHXHXHXHXHXHXHXHXHXHXx.x.x.HXHXHXHXHXx x x HXHXHXHXHXHXHXHXHXHXHXHXHXHXHXHXHXHXHXHXHXHXHXHXHXHXHXHXHXHXHXHXl.l.l.HXHXHXHXHXHXHXHXHXHXHXHXHXHXHXHXHXHXHXHXHXHXHXHXHXHXHXHXHXHXHXHXHXHXHXHXHXHXHXHXHX"
};
