/* XPM */
static const char *bos2c3[] = {
/* columns rows colors chars-per-pixel */
"128 128 248 2 ",
"   c #151515",
".  c #1C1C1C",
"X  c #191817",
"o  c #11130F",
"O  c #251C17",
"+  c #321911",
"@  c #183210",
"#  c #29221C",
"$  c #372819",
"%  c #353213",
"&  c #1D1F22",
"*  c #1E2022",
"=  c #242424",
"-  c #2B2C2C",
";  c #292725",
":  c #362C25",
">  c #3B332B",
",  c #2D2F30",
"<  c #343434",
"1  c #3B3C3C",
"2  c #3A3835",
"3  c #2F3032",
"4  c #4B0505",
"5  c #570504",
"6  c #4F1611",
"7  c #660705",
"8  c #780101",
"9  c #721910",
"0  c #49240C",
"q  c #522A0C",
"w  c #442A17",
"e  c #48341A",
"r  c #563619",
"t  c #592D11",
"y  c #6A2B05",
"u  c #752C02",
"i  c #7D3501",
"p  c #773606",
"a  c #683812",
"s  c #473625",
"d  c #583D23",
"f  c #443D37",
"g  c #552F2E",
"h  c #653434",
"j  c #6F302D",
"k  c #1E4215",
"l  c #244A19",
"z  c #28551D",
"x  c #34541D",
"c  c #2B5C21",
"v  c #334F2C",
"b  c #2E6424",
"n  c #356E29",
"m  c #336826",
"M  c #38762C",
"N  c #3B7C31",
"B  c #3D6E32",
"V  c #2D641F",
"C  c #764618",
"Z  c #724711",
"A  c #5C4124",
"S  c #4A433B",
"D  c #594838",
"F  c #4C5137",
"G  c #644525",
"H  c #6A4828",
"J  c #734C2A",
"K  c #784E28",
"L  c #7C522E",
"P  c #795227",
"I  c #735334",
"U  c #457332",
"Y  c #777029",
"T  c #625B19",
"R  c #3D3F41",
"E  c #3F4142",
"W  c #434343",
"Q  c #4C4C4C",
"!  c #484847",
"~  c #554A46",
"^  c #57534D",
"/  c #4D4E50",
"(  c #535454",
")  c #5B5C5C",
"_  c #565758",
"`  c #4C534F",
"'  c #635A56",
"]  c #6F534B",
"[  c #576E52",
"{  c #736857",
"}  c #5E6162",
"|  c #636363",
" . c #6B6B6B",
".. c #686767",
"X. c #6D7272",
"o. c #737373",
"O. c #7B7B7B",
"+. c #777776",
"@. c #72716B",
"#. c #605F61",
"$. c #890202",
"%. c #950404",
"&. c #931818",
"*. c #A80505",
"=. c #B70000",
"-. c #B01414",
";. c #823C05",
":. c #903636",
">. c #B12E2E",
",. c #C70202",
"<. c #D80101",
"1. c #CE1919",
"2. c #E80101",
"3. c #EC0A0A",
"4. c #C42A2A",
"5. c #894508",
"6. c #8C4B0B",
"7. c #874408",
"8. c #914E0B",
"9. c #93520E",
"0. c #99560D",
"q. c #895519",
"w. c #9B5C13",
"e. c #955814",
"r. c #864D13",
"t. c #9C6316",
"y. c #916E1C",
"u. c #A16415",
"i. c #A46B19",
"p. c #A56A18",
"a. c #AB741C",
"s. c #AE7A1E",
"d. c #A6711B",
"f. c #B07C1F",
"g. c #A0600F",
"h. c #875628",
"j. c #825631",
"k. c #8C5B35",
"l. c #865833",
"z. c #915E38",
"x. c #925A28",
"c. c #946139",
"v. c #9C653C",
"b. c #9D683C",
"n. c #956F2A",
"m. c #AB7823",
"M. c #B17E21",
"N. c #A1693F",
"B. c #A5762F",
"V. c #A25E12",
"C. c #904E4C",
"Z. c #997558",
"A. c #906F4D",
"S. c #A56B40",
"D. c #AA6E43",
"F. c #AB7144",
"G. c #B37346",
"H. c #B87649",
"J. c #A17A58",
"K. c #8A746D",
"L. c #B27671",
"P. c #AE4A4A",
"I. c #C47D4E",
"U. c #D44747",
"Y. c #3D8633",
"T. c #3D8731",
"R. c #428C35",
"E. c #438A37",
"W. c #499B3D",
"Q. c #46953A",
"!. c #588B32",
"~. c #4CA23F",
"^. c #6F892D",
"/. c #519446",
"(. c #63895C",
"). c #4CA442",
"_. c #4FA944",
"`. c #51AC45",
"'. c #53A945",
"]. c #54B449",
"[. c #59BD4E",
"{. c #55B74A",
"}. c #6DB548",
"|. c #6E8A68",
" X c #5BC351",
".X c #5ECA54",
"XX c #5AC04F",
"oX c #63D65B",
"OX c #60CF57",
"+X c #B48323",
"@X c #BA8D29",
"#X c #B88826",
"$X c #BD922B",
"%X c #AE8832",
"&X c #ABA939",
"*X c #9A8C2C",
"=X c #C2982E",
"-X c #C39B32",
";X c #CBA838",
":X c #D2B33E",
">X c #CBA02F",
",X c #ABBC4C",
"<X c #988676",
"1X c #8E8573",
"2X c #AB8E6E",
"3X c #A89859",
"4X c #CE8455",
"5X c #D7B942",
"6X c #C1AB48",
"7X c #D8C84B",
"8X c #E9D855",
"9X c #E1CA4C",
"0X c #F0E45C",
"qX c #F6F268",
"wX c #D9E063",
"eX c #7C7E80",
"rX c #7D8283",
"tX c #848484",
"yX c #8B8B8B",
"uX c #888887",
"iX c #939393",
"pX c #9B9B9B",
"aX c #979897",
"sX c #92908C",
"dX c #A49A96",
"fX c #AE9487",
"gX c #ABA39B",
"hX c #A3A3A3",
"jX c #ABACAC",
"kX c #A8A9A8",
"lX c #B4B4B4",
"zX c #BBBBBB",
"xX c #BAB7B4",
"cX c #B1B1AD",
"vX c #9CA2A0",
"bX c #C7B99C",
"nX c #C6C1BD",
"mX c #C4C488",
"MX c #BDC2C2",
"NX c #C3C4C4",
"BX c #CBCBCB",
"VX c #D3D3D3",
"CX c #DBDBDB",
"ZX c #D4D7D9",
"AX c #D0CDC9",
"SX c #E5E5E5",
"DX c None",
"FX c black",
/* pixels */
"DXDXDXDXDXDXDXDXDXDXDXDXDXDXDXDXDXDXDXDXDXDXDXDXDXDXDXDXDXDXDXDXDXDXDXDXDXDXDXDXDXDXDXDXDXDXDXDXDXDXDXtXyXiXpXhXjXjXjXjXjXjXkXL.4.<.<.<.,.<.<.<.<.<.<.2.2.2.2.2.2.2.2.2.2.DXDXDXDXDXDXDXDXDXDXDXDXDXDXDXDXDXDXDXDXDXDXDXDXDXDXDXDXDXDXDXDXDXDXDXDXDXDXDXDXDXDXDX",
"DXDXDXDXDXDXDXDXDXDXDXDXDXDXDXDXDXDXDXDXDXDXDXDXDXDXDXDXDXDXDXDXDXDXDXDXDXDXDXDXDXDXDXDXDXDXDXDXDXDXO.rXyXaXhXdXfXL.L.L.L.L.L.P.>.,.=.=.=.=.=.=.=.=.=.=.,.,.,.,.,.<.<.<.<.<.DXDXDXDXDXDXDXDXDXDXDXDXDXDXDXDXDXDXDXDXDXDXDXDXDXDXDXDXDXDXDXDXDXDXDXDXDXDXDXDXDXDX",
"DXDXDXDXDXDXDXDXDXDXDXDXDXDXDXDXDXDXDXDXDXDXDXDXDXDXDXDXDXDXxXzXNXBXZXCXCXCXCXVXBXzXjXpXiXuX+.o. . .+.eXyXpXhXL.U.1.1.1.1.1.1.-.*.%.$.8 8 8 8 8 8 8 8 $.$.$.$.%.%.*.*.=.=.,.,.<.2.2.DXDXDXDXDXDXDXDXDXDXDXDXDXDXDXDXDXDXDXDXDXDXDXDXDXDXDXDXDXDXDXDXDXDXDXDXDXDX",
"DXDXDXDXDXDXDXDXDXDXDXDXDXDXDXDXDXDXDXDXDXDXDXDXDXDXDXDXBXNXNXNXNXBXZXCXCXCXCXVXNXzXcXhXaXyXK.K.C.C.C.C.C.Z.L.P.1.,.,.,.=.=.*.%.8 8 7 9 g j j j j j j :.:.:.:.:.:.:.:.:.:.>.>.>.>.4.1.<.DXDXDXDXDXDXDXDXDXDXDXDXDXDXDXDXDXDXDXDXDXDXDXDXDXDXDXDXDXDXDXDXDXDXDXDX",
"DXDXDXDXDXDXDXDXDXDXDXDXDXDXDXDXDXDXDXDXDXDXDXDXzXNXBXVXZXVXVXBXBXBXVXCXCXCXZXBXNXzXxXjXhXaXyXZ.>.-.-.*.*.&.&.%.%.%.%.$.$.8 8 7 5 5 g ~ '  .+.K.uXsXiXdXdXdXdXdXdXiXsXuXK.K.K.K.K.K.P.1.<.2.2.2.DXDXDXDXDXDXDXDXDXDXDXDXDXDXDXDXDXDXDXDXDXDXDXDXDXDXDXDXDXDXDXDX",
"DXDXDXDXDXDXDXDXDXDXDXDXDXDXDXDXDXDXDXDXDXDXDXMXNXBXZXCXSXCXCXZXAXBXVXZXZXZXVXVXVXBXBXNXxXjXpXK.C.&.&.%.$.$.$.8 8 8 9 j j h g g g h ~ | X.rXyXaXhXjXcXlXxXzXMXMXNXMXMXlXcXkXvXpXiXyXK.P.>.>.>.4.1.DXDXDXDXDXDXDXDXDXDXDXDXDXDXDXDXDXDXDXDXDXDXDXDXDXDXDXDXDXDXDX",
"DXDXDXDXDXDXDXDXDXDXDXDXDXDXDXDXDXDXDXDXDXxXxXzXNXVXCXSXSXSXCXZXBXBXBXVXVXZXZXZXCXCXCXCXBXzXkXyXo.' h 9 8 7 7 7 7 7 h ' ..' _ ) |  .@.o.O.yXaXhXjXxXxXzXNXBXVXZXCXSXSXCXCXVXBXzXlXhXaXuXK.+.@.C.4.3.3.DXDXDXDXDXDXDXDXDXDXDXDXDXDXDXDXDXDXDXDXDXDXDXDXDXDXDXDXDX",
"DXDXDXDXDXDXDXDXDXDXDXDXDXDXDXDXDXDXDXDXxXlXcXlXxXNXVXCXCXZXVXBXNXNXBXVXZXCXCXSXSXCXCXVXNXxXhXyXX._ ~ g g h h h h h ~ ) } } } |  .o.+.+.tXyXaXhXjXxXzXNXBXVXCXSXSXSXSXSXSXSXZXBXNXlXhXaXyXrX+.K.C.>.>.<.DXDXDXDXDXDXDXDXDXDXDXDXDXDXDXDXDXDXDXDXDXDXDXDXDXDXDXDX",
"DXDXDXDXDXDXDXDXDXDXDXDXDXDXDXDXDXDXDXzXxXlXjXjXjXxXzXNXNXNXzXzXzXzXNXBXZXCXSXSXCXZXBXNXxXlXhXyX+.| ( Q Q ( ) | | ' _ ( ( _ | | ..o.+.O.uXiXpXhXjXlXxXNXBXVXCXSXSXSXSXSXSXSXCXVXNXxXjXpXaXyXtX+. .{ :.1.2.DXDXDXDXDXDXDXDXDXDXDXDXDXDXDXDXDXDXDXDXDXDXDXDXDXDXDX",
"DXDXDXDXDXDXDXDXDXDXDXDXDXDXDXDXDXVXNXzXxXjXjXjXjXjXjXjXjXjXjXjXjXlXzXBXVXVXBXBXBXNXxXxXlXlXlXhXiXO..._ Q / _ ) ) _ / W ! ( | .... .+.O.uXiXpXhXhXjXjXxXMXBXBXZXCXCXCXCXCXVXBXNXzXxXjXhXpXaXyXrXX...:.-.<.2.2.DXDXDXDXDXDXDXDXDXDXDXDXDXDXDXDXDXDXDXDXDXDXDXDXDX",
"DXDXDXDXDXDXDXDXDXDXDXDXDXDXDXDXVXBXNXzXxXxXlXlXjXjXhXhXpXaXpXpXhXjXxXNXNXMXxXxXlXlXjXjXlXxXNXxXjXiX+._ Q ! Q Q ( ( Q W W ( ) | | ..o.+.uXiXaXpXpXpXhXjXlXxXNXNXBXBXBXNXNXzXxXxXlXlXjXjXhXpXaXuX+...] &.*.,.2.2.DXDXDXDXDXDXDXDXDXDXDXDXDXDXDXDXDXDXDXDXDXDXDXDX",
"DXDXDXDXDXDXDXDXDXDXDXDXDXDXDXDXzXzXzXNXNXBXBXBXNXzXjXpXaXiXiXiXaXpXhXjXlXjXjXjXjXjXjXlXxXNXBXNXjXaX+.( W W W Q Q Q Q Q Q Q Q ( _ |  .+.uXiXaXaXaXaXpXhXjXjXlXlXxXxXlXjXjXjXhXhXhXhXhXhXhXpXaXyX+...' h j -.,.<.DXDXDXDXDXDXDXDXDXDXDXDXDXDXDXDXDXDXDXDXDXDXDXDX",
"DXDXDXDXDXDXDXDXDXDXDXDXDXDXDXDXxXxXNXBXVXCXCXVXNXlXpXyXtXuXyXyXiXaXaXpXpXpXpXpXpXpXhXhXjXxXxXjXaXtX..( W 1 W W W Q ( _ ( Q W Q ( ) ..o.O.yXiXiXyXyXiXaXaXaXaXpXpXpXaXaXiXyXyXiXaXaXaXaXaXaXiXuXo.| _ ! g &.=.,.DXDXDXDXDXDXDXDXDXDXDXDXDXDXDXDXDXDXDXDXDXDXDXDX",
"DXDXDXDXDXDXDXDXDXDXDXDXDXDXxXxXxXzXBXCXSXSXZXNXpXtX .| | o.tXyXiXiXiXiXiXaXaXiXyXyXyXuXuXuXuXO.o.| ( W 1 2 2 1 W Q ( | | ( W W ( _ | |  .+.tXtXtXO.O.eXtXtXtXtXtXtXO.+.+.+.+.O.uXyXyXyXyXyXuXO. .) / W g 9 *.,.<.2.DXDXDXDXDXDXDXDXDXDXDXDXDXDXDXDXDXDXDXDXDXDX",
"DXDXDXDXDXDXDXDXDXDXDXDXDXxXlXxXNXBXZXCXCXBXjXiX .( Q Q _  .tXyXiXyXyXuXtXuXuXtX+.+. ...| | | _ ( Q W 1 2 < < 2 W Q _ ...._ Q Q Q ( ( _ ) ..o.o.o.o.o.o.o.o.o.o.o. ...| | | |  .+.+.O.O.O.O.+. .| ( Q W f j &.-.,.<.<.DXDXDXDXDXDXDXDXDXDXDXDXDXDXDXDXDXDXDXDXDX",
"DXDXDXDXDXDXDXDXDXDXDXMXxXlXjXxXBXZXCXVXzXaX .Q 2 < 2 Q | +.yXiXsXyXtX+.o.o.o. .| | _ ( ( ( ( Q Q W W 1 2 < < < 1 Q _  .o.| _ ( Q Q Q Q ( _ ) | | | | | | | | | | ) ) _ _ _ _ ) | ........| | ) ( ( Q W W ~ ] :.-.,.,.DXDXDXDXDXDXDXDXDXDXDXDXDXDXDXDXDXDXDXDXDX",
"DXDXDXDXDXDXDXDXDXDXzXxXlXjXjXxXBXVXNXkXyX| 1 - = = 2 (  .uXaXaXyXtX+. ...| | #.) | | | | | | ) ( ( Q W 1 < < < 2 W _  .+.+.o.| Q W W Q Q ( _ _ _ _ _ ( ( ( ( Q Q Q Q Q Q Q Q Q ( ( ( _ _ ( ( ( Q Q W W W ` ) ] &.*.=.DXDXDXDXDXDXDXDXDXDXDXDXDXDXDXDXDXDXDXDXDX",
"DXDXDXDXDXDXDXDXBXNXzXlXjXkXjXlXNXzXaX .Q < = . . = W | tXaXhXaXyX+. .| | ) ) | ..o.O.yXyXyXuXO.o.| ) ( ! 2 < < < W ( ..O.yXyX+.( W W W Q ( ( ( ( ( Q Q W W W W Q Q Q Q Q Q Q Q Q Q Q Q Q Q Q Q Q W W 2 R ( ' ] &.%.*.DXDXDXDXDXDXDXDXDXDXDXDXDXDXDXDXDXDXDXDXDX",
"DXDXDXDXDXDXDXNXNXzXzXxXlXjXjXjXhXaXo.W - .     . - ( O.aXhXjXpXuXo.| ) ) |  .+.yXaXhXhXhXaXyXuX+.o.| _ Q 1 < < < 1 Q _  .yXaXuX| Q W W W Q Q Q Q ! Q ( )  .+.tXyXyXyXyXyXyXuXO.o.| ( W 1 1 W W W 1 2 2 W ) ..] &.$.%.DXDXDXDXDXDXDXDXDXDXDXDXDXDXDXDXDXDXDXDXDX",
"DXDXDXDXDXBXBXNXxXlXxXxXxXlXhXaXyXo.( < . X . = - W  .aXjXxXjXpXuX .) ( _  .yXvXxXNXNXxXjXaXyXuXO.o...) Q 1 < , < 2 1 W _ O.iXyX+.| ( W 1 1 W W ! Q ) o.yXhXzXNXBXNXNXNXzXNXzXlXhXyX..Q 1 2 2 < < < < < W } @.] j 8 $.DXDXDXDXDXDXDXDXDXDXDXDXDXDXDXDXDXDXDXDXDX",
"DXDXDXDXDXNXzXlXpXiXpXjXjXjXpXyXo._ W < - < 2 W (  .yXjXxXxXjXaX+.| _ _ ..uXhXxXNXBXNXlXhXaXyXtX+. .| ( Q 2 - - - < < 2 Q | O.yXyXtX| W 2 2 W ( ..tXaXlXzXNXNXNXxXjXhXhXpXaXaXpXhXhXyX+.) W < - - , 3 < W | +.{ j 8 8 DXDXDXDXDXDXDXDXDXDXDXDXDXDXDXDXDXDXDXDXDX",
"DXDXDXDXDXlXjXaXtX+.uXpXhXhXaXtX..( Q Q ( _ | o.tXiXjXxXzXlXpXuX.._ ( | +.aXxXNXNXNXxXhXaXyXtX+.o.| _ Q 1 < - - - - - - 2 Q | +.sXiX+.( W Q (  .iXjXNXVXVXNXjXaXuX+. ...| ) | o.yXpXhXpXuX| W < < < 2 1 Q ..+.] j 7 7 DXDXDXDXDXDXDXDXDXDXDXDXDXDXDXDXDXDXDXDXDX",
"DXDXDXxXjXpXyXO...| O.aXhXhXaXyX+.....+.O.yXaXpXhXjXlXxXjXpXyX+.) ( ( | +.aXlXxXxXjXhXaXyXtX+. .| ( Q 1 < - = ; - - - - - 1 ( | O.yXtX+.o.+.yXaXjXxXlXhXaXuXo.| ( Q W 1 2 2 1 Q ) +.iXhXhXyXo.| _ _ ) | .. ...] t 7 5 DXDXDXDXDXDXDXDXDXDXDXDXDXDXDXDXDXDXDXDXDX",
"DXDXDXxXjXiX+...| ..tXhXjXjXhXaXuXtXuXiXpXjXlXxXxXlXjXhXaXyX+.| ( Q ( ..O.aXjXjXhXaXiXyXtX+...) ( Q 1 < - = = = - - - = - < W ( ..+.tXuXyXaXhXjXjXhXyX ._ Q W 2 < , ; ; ; ; ; , 2 Q  .sXpXaXuXO.o... .+.o.} ( g 6 5 5 DXDXDXDXDXDXDXDXDXDXDXDXDXDXDXDXDXDXDXDXDX",
"DXDXDXNXlXyX..| o.uXpXxXzXxXjXhXaXiXaXpXhXjXjXjXhXpXaXyXtXo.| _ Q Q _ o.tXiXaXaXiXuXtX+.o...) ( Q W 2 - = = = = - - = = - < 2 W ( }  .+.uXyXiXyXO.o.) Q 2 - = ; : $ $ $ $ $ $ : - , 1 Q ) .. . .| #.) ) ( W 2 : 6 4 5 DXDXDXDXDXDXDXDXDXDXDXDXDXDXDXDXDXDXDXDXDX",
"DXDXNXNXlXyX .o.yXhXlXzXNXxXjXpXaXiXyXyXiXiXiXyXyXtX+.o.| ) ( Q Q ( | +.tXyXyXuXO.+. .| | _ ( Q W 2 - = = = = = = = = = = - < < W Q ( | .. . .| ( W 2 - ; ; # $ w e d A G G A d > : : : 2 W Q / Q Q ! W 1 : $ + 4 4 DXDXDXDXDXDXDXDXDXDXDXDXDXDXDXDXDXDXDXDXDXDX",
"xXxXxXxXcXaXuXyXhXxXzXxXxXjXpXiXtX+.o. .......| | | ) _ ( Q Q Q ( )  .O.tXO.+. .| ) _ ( ( Q ! R < - = . . . . . . . . . . . = - < 1 W W W W W 2 < - = * # > d d A G L k.c.k.j.J G d d d s > - - - - - - ; 6 4 5 DXDXDXDXDXDXDXDXDXDXDXDXDXDXDXDXDXDXDXDXDXDXDXDX",
"xXxXxXxXjXhXaXhXjXxXlXkXpXyXtX+. .| ) _ _ ) #.| | | | ) _ ( ( ) ..o.+.O.+. .| _ ( / Q W W 1 < - - = = = = = - - = = = = . . . = ; - - - - = = ; : : $ $ > A L j.L L z.S.G.F.S.v.l.L J H A s $ : : : $ + + 4 5 5 DXDXDXDXDXDXDXDXDXDXDXDXDXDXDXDXDXDXDXDXDXDXDXDX",
"zXzXxXlXjXkXhXhXhXhXaXuX+...) _ _ _ ) | |  .+.O.tXtXO.+.o.+.+.O.tXtXO.+. .| ( Q Q W W 1 < - = = = = - < < 1 R 1 2 < - - = = = = * . . . . . . # s A A d G l.N.N.c.k.v.D.H.I.I.G.b.l.L L J J J H G d t 6 4 4 4 4 DXDXDXDXDXDXDXDXDXDXDXDXDXDXDXDXDXDXDXDXDXDXDXDX",
"zXxXxXjXjXhXpXaXyXtX+...| ) | ..+.O.uXuXyXiXaXpXpXpXaXyXyXyXyXyXuXtX+..._ Q W 1 2 2 2 2 2 < < 2 W W Q Q Q W 1 2 < < - = = = = ; $ $ $ $ $ # $ s H j.L J L c.F.G.S.N.b.S.F.I.4XI.G.b.k.l.l.k.z.k.L G t 5 4 4 4 DXDXDXDXDXDXDXDXDXDXDXDXDXDXDXDXDXDXDXDXDXDXDXDXDX",
"xXxXlXjXhXaXyXtXo.| ) _ ) ..O.iXhXxXxXxXxXxXxXxXlXjXhXpXaXiXyXtX+. .| ( Q W 1 2 < < 2 W W Q ( _ |  . ...) Q 2 - - ; = = = = ; : s d A A d d A J z.b.c.L j.c.F.H.G.F.N.c.b.H.4X4XH.F.b.c.c.N.S.b.j.G t 5 4 DXDXDXDXDXDXDXDXDXDXDXDXDXDXDXDXDXDXDXDXDXDXDXDXDXDXDX",
"lXcXkXpXyXO.X.| ) ) |  .O.yXhXlXNXBXNXzXxXlXcXjXhXhXaXiXuXO.o.| _ ( Q W W W Q Q ( ( ) | ) ( Q Q Q ( ( ( ( ( ( Q W 1 2 < < < < > s A G J J H G L b.G.N.l.l.z.S.G.H.H.S.c.v.H.4X4X4XH.S.c.c.S.G.S.l.J a 6 DXDXDXDXDXDXDXDXDXDXDXDXDXDXDXDXDXDXDXDXDXDXDXDXDXDXDXDX",
"jXhXaXyX+.| ( Q ( | +.yXhXjXxXzXNXzXxXjXhXaXiXyXyXuXtXO.o.| ( Q W 2 2 1 W Q ( |  .+.+.+...( 1 < - < 2 W (  .+.+. .| _ ( Q ! W f s r G L L H G L N.G.S.z.l.z.v.S.G.H.S.v.v.G.I.4X4XI.F.z.k.b.F.S.k.j.L DXDXDXDXDXDXDXDXDXDXDXDXDXDXDXDXDXDXDXDXDXDXDXDXDXDXDXDXDX",
"hXaXyX+.| ( Q ( | +.yXaXpXhXpXpXaXiXyXtX+.o. ...| | .. .| ( Q W 1 2 2 1 W W Q ( ) | ) ( Q 2 - - < 1 ( o.yXpXjXhXiXtXo...| ) ( ~ s e d L L J H L c.S.S.b.v.z.z.N.G.I.G.b.b.S.H.I.4X4XG.z.l.v.S.S.z.l.k.b.DXDXDXDXDXDXDXDXDXDXDXDXDXDXDXDXDXDXDXDXDXDXDXDXDXDXDXDX",
"aXyX+.| ( Q Q _ o.uXyXyXyXuXO.+.+. ...| _ ( ( Q Q Q DXDXDXDXW W 1 2 1 1 W 1 R W Q Q 1 < - = = - 2 ( +.hXzXNXNXxXhXsXuXO.o. .| ^ f s d J L J J J j.k.v.S.S.c.k.v.G.I.G.N.b.N.S.H.4X4XG.z.l.c.S.N.z.l.z.b.N.DXDXDXDXDXDXDXDXDXDXDXDXDXDXDXDXDXDXDXDXDXDXDXDXDXDXDX",
"yXtX .( Q ( ) | o.+.+.o. .| | ) | DXDXDXDXDXDXDXDXDXDXDXDXDXDX2 < - - < 2 W ! Q ( Q W < - = = - 2 ( uXxXBXBXxXjXaXyXtXeX+. .| ( Q S D G H J L L J J c.F.G.v.l.z.S.H.G.S.b.v.b.F.I.4XG.z.l.z.b.b.z.k.c.v.b.DXDXDXDXDXDXDXDXDXDXDXDXDXDXDXDXDXDXDXDXDXDXDXDXDXDXDX",
"O.+.| Q Q ( | .. . .| ) _ ( ( Q DXDXDXDXDXDXDXDXDXDXDXDXDXDXDXDX- - < 2 W ( |  . .| ( W < - - - 2 ( yXMXVXNXjXpXyXtXO.O.+...) ( Q Q S A G J l.L H H l.S.F.v.l.k.b.S.S.S.b.c.z.N.H.I.G.z.l.k.c.c.c.c.c.v.v.DXDXDXDXDXDXDXDXDXDXDXDXDXDXDXDXDXDXDXDXDXDXDXDXDXDXDX",
" ...) Q Q ( _ | | DXDXDXDXDXDXDXDXDXDXDXDXDXDXDXDXDXDXDXDXDXDXDXW W Q ) o.yXpXhXpXyXo.( 2 < - < 2 ( uXxXBXNXjXpXyXeXO.+.o.| ( Q Q W f s d J l.j.J H L c.v.c.k.k.z.c.b.N.b.z.l.c.D.H.S.z.l.l.k.z.v.b.v.c.c.DXDXDXDXDXDXDXDXDXDXDXDXDXDXDXDXDXDXDXDXDXDXDXDXDXDXDX",
") _ ( Q Q ( ( ( DXDXDXDXDXDXDXDXDXDXDXDXDXDXDXDXDXDXDXDXDXDXDXDXQ ( | o.tXaXjXlXhXaX+.( W < < < < Q +.jXNXzXjXvXyXtX+.+. .| ( Q W f > s e G L j.L L L L l.k.c.k.l.j.k.v.v.k.j.l.b.S.b.k.j.L j.k.v.N.b.c.k.DXDXDXDXDXDXDXDXDXDXDXDXDXDXDXDXDXDXDXDXDXDXDXDXDXDXDX",
"( ( Q Q Q Q DXDXDXDXDXDXDXDXDXDXDXDXDXDXDXDXDXDXDXDXDXDXDXDXDXDXDXDX..o.+.tXyXyXuX+.| ( W 1 < < < 1 ..aXlXxXlXhXiXtX+.o...| ( Q W 1 > > e d G L l.k.j.J J l.v.c.L J j.c.c.l.L l.z.b.z.l.L J J j.v.S.b.z.l.DXDXDXDXDXDXDXDXDXDXDXDXDXDXDXDXDXDXDXDXDXDXDXDXDXDXDX",
"Q Q Q Q W DXDXDXDXDXDXDXDXDXDXDXDXDXDXDXDXDXDXDXDXDXDXDXDXDXDXDXDXDXDX_ _ ) | | | _ ( W 1 < < - = < ( +.aXjXlXhXiXtX+. .| ) _ / W 1 2 > s s d H j.k.L H H j.k.l.J H K l.l.L K K l.k.l.L J H H L c.b.c.l.L DXDXDXDXDXDXDXDXDXDXDXDXDXDXDXDXDXDXDXDXDXDXDXDXDXDXDX",
"DXDXDXDXDXDXDXDXDXDXDXDXDXDXDXDXDXDXDXDXDXDXDXDXDXDXDXDXDXDXDXDXDXDXDX2 2 2 2 W W ! W 2 < - - = . = 2 ( o.iXhXhXiXO.o...| ) _ ( Q W 1 1 2 > e d H L L J J J J J H H J L L J J J L j.L J H G G J l.k.l.J H DXDXDXDXDXDXDXDXDXDXDXDXDXDXDXDXDXDXDXDXDXDXDXDXDXDXDX",
"DXDXDXDXDXDXDXDXDXDXDXDXDXDXDXDXDXDXDXDXDXDXDXDXDXDXDXDXDXDXDXDXDXDXDX1 W W W ( |  ...) ( Q W < - = - 1 ( +.iXaXyXO.o...| _ ( Q Q W W 1 2 > w e d H J L L G A I A.K.<XK.K.<X<X<X<X<XK.K.{ I G H J L J H G DXDXDXDXDXDXDXDXDXDXDXDXDXDXDXDXDXDXDXDXDXDXDXDXDXDXDX",
"DXDXDXDXDXDXDXDXDXDXDXDXDXDXDXDXDXDXDXDXDXDXDXDXDXDXDXDXDXDXDXDXDXDXDX( _ ) ..O.aXhXhXaXuXo.| Q 2 - - , W ) +.uXuXK.+...) ( Q Q Q Q W 2 2 > $ e s d J j.j.H A { sXxXzXlXxXnXAXAXnXxXjXdX<X{ I H G G G G G DXDXDXDXDXDXDXDXDXDXDXDXDXDXDXDXDXDXDXDXDXDXDXDXDXDXDX",
"DXDXDXDXDXDXDXDXDXDXDXDXDXDXDXDXDXDXDXDXDXDXDXDXDXDXDXDXDXDXDXDXDXyX ._ _ ) | +.yXaXaXiXuX+.| ( W < - - < W )  .+.+.o.| _ ( Q W Q Q W 2 < > : : s s d H I { K.1X<X2X2X2X2XmXmXmXmX2X2X2XZ.K.K.] D e e r DXDXDXDXDXDXDXDXDXDXDXDXDXDXDXDXDXDXDXDXDXDXDXDXDXDXDXDX",
"DXDXDXDXDXDXDXDXDXDXDXDXDXDXDXDXDXDXDX`.`.`.`.`.).W.Q.R./.|.uXiXiXuXo.#.( ( ( )  .+.+.+. .| ( Q W 2 , - - < W ( ..o...) ( Q W W W W W 2 < < , : > e r G ] <XgXfXS.e.t.M.#X=X;X-X@X+Xa.i.n.Z.<X+.^ s s DXDXDXDXDXDXDXDXDXDXDXDXDXDXDXDXDXDXDXDXDXDXDXDXDXDXDXDXDX",
"DXDXDXDXDXDXDXDXDXDXDXDX[.[.[.[.[.[.].`.).W.W.~.`.].`._.'./.(.(.[ [ @.+.o._ W W Q Q Q Q W W 1 2 2 2 < < - - < W ( ) _ ( Q W W 1 1 1 2 < < - - ; $ e ] K.<X<XJ.F.B.a.+X=X>X:X:X:X:X;X=X#Xm.B.Z.Z.K.1X1XDXDXDXDXDXDXDXDXDXDXDXDXDXDXDXDXDXDXDXDXDXDXDXDXDXDXDXDXDX",
"DXDXDXDXDXDXDXDXDXDXDX X X XXX X X[.`.W.R.Y.N R.).{.[.[.{.`.W.Y.M B (.sXyX..W 2 2 1 1 W W W W W W W 1 2 < - - < W Q ( ( ( _ ( ( Q ! W W 1 < , > s D @.dXfXJ.e.w.s.=X;X:X7X8X8X0X8X8X7X;X@Xa.u.S.2XgXcXDXDXDXDXDXDXDXDXDXDXDXDXDXDXDXDXDXDXDXDXDXDXDXDXDXDXDXDXDX",
"DXDXDXDXDXDXDXDXDXoXoXoXOX.X X.XOX.X).n z l z b Y.).].[.XX[.].W.T.U |.pXhXyXo.#.( ( ..uXaXiXuXO. .) Q < - = - < W ( ..O.yXaXpXaXyXO.+. .| ( ( ) +.1XK.Z.b.n.u.p.s.@X-X:X9X0XqXqX0X8X7X;X$X+Xd.i.b.Z.<XdXjXDXDXDXDXDXDXDXDXDXDXDXDXDXDXDXDXDXDXDXDXDXDXDXDXDXDXDX",
"DXDXDXDXDXDXDXDXoXoXoXoXOX X[. XOX XQ.z @ @ @ l n R.~.].[.[.[._.Q.E.(.1XiXyXtXo.| ..yXlXzXxXjXaXuXX.( 2 - = = - 1 ( o.yXhXxXzXxXkXaXyXO.+. . .rXvXkX2Xx.8.g.a.f.s.+X$X;X7X8X0X0X8X7X:X;X=X@X+Xp.0.q.Z.dXjXDXDXDXDXDXDXDXDXDXDXDXDXDXDXDXDXDXDXDXDXDXDXDXDXDXDXDX",
"DXDXDXDXDXDXOXOXoXOX.X X[.].`.].[.`.N k o o @ @ b N R.Q.)._.'.~.R.E.U U [ _ ) | ..+.yXaXpXaXuXO.+...( W < - = = < W ) o.uXaXpXaXyXtX+..... .+.yXhXhX2Xn.0.u.s.M.s.M.@X-X;X:X:X:X;X=X=X-X-X=X$Xf.u.w.J.gXlXDXDXDXDXDXDXDXDXDXDXDXDXDXDXDXDXDXDXDXDXDXDXDXDXDXDXDX",
"DXDXDXDXDX.X X X X[.].).W.).).).).Q.n @ @ o @ @ c n N Y.R.R.R.R.Y.M V z l v ! ( _ |  .o.o...| _ ( ( Q 1 < = . . - < W ( #. .+.+. .| _ Q _ o.yXiXsX<XZ.n.t.p.d.a.d.a.s.+X+X+X+Xs.d.i.s.+X@X$X$X+Xp.i.3XgXlXDXDXDXDXDXDXDXDXDXDXDXDXDXDXDXDXDXDXDXDXDXDXDXDXDXDXDX",
"DXDXDX X[.[.].`.).W.R.Y.E.W.).).W.E.b @ @ @ @ l z m n M M M n m b z z l l v ` Q 1 < 1 W Q W W 1 2 < - = . . . . . . = - 2 Q ( ( Q W 2 < ! +.dXfXZ.x.e.e.w.w.u.u.u.t.w.9.9.9.9.9.8.8.0.u.i.s.M.a.u.t.J.dXjXDXDXDXDXDXDXDXDXDXDXDXDXDXDXDXDXDXDXDXDXDXDXDXDXDXDXDX",
"DXDXQ.Q.Q.).`.`.W.Q.R.Y.R.W.).).W.E.m z k k l z c b m m b b z z l l k k v ` ) ( 1 , < W Q W W 2 < = .       . .     . = = - < < < - = . 2 +.kXfXv.5.5.0.e.q.h.P P P P C C C C C C C C P h.e.t.g.0.e.Z.fXhXDXDXDXDXDXDXDXDXDXDXDXDXDXDXDXDXDXDXDXDXDXDXDXDXDXDXDX",
"].).N c c E.].].`.W.W.W.W.W.W.~.W.Q.Y.m z z z z c b c z z l l k @ @ @ k v ` ..#.Q W ( | | ) ( Q 2 - = X     . . . = = = = = = = = .     < o.hXfXv.5.6.0.q.J D ~ ~ ~ ^ ^ ' ' ' ^ ~ ~ ~ ~ D K r.5.5.r.A.sXaXDXDXDXDXDXDXDXDXDXDXDXDXDXDXDXDXDXDXDXDXDXDXDXDXDXDXDX",
"[.].).R.R._. X X].).W.Q.R.Y.Y.Y.N M m c z l % e e e % % % @ @ k l l l z v [  .| Q W ( | .._ Q 1 2 < - - - - - - , - - - - = = = . * = < ( tXhXsXA.H C K J D Q _ ..o.rXuXyXyXyXrXo. .} _ ^ D G a a H { uXaXDXDXDXDXDXDXDXDXDXDXDXDXDXDXDXDXDXDXDXDXDXDXDXDXDXDXDX",
"[.[..XoXoXOX.X[._.W.R.M n n m b z l l l % 0 5 7 7 7 5 4 + % l z b n n n U [ ..) W 2 Q | | Q 2 < 2 1 W Q Q Q Q Q W W 1 2 < < < - = - W | O.aXhXyX| ! S ! Q / _ o.iXjXxXxXzXxXlXhXaXyXO. .| ( ! S S ^  .yXaXDXDXDXDXDXDXDXDXDXDXDXDXDXDXDXDXDXDXDXDXDXDXDXDXDXDXDX",
"Y.Y.W.).).Q.Y.N M m c z x U Y Y Y T T r t y u u u 9 q 0 % x M Y.Q.W.R.Y.B F ` Q / ( ( ( Q Q W Q ( ) .. .o. ...| ) ( Q W W W 1 < - - Q ..tXaXaXtX) W R Q _ | +.iXjXxXjXpXsXrXX.X.X.o.o.o..._ ! W Q ) o.yXaXDXDXDXDXDXDXDXDXDXDXDXDXDXDXDXDXDXDXDXDXDXDXDXDXDXDXDX",
"B B U U n b x x z l l @ x Y %X@X+Xd.w.6.7.7.7.7.7.Z T x m Y.).].[.].).R.B v v W ) | _ Q W ( |  .+.uXyXsXyXuXO.+.o.| ) ( Q W W 2 - - W | O.yXyX+.( W W ( | O.aXhXjXhXyX..Q 2 : : 2 ! )  . ._ Q Q _ ..+.yXaXDXDXDXDXDXDXDXDXDXDXDXDXDXDXDXDXDXDXDXDXDXDXDXDXDXDXDX",
",X,X,X,X,X&X*X*Xn.Y Y T Y y.a.i.w.8.0.V.t.P T T T T U E.W.]. X XXX].W.T.B ` _ _ _ _ ( ( )  .O.yXaXhXhXpXaXyXtX+.o.| ) ( Q Q W 2 - - 1 ) o.tXuXo.( 1 W ( ..yXhXhXaXuX| R s 9 %.$.6 , ! | | _ Q ( | +.tXuXyXDXDXDXDXDXDXDXDXDXDXDXDXDXDXDXDXDXDXDXDXDXDXDXDXDXDXDX",
"qXqXqXqX0X9X:X;X=X@X+Xa.i.t.w.6.;.;.9.y.y.Y U Y.E.R.~.]. X.X.X X]._.Q.E.[ [ @...) ( )  .+.uXiXpXjXjXjXhXaXyXO.+...) _ ( Q Q W < = = 2 (  .+.O. .Q 2 W ( ..yXdXaXtX..! - 6 %.,.*.6 = 1 ( _ ( Q _ +.uXuXtXO.DXDXDXDXDXDXDXDXDXDXDXDXDXDXDXDXDXDXDXDXDXDXDXDXDXDXDX",
"5X5X5X;X-X@XM.a.p.w.9.6.5.5.5.8.0.t.y.Y !.!.W._.{.XX.X.X.X X[.].~.W./.(.@...| |  .+.O.yXiXaXhXhXjXhXpXiXyXtX+...) ( ( Q Q W 2 - . . 2 _  .+.O...Q < 1 ( | tXaXyX+.) W - O 6 5 6 + = < W Q W Q ) O.aXaXDXDXDXDXDXDXDXDXDXDXDXDXDXDXDXDXDXDXDXDXDXDXDXDXDXDXDXDXDX",
":X;X;X=X@XM.d.u.w.9.5.7.7.5.9.t.y.n.^.!.Q.).]. XOXoXOX.X X].'.)././.(.+.+. ...o.uXaXhXhXjXjXjXjXhXaXiXyXO.+. .| ( Q Q W W < - *   . < _  .O.O...W < 2 Q ) +.yXtXX._ ! < ; & . . = - < 2 W W Q | uXaXhXDXDXDXDXDXDXDXDXDXDXDXDXDXDXDXDXDXDXDXDXDXDXDXDXDXDXDXDXDX",
"0X0X0X8X8X5X;X=X@X+XM.M.M.M.+X*X^.!.!.'.]. X.X.X X[.].].).Q.R./.|.|.@.#.| o.uXpXjXxXzXNXzXxXjXhXpXaXiXuXO.o...) ( ! W 2 < = .     . < ( ..+.O...Q < < 2 Q ..O.O.o.| ( R < , , , < < < < 2 W (  .tXiXaXDXDXDXDXDXDXDXDXDXDXDXDXDXDXDXDXDXDXDXDXDXDXDXDXDXDXDXDXDX",
"qXqXqXwXwX7X,X,X&X&X&X&X&X&X&X*X!.Q.).].[.XX[.]._.W.Q.R.E.E./.[ @.o...) | uXhXxXBXVXVXBXNXxXjXpXaXiXyXtX+...) ( ! 1 < - = X   o O $ > Q ) o.+...Q < - < 1 (  .o. .| _ Q W 1 1 1 1 2 < , 2 ( ..+.+.+.+.DXDXDXDXDXDXDXDXDXDXDXDXDXDXDXDXDXDXDXDXDXDXDXDXDXDXDXDXDX",
"DXDX,X}.}.}.}.}.}.}.}.}.}.}.}.}.'.`.`.].`.~.Q.R.Y.N M n U [ |. ._ Q _  .uXhXxXBXCXCXCXVXNXlXpXaXyXuXO.+. .) / W < - = .   o   + q a d S ( ..o...Q < - - < W ( ) | | _ ( Q Q Q W 1 2 < - W | tX+.| ( Q DXDXDXDXDXDXDXDXDXDXDXDXDXDXDXDXDXDXDXDXDXDXDXDXDXDXDXDXDX",
"DXDXDXT.T.Y.Q.W.).).).).).).).).).W.W.Q.R.Y.n m b b m U [ [ | ) W W ) tXpXlXNXVXCXCXVXNXxXhXaXyXtX+. .| ( Q 1 , = . O + $ $ e A r.9.C G D '  .| Q < - = - < W Q ( _ ( ( Q Q W 1 < - < 2 Q o.uXtX| W DXDXDXDXDXDXDXDXDXDXDXDXDXDXDXDXDXDXDXDXDXDXDXDXDXDXDXDXDXDX",
"DXDXDXDXDXn n n M N N N N N N N N M M n m b z z l z F | ..( R 1 W ( o.iXjXzXNXBXBXBXzXjXpXiXuXO.o.| ( Q 1 < - * . O $ a 7.e.y.d.a.d.w.r.C ] | _ ! < - = = - < 1 Q Q Q W W 1 2 < = = 2 ( | +.O.O.DXDXDXDXDXDXDXDXDXDXDXDXDXDXDXDXDXDXDXDXDXDXDXDXDXDXDXDXDXDXDXDX",
"DXDXDXDXDXDXc b m n n n n n n n n n m b z z z v v F ` ) / 1 - < Q | tXpXlXzXNXNXzXxXjXaXyXO. .| ( ! 1 , ; & . O $ r Z e.d.M.#X#X+Xs.p.0.q.I ' _ ! 2 - = = = = - < 1 1 1 2 < - - = - Q  .+. .| ) DXDXDXDXDXDXDXDXDXDXDXDXDXDXDXDXDXDXDXDXDXDXDXDXDXDXDXDXDXDXDXDX",
"DXDXDXDXDXDXDXDXDXDXDXDXDXDXDXDXDXDXDXDXDXDXDXDX .| ( S < - - 2 ( o.yXvXjXxXxXlXjXhXaXuX+.| ( W < - = # . . X $ Z e.a.@X=X=X=X$X+Xs.p.w.q.I ' ( Q W < = . . . = = - - - - - = = - 2 | uXuX| 1 < DXDXDXDXDXDXDXDXDXDXDXDXDXDXDXDXDXDXDXDXDXDXDXDXDXDXDXDXDXDXDXDX",
"DXDXDXDXDXDXDXDXDXDXDXDXDXDXDXDXDXDXDXDXDXDXDXDX..| ] H r s , R ) +.yXpXhXjXhXhXaXiXtX ._ ! 2 - & . # 0 q q r Z t.+X=X;X:X:X;X=X+Xi.u.w.q.I Q / ( ( 1 - = = = = . . . . . . . - R ( ..+.o.Q , & DXDXDXDXDXDXDXDXDXDXDXDXDXDXDXDXDXDXDXDXDXDXDXDXDXDXDXDXDXDXDXDX",
"DXDXDXDXDXDXDXDXDXDXDXDXDXDXDXDXDXDXDXDXDXDXDXDX) ' I x.r.r > W #.+.yXaXaXaXiXyXtX+.| / f < ; O X O 0 p 5.9.w.i.+X=X;X:X5X5X:X=Xm.w.w.w.q.H S Q _ ) Q < - < 2 < - = . .   . = < ( ..| ) ` S > : DXDXDXDXDXDXDXDXDXDXDXDXDXDXDXDXDXDXDXDXDXDXDXDXDXDXDXDXDXDXDXDX",
"DXDXDXDXDXDXDXDXDXDXDXDXDXDXDXDXDXDXDXDXDXDX .{ A.b.n.t.q.A 2 ! | O.yXyXyXtX+...) ( R < ; $ 0 q q t Z e.p.a.+X@X=X-X-X=X=X=X$X+Xt.9.9.w.t.n.n.A.@.../ < - W _ | ) ( 1 - = = < W _ | / 1 2 D Y n.B.M.DXDXDXDXDXDXDXDXDXDXDXDXDXDXDXDXDXDXDXDXDXDXDXDXDXDXDXDXDXDX",
"DXDXDXDXDXDXDXDXDXDXDXDXDXDXDXDXDXDXDXDXDX..{ Z.%X$X#Xp.q.A f Q ..O.tXtX+..._ Q 1 < ; # $ q p i 7.6.t.a.+X@X$X=X$X$X+XM.s.s.a.u.9.5.5.9.u.M.$X%X1X ./ < < Q ..+.O.o.( 2 - 2 Q ( _ Q 1 : e Y %X$X+XM.s.DXDXDXDXDXDXDXDXDXDXDXDXDXDXDXDXDXDXDXDXDXDXDXDXDXDXDXDXDX",
"DXDXDXDXDXDXDXDXDXDXDXDXDXDXDXDXDXDXDXDXDXb.B.%X;X;X=Xi.q.G f Q ..+.O.+. .) Q 2 - = $ t a p 6.9.w.p.f.@X$X@X#X+Xs.a.p.u.u.u.u.9.7.i ;.5.0.a.+X%X{ ) W , - 1 ( ) | ) Q 2 2 Q ' _ W < w t Z t.+X#X+XM.s.DXDXDXDXDXDXDXDXDXDXDXDXDXDXDXDXDXDXDXDXDXDXDXDXDXDXDXDXDX",
"DXDXDXDXDXDXDXDXDXDXDXDXDXDXDXDXDXDXDXDXDXs.f.@X;X;X@Xp.r.A f Q | o.+. .| Q 2 - # $ q p 8.w.u.a.M.#X$X$X$X+Xa.i.u.w.w.0.0.0.0.6.p y y p C e.p.n.Y ] S < - < 1 W W W W W W ( ) ^ f e t p 6.w.d.a.a.a.a.DXDXDXDXDXDXDXDXDXDXDXDXDXDXDXDXDXDXDXDXDXDXDXDXDXDXDXDXDX",
"DXDXDXDXDXDXDXDXDXDXDXDXDXDXDXDXDXDXDXDXDXs.f.+X#X+Xd.9.C d f ! ) | ..| ( 1 - # 0 t p 6.w.a.+X=X;X;X-X@XM.d.u.t.w.w.9.6.6.6.5.p r w : > r Z 6.w.i.n.I f < , < < 2 W Q ( Q W 2 f G C Z p ;.8.w.u.u.u.u.DXDXDXDXDXDXDXDXDXDXDXDXDXDXDXDXDXDXDXDXDXDXDXDXDXDXDXDXDX",
"DXDXDXDXDXDXDXDXDXDXDXDXDXDXDXDXDXDXDXDXDXf.f.f.M.a.u.6.p r 2 R / _ _ ( ! > $ 0 y i 5.w.a.@X;X;X:X:X=XM.i.w.0.0.0.9.8.5.7.Z C G D Q ! ! S d a r.t.i.P S < , , < < 1 W Q ! f s r C 6.7.i i 5.9.9.0.9.9.DXDXDXDXDXDXDXDXDXDXDXDXDXDXDXDXDXDXDXDXDXDXDXDXDXDXDXDXDX",
"DXDXDXDXDXDXDXDXDXDXDXDXDXDXDXDXDXDXDXDXDXs.f.f.M.a.u.6.p r , < W Q W 1 > e y y i 7.9.p.+X-X:X:X;X-X+Xi.w.9.6.5.5.5.5.DXDXD D ^ @.eXtXO. .~ s r q.e.C s - - , < < < < , > G C r.;.i i ;.7.5.5.5.5.5.5.5.7.DXDXDXDXDXDXDXDXDXDXDXDXDXDXDXDXDXDXDXDXDXDXDXDXDXDXDX",
"DXDXDXDXDXDXDXDXDXDXDXDXDXDXDXDXDXDXDXDXDXu.u.u.u.t.0.5.p 0 # = , < , = $ q y i ;.5.0.p.M.@X=X=X@X+Xi.w.8.5.5.7.7.7.DXDXDX . .o.+.uXaXvXaXrX..' I H r # . * = ; - - : w r Z 6.5.i u u i i i i i i i i i i DXDXDXDXDXDXDXDXDXDXDXDXDXDXDXDXDXDXDXDXDXDXDXDXDXDXDX",
"DXDXDXDXDXDXDXDXDXDXDXDXDXDXDXDXDXDXDXDXDX6.6.6.6.6.6.5.p 0 O . = - = . O 0 y i ;.5.8.w.t.u.u.u.u.t.0.6.5.7.7.7.DXDXDX..+.yXaXyXo. .yXjXzXzXjXsX..S , O . . . . X O w a p p u u u u u u u u u u u u u u u DXDXDXDXDXDXDXDXDXDXDXDXDXDXDXDXDXDXDXDXDXDXDXDXDXDXDX",
"DXDXDXDXDXDXDXDXDXDXDXDXDXDXDXDXDXDXDXDXDXA.A.A.Z.J.J.J.A.{ ^ / Q W 2 = O 0 y i ;.5.6.8.9.8.8.8.9.8.5.;.i ;.7.DXDXDXDX..o.uXaXiXtX+.O.yXaXhXjXhXiXeX .) Q W 1 < = O $ q t q 0 r I A.Z.Z.Z.Z.J.J.J.Z.Z.A.A.{ DXDXDXDXDXDXDXDXDXDXDXDXDXDXDXDXDXDXDXDXDXDXDXDXDXDX",
"DXDXDXDXDXDXDXDXDXDXDXDXDXDXDXDXDXDXDXDXDXsXiXgXlXnXnXxXlXjXhXaXyX+.} ! f r y i ;.7.7.7.7.5.7.5.5.7.i i u DXDXDXDXDXDX| ..o.O.yXyXyX+.| | +.iXhXlXxXlXhXiXtX ._ R - = # O o X f +.gXcXlXxXzXnXnXnXzXcXdXuX@.) ( DXDXDXDXDXDXDXDXDXDXDXDXDXDXDXDXDXDXDXDXDXDXDXDX",
"DXDXDXDXDXDXDXDXDXDXDXDXDXDXDXDXDXDXDXDXDXcXlXzXBXVXZXVXVXVXBXNXzXlXhXyX+.] d a p i i i i i i i i i i u DXDXDXDXDXQ _ ) | #.| +.yXaXiXyXtXtXuXuXyXyXiXiXiXyXtXo.( W < - *   X , _ X.O.eXtXtXuXuXtXrX+. .) Q W 1 2 2 1 W DXDXDXDXDXDXDXDXDXDXDXDXDXDXDXDXDXDXDXDX",
"DXDXDXDXDXDXDXDXDXDXDXDXDXDXDXDXDXDXDXDXDXxXxXzXNXBXVXVXZXZXVXZXZXZXVXNXjXuX' D a p u y y y y y y y y DXDXDXDXDXQ Q _ | | _ ( | +.iXhXlXlXpXyX+.| ) | o.+.tXtXo.) Q 1 < = .   . - 2 1 W W W W 1 2 < < - - - - < 2 W Q ( _ DXDXDXDXDXDXDXDXDXDXDXDXDXDXDXDXDXDXDX",
"DXDXDXDXDXDXDXDXDXDXDXDXDXDXDXDXDXDXDXDXDXiXiXpXjXlXxXxXxXxXxXxXxXxXNXBXNXlXhXsXK.] D d w w w w w $ $ ; DXDXDXDXQ ( | +.+...) ) | o.yXjXxXxXlXhXiXrX+. .| ) ( Q 2 , - = .     = < Q ( _ _ _ ( Q W 2 < - - - < W ( ..+.uXuXO. .DXDXDXDXDXDXDXDXDXDXDXDXDXDXDXDXDX",
"DXDXDXDXDXDXDXDXDXDXDXDXDXDXDXDXDXDXDXDXDX| ..o.O.yXyXyXyXyXuXuXuXyXaXjXxXNXNXxXhXyX .( Q W W 1 < - - - - DXDXDXQ ( ..tXyX+.| _ ( ( o.iXjXxXNXNXlXhXyXo.) Q 2 - = . X       = < (  .+.uXuXtX+..._ Q 1 < < 1 Q | O.aXjXlXjXyX+...DXDXDXDXDXDXDXDXDXDXDXDXDXDXDXDX",
"DXDXDXDXDXDXDXDXDXDXDXDXDXDXDXDXDXDXDXDXDXW W ! Q ( _ _ _ ( ( ( Q ( )  .O.aXjXxXxXxXjXpXiXiXyXO..._ Q W 2 < - < 1 Q | +.O.+..._ Q Q _ ..O.yXpXhXhXpXiXtX ._ W < - = .   . < Q | +.iXhXjXjXjXaXtX| Q 1 1 W #.O.aXjXxXNXNXxXvXuX .( 2 DXDXDXDXDXDXDXDXDXDXDXDXDXDX",
"DXDXDXDXDXDXDXDXDXDXDXDXDXDXDXDXDXDXDXDXDX- - - < 2 W Q Q ( ( ( Q Q Q Q _ ..O.iXhXjXlXjXjXkXhXyX+.| ( W 2 - ; - < W ( | | | _ ( Q Q Q ( ) |  .+.tXuXO.+..._ Q 2 - = .   = W | +.yXpXjXxXxXjXpXeX) W W Q | tXhXxXNXNXNXxXhXiXO.| W < - DXDXDXDXDXDXDXDXDXDXDXDXDX",
"DXDXDXDXDXDXDXDXDXDXDXDXDXDXDXDXDXDXDXDXDX. = = - 1 ( | +.uXiXaXiXuX+.| ( Q Q Q _ | .. . . ...) Q f < - - = . = - < 2 1 1 1 1 W Q Q ( ( ( Q W Q ( _ ( Q W 1 2 - = .     = 1 _  .O.yXaXpXaXyX+.| Q W ( o.yXhXzXNXNXxXkXiX+.| Q 1 < = = DXDXDXDXDXDXDXDXDXDXDXDXDX",
"DXDXDXDXDXDXDXDXDXDXDXDXDXDXDXDXDXDXDXDXDXDX. = - 1 ( o.yXhXxXNXNXzXjXyX+.) Q W 1 1 1 W W W W 1 < - - - - - - - < < < - - - - < W Q Q Q Q 1 < 2 W Q W 2 < < < - = . . . = 2 Q ) ..+.O.O.+...( Q 1 W | yXjXzXNXzXjXaXtX..( Q W 1 2 2 < DXDXDXDXDXDXDXDXDXDXDXDXDX",
"DXDXDXDXDXDXDXDXDXDXDXDXDXDXDXDXDXDXDXDXDXDXDXDX- 2 Q ..yXhXNXZXCXSXZXNXjXaXuX..Q 1 < < < < < < - < < 1 W W W W W R 1 DXDX= - - 2 1 W W 1 2 2 W ( _ ( W 2 < < - = . . = - < 1 Q ( ) ) ) ( W 1 < 2 Q +.hXxXzXxXhXyXo._ Q W Q ) #.| | ( W < DXDXDXDXDXDXDXDXDXDXDX",
"DXDXDXDXDXDXDXDXDXDXDXDXDXDXDXDXDXDXDXDXDXDXDXDX= - 1 _ +.aXlXNXZXCXCXBXNXjXaXtX| Q W 1 2 1 W W W W Q ( ) | | _ Q W 1 DXDXDX= - < 2 < < < < < 1 Q ( Q 2 < < < - = . . . = - < 2 W W W W 1 2 < 1 Q | tXpXjXhXyX+.) Q Q ( | +.yXiXiXuX .( W DXDXDXDXDXDXDXDXDXDXDX",
"DXDXDXDXDXDXDXDXDXDXDXDXDXDXDXDXDXDXDXDXDXDXDXDX. = - 1 ( o.yXhXlXxXzXxXjXhXaXuX+.| _ ( Q ( ) | | .. .o.+.tXtX .Q 2 < DXDXDXDXDXDXDXDX- - - < < 2 1 < - - = = = DXDXDX  . = = - < < < < < 2 W (  .tXyXyXtX .) W 2 1 ( +.aXxXNXNXxXpXO.| ( DXDXDXDXDXDXDXDXDXDXDX",
"DXDXDXDXDXDXDXDXDXDXDXDXDXDXDXDXDXDXDXDXDXDXDXDXDX. = - 2 Q | +.tXyXiXiXyXtX+. .| ) ( ( ( _ | ..o.O.uXyXiXiXyXo.( 2 < 1 DXDXDXDXDXDXDXDX= - - < < < < - = = = DXDXDXDXDX  . . = = = = - < 1 Q | +.uXtXo.#.Q 2 < 2 Q o.pXxXBXBXxXhXuX ._ Q DXDXDXDXDXDXDXDXDXDXDX",
"DXDXDXDXDXDXDXDXDXDXDXDXDXDXDXDXDXDXDXDXDXDXDXDXDXDXDX. = - 1 Q ( _ | | | ) ( Q Q Q Q Q ( _ | o.tXyXaXhXhXaXtX..( 1 1 W W DXDXDXDXDXDXDXDXDXDXDXDXDXDXDXDXDXDXDXDXDXDXDXDX      . . = = < W ( | +.+. ._ W < - < Q ..aXxXBXNXjXiX+.) ( Q W DXDXDXDXDXDXDXDXDXDXDX",
"DXDXDXDXDXDXDXDXDXDXDXDXDXDXDXDXDXDXDXDXDXDXDXDXDXDXDX  . . = - < 2 W W W W R 1 2 2 W Q | O.aXhXhXjXjXhXaXuXX.) Q W W W Q DXDXDXDXDXDXDXDXDXDXDXDXDXDXDXDXDXDXDXDXDXDXDXDXDXDX      . . - 1 Q _ | | ( W < = = 2 | uXhXzXzXhXyXo._ Q W W W W W DXDXDXDXDXDXDXDXDX",
"DXDXDXDXDXDXDXDXDXDXDXDXDXDXDXDXDXDXDXDXDXDXDXDXDXDXDX      . . = - - - < < 2 1 W ! ( | O.hXzXNXNXxXjXaXuXo.) ( ( Q Q Q ( DXDXDXDXDXDXDXDXDXDXDXDXDXDXDXDXDXDXDXDXDXDXDXDXDXDXDX      . = < W Q Q Q W < - = = W +.pXjXjXhXuX..( Q Q Q ( ( Q Q Q DXDXDXDXDXDXDXDX",
"DXDXDXDXDXDXDXDXDXDXDXDXDXDXDXDXDXDXDXDXDXDXDXDXDXDXDXDX      . . . = - < 2 Q ) +.sXpXjXxXzXzXxXjXaXyX+...| | | o.+...) ( DXDXDXDXDXDXDXDXDXDXDXDXDXDXDXDXDXDXDXDXDXDXDXDXDXDXDXDXDX    . - < 1 W W < - = = < ( uXhXhXaXtX..( Q ( ( | ....| ) _ DXDXDXDXDXDXDXDX",
"DXDXDXDXDXDXDXDXDXDXDXDXDXDXDXDXDXDXDXDXDXDXDXDXDXDXDXDXDXDX    . . = < W ( ..uXjXNXVXZXVXNXlXhXyXO. .| | ..+.uXiXiXO.| _ DXDXDXDXDXDXDXDXDXDXDXDXDXDXDXDXDXDXDXDXDXDXDXDXDXDXDXDXDXDX  . = - < < < - = = , W | yXpXaXO.| ( Q Q )  .+.tXtX+.o. .DXDXDXDXDXDXDXDX",
"DXDXDXDXDXDXDXDXDXDXDXDXDXDXDXDXDXDXDXDXDXDXDXDXDXDXDXDXDXDXDX. . = < ( ..uXpXlXNXBXBXNXxXlXhXiX+. .| ..+.iXjXjXhXaX+.) Q DXDXDXDXDXDXDXDXDXDXDXDXDXDXDXDXDXDXDXDXDXDXDXDXDXDXDXDXDXDXDXDX. = = - - = . = 1 (  .uXyXO.| ( Q Q _ +.yXyXyXuXtXO.+.DXDXDXDXDXDXDXDX",
"DXDXDXDXDXDXDXDXDXDXDXDXDXDXDXDXDXDXDXDXDXDXDXDXDXDXDXDXDXDXDXDX. - 1 _ +.aXjXxXxXxXjXhXaXiXyXO. ...o.tXaXjXzXxXpXuX| Q W DXDXDXDXDXDXDXDXDXDXDXDXDXDXDXDXDXDXDXDXDXDXDXDXDXDXDXDXDXDXDXDXDX. . . . . . - W ) o.O.O...( W W Q | yXpXaXyXtXuXuXuXDXDXDXDXDXDXDXDX",
"DXDXDXDXDXDXDXDXDXDXDXDXDXDXDXDXDXDXDXDXDXDXDXDXDXDXDXDXDXDXDXDX. = < Q | +.yXiXyXuXO.+.o...| | | o.yXjXzXxXjXaX+.) Q W 2 DXDXDXDXDXDXDXDXDXDXDXDXDXDXDXDXDXDXDXDXDXDXDXDXDXDXDXDXDXDXDXDXDXDXDX      . = W _ | ....) Q W Q ( o.aXhXaX+.o.O.yXiXDXDXDXDXDXDXDXDX",
"DXDXDXDXDXDXDXDXDXDXDXDXDXDXDXDXDXDXDXDXDXDXDXDXDXDXDXDXDXDXDXDX. . - 2 Q )  . ...| | ) _ ( _ | o.uXhXNXNXxXaXO.| Q 1 2 < DXDXDXDXDXDXDXDXDXDXDXDXDXDXDXDXDXDXDXDXDXDXDXDXDXDXDXDXDXDXDXDXDXDXDXDX    . = 1 Q ( _ ( Q W W Q | O.aXhXyX..| +.yXaXDXDXDXDXDXDXDXDX",
"DXDXDXDXDXDXDXDXDXDXDXDXDXDXDXDXDXDXDXDXDXDXDXDXDXDXDXDXDXDXDXDX. . = - 2 W Q ( ) _ ( ( ( ( | +.yXhXlXxXlXhXyX+.) Q W 2 < DXDXDXDXDXDXDXDXDXDXDXDXDXDXDXDXDXDXDXDXDXDXDXDXDXDXDXDXDXDXDXDXDXDXDXDXDX. = - < W W W W < - 2 ( o.uXiXiX+.) _ +.yXaXDXDXDXDXDXDXDXDX",
"DXDXDXDXDXDXDXDXDXDXDXDXDXDXDXDXDXDXDXDXDXDXDXDXDXDXDXDXDXDXDXDXDX. = = - , < 1 W W Q Q ( | +.yXpXhXhXaXyXtXo...| ) ( Q W DXDXDXDXDXDXDXDXDXDXDXDXDXDXDXDXDXDXDXDXDXDXDXDXDXDXDXDXDXDXDXDXDXDXDXDXDXDX- - < W W 2 < - - < _ +.uXuXO.| Q (  .uXiXDXDXDXDXDXDXDXDX",
"DXDXDXDXDXDXDXDXDXDXDXDXDXDXDXDXDXDXDXDXDXDXDXDXDXDXDXDXDXDXDXDXDXDXDX. . = - - < < W / | +.yXaXpXaXyX+.| ) _ | o.+. .) ( DXDXDXDXDXDXDXDXDXDXDXDXDXDXDXDXDXDXDXDXDXDXDXDXDXDXDXDXDXDXDXDXDXDXDXDXDXDX- < 2 W 1 < < - - 2 ) +.O.o.| ( W Q | +.uXDXDXDXDXDXDXDXDX",
"DXDXDXDXDXDXDXDXDXDXDXDXDXDXDXDXDXDXDXDXDXDXDXDXDXDXDXDXDXDXDXDXDXDXDX  . . = - < 1 ( | +.uXiXiXyXO...( Q ( _  .uXyX+.) ( DXDXDXDXDXDXDXDXDXDXDXDXDXDXDXDXDXDXDXDXDXDXDXDXDXDXDXDXDXDXDXDXDXDXDXDXDXDXDX< 1 W 1 < - - - 1 _ o. ._ Q 1 < 1 ( ..o.DXDXDXDXDXDXDXDX",
"DXDXDXDXDXDXDXDXDXDXDXDXDXDXDXDXDXDXDXDXDXDXDXDXDXDXDXDXDXDXDXDXDXDXDX    . = - 2 Q | +.uXyXuXO. ._ Q 1 W (  .tXiXiX+.( W DXDXDXDXDXDXDXDXDXDXDXDXDXDXDXDXDXDXDXDXDXDXDXDXDXDXDXDXDXDXDXDXDXDXDXDXDXDXDXDXW W 2 - - - < W ( | ) W < - - < W ( _ DXDXDXDXDXDXDXDX",
"DXDXDXDXDXDXDXDXDXDXDXDXDXDXDXDXDXDXDXDXDXDXDXDXDXDXDXDXDXDXDXDXDXDXDXDX. . = < W ( | o.+.+.o.| ( W 2 < W | tXyXyX+._ 2 - DXDXDXDXDXDXDXDXDXDXDXDXDXDXDXDXDXDXDXDXDXDXDXDXDXDXDXDXDXDXDXDXDXDXDXDXDXDXDXDX< < - - = - < 1 Q ( Q < ; = = - 2 W Q DXDXDXDXDXDXDXDX",
"DXDXDXDXDXDXDXDXDXDXDXDXDXDXDXDXDXDXDXDXDXDXDXDXDXDXDXDXDXDXDXDXDXDXDXDXDX= - < W ( ) ) ) ) ( Q 2 < - < Q o.iXyX+.) W - . DXDXDXDXDXDXDXDXDXDXDXDXDXDXDXDXDXDXDXDXDXDXDXDXDXDXDXDXDXDXDXDXDXDXDXDXDXDXDXDX= = = = = - < 2 1 W 2 - = = = - 2 W W DXDXDXDXDXDXDXDX",
"DXDXDXDXDXDXDXDXDXDXDXDXDXDXDXDXDXDXDXDXDXDXDXDXDXDXDXDXDXDXDXDXDXDXDXDXDX= = < W Q Q Q Q W 1 < - = - 2 ( o.uX+._ W < = DXDXDXDXDXDXDXDXDXDXDXDXDXDXDXDXDXDXDXDXDXDXDXDXDXDXDXDXDXDXDXDXDXDXDXDXDXDXDXDXDX  . . . . . = = - - - - - - < 2 W W W DXDXDXDXDXDXDXDX",
"DXDXDXDXDXDXDXDXDXDXDXDXDXDXDXDXDXDXDXDXDXDXDXDXDXDXDXDXDXDXDXDXDXDXDXDXDX= = - < 1 1 2 < < - = . . - 1 ( | o.| W - = DXDXDXDXDXDXDXDXDXDXDXDXDXDXDXDXDXDXDXDXDXDXDXDXDXDXDXDXDXDXDXDXDXDXDXDXDXDXDXDXDXDX. .       . . = = - < < 1 Q ( ) ) ) ) DXDXDXDXDXDXDXDX",
"DXDXDXDXDXDXDXDXDXDXDXDXDXDXDXDXDXDXDXDXDXDXDXDXDXDXDXDXDXDXDXDXDXDXDXDXDX. . = - < < - - - = = . . - 1 Q ( ( Q < = . DXDXDXDXDXDXDXDXDXDXDXDXDXDXDXDXDXDXDXDXDXDXDXDXDXDXDXDXDXDXDXDXDXDXDXDXDXDXDXDX_ Q 1 - = = = = - < 2 W ( | o.tXiXaXaXaXuX ._ DXDXDXDXDXDX",
"DXDXDXDXDXDXDXDXDXDXDXDXDXDXDXDXDXDXDXDXDXDXDXDXDXDXDXDXDXDXDXDXDXDXDXDXDX. . . = - = = = = = . . . - < 1 W W 2 - . DXDXDXDXDXDXDXDXDXDXDXDXDXDXDXDXDXDXDXDXDXDXDXDXDXDXDXDXDXDXDXDXDXDXDXDXDXDXDXDXQ ( Q W < < - < < 1 Q ( | +.yXaXhXlXxXlXjXyX .( / DXDXDXDXDX",
"DXDXDXDXDXDXDXDXDXDXDXDXDXDXDXDXDXDXDXDXDXDXDXDXDXDXDXDXDXDXDXDXDXDXDXDXDX  . . . . . .       . . . = - - < < < DXDXDXDXDXDXDXDXDXDXDXDXDXDXDXDXDXDXDXDXDXDXDXDXDXDXDXDXDXDXDXDXDXDXDXDXDXDXjXyX| Q W W 1 < - - < 1 Q ( | +.uXaXhXjXlXcXjXaXyX+.) ( Q DXDXDXDXDX",
"DXDXDXDXDXDXDXDXDXDXDXDXDXDXDXDXDXDXDXDXDXDXDXDXDXDXDXDXDXDXDXDXDXDXDXDXDX2 < - - = . .         . . . = = - - - DXDXDXDXDXDXDXDXDXDXDXDXDXDXDXDXDXDXDXDXDXDXDXDXDXDXDXDXDXDXDXDXDXDXDXDXDXcXhXyX..Q 1 < - - - < 1 Q _ | o.tXyXaXpXpXaXyXtXo.| | #.| { DXDXDXDXDX",
"DXDXDXDXDXDXDXDXDXDXDXDXDXDXDXDXDXDXDXDXDXDXDXDXDXDXDXDXDXDXDXDXDXDXDX| | | | ( Q 2 < ; = . . . . = = = = - - - - - W _ | DXDXDXDXDXDXDXDXDXDXDXDXDXDXDXDXDXDXDXDXDXDXDXDXDXDXDXDXDXDXqXqXmXaXuXo._ W - = = - 2 Q ( |  .+.+.O.+.+. .| _ ( Q W ( X.1X2X-X-XDXDXDX",
"DXDXDXDXDXDXDXDXDXDXDXDXDXDXDXDXDXDXDXDXDXDXDXDXDXDXDXDXDXDXDXDXDXDX .tXyXyXyXuX+..._ Q 1 < - - < < < < < < , - , 2 ( | o...DXDXDXDXDXDXDXDXDXDXDXDXDXDXDXDXDXDXDXDXDXDXDXDXDXDXDXDXqX0XwX3X1Xo. .) W = . = - < W Q ( ) | | ) ( ( Q R 2 2 W Q | O.uX3X%X#X=XDXDX",
"DXDXDXDXDXDXDXDXDXDXDXDXDXDXDXDXDXDXDXDXDXDXDXDXDXDXDXiXyX+.| Q W Q +.hXxXxXjXjXhXaXuXo.| Q W W Q ( Q W 1 < < < 1 Q | O.O.| Q W DXDXDXDXDXDXDXDXDXDXDXDXDXDXDXDXDXDXDXDXDXDXDXDXqXqX0X9X6X3X' _ #._ W - . . = - < 2 1 1 1 2 < < < - - - < ( ..+.O.K.A.n.a.$X:X5X",
"DXDXDXDXDXDXDXDXDXDXDXDXDXDXDXDXDXDXDXDXDXDXDXDXDXB.A.+.+.eXO...( Q o.hXxXlXhXpXpXaXuX+. .| _ ) | | ) ( W < - 2 ( ..+.+. .( 1 S Y DXDXDXDXDXDXDXDXDXDXDXDXDXDXDXDXDXDXDXDXDXDX8X8X9X:X$Xn.I S R Q Q 1 - . . . . = - - - = = = . . = = - < Q ) | ) _ I r.w.M.=X;X",
"DXDXDXDXDXDXDXDXDXDXDXDXDXDXDXDXDXDXDXDXDX5X5X;X@Xm.l.^ | tXaXyX| ( | uXiXyXtXO.+.+.X.....| | ....| ) Q W - - 1 | +.+...( 1 - A n.$X>XDXDXDXDXDXDXDXDXDXDXDXDXDXDXDXDXDXDX8X8X9X:X=Xs.w.Z r : , 2 2 < - . .     . . . . . .     . . = - < 1 W W 1 2 d Z 9.u.a.M.",
"DXDXDXDXDXDXDXDXDXDXDXDXDXDXDXDXDXDXDXDX5X;X-X#Xd.e.H f Q X.yXtX) Q ( ) | | ) _ ( ( Q / ( ( ( _ ( ( W 1 < = . < ( | ) ( W - # e q.M.=X;XDXDXDXDXDXDXDXDXDXDXDXDXDXDXDXDXDX9X9X7X:XDXDXDXDXDXDXDXDXDXDXDXDXDXDXDXDXDXDXDXDXDXDXDXDXDXDXDXDXDXDXDXDXDXDXDX6.9.e.w.",
"DXDXDXDXDXDXDXDXDXDXDXDXDXDXDXDXDXDXDX:X;X$Xs.t.9.Z t : 2 _ o...( W 1 2 1 1 1 2 < - < < < 1 1 1 2 < - = .     = < W W 2 - & X $ Z t.#X;X5XDXDXDXDXDXDXDXDXDXDXDXDXDXDXDXDX5X5X5XDXDXDXDXDXDXDXDXDXDXDXDXDXDXDXDXDXDXDXDXDXDXDXDXDXDXDXDXDXDXDXDXDXDXDXDXDX5.5.5.",
"DXDXDXDXDXDXDXDXDXDXDXDXDXDXDXDXDX$X+Xm.p.e.6.;.;.p q $ - R Q Q W < < - - = = = . . . . = = = = = . . .       . = - - = .     + a 9.i.#X=XDXDXDXDXDXDXDXDXDXDXDXDXDXDXDXDXDXDXDXDXDXDXDXDXDXDXDXDXDXDXDXDXDXDXDXDXDXDXDXDXDXDXDXDXDXDXDXDXDXDXDXDXDXDXDXDXDXDXDX",
"DXDXDXDXDXDXDXDXDXDXDXDXDXDXDXDX=X$Xa.9.;.i u u u y q $ ; , 2 2 < - - = = .                 . .                 . . . . X o o + y 7.w.p.d.DXDXDXDXDXDXDXDXDXDXDXDXDXDXDXDXDXDXDXDXDXDXDXDXDXDXDXDXDXDXDXDXDXDXDXDXDXDXDXDXDXDXDXDXDXDXDXDXDXDXDXDXDXDXDXDXDXDXDX",
"DXDXDXDXDXDXDXDXDXDXDXDXDXDXw.u.DXDXDXDXDXDXDXDXDXDXDXDXDXDXDXDXDXDXDXDXDXDXDXDXDXDXDXDXDXDXDXDXDXDXDXDXDXDXDXDXDXDXDXDXDXDXDXDXDXDX8.9.9.DXDXDXDXDXDXDXDXDXDXDXDXDXDXDXDXDXDXDXDXDXDXDXDXDXDXDXDXDXDXDXDXDXDXDXDXDXDXDXDXDXDXDXDXDXDXDXDXDXDXDXDXDXDXDXDXDXDXDX",
"DXDXDXDXDXDXDXDXDXDXDXDXDXw.w.w.DXDXDXDXDXDXDXDXDXDXDXDXDXDXDXDXDXDXDXDXDXDXDXDXDXDXDXDXDXDXDXDXDXDXDXDXDXDXDXDXDXDXDXDXDXDXDXDXDXDXDX7.7.DXDXDXDXDXDXDXDXDXDXDXDXDXDXDXDXDXDXDXDXDXDXDXDXDXDXDXDXDXDXDXDXDXDXDXDXDXDXDXDXDXDXDXDXDXDXDXDXDXDXDXDXDXDXDXDXDXDXDX"
};
