/* XPM */
static const char *bos2l0[] = {
/* columns rows colors chars-per-pixel */
"128 128 256 2 ",
"   c #0C0C0C",
".  c #060809",
"X  c #160B09",
"o  c #1B150C",
"O  c #17150C",
"+  c #141414",
"@  c #1B1B1B",
"#  c #191716",
"$  c #0E1210",
"%  c #290806",
"&  c #3C0402",
"*  c #380A07",
"=  c #26180B",
"-  c #35160A",
";  c #251B16",
":  c #371915",
">  c #300517",
",  c #16270C",
"<  c #1B3812",
"1  c #182D11",
"2  c #2A220D",
"3  c #292416",
"4  c #372816",
"5  c #303215",
"6  c #1D1924",
"7  c #36072E",
"8  c #242424",
"9  c #2C2C2C",
"0  c #292826",
"q  c #362B27",
"w  c #393527",
"e  c #333333",
"r  c #3B3B3B",
"t  c #3A3734",
"y  c #2F3031",
"u  c #1D2323",
"i  c #440201",
"p  c #4C0101",
"a  c #490B08",
"s  c #530202",
"d  c #5B0202",
"f  c #580A08",
"g  c #47140B",
"h  c #58160C",
"j  c #481917",
"k  c #581915",
"l  c #500517",
"z  c #630101",
"x  c #6C0101",
"c  c #670B09",
"v  c #730101",
"b  c #7C0101",
"n  c #780C09",
"m  c #69160A",
"M  c #661816",
"N  c #781717",
"B  c #73100E",
"V  c #452918",
"C  c #582715",
"Z  c #48351B",
"A  c #55361D",
"S  c #4A2D0C",
"D  c #742A01",
"F  c #6E3013",
"G  c #482827",
"H  c #572726",
"J  c #483724",
"K  c #563C23",
"L  c #453A38",
"P  c #573837",
"I  c #693838",
"U  c #73302A",
"Y  c #5C0930",
"T  c #1E4216",
"R  c #234A19",
"E  c #28551D",
"W  c #334C1C",
"Q  c #345426",
"!  c #346927",
"~  c #38782D",
"^  c #346B2A",
"/  c #534718",
"(  c #724916",
")  c #5A4325",
"_  c #4A4A32",
"`  c #684627",
"'  c #754C2B",
"]  c #79532C",
"[  c #715430",
"{  c #4A6F2F",
"}  c #706E2D",
"|  c #350852",
" . c #08006E",
".. c #210D5F",
"X. c #5A175F",
"o. c #444444",
"O. c #4B4B4B",
"+. c #4A4646",
"@. c #554947",
"#. c #535353",
"$. c #5B5B5B",
"%. c #595656",
"&. c #52514F",
"*. c #675A58",
"=. c #714E4A",
"-. c #706759",
";. c #5E6061",
":. c #636364",
">. c #6B6C6C",
",. c #696867",
"<. c #776A68",
"1. c #737374",
"2. c #7B7B7B",
"3. c #787877",
"4. c #6F7171",
"5. c #665B64",
"6. c #3F4040",
"7. c #840101",
"8. c #8C0101",
"9. c #880A08",
"0. c #940100",
"q. c #9B0101",
"w. c #980B0A",
"e. c #871717",
"r. c #91140D",
"t. c #A30101",
"y. c #AB0101",
"u. c #A60905",
"i. c #B30000",
"p. c #BB0000",
"a. c #B60B06",
"s. c #AA140F",
"d. c #8C350A",
"f. c #AA2D0F",
"g. c #882727",
"h. c #913332",
"j. c #A83231",
"k. c #940A2C",
"l. c #C70000",
"z. c #D70100",
"x. c #CB160F",
"c. c #FB0000",
"v. c #E50301",
"b. c #CD2B1F",
"n. c #8A4609",
"m. c #925312",
"M. c #996619",
"N. c #A76E1A",
"B. c #885934",
"V. c #91542F",
"C. c #9A643A",
"Z. c #8E7131",
"A. c #A7732C",
"S. c #AB5628",
"D. c #D56628",
"F. c #8A5050",
"G. c #B25150",
"H. c #8E704B",
"J. c #AD7046",
"K. c #867B78",
"L. c #90706D",
"P. c #AB6F6E",
"I. c #A85E60",
"U. c #CF5D5A",
"Y. c #922B52",
"T. c #3D8533",
"R. c #448B37",
"E. c #46963A",
"W. c #548937",
"Q. c #67963A",
"!. c #54AB46",
"~. c #56B54A",
"^. c #4DAA44",
"/. c #6CB248",
"(. c #509544",
"). c #5BC653",
"_. c #5CDB5D",
"`. c #6AD359",
"'. c #70EE67",
"]. c #65E262",
"[. c #928C2F",
"{. c #B78827",
"}. c #B38F30",
"|. c #B09E33",
" X c #C6982F",
".X c #CBA838",
"XX c #D2B03B",
"oX c #D78E2E",
"OX c #97884D",
"+X c #AB954D",
"@X c #B2A84F",
"#X c #8D8776",
"$X c #A8956D",
"%X c #B9AC6C",
"&X c #8DB146",
"*X c #D6B943",
"=X c #CAB04E",
"-X c #C5AC69",
";X c #D9A14A",
":X c #8FDA5A",
">X c #D7C74D",
",X c #E2CB4B",
"<X c #E8D652",
"1X c #F3E85C",
"2X c #D3CB70",
"3X c #F5EF66",
"4X c #E7D967",
"5X c #DFC73E",
"6X c #010087",
"7X c #0C0592",
"8X c #0F0CAB",
"9X c #2D1FA8",
"0X c #562698",
"qX c #726D88",
"wX c #322BD2",
"eX c #2A29DD",
"rX c #4732CF",
"tX c #5B53E0",
"yX c #7F8282",
"uX c #838383",
"iX c #8B8C8B",
"pX c #888786",
"aX c #939494",
"sX c #9B9C9C",
"dX c #999796",
"fX c #958F8C",
"gX c #A69A98",
"hX c #B0918D",
"jX c #B1AA95",
"kX c #A3A3A4",
"lX c #ABABAB",
"zX c #A8A7A7",
"xX c #B3B3B4",
"cX c #BCBCBC",
"vX c #B9B7B7",
"bX c #B4ADAB",
"nX c #9A99A2",
"mX c #C5B68E",
"MX c #C7B4B1",
"NX c #D09893",
"BX c #D5D3A4",
"VX c #B5B6CA",
"CX c #BDC2C2",
"ZX c #C3C3C3",
"AX c #CBCCCC",
"SX c #C8C7C7",
"DX c #D3D3D3",
"FX c #DBDCDC",
"GX c #D7D8D8",
"HX c #D1CDCD",
"JX c #E3E3E3",
"KX c #EBEBEB",
"LX c #E7E9E9",
"PX c #E2DBD8",
"IX c None",
"UX c black",
/* pixels */
"IXIXIXIXIXIXIXIXIXIXIXIXIXIXIXIXIXIXIXIXIXIXIXIXIXIXIXIXIXIXIXIXIXIXIXIXIXIXIXIXIXIXIXIXIXIXIXIXIXIXIXIXIXIXIXIXd 7.p.IXIXIXIXIXIXIXIXIXIXIXIXIXIXIX>.>.2.iXaXaXaXlXDXAXZXvXvXcXIXIXIXIXIXIXIXIXIXIXIXIXIXIXIXIXIXIXIXIXIXIXIXIXIXIXIXIXIXIXIXIXIXIXIXIXIXIXIXIX",
"IXIXIXIXIXIXIXIXIXIXIXIXIXIXIXIXIXIXIXIXIXIXIXIXIXIXIXIXIXIXIXIXIXIXIXIXIXIXIXIXIXIXIXIXIXIXIXIXIXIXIXIXIXIXIXIXd 7.i.IXIXIXIXIXIXIXIXIXIXIXIXIXIX1.1.1.2.aXdXdXdXxXSXSXZXvXvXcXIXIXIXIXIXIXIXIXIXIXIXIXIXIXIXIXIXIXIXIXIXIXIXIXIXIXIXIXIXIXIXIXIXIXIXIXIXIXIXIX",
"IXIXIXIXIXIXIXIXIXIXIXIXIXIXIXIXIXIXIXIXIXIXIXIXIXIXIXIXIXIXIXIXIXIXIXIXzXIXIXIXIXIXIXIXIXIXIXIXIXIXIX0.IXIXIXs d b t.p.IXIXIXIXIXIXIXKXIXIXIXIXIX2.uXuXiXdXkXlXxXxXxXcXcXvXcXvXiXIX:.>.IXIXIXIXIXIXIXIXIXIXIXIXIXIXIXIXIXIXIXIXIXIXIXIXIXIXIXIXIXIXIXIXIXIXIXIX",
"IXIXIXIXIXIXIXIXIXIXIXIXIXIXIXIXIXIXIXIXIXIXIXIXIXIXIXIXIXIXIXIXIXIXIXxXsX2.IXIXIXIXIXIXIXIXIXIXIXIXx 0.y.IXIXs d v 0.i.l.IXIXIXIXIXJXJXJXDXdX>.>.2.iXaXdXkXvXSXSXvXkXvXZXcXZXxX2.:.:.,.>.IXIXIXIXIXIXIXIXIXIXIXIXIXIXIXIXIXIXIXIXIXIXIXIXIXIXIXIXIXIXIXIXIXIXIX",
"IXIXIXIXIXIXIXIXIXIXIXIXIXIXIXIXIXIXIXIXIXIXIXIXIXIXIXIXIXIXIXIXIXIXIXdX2.,.uXIXIXIXIXIXIXIXIXIXIXIXz 7.0.IXd s d x b t.i.IXIXIXIXFXFXSXvXvXdX2.2.pXdXdXsXkXvXSXDXSXxXcXSXSXAXvX1.#.$.:.>.IXIXIXIXIXIXIXIXIXIXIXIXIXIXIXIXIXIXIXIXIXIXIXIXIXIXIXIXIXIXIXIXIXIXIX",
"IXIXIXIXIXIXIXIXIXIXIXIXIXIXIXIXIXIXIXIXIXIXIXIXIXIXIXIXIXIXIXIXIXIXGX1.+.O.iXSXIXIXIXIXIXIXIXIXIXIXs x b 7.IXIXIXz x 8.t.i.P.cXHXFXDXdX2.dXsXdXiXaXkXkXkXkXlXZXDXDXDXDXDXDXFXcX:.+.+.#.,.aXvXSXDXIXIXIXIXIXIXIXIXIXIXIXIXIXIXIXIXIXIXIXIXIXIXIXIXIXIXIXIXIXIXIX",
"IXIXIXIXIXIXIXIXIXIXIXIXIXIXIXIXIXIXIXIXIXIXIXIXIXIXIXIXIXIXIXIXIXGXSX$.0 t 2.zXIXIXIXIXIXIXIXIXIXI k M N e.IXIXIXIXd v 8.s.P.vXHXGXSX2.:.iXkXzXkXkXlXxXzXkXlXvXAXFXJXJXJXJXJXSX>.O.O.+.;.iXxXSXSXZXIXIXIXIXIXIXIXIXIXIXIXIXIXIXIXIXIXIXIXIXIXIXIXIXIXIXIXIXIXIX",
"IXIXIXIXIXIXIXIXIXIXIXIXIXIXIXIXIXIXIXIXIXIXIXIXIXIXIXIXIXIXIXIXIXvXdX+.@ 0 O.,.IXIXIXIXIXIXIXSXDXgXL.L.I.F.IXIXIXIXIXz B g.L.xXAXAXxX2.,.iXkXvXvXcXSXSXZXxXlXxXZXDXJXJXJXJXJXAXdX2.>.#.#.2.kXvXkXkXlXZXSXcXdX1.:.IXIXIXIXIXIXIXIXIXIXIXIXIXIXIXIXIXIXIXIXIXIXIX",
"IXIXIXIXIXIXIXIXIXIXIXIXIXIXIXIXIXIXIXIXIXIXIXIXIXIXIXIXIXIXIXIXcXsX,.t u 8 9 e IXIXIXIXIXIXcXZXDXSXvXbXkXdXIXIXIXIXIXs k @.K.zXSXcXdX2.2.dXzXvXSXDXGXGXDXZXxXlXvXSXFXJXJXJXJXGXcXkXiX$.O.:.dXzXiXiXlXZXSXcXsX2.:.$.IXIXIXIXIXIXIXIXIXIXIXIXIXIXIXIXIXIXIXIXIXIX",
"IXIXIXIXIXIXIXIXIXIXIXIXIXIXIXIXIXIXIXIXIXIXIXIXIXIXIXIXIXIXIXIXlXuX+.9 0 9 9 9 IXIXIXIXIXIXxXvXDXFXGXAXcXzXaXIXIXIXIXa j O.2.kXZXxXiXuXiXkXvXZXSXDXGXJXFXDXSXvXvXZXDXJXJXJXJXJXGXZXsX>.#.;.pXdXuXaXxXSXAXSXzXpX:.#.IXIXIXIXIXIXIXIXIXIXIXIXIXIXIXIXIXIXIXIXIXIX",
"IXIXIXIXIXIXIXIXIXIXIXIXIXIXIXIXIXIXIXIXIXIXIXIXIXIXIXIXIXIXIXIXaX,.e 0 9 r o.o.IXIXIXIXIXIXdXzXDXJXJXDXcXkXpX,.:.>.:.j g +.1.gXcXzXiXpXdXxXZXZXvXcXAXDXFXFXGXAXvXcXDXGXJXJXKXKXKXDXzXuX,.;.1.pXpXsXvXSXAXAXvXaX$.+.IXIXIXIXIXIXIXIXIXIXIXIXIXIXIXIXIXIXIXIXIXIX",
"IXIXIXIXIXIXIXIXIXIXIXIXIXIXIXIXIXIXIXIXIXIXIXIXIXIXIXIXIXIXIXIXiX:.9 0 9 +.&.#.IXIXIXIXIXIXpXdXSXJXLXDXvXsX2.,.:.,.:.G j L >.dXlXsXuXpXsXcXAXSXkXdXkXxXSXGXJXGXZXcXSXDXGXJXKXKXKXDXxXaX1.$.:.1.pXkXcXZXSXSXzXuXO.t IXIXIXIXIXIXIXIXIXIXIXIXIXIXIXIXIXIXIXIXIXIX",
"IXIXIXIXIXIXIXIXIXIXIXIXIXIXIXIXIXIXIXIXIXIXIXIXIXIXIXIXIXIXIXIXdX>.r 9 9 IXIXIXIXIXIXIXIXkX2.2.vXGXFXAXxXiX1.:.,.,.:.P G L :.iXzXdX2.pXkXSXGXSXiX:.$.1.dXSXFXJXDXSXZXSXDXFXKXKXJXAXvXdX2.$.$.>.iXkXvXxXlXkX2.#.e 0 9 IXIXIXIXIXIXIXIXIXIXIXIXIXIXIXIXIXIXIXIXIX",
"IXIXIXIXIXIXIXIXIXIXIXIXIXIXIXIXIXIXIXIXIXIXIXIXIXIXIXIXIXIXIXIXsX2.O.e 9 IXIXIXIXIXIXIXIXdX1.1.zXSXAXZXkX2.,.:.>.>.:.#.o.6.$.uXkXaX1.pXkXSXFXAX2.r @ e :.kXAXJXJXDXvXcXSXDXJXKXGXSXxXsX2.#.#.:.pXkXlXkXdXpX#.9 @ @ 0 IXIXIXIXIXIXIXIXIXIXIXIXIXIXIXIXIXIXIXIXIX",
"IXIXIXIXIXIXIXIXIXIXIXIXIXIXIXIXIXIXIXIXIXIXIXIXIXIXIXIXIXIXIXIXdX3.O.t e IXIXIXIXIXIXIXIX2.1.2.zXcXvXkXiX2.:.:.1.4.:.$.&.o.#.1.dXiX1.2.dXvXGXDXaX+.# @ 6.2.xXGXJXDXvXxXvXZXGXJXGXZXzXsX2.O.+.$.uXdXkXdXuX:.r 8 8 8 8 # IXIXIXIXIXIXIXIXIXIXIXIXIXIXIXIXIXIXIXIX",
"IXIXIXIXIXIXIXIXIXIXIXIXIXIXIXIXIXIXIXIXIXIXIXIXIXIXIXIXIXIXIXIXiX4.O.r t IXIXIXIXIXIXIXIX#.,.iXxXvXsXuX1.1.:.:.2.1.:.:.#.+.+.:.aXiX1.1.pXkXSXDXvX1.9 # 8 O.iXZXGXAXvXzXkXxXAXJXFXZXsXdX2.O.+.$.2.iXdXaX3.O.e 9 e 9 @ # 0 t IXIXIXIXIXIXIXIXIXIXIXIXIXIXIXIXIXIX",
"IXIXIXIXIXIXIXIXIXIXIXIXIXIXIXIXIXIXIXIXIXIXIXIXIXIXIXIXIXIXIXIXuX>.#.o.t IXIXIXIXIXIXIXIXr :.aXxXzXiX,.:.1.>.,.1.1.:.$.#.+.+.$.uXuX>.:.1.aXvXAXAXdX#.9 # 9 :.kXAXAXvXzXkXkXcXDXDXcXsXdXuX$.%.*.2.pXfXfX2.&.o.+.O.o.9 0 9 r IXIXIXIXIXIXIXIXIXIXIXIXIXIXIXIXIXIX",
"IXIXIXIXIXIXIXIXIXIXIXIXIXIXIXIXIXIXIXIXIXIXIXIXIXIXIXIXIXIXIXIXIX>.:.&.IXIXIXIXIXIXIXIXIXt $.iXzXkXuX:.$.1.2.2.,.:.:.#.+.r +.#.1.1.:.#.$.1.dXvXGXZXiX#.0 # r 2.cXAXZXxXkXkXzXvXZXvXkXdXiXuXL.L.pXK.P.fXpX>.,.,.,.$.+.o.6.o.IXIXIXIXIXIXIXIXIXIXIXIXIXIXIXIXIXIX",
"IXIXIXIXIXIXIXIXIXIXIXIXIXIXIXIXIXIXIXIXIXIXIXIXIXIXIXIXIXIXIXIXIXIX>.IXIXIXIXIXIXIXIXIXIXt $.uXsXdX2.$.$.1.iXuX$.$.,.O.t t o.#.>.1.:.+.+.:.uXzXFXJXvX2.+.8 t >.vXAXSXvXlXkXkXkXvXvXxXgXdXkXhXP.pXP.I.fXaXiXpXpXuX1.,.$.#.+.IXIXIXIXIXIXIXIXIXIXIXIXIXIXIXIXIXIX",
"IXIXIXIXIXIXIXIXIXIXIXIXIXIXIXIXIXIXIXIXIXIXIXIXIXIXIXIXIXIXIXIXIXIX1.IXIXIXIXIXIXIXIXIXIX9 #.2.dXiX1.#.$.pXiX2.#.$.1.#.t e e O.1.2.,.#.+.#.1.kXJXKXDXkX2.:.1.dXSXDXSXZXvXzXsXkXvXZXZXlXlXvXNXU.P.I.G.P.dXaXiXiXiXpX2.>.$.O.IXIXIXIXIXIXIXIXIXIXIXIXIXIXIXIXIXIX",
"IXIXIXIXIXIXIXIXIXIXIXIXIXIXIXIXIXIXIXIXIXIXIXIXIXIXIXIXIXIXIXIXIXIXIXIXIXIXIXIXIXIXIXIXIX8 O.3.iXpX>.#.:.dXaX1.+.$.2.$.r 9 9 +.pXiX2.:.#.#.1.kXGXKXGXZXvXxXvXSXFXGXSXSXZXxXkXkXcXAXDXZXcXZXNXU.I.G.G.L.aXiXpXpXiXiXiX2.:.O.IXIXIXIXIXIXIXIXIXIXIXIXIXIXIXIXIXIX",
"IXIXIXIXIXIXIXIXIXIXIXIXIXIXIXIXIXIXIXIXIXIXIXIXIXIXIXIXIXIXIXIXIXIXIXIXIXIXIXIXIXIXIXIXIX@ +.1.uX1.:.:.2.kXiX:.o.$.uX,.+.9 8 r pXdXiXuX1.:.3.kXDXJXFXDXDXDXFXJXJXFXDXDXSXvXlXxXSXDXFXAXZXcXhXG.G.G.F.L.pX2.2.2.2.pXiX1.#.o.IXIXIXIXIXIXIXIXIXIXIXIXIXIXIXIXIXIX",
"IXIXIXIXIXIXIXIXIXIXIXIXIXIXIXIXIXIXIXIXIXIXIXIXIXIXIXIXIXIXIXIXIXIXIXIXIXIXIX2.pX$.e #.+.8 +.1.1.:.#.2.sXlXpX#.t $.iX1.#.e u e 2.sXkXzXdX2.2.dXcXGXJXFXGXDXGXJXJXJXFXGXDXZXZXSXDXFXFXGXSXzXP.h.h.F.=.<.1.:.:.:.$.1.2.$.t 9 IXIXIXIXIXIXIXIXIXIXIXIXIXIXIXIXIXIX",
"IXIXIXIXIXIXIXIXIXIXIXIXIXIXIXIXIXIXIXIXIXIXIXIXIXIXIXIXIXIXIXIXIXIXIXIXIXIX:.>.1.#.9 O.+.8 +.>.,.#.O.iXvXlX2.+.e $.iXuX$.e u 9 4.sXvXSXcXdXiXiXzXSXDXDXAXSXSXDXJXKXJXJXDXvXZXDXGXFXJXJXSXsXF.g.g.=.:.>.:.#.O.+.+.$.,.r 8 @ IXIXIXIXIXIXIXIXIXIXIXIXIXIXIXIXIXIX",
"IXIXIXIXIXIXIXIXIXIXIXIXIXIXIXIXIXIXIXIXIXIXIXIXIXIXIXIXIXIXIXIXIXIXIXIXIXIXO.#.#.t 8 e e 0 +.:.$.O.$.kXZXkX1.o.e $.iXaX>.t 8 9 >.sXcXDXDXvXsXiXdXkXcXcXvXbXlXvXFXKXKXJXZXaXkXSXDXJXJXJXHXsXF.N g.=.$.#.+.r t e e r +.9 # # IXIXIXIXIXIXIXIXIXIXIXIXIXIXIXIXIXIX",
"IXIXIXIXIXIXIXIXIXIXIXIXIXIXIXIXIXIXIXIXIXIXIXIXIXIXIXIXIXIXIXIXIXIXIXIXIXo.t 9 0 @ # @ u 0 +.$.+.+.:.lXZXdX>.r e $.aXkXuXo.0 e >.dXvXFXJXDXxXdX2.uXaXsXsXdXiXsXDXJXJXFXlX,.uXlXSXFXKXKXDXzXF.B g.=.%.+.r e 9 9 9 0 0 @ # # IXIXIXIXIXIXIXIXIXIXIXIXIXIXIXIXIXIX",
"IXIXIXIXIXIXIXIXIXIXIXIXIXIXIXIXIXIXIXIXIXIXIXIXIXIXIXIXIXIXIXIXIXIXIXIXIXt e 9 8 @ # + # 9 O.$.r r $.lXZXiX:.+.t $.aXzXaX#.e 9 #.2.kXDXKXJXSXgX*.*.1.uXpX2.1.pXcXGXFXFXlX:.,.iXlXDXKXKXGXlXF.B U =.%.&.+.+.+.o.t 9 # # # u 0 IXIXIXIXIXIXIXIXIXIXIXIXIXIXIXIXIX",
"IXIXIXIXIXIXIXIXIXIXIXIXIXIXIXIXIXIXIXIXIXIXIXIXIXIXIXIXIXIXIXIXIXIXIXIXIX9 e t e e 0 + # e #.$.6.e +.kXvXuX:.#.+.:.dXxXkX1.+.9 y #.iXZXJXKXFXbXI P $.>.>.>.;.>.kXZXDXGXvX2.$.$.iXcXKXKXGXbXF.N H @.%.:.,.,.1.4.:.r # # 8 0 9 e IXIXIXIXIXIXIXIXIXIXIXIXIXIXIXIX",
"IXIXIXIXIXIXIXIXIXIXIXIXIXIXIXIXIXIXIXIXIXIXIXIXIXIXIXIXIXIXIXIXIXIXIXIXIX0 e o.+.+.o.9 0 e O.$.r e +.dXzX1.$.#.#.>.dXvXxXiX#.9 # t 1.zXDXJXLXMXI G +.#.&.#.O.%.uXkXCXAXcXaX:.#.2.vXJXKXDXkXF.M G o.#.:.1.2.uXuX1.O.0 8 9 9 9 9 IXIXIXIXIXIXIXIXIXIXIXIXIXIXIXIX",
"IXIXIXIXIXIXIXIXIXIXIXIXIXIXIXIXIXIXIXIXIXIXIXIXIXIXIXIXIXIXIXIXIXIXIXIXIXIX9 r #.>.1.:.+.e o.+.e O.1.dXiX#.+.O.#.1.sXvXcXsX$.9 # 9 $.iXvXDXJXHXL.I G G G G G P ,.pXkXvXcXzXuX1.aXcXJXKXSXuX=.H 9 y r +.#.$.:.>.$.O.r t t e 9 0 IXIXIXIXIXIXIXIXIXIXIXIXIXIXIXIX",
"IXIXIXIXIXIXIXIXIXIXIXIXIXIXIXIXIXIXIXIXIXIXIXIXIXIXIXIXIXIXIXIXIXIXIXIXIXIX0 e $.pXkXdX:.9 e r e :.sXaX:.t e o.$.2.kXcXZXzX:.9 8 e O.1.dXCXDXGXZXL.g a a a a k @.,.uXkXvXvXkXsXxXSXFXKXcX:.+.L 0 @ 8 9 e t 6.o.t o.#.+.o.e 0 @ IXIXIXIXIXIXIXIXIXIXIXIXIXIXIXIX",
"IXIXIXIXIXIXIXIXIXIXIXIXIXIXIXIXIXIXIXIXIXIXIXIXIXIXIXIXIXIXIXIXIXIXIXIXIXIXu e #.2.dXiX:.y 9 e r :.iX4.+.0 9 o.$.2.kXSXSXlX,.e e e t #.3.kXZXDXFXgXI g i s f k P %.,.pXkXvXxXxXcXAXFXLXZX2.>.$.e # # # 3 0 9 q w L O.+.r y 8 # IXIXIXIXIXIXIXIXIXIXIXIXIXIXIXIX",
"IXIXIXIXIXIXIXIXIXIXIXIXIXIXIXIXIXIXIXIXIXIXIXIXIXIXIXIXIXIXIXIXIXIXIXIXIX+ @ 9 O.:.,.#.o.e 9 e O.#.O._ q ; 9 +.$.2.kXSXAXlX>.o.#.o.0 9 #.pXzXCXDXSXhXH i f B N U I #.>.pXkXlXxXcXAXFXJXDXxXlXaX+.8 # # # 3 3 4 J t e e 9 8 # # IXIXIXIXIXIXIXIXIXIXIXIXIXIXIXIX",
"IXIXIXIXIXIXIXIXIXIXIXIXIXIXIXIXIXIXIXIXIXIXIXIXIXIXIXIXIXIXIXIXIXIXIXIXIX# @ 9 +.#.#.+.r t t o.#.+.8 3 = = 9 +.$.2.sXSXAXzX>.O.:.+.8 # e :.iXzXZXGXSX=.h c N g.g.U @.%.1.dXkXlXvXSXGXJXJXDXGXcX>.t 8 # # 2 2 4 J w 0 0 8 ; # + IXIXIXIXIXIXIXIXIXIXIXIXIXIXIXIX",
"IXIXIXIXIXIXIXIXIXIXIXIXIXIXIXcXZXDXIXIXIXIXIXIXIXIXIXIXIXIXIXIXIXIXIXIXIX# @ 9 +.#.$.:.$.+.:.>.+.9 ; = = o 3 e #.1.dXcXZXkX,.+.>.#.0 # @ o.,.iXlXAXDXgXF.N g.j.j.h.I I =.K.dXzXvXSXDXJXJXFXJXDXsX,.r 3 = 2 2 4 J w 3 3 4 4 3 IXIXIXIXIXIXIXIXIXIXIXIXIXIXIXIXIX",
"IXIXIXIXIXIXIXIXIXIXIXIXIXIXcXcXcXAXFXIXIXIXIXIXIXIXIXIXIXIXIXIXIXIXIXIXIX# 8 e O.:.1.aXuX$.pXdXr ; 2 2 = = # 9 +.,.iXlXxXdX:.+.:.#.e @ # 0 +.1.fXxXDXDXhXN g.G.G.G.h.g.I <.iXkXxXZXDXFXGXDXFXFXZXiX&.q 2 2 4 Z K Z 4 4 Z J J IXIXIXIXIXIXIXIXIXIXIXIXIXIXIXIXIX",
"IXIXIXIXIXIXIXIXIXIXIXIXIXIXZXcXvXZXAXIXIXIXIXIXIXIXIXIXIXIXIXIXIXIXIXIXIX@ 0 r :.2.iXkXsX2.dXiXe = 3 3 2 = ; 3 t $.2.dXkXiX#.t O.$.#.t 8 # e #.1.dXcXJXbXM N h.G.G.j.g.U <.iXzXvXSXDXGXSXxXSXGXcXpX+.w 4 3 V K ` K Z A K K ) IXIXIXIXIXIXIXIXIXIXIXIXIXIXIXIXIX",
"IXIXIXIXIXIXIXIXIXIXIXIXIXIXZXcXlXxXvXIXIXIXIXIXIXIXIXIXIXIXIXIXIXIXIXIXIX@ 9 +.2.dXkXkXlXzXaX,.q 2 4 3 2 2 2 3 9 +.,.pXiX1.+.9 e #.1.$.t @ @ e #.2.kXDXgXk d g.G.U.G.h.U <.aXlXZXAXDXDXxXuXkXSXkX,.w Z Z 4 K ' ] ] ` ` K K K ` B.IXIXIXIXIXIXIXIXIXIXIXIXIXIXIX",
"IXIXIXIXIXIXIXIXIXIXIXIXIXIXcXxXsXsXkXIXIXIXIXIXIXIXIXIXIXIXIXIXIXIXIXIXIX@ 9 O.3.fXdXkXlXxXqX+.4 4 4 4 3 4 3 2 8 t $.1.1.$.r 8 8 O.2.1.$.e 0 9 t $.iXCXzXI a c j.U.I.h.U ,.iXxXSXDXGXDXkX,.iXkXuX@.4 Z K Z ` B.C.B.' ' ` K K ` B.C.IXIXIXIXIXIXIXIXIXIXIXIXIXIX",
"IXIXIXIXIXIXIXIXIXAXIXIXIXDXcXkXpXiXdXsXIXIXIXIXIXIXIXIXIXIXIXIXIXIXIXIXIX@ 8 t #.:.>.aXsXiX%.e 4 Z Z 4 4 4 4 2 @ 9 +.$.$.+.9 # @ t $.2.uX1.#.e 0 o.1.zXbXfXI f g.G.U.h.U %.yXzXZXDXGXAXkX1.1.2.$.t 3 Z K K ` ] C.B.[ B.] J K ` B.C.IXIXIXIXIXIXIXIXIXIXIXIXIXIX",
"IXIXIXIXIXIXIXIXDXSXcXIXIXAXvXdX1.1.iXdXsXIXIXIXIXIXIXIXIXIXIXIXIXIXIXIXIX@ 8 9 e e o.2.uX$.e 3 Z A Z 4 4 4 4 2 # 8 t +.+.e 0 @ @ 0 r 1.dXkX2.O.0 e $.iXvXAXL.a c h.G.j.U @.4.dXvXAXGXSXzXuX:.#.t 0 3 4 K ] ` ' J.C.` B.B.V A ` B.C.IXIXIXIXIXIXIXIXIXIXIXIXIXIX",
"IXIXIXIXIXIXIXIXAXZXxXsXkXvXxXdX$.:.pXaXdXIXIXIXIXIXIXIXIXIXIXIXIXIXIXIXIX4 q q q q w $.:.L 0 3 ` ` Z 4 4 4 4 = + @ 9 t t e t t @ # 0 #.yXkXdX2.$.o.L :.sXDXgX=.h N G.j.h.P *.2.dXcXDXSXkX2.$.o.0 3 4 4 K B.] ' J.J.[ J.V.V V K ] B.IXIXIXIXIXIXIXIXIXIXIXIXIXIX",
"IXIXIXIXIXKXKXFXSXvXkXaXiXdXzXdX&.#.2.pXiXIXIXIXIXIXIXIXIXIXIXIXIXIXIXIXIXK K K Z Z J _ L J 4 V ] ' Z 4 4 4 2 o + # @ 0 y t $.:.9 + # 9 #.pXzXxXdX$.0 o.2.vXZXhXH c h.j.h.U P %.3.zXDXZXsX1.$.o.3 3 4 4 K C.] ] +XJ.] J.C.g - Z ` ] B.IXIXIXIXIXIXIXIXIXIXIXIXIX",
"IXIXIXIXIXKXKXJXSXzXaXiXiXiXkXdX+.+.>.2.pXIXIXIXIXIXIXIXIXIXIXIXIXIXIXIXIX` ` ` A A ) J w Z 4 Z B.' Z 4 4 4 2 o + + # @ 9 +.2.pXO.9 0 @ e :.aXlXzX1.t #.1.dXZXMX=.M N h.h.N H L $.dXSXcXaX:.O.r ; 2 Z V K C.B.B.+XJ.' C.C.M g 4 A ` B.IXIXIXIXIXIXIXIXIXIXIXIXIX",
"IXIXIXIXDXKXKXJXSXkXiXpXaXsXkXpXo.t $.1.pXiXIXIXIXIXIXIXIXIXIXIXIXIXIXIX] ] ' ` K ` ] ` K K Z K B.' Z Z V 4 = o $   + 8 t :.dXlXdX1.+.9 9 t #.>.uXpXpXdXiX>.aXlXgXF.c e.g.N N I @.pXZXxXuXO.t 9 ; = 4 A K ` B.C.J.V.C ' B.V.C a V ) [ IXIXIXIXIXIXIXIXIXIXIXIXIX",
"IXIXIXSXDXKXKXFXZXkXpXiXdXzXdX1.r e O.1.iXiXIXIXIXIXIXIXIXIXIXIXIXIXIX' ] B.] ` ` ] C.B.] ` ) ` B.` Z Z Z 4 = o     # 8 +.2.kXSXAXlX2.#.e 8 @ 9 &.pXcXAXkX$.>.dXZXL.k U h.N e.U @.yXvXsX1.+.9 8 ; = 3 ) ` V ] J.C.U h C ] C.U a : Z ` IXIXIXIXIXIXIXIXIXIXIXIXIX",
"IXIXIXAXFXKXGXvXkXdXiXkXkXiX1.$.e r :.pXdXiXIXIXIXIXIXIXIXIXIXIXIXIXIX` ] B.] ` ' B.J.C.B.` ` ] ] ` Z K Z 4 ; # + + # 8 o.2.kXcXAXZXzXpX$.e # # e ,.kXvXkXuXiXkXlXpX=.P.I.N n g.<.aXkXqX,.:.t # o o 2 K K 4 ] J.B.' F C K B.V.F g h F U IXIXIXIXIXIXIXIXIXIXIXIX",
"IXIXcXDXKXKXcXiX2.pXdXcXzX,.#.o.e O.2.sXzXIXIXIXIXIXIXIXIXIXIXIXIXIXIX` ' B.' ` ] C.J.J.C.' ] B.` K K K Z 4 3 # # # # @ r 1.aXkXxXSXDXcXaX#.0 # 8 o.:.2.dXvXZXlX2.2.gXSXhXN x h.zXxXiX:.,.aX#.+ + o = Z A 4 ` B.` ' V.M h ` B.V.h z 9.U ] IXIXIXIXIXIXIXIXIXIXIX",
"IXzXvXDXJXFXkX4.,.yXkXcXkX$.o.r t #.pXkXvXIXIXIXIXIXIXIXIXIXIXIXIXIXIX` ` ] K K B.J.J.J.B.] B.C.` K K K Z 4 3 8 0 0 9 9 o.>.uXaXkXZXJXGXkX$.0 + # 0 r O.2.ZXSXsX$.:.kXGXMXF.N h.MXcX1.$.1.kX:.@ # O = Z Z 4 K ] A ' C.U h A B.V.h z b U [ IXIXIXIXIXIXIXIXIXIXIX",
"1.dXvXAXDXSXiX$.;.uXkXkXaXIX+.+.+.$.1.dXIXIXIXIXIXIXIXIXIXIXIXIXIXIX' ` ) K C C C.J.J.B.[ ] J.J.` K K Z Z 4 0 y t o.+.+.&.:.1.uXdXcXFXDXkX+.@ $ # @ 8 9 $.sXdX1.+.O.3.xXSXjXh.U MXlX:.2.dXdX,.e # O = 4 V g C K j A B.V.U h ` ' h d x A ) IXIXIXIXIXIXIXIXIXIXIX",
"1.aXvXZXZXzX1.&.;.pXkXpX1.IX#.#.#.$.:.IXIXIXIXIXIXIXIXIXIXIXIXIXIXIX' ` A V g M C.J.C.` ) B.J.J.` K ) Z 4 3 9 t +.#.$.$.#.$.:.1.iXxXAXDXdXt #   # # # # r 1.,.O.t e +.uXcXGXL.I MXkX$.aXkXpX,.+.u O = 4 V a j V a k ` C.V.c C K a s d C K IXIXIXIXIXIXIXIXIXIXIX",
">.pXkXxXlXdX:.+.,.iXdX>.#.IXIX$.$.$.:.IXIXIXIXIXIXIXIXIXIXIXIXIXIXe.U F C h g F J.J.B.A A B.J.J.` K ) Z 4 3 0 e r +.&.#.O.O.#.:.uXkXcXDXkX+.#   # 0 9 @ 0 +.6.9 0 8 9 $.sXDXgXL.vXsX1.aXaX>.:.#.8 O o 2 4 g g g k C C B.V.c h C s s d m M IXIXIXIXIXIXIXIXIXIXIX",
":.2.aXdXdXuX#.+.1.iXuX#.r IXIXIXIXIXIXIXIXIXIXIXIXIXIXIXIXIXIXhXj.w.N M f f C ` J.J.` h C V.J.C.) A ) V 3 ; 8 9 9 e t r o.o.+.$.1.aXlXAXxX$.0   # e +.9 @ 9 0 8 u @ 8 t >.vXSXMXxXsXiXpX1.#.$.O.8 O o 2 4 A h h U F m ' ' f z c d s d v 9.IXIXIXl.l.IXIXIXIXIXIX",
":.1.iXiX2.,.+.o.1.pX2.#.e IXIXIXIXIXIXIXIXIXIXIXIXIXIXIXIXIXhXP.Y.k.N c z x F B.J.B.A a M C.J.B.K Z K V 3 @ @ 8 @ 8 9 e e e r O.:.2.dXSXvX2.e   # t &.L e e r o.+.t 9 9 +.iXZXGXvXkXaX2.$.o.+.+.; o = - C A h f ` F c F F v v x d s z 7.0.IXIXIXl.IXIXIXIXIXIXIX",
":.1.iX2.,.#.t r :.2.uX:.IXIXIXIXIXIXIXIXIXIXIXIXIXIXIXIXIXiXI.G.0XX.N B c b h.C.C.` 4 & M C.C.] A Z Z 4 2 @ # # # # 8 9 9 9 e r #.>.iXxXcXsX+.  O q [ *.:.,.yXfXhXL.+.0 9 $.sXSXvXkXpX,.+.e e e ; ; 4 m n h a a K F v m B 0.0.IXp p z 8.t.IXIXIXIXIXIXIXIXIXIXIX",
":.1.uX>.#.r e t #.>.2.IXIXIXIXIXIXIXIXIXIXIXIXIXIXIXIXIXIXK.j.k.rX0XN N n b V.J.B.A : & M C.B.` Z V V 3 2 @ # # + # @ 8 8 0 9 e +.$.2.sXvXvX%.  o V ` -.2.pXkXMXBXhX:.t 0 e 1.zXvXkX2.$.r 0 0 8 # 2 V 9.8.d p a V M b x v t.IXIXs s z 8.t.IXIXIXIXIXIXIXIXIXIXIX",
"$.:.1.$.+.e 9 t $.:.$.IXIXIXIXIXIXIXIXIXIXIXIXIXIXIXIXIXb.G.f.N 9X0Xe.e.n 7.I 5.) V * i M V.] Z V V 4 2 = @ # # + + # @ @ @ 8 9 t O.:.pXkXxX$.o V A K =.*.,.K.hXNXhXpX;.r 9 &.yXzXdX>.+.9 @ @ @ ; 3 V n 7.d z x k c 7.x x 8.i.l.b z d b q.IXIXIXIXIXIXIXIXIXIXIX",
"O.%.$.+.t e 9 r :.$.e IXIXIXIXIXIXIXIXIXIXIXIXIXIXIX*.b.v.x.w.Y 8X..9.e.e.8.X.9Xt g s p M B.` V g j 4 ; o IX# # # + # # @ @ 8 0 y r #.>.iXkX#.; K ` Z J w t I h.G.P.kXiX:.e e $.aXpX#.t 0 # # @ IXIX4 f x z b 7.c v 0.IXIXx t.l.t.v s z 8.l.IXIXIXIXIXIXIXIXIXIX",
"o.+.O.t 9 9 e +.1.$.9 IXIXIXIXIXIXIXIXIXIXIXIXIXIXh.F.x.z.p.8.l 7X| b N N 0.X...q h z d h ' K : a g V ; = IXIX# # + + # # # @ 8 0 e +.$.1.K.+.; K K 4 2 3 3 k e.g.I.sXsX2.+.G P K.1.+.9 @ # # # IXIX= a x 7.8.7.z 7.y.IXIXd q.p.i.7.s x 8.i.y.IXIXIXIXIXIXIXIXIX",
"e r 6.e 0 9 r $.2.$.9 IXIXIXIXIXIXIXIXIXIXIXIXc.c.x.s.l.p.0.v l  .| x h m t.k.Y f z v z h K Z - a s g : 2 IXIXIX# # + # # # @ @ u 9 t O.%.I q # V V = = = 3 h n B I 2.sXaX*.U N <.:.t 0 # # # # IXIX= a b t.8.z z 0.l.y.b IX8.q.IXIXIX8.8.7.b v IXIXIXIXIXIXIXIX",
"y e e 9 0 9 +.:.1.$.e IXIXIXIXIXIXIXIXIXIXIXc.c.c.v.z.p.q.b x l  .| l G H t.y.q.x x b x f C 4 - p s a : 4 IXIXIX# # + + # # # # # 8 e o.P a % # : - = o = 4 f v f H $.iXdX1.h.e.*.#.9 @ # # + + IXIX2 a b i.7.s d 0.l.t.7.IX7.7.IXIXIXy.0.z z v IXIXIXIXIXIXIXIX",
"9 9 9 8 0 e O.$.$.+.IXIXIXIXIXIXIXIXIXIXIXIXc.c.c.v.l.q.7.v d p 7 ..0X0XX.9.0.8.v b 8.v c m h a s s g : IXIXIXIXIX# # + # # # # # @ 0 t G : X X - * - = = = a d j J _ >.yXyXF.U *.6.8 # # + + IXIXIX= a b 0.v p s b q.7.7.p.IXv IXIXIXl.i.z d x 0.IXIXIXIXIXIXIX",
"IXIX@ 8 9 r #.#.t e IXIXIXIXIXIXIXIXIXIXIXIXc.c.c.z.y.7.x IXd s i ..wXeX0Xc x x B 9.0.v v 8.x s z a - IXIXIXIXIXIX# # # + + # # # # ; q q ; # X * a a - o = * a G L ) @.,.uX<.*.O.e @ # + + + IXIXIXIXIXIXv z p p d x x 7.i.IXIXv IXIXz.z.IXs x q.IXIXIXIXIXIXIX",
"IXIX@ 0 e +.#.O.9 @ IXIXIXIXIXIXIXIXIXIXIXIXz.z.v.l.q.v z IX7.v s | eXeX9X7 7 7 X.U 8.x x 7.x d z a 2 IXIXIXIXIXIXIX# # + + + + + o : k C : # X & p s - o = * * 9 w K _ %.L.<.;.+.e 8 + + + IXIXIXIXIXIXIXv z s p d v x b t.IXIXv 7.IXv.IXIXIXx q.IXIXIXIXIXIXIX",
"IXIX@ 9 o.$.$.+.0 # IXIXIXIXIXIXIXIXIXIXIXv.p.y.l.y.7.IXIX7.t.t.z 7 7X8X7X.. .7XrXX.v z d z z z IXIXIXIXIXIXIXIXIXIX# # + + # o   % a 9.9.g = o & p a - o o * * # 5 K _ P h.=.;.+.t 0 +   + IXIXIXIXIXIXIX8.x s IX7.0.b v b IXIXv 8.l.IXIXIXIXIXIXIXIXIXIXIXIXIX",
"IXIX@ e +.#.#.r 8 # IXIXIXIXIXIXIXIXIXIXIXv.i.0.a.w.B IXIX7.w.w.M 7  .6X6X .6X8XrX0Xz f f d z z IXIXIXIXIXIXIXIXIXIX@ # + + o o   % f t.t.f - = & p a - = = * i % 4 K L H 9.U %.+.t 9 +   + 0 IXIXIXIXIXIXq.b d IXIXy.8.v x IXIXv 8.y.IXIXIXIXIXIXIXIXIXIXIXIXIX",
"IXIX8 e t r t 9 # + IXIXIXIXIXIXIXIXIXIXp.z.IXr.f.Y.X.Y b b Y X.X... .6X6X6X..| X.X.f H H 8.b z IXIXIXIXIXIXIXIXIXIX9 @ + o o o O = a t.y.d & * i p a - = * i d x h Z 0 : z H +.6.e 0 #   # o.IXIXIXIXIXIXq.7.IXIXIXIXt.8.v v 7.IXb 7.0.IXIXIXIXIXIXIXIXIXIXIXIX",
"IXIXIXe e 0 8 @ +   IXIXIXIXIXIXIXIXIXt.y.IXIXIXN.<.rXX.b v | 8XwX9X6X6X6X7X| l l f a P I a.8.d IXIXkXIXIXIXIXIXIXIXr 0 # o # + o o - 0.t.d i i i p a - - & s n t.9.4 # % i j e t 9 @ # + @ #.yXIXIXIXIXIXq.0.IXIXIXIXp.t.b b 8.IXIXd 8.y.IXIXIXIXIXIXIXIXIXIXIX",
"IXIXIXIX9 # # #     IXIXIXIXIXIXIXIXIXt.t.IXIXIX{.qXrXX.v z | 7XeXeX6X .6X7X| Y 7 l f U h.s.n d IXK.kXIXIXIXIXIXIX,.$.t ; o + # o O = v 8.z p i i d v a * i f n q.n - o o : j q w 0 # + X ; &.2.IXIXIXIX8.7.q.IXIXIXIXp.t.v 7.t.IXIXp b 0.IXIXIXIXIXIXIXIXIXIXIX",
"IXIXIXIXIXIX# +     IXIXIXIXIXIXIXIXIXq.q.IXIXIXIXIXIXIXIXs l | wXeX . .6X7X7X .7X| v w.g.I M d z F.kXIXIXIXIXIX2.uX2.&.9 # # # $ O = s x v s i p b q.d & i f c v d & = ; q G k G ;     X * @.2.uXIXIXIXb x q.z.IXIXv IXIXz 0.p.IXIXIXx 7.y.IXIXIXIXz.IXIXIXIXIX",
"IXIXIXIXIXIXIX+   IXIXIXIXIXIXIXIXIXIXq.q.IXIXIXIXIXIXIXIXd f X.wX8X . .6X8X8X7X8X..c w.g.<.I M N F.kXIXIXIXIXIX1.uXiX:.r ; # #   $ = & z 7.z i h 9.y.b s i f c s p i * 3 t C m V ;     % * @.2.iXaXIX7.b z t.l.IXIXv IXIXx q.l.IXIXIXd v y.IXIXIXIXz.IXIXIXIXIX",
"IXIXIXIXIXIXIXIXIXIXIXIXIXIXIXIXIXIXt.q.IXIXIXIXIXIXIXIX0.7.X.0X9X7X . .7XeX8X7X6X .| | X.gXK.=.L.P.IXe IXIXIXO.:.2.iX2.$.e : % $ $ = a v q.x g ' h.w.t.8.s s f i s d a : J N 9.g o X % % : @.2.sXxXIXv x z i.z.IXIXIXs x 0.y.IXIXIXv IXIXIXIXIXIXp.IXIXIXIXIXIX",
"IXIXIXIXIXIXIXIXIXIXIXIXIXi.IXIXIXIXt.IXIXIXIXIXIXIXIXq.t.t.0XwX8X . . .7XeX8X6X . . .6X0XVXzXpXgXbXIX$ $ IX+.+.#.,.uXiX1.+.j * o + = a b t.v k H.F.e.l.i.d p s i s x d g V N 8.- o = & * 0 +.1.xXAXIXx x IXz.z.IXIXIXp v y.IXIXIXIXv IXIXIXIXIXt.y.IXIXIXIXIXIX",
"IXIXIXIXIXIXIXIXIXIXIXIXIXi.IXIXIXIXt.IXIXIXIXIXIXIXIXt.y.i.Y.9X7X . .| X.0X9X8X..7  . .9XVXaX<.K.2.IXO 1 IX#.+.o.#.,.2.2.:.@.P 9 ; % a v 7.N U G.j.r.l.p.d s d i p z v c : h c - # ; a a 9 r :.kXCXIXe.7.IXIXz.IXIXIXIXv q.IXIXIXIXv IXIXIXIXIX0.0.IXIXIXIXIXIX",
"IXIXIXIXIXIXIXIXIXIXIXIXIXi.IXIXIXIXt.IXIXIXIXIXIXIXq.y.i.p.k.Y IXIXIXl e.k.0XwX7 & > + ..tX0XH P _ W 3 w ,.:.+.e e +.$.>.1.K.<.+.4 & s d d I G.b.x.w.p.t.d z x p i s 8.n ; - g = @ q c c t e O.aXlXgXj.t.IXIXIXIXIXIXIXIXb IXIXIXIXIXIXIXIXIXIXb 7.8.IXIXp.IXIX",
"IXIXIXIXIXIXIXIXIXIXIXIXIXi.IXIXIXIXi.IXIXIXIXIXIXIXq.y.p.p.q.b IXIXIX7.0.y.0XrXI f & % | wX| & - 4 w 5 _ 3.1.$.e 9 e o.%.<.K.<.@.j s d f k -.P.b.p.q.p.t.z x b z p p 8.b = = = = ; q N g.+.e o.2.kXzXj.i.IXIXIXIXIXIXIXIXx IXIXIXIXIXIXIXIXIXIXv b 8.IXIXp.IXIX",
"IXIXIXIXIXIXIXIXIXIXc.IXIXi.IXIXIXIXl.IXIXIXIXIXIXIXIXi.p.IXIXIXIXIXIX9.9.9.0XtXF.F * * 7 | 7 & = 2 5 , $.iXfX1.+.9 0 y L P I I H c b v U <.#XL.h.r.q.l.i.x b 0.q.v i z x a - = % * j F.L.*.r e >.kXMXU.IXIXIXIXIXIXIXIXIXv IXIXIXIXIXIXIXIXIXIXIXIXIXIXIXIXIXIX",
"IXIXIXIXIXIXIXIXIXIXc.IXIXi.IXIXIXIXz.IXIXIXIXIXIXIXIXi.i.IXIXIXIXIXIXD m f 0XtXP.B.- & i a i & 2 1 , IXIXzXzXaX$.t 9 0 : a f f d b 0.n =.fXfX<.@.M 8.l.p.b 7.t.p.8.p i s f g - a p M L.kX2.+.e >.zXDXIXIXIXIXIXIXIXIXIXIXb IXIXIXIXIXIXIXIXIXIXIXIXIXIXIXIXIXIX",
"IXIXIXIXIXIXIXIXIXIXz.l.i.i.IXIXIXIXi.IXIXIXIXIXIXIXIXi.i.IXIXIXIXIXIXIXm f 0XtXF.) = & p p & * 5 3 , IXkXvXvXkX,.#.&.q % % p z z v 9.U -.uX<.@.G k 7.t.t.0.8.q.y.8.d & a f a g k c B hXvXiX#.o.uXcXFXAXIXIXIXIXIXIXIXIXIX7.0.IXIXIXIXIXIXIXIXIXIXIXIXIXIXIXIXIX",
"IXIXIXIXIXl.IXIXIXIXi.i.i.i.IXIXIXIX0.IXIXIXIXIXIXIXi.i.i.IXIXIXIXIXIXIXIXz 0XwXr 3 o & p i % = w w IX>.aXCXSXlX2.2.K.H % X i x v x c =.,.$.P k a c v v 7.y.q.7.8.7.x a * a i a g.e.e.hXCXsX$.#.kXDXFXCXkXIXIXIXIXIXIXIXIXIXt.y.IXIXIXIXIXl.IXIXIXIXd IXIXIXIXIX",
"IXIXIXIXIXl.IXIXIXIXq.y.i.i.q.IXIXb 7.IXIXIXIXIXIXIXi.i.i.IXIXIXIXIXIXIXIXf X.9X6 X = * i & % 3 W _ IX3.dXSXSXvXaXdXgX=.: # f 8.b z g =.*.L j i s v 7.d v i.q.b b 8.7.g - i i f j.s.r.hXMXhX*.;.kXDXJXZXjXIXIXIXIXIXIXIXIXIX0.0.IXIXIXIXIXl.IXIXIXIXd IXIXIXIXIX",
"IXIXIXIXt.l.IXIXIXIXIXIXi.i.b & & x 0.q.IXIXIXIXIXIXp.i.i.IXIXIXIXIXIXIX2 4 | | > % * % % % ; w Q / m.L.sXSXAXcXlXxXbXL.L 9 B i.0.z g H H j a i s 7.t.x x y.0.v n w.t.h - i i d s.a.s.NXMXG.F.>.dXSXJXBXBXIXIXIXIXIXIXIXIXIXx x IXIXp IXIXIXIXIXIXIXz IXIXz.IXIX",
"IXIXIXb 0.l.IXIXIXIXIXIXIXi.b p i v t.q.0.IXIXIXIXIXa.a.s.IXIXIXIXIXIXO , < 2 a & i & % o o 5 Q Q / m.L.zXSXSXSXSXZXvXiX;.L r.l.q.f - f z s i i f 0.p.b x q.0.b B w.y.f - & & d y.p.s.NXNXb.F.1.uXxXPXBX3XIXIXIXIXIXIXIXIXIXp p IXIXs IXIXIXIXIXIXIXv IXIXl.IXIX",
"IXIXIXx 8.p.z.IXIXIXIXIXIXi.q.b p b p.0.v IXIXIXIXZ.A.C.M.IXIXIXIXIXIXIX, < 2 - * - 4 2 3 < Q Q R / m.#XxXSXSXSXDXAXMXdX>.O.e.l.7.s * x b z p & a 8.i.v c 9.q.0.n n 8.g = % % a 0.y.s.NXHXU.P.2.1.kXPX4X5XIXIXIXIXIXIXIXIXIXIXIXIXIXs v IXIXIXIXIXIX8.v b 0.IXIX",
"IXIXIXd b i.l.z.p.IXIXIXIXIXv.l.d 7.z.7.p IXIXIXE./.:X:X/.F IXIXIXIXIXIXIX, < 5 2 5 W 5 w Q ^ ! < S M.$XcXSXSXSXDXDXCXdX4.&.e.t.x p p 7.0.b a - i v q.x f n u.i.n d s - o X X * b 0.r.NXPXMXgXuX:.aXHX-X X*X*X*XIXIXIXIXIXIXIXIXIXIXIX7.8.IXIXl.IXIXt.v d x IXIX",
"IXIXIXf v q.p.l.i.i.IXIXIXIXc.z.x 0.z.v & IXIXIX~.`.'.'./.( IXIXIXIXIXIXIX, < < 2 < E 5 w ^ ~ ! 1 S M.jXcXMXZXSXDXDXcXdX4.#.N 8.s i p 7.0.v g - i z 7.c a c w.y.b d i % o   $ = z b r.P.HXFXcXiX#.qXZX-X}..X=X2XIXIXIXIXIXIXIXIXIXIXIX8.8.IXi.i.IXy.y.b z v IXIX",
"IXIXIXIXc 9.q.i.i.i.t.n IXIXc.v.b q.z.v & i { ~.`.'.'._.W./ IXIXIXIXIXIXIXIXIXIX, < E 5 5 IX~ ! , S A.jXZXMXMXSXDXAXvXaX4.#.U n g * p b b h - = i d z p a s z b 7.x p & % O $ X s v 9.b.NXPXAXaXO.>.xXMX-X{.-XBXPXIXIXIXIXIXIXIXIXIXIXIXIXIX8.7.b q.y.b b y.IXIX",
"IXIXIXIXIXc 7.t.i.y.q.n c IXc.v.8.t.l.b i g { ~.'.'.].!.{ Z IXIXIXIXIXIXIXIXIXIX, < R 2 o IX~ ! 1 / {.mXMXmXbXSXDXSXlXpX:.+.H f - - p x c - = - p p p p p p i d 0.7.s p & = O X i z 8.l.U.PXDXdX+.$.kXHXmXC.$XSXFXJXIXIXIXIXIXIXIXIXIXIXIXIXv x v 0.y.7.0.z.IXIX",
"IXIXIXIXIXc b q.y.0.b n IXIXv.v.0.q.p.0.m / } &X'.`.Q.) / Z IXIXIXIXIXIXIXIXIXIX, 1 T , O IX~ ! / m.{.%X%X-XmXAXDXSXkXL.I G j * - - g c f : g c s i i s z s p d y.0.s z s = X % j M 8.p.U.PXDXdXr +.iXAXbXH.#XcXDXJXIXIXIXIXIXIXIXIXIXIXIXIX0.b v 0.y.8.0.z.IXIX",
"IXIXIXIXIXIXIXIXIXz s IXIX7.l.z.q.0.t.t.d.Q.&X@X:X/.F h h IXIXIXIXIXIXIXIXIXIXIX, 1 < , O IX~ { Z.{.}.}.}. XmXDXDXCXdXI f a - = = 4 V h a : B 0.c i p x b x d v l.q.s b x = % * L H 8.l.U.HXAXaXr r 2.cXbX-.3.kXcXDXJXIXIXIXIXIXb v x z 7.l.y.0.IXIXIX8.8.IXIXIX",
"IXIXIXIXIXIXIXIXIXIXp IXIX7.u.a.q.q.q.0.m./.&X&X`.Q.F f h IXIXIXIXIXIXIXIXIXIXIX, 1 1 , , IX~ { [. X+X{.{. XmXDXDXcXfXU d i % o 3 V V k j V n 0.z p d N e.n z v i.0.s 0.7.= % : L H 9.b.U.MXcXdX#.$.aXSXcX3.1.uXdXvXDXvXIXIXIXIXx b b z b i.y.0.IXIXIX7.q.IXIXIX",
"IXIXIXIXIXIXIXIXIXIXf c n 7.N N u.y.0.m { `.'.`.W.W.W.A ) '.IXIXIXIXIXIXIXIXIXIX< < 1 , , IX~ { |.=X$X}. X XmXAXSXxXpXU s i % + e G h C V V m 7.d d n F.F.D x v 8.v z i.q.%   = t H r.D.,X-XjXkX3.iXZXDXSXaX>.#.$.iXvXdXIXIXIXp s b t.x x y.y.8.d & i IXIXz.IXIX",
"IXIXIXIXIXIXIXIXIXIXc B n 7.C C u.i.9.Z T.].'./._ { ~.{ { '.IXIXIXIXIXIXIXIXIXIXT < < , , IXIXW..X-XdX+X}.|.mXSXCXzXK.U s & X # L H f H J J h z p s n L.L.F n v b x c i.u.:   + y k r.;X<X=X$XdXpXkXDXGXSXkX:.r o.>.sXaXuXIXIXi i 9.a.B c s.u.0.x s s IXIXz.IXIX",
"IXIXIXIXIXIXIXIXIXV f B n b m N a.u.F { ~.'./.} Z _ (.W.(.`._.IXIXIXIXIXIXIXIX1 T T T 1 IXIXIXQ.>X-XkX$X$X$XjXZXxXsX1.H i % X ; H N n I @.L k s i i k <.L.F n 7.8.n m q.r.C o   0 j n S.;X-X$X1.:.iXvXSXZXdX$.t +.,.iXiXIXIXIX& IXh.U.F.F.G.j.p.8.v x d 8.p.IXIX",
"IXIXIXIXIXIXIXIXE 5 a c B x 8.u.p.d.{ !.].'.Z.N A _ { !.~.~.).).~.!.!.IXIXIXIX, < R R IXIXIXIXIX<X2XzXgXdXgXbXcXzXiX,.H & X + : B 0.9.=.#.t j i - = ; $.-.F n 0.t.r.D n r.n.S   8 j x w.G.MXpX#.+.:.iXxXlXpX%.o.$.1.uXIXIXIXIXIXIXhXbXgXdXhXG.z.i.q.8.x v t.IXIX",
"IXIXIXIXIXIXIXIXE W V k m x 0.u.f.] E._.'.&Xn.n A { { /./.Q./.`.~.^.!.!.IXIX, 1 T R R IXIXIXIXIX1X4XjXkXsXkXxXxXsXuX*.G %   # j 9.q.w.=.#.q - % = o @ %.*.F B 9.s.d.D d.m.N.( 3 3 : M e.I.MXfX*.O.#.4.aXaX>.O.+.>.pXiXIXIXIXIXIXIXBXZXcXxXsXG.b.j.j.g.B x 0.t.IX",
"IXIXIXIXIXIXIXIXE Q W Z k v 0.w.] Q.).'.:XS.r.n / R.!.Q.[.[.@X:X/.^.!.!.IXIX, < R R R IXIXIXIXIX3X3X2XjXzXzXxXlXaX3.$.t ; $ % a 8.t.w.=.@.j % X o O IX#.&.P F d.d.n.n.N. X.XA.( 3 0 P F.fXvXgXL.>.$.$.1.>.#.+.#.uXsXsXuX4.2.@X,X3XBXZXSXxXiXL.I.I.L.F.M x 7.t.i.",
"IXIXIXIXIXIXIXIX^ ~ ^ W C n 0.r.{ ~.].'.&Xs.0.m { ^./.Z.M.{.*X>XQ.E./.!.!.IXIX< R R R IXIXIXIXIX3X3X4XmXbXlXlXkXiX>.#.e @ # % d 0.t.r.=.L * X   + + IX@.+.o.A D m.m.m.}.*XXX XM.Z 9 &.#XgXlXjX$X#X>.$.:.$.o.+.:.dXlXlXiX3.#X@X,X3XBXxXcXzX3.1.2.iXfXL.U v b q.i.",
"IXIXIXIXIXIXIXIXE.R.~ Q J C w.s.{ ).'.&XM.r.D / ! W.[.M.N.{.5X>X[.Q.&X[.[.IXIXIXIXIXIX;.IXIXIXIX<X1X3X2XmXbXzXdXyX:.+.9 @ # * z 0.r.h.@.t % X   $ + IXH H o.A D n.m.m.}.oXD.oX{.( J O.$X%XkXfX#XuX2.1.>.$.+.#.2.zXcXvXkXfXpX%X,X<X%XiXkXaX:.%.>.iXP.G.r.7.b 0.IX",
"IXIXIXIXIXIXIXIX~.^.{ { _ _ s.a.} ).'.[.f.n / { ^ } [.M.N.}.>X>XA.{..X}.[.IXIXIXIXIXIX1.1.IXIXIX>X<X3X1X2XbXzXaX1.%.r 0 # @ a x 0.h.-.#.y X .   # @ IXv M L A D d.n.m.{.D.x.D..XM.` _ +X%XfXuX2.2.iXaX2.:.#.,.aXvXZXcXvXzXpX%X,XXXOX;.yX2.&.o.#.pXI.x.i.0.7.IXIX",
"IXIXIXIXIXIXIXIX).!.R.{ { { f.x.Q.).`.N.s.M { E.~ } [.[.[.@X>X>X}. X.X|.[.IXIXIXIXIXIXpX1.IXIXIXXX,X1X<X2XjXgXpX*.P q ; # ; G U g.F.:.+.0   . X 4 Z IXq.B L K F n.d.n.S.b.v.D.,X{.' J H.$X#XuXpX2.pXdX2.:.:.2.kXvXcXcXSXxXiX%X*X{.B.O.;.,.=._ &.uXI.s.a.t.0.q.IX",
"IXIXIXIXIXIXIXIXIX!.^.R.T.{ f.x./._.`.S.u.K W.^.R.W./././.:X:X:X>X.X}.&X/.^ IXIXIXIXdXdX1.e Z.*X.XXX,X,X=XjXdXK.I k * = # 8 @.<.L.<.$.G *   . = F ( IXl.w.q _ [ n.d.r.s.x.z.oX1X*Xm.j =.K.4.iXdX1.2.iX>.:.>.aXlXxXbXvXSXcXaX+X XN.] o.o.=.Z.-.$.qXL.h.s.i.y.i.p.",
"IXIXIXIXIXIXIXIXIXIX^.E.T.R.m.b./.]./.f.r._ (.~.E.E.~.~.`.'.'.:X>X.X[./.!.^ IXIXIXIXdXdX1.r Z.XX X XXXXX=XhXfX<.M p * o # 9 $.uXpX1.&.j % X . = ( IXIXl.r.q 6._ ( d.9.u.a.x.;X3X<XZ.j @.>.*.K.iX:.:.1.:.$.1.dXzXkXkXzXZXxXiX$X+XA.] @._ } |.OX-.#X2.*.g.u.y.i.l.",
"IXIXIXIXIXIXIXIXIXIXR.E.E.E.} Z.)._.).d.B { E.^.E.T.T.~.].'.'.'.:X&X/.!.E.! IXIXIXIXdXdX3.O.Z.}.N.{..X.X=XhXpX,.k i - o @ e :.uXyX>.o.: X O   O ( IXIXN M q G H S m d.f.f.D.*X3X3XOXG #.*.` =.$.+.O.$.#.#.:.uXdXaXdXsXzXdX3.$XmX$XH.OXOX+X*X@X+X@X$XuX=.e.0.t.IX",
"IXIXIXIXIXIXIXIXIXIX~ R.E.E.W.W.)._./.F m ! T.E.R.^ E ^._.'.'.].~.~.~.R.~ ! IXIXIXIXsXaX3.%.Z.N.m.N. X X+XfXuX*.j * ; # @ t :.uX1.$.t # X o X X IXIXIX: q e j a X - d.m.N. X*X1X3X@XL #.=.F K e 9 t +.+.+.#.>.uXuXpXiXaX2.:.gXZXgX$X=X>X<X<X>X*X*X%XdX,.I v IXIX",
"IXIXIXIXIXIXIXIXIXIX~ T.R.E.R.R.~./.Z.F C Q ^ ~ ! R < R.).].'._.^.E.E.^ E E IXIXIXdXdXiX1.%.] M.m.M.N.}.$XiX2.*.G : u $ @ o.,.2.,.O.9 + . O * p IXIXIX@ u y P H $ = F n.M.{..X,X3X@XQ #.-.H.=.o.y e t r o.+.$.>.1.2.2.2.1.:.nXAXcXjX-X1X3X1X,XXX.X%XaX>.@.B IXIX",
"IXIXIXIXIXIXIXIXIXIXIX~ T.E.{ { ^.Z.b.U J / W R < , 1 ~ ~.].].).T.! E E R IXIXIXiXaXdXuX:.O.` m.N.M.m.H.#XpX1.#.t 8 @   @ O.>.1.$.o.0 + . X c t.IXIXIX+ # 9 @.*.@   4 F m.N.A..X<X+Xr &.K.bXgX>.o.e e t r +.O.$.,.>.>.1.>.,.dXZXAXvXjX4X3X1X,XXX XOX2.>.%.IXIXIX",
"IXIXIXIXIXIXIXIXIXIXIX~ R.E.{ Q E.M.z.U _ J W R 1 1 R ~ !.).).!.~ E R T T IXIXIX2.uX2.>.%.o.K n.N.M.V.L.uX2.>.&.e 8 # % : #.>.>.O.e 8 + . . n x.IXIXIX# # 8 #.,.: X ; C ( m.M.}.=XOXO.%.#XSXxXqX#.t e e t r o.O.:.:.$.:.:.,.K.NXHXvXhX2X1X,X>X.X{.Z.>.:.$.IXIXIX",
"IXIXIXIXIXIXIXIXIXIXIX(.^.E.^ Q R.m.v.] ^ _ { ~ E E ~ E.^.~.^.E.^ E R R IXIXIXIX:.$.#.#.+.t C d.m.C.L.K.2.3.:.+.9 @ + d N *.>.:.o.9 @ #   . m f.IXIXIX9 8 8 +.*.k g 9 4 S ) [ H.$X#X>.H.$XvXkX2.:.+.e 9 e e t o.%.#.O.#.$.$.G.U.MXjX+X=X*X.X.X XN.B.:.$.#.IXIXIX",
"IXIXIXIXIXIXIXIXIXIXIX~.~.E.! Q ~ m.x.} ~ _ { E.~ R.~.~.^.E.T.~ ! E E IXIXIXIXIXO.o.e r r 9 C D n.H.fX2.>.>.$.r 8 # ; w.j.*.:.$.t 0 # # + o F m.IXIXIXr e 8 r @.N M e 3 3 t +.*.1.yX#XH.+XkXpX,.4.#.y 0 9 y e r +.+.L +.O.O.g.b.hX$XA.{.}.{.{.{.M.] %.#.O.IXIXIX",
"IXIXIXIXIXIXIXIXIXIXIXIX!.R.! Q T.} f.} R.{ E.~.E.~.).~.R.^ E E E E E IXIXIXIX1.$.o.9 e 9 8 K ' ` -.iX4.$.#.+.e @ 3 ` D.D.-.;.#.e @ # + 3 ) ( m.IXIXIX#.r 0 e @.h.I e 8 8 y 6.O.;.1.2.H.OXdX>.O.$.+.0 8 0 9 9 e t e e 6.o.r N e.L.L.Z.A.N.M.N.N.m.' O.O.IXIXIXIX",
"IXIXIXIXIXIXIXIXIXIXIXIXIXR.! Q R.W.{ W.E.{ E.~.~.)._.^.~ R T < < < IXIXIXIXIX2.>.#.e 9 @ # @.-.@.*.1.;.+.r t 9 # Z }.,X-X<.%.+.0 # # $ Z [.N.n.IXIXiX>.+.9 e O.L.*.e y e y e o.O.;.>.<.K.fX$.e o.e @ @ 8 0 9 9 0 0 9 e t 9 q G @.%.-.Z.M.m.m.m.d.K _ IXIXIXIXIX",
"IXIXIXIXIXIXIXIXIXIXIXIXIXT.! E T.T.~ E.E.R.E.^.!.).).R.E < 1 1 1 IXIXIXIXIX$X#X<.&.e 8 # # &.1.%.;.1.$.6.e 9 8 # /  X1X2X-.O.L 8 # +   / |.A.n.IXzXdX2.$.r e +.2.4.+.t t e r o.+.#.:.1.pXsX1.+.e e e 8 # @ 8 8 # # 8 9 9 9 0 9 r +.@.V.n.d.d.D D C r IXIXIXIXIX",
"IXIXIXIXIXIXIXIXIXIXIXIXIXIX! E E ^ T.R.E.R.E.E.E.E.E.! < IXIXIXIXIXIXIXIX*X@XOXB.) 9 @ # + +.4.:.1.qX$.r 9 8 # + / {.<X2X*.L j ; # +   Z }.N.IXfXzXzXaX1.O.t o.>.1.,.+.e o.&.#.+.#.,.yXsXvXvXpXe t :.e + # # # # # @ 8 0 9 9 y r P K F d.D D D D F IXIXIXIXIXIX",
"IXIXIXIXIXIXIXIXIXIXIXIXIXIX! E T E ~ R.E.R.R.~ ~ ~ ^ < , IXIXIXIXIXIXIXIX*X.X{.m.A 8 @ # ; _ :.,.2.pX;.o.t 9 0 0 ) {.,X@X&.j * ; # # # Z N.IXIXsXzXlXdX2.#.t e O.1.uXO.e +.$.:.#.$.1.iXxXDXJXcXo.#.iXo.+ # # + + # # @ 8 9 9 e r K D D D D D D D D IXIXIXIXIXIX",
"IXIXIXIXIXIXIXIXIXIXIXIXIXIXIXE R E ^ R.E.T.~ E E E R 1 IXIXIXIXIXIXIXIXIX*XXX{.m.C 8 @ 5 ) _ &.$.4.2.:.%.$.$.$.:.-.OX*X+X_ ; % o $ # / } N.IXIXsXkXdX2.;.+.e 0 e :.uX#.t o.#.:.:.,.uXdXvXDXKXDX1.1.aX#.0 @ # + + # # # @ 8 8 0 e A D D D D D D D IXIXIXIXIXIXIX",
"IXIXIXIXIXIXIXIXIXIXIXIXIXIXIXIXE E E T.E.~ E R T < 1 IXIXIXIXIXIXIXIXIXIXIXIXIXIXIXIXIXIX[.[ t +.$.,.,.4.uXaXsXkXdX#X@X[.L # X + $ ; Z..XIX-.3.dXaX3.#.t e 8 # 8 #.2.$.o.t +.;.>.2.iXsXvXAXGXDXlXdXiX:.r 0 @ IX+ + # IXIX# # # 0 V D D D D D D IXIXIXIXIXIXIXIX",
"IXIXIXIXIXIXIXIXIXIXIXIXIXIXIXIX! E R T.E.~ E < < , , IXIXIXIXIXIXIXIXIXIXIXIXIXIXIXIXIXIX X[ y r O.#.:.1.iXsXzXzXaX#XOXZ.t @ $ + 3 / }.,XIXOX#XpXqX,.o.9 8 # + u %.iX1.O.e 6.#.:.1.uXaXzXcXSXSXvXsX2.$.o.9 IXIX+ + + IXIX+ + # u V D D D D D D IXIXIXIXIXIXIXIX",
"IXIXIXIXIXIXIXIXIXIXIXIXIXIXIXIXIXIXIXIXIXIXIXIXIXIXIXIXIXIXIXIXIXIXIXIXIXIXIXIXIXIXIXIXIXIX_ 9 r o.o.O.$.3.pXpX2.>.:.-.-.o.y @ + / [.|.IX X@X+X-.:.:.6.0 @ + + y 1.xXiX$.r t o.#.$.,.2.iXkXxXxXkXpX:.+.t IXIXIXIXIXIXIXIXIXIXIXIXIXIXIXIXIXIXIXIXIXIXIXIXIXIXIX",
"IXIXIXIXIXIXIXIXIXIXIXIXIXIXIXIXIXIXIXIXIXIXIXIXIXIXIXIXIXIXIXIXIXIXIXIXIXIXIXIXIXIXIXIXIXIX0 9 r t e r #.,.1.1.$.#.#.$.#.+.t 0 # [ .XIXIX XXX+X_ O.$.r 0 3 3 0 @.fXcXaX:.O.t e r +.&.:.1.iXdXdXpX,.O.e 9 IXIXIXIXIXIXIXIXIXIXIXIXIXIXIXIXIXIXIXIXIXIXIXIXIXIXIX",
"IXIXIXIXIXIXIXIXIXIXIXIXIXIXIXIXIXIXIXIXIXIXIXIXIXIXIXIXIXIXIXIXIXIXIXIXIXIXIXIXIXIXIXIXIXIXIX9 9 9 9 t #.>.pXiX1.:.$.%.O.6.e 8 u [ XX<X,XXX.X{._ e r 0 3 / ` } OXjXkX1.$.,.+.9 9 e r #.:.1.2.2.,.#.t 9 8 IXIXIXIXIXIXIXIXIXIXIXIXIXIXIXIXIXIXIXIXIXIXIXIXIXIXIX",
"IXIXIXIXIXIXIXIXIXIXIXIXIXIXIXIXIXIXIXIXIXIXIXIXIXIXIXIXIXIXIXIXIXIXIXIXIXIXIXIXIXIXIXIXIXIXIXIX8 8 9 t #.1.dXzXdXuX,.$.+.e 0 u 0 [ .X,X<X*X{.M.J 0 8 # 4 M.}.=X4X2XQ.+.O.uX$.9 8 0 9 o.#.$.:.$.+.t 9 8 @ IXIXIXIXIXIXIXIXIXIXIXIXIXIXIXIXIXIXIXIXIXIXIXIXIXIXIX",
"IXIXIXIXIXIXIXIXIXIXIXIXIXIXIXIXIXIXIXIXIXIXIXIXIXIXIXIXIXIXIXIXIXIXIXIXIXIXIXIXIXIXIXIXIXIXIXIX# @ 8 e +.,.iXdXaX2.:.$.+.t 9 8 0 } .X,X>X.XN.( 4 @ # 3 / A.XX<X3X%X:.e r >.#.9 8 8 0 e 6.+.+.+.e 9 8 @ # IXIXIXIXIXIXIXIXIXIXIXIXIXIXIXIXIXIXIXIXIXIXIXIXIXIXIX",
"IXIXIXIXIXIXIXIXIXIXIXIXIXIXIXIXIXIXIXIXIXIXIXIXIXIXIXIXIXIXIXIXIXIXIXIXIXIXIXIXIXIXIXIXIXIXIXIXIX# # 0 t #.,.>.,.:.$.%.&.o.t y 8 } >X*X.XA.M.F 3 + @ / M.{.*X<X<X+XO.9 9 t t IX9 0 @ 0 9 e e e 0 @ # # IXIXIXIXIXIXIXIXIXIXIXIXIXIXIXIXIXIXIXIXIXIXIXIXIXIXIXIX",
"IXIXIXIXIXIXIXIXIXIXIXIXIXIXIXIXIXIXIXIXIXIXIXIXIXIXIXIXIXIXIXIXIXIXIXIXIXIXIXIXIXIXIXIXIXIXIXIXIXIX# @ 9 o.+.+.+.+.O.#.O.+.r e q Z.>X.X{.M.m.F ; # 4 M.{. X>X<X*XZ.r 0 @ # IXIXe 9 @ @ @ 8 8 8 @ # # IXIXIXIXIXIXIXIXIXIXIXIXIXIXIXIXIXIXIXIXIXIXIXIXIXIXIXIXIX",
"IXIXIXIXIXIXIXIXIXIXIXIXIXIXIXIXIXIXIXIXIXIXIXIXIXIXIXIXIXIXIXIXIXIXIXIXIXIXIXIXIXIXIXIXIXIXIXIXIXIXIXIX0 9 9 e t r r 6.r t 9 w ` [..X{.M.m.n.IXIX4 ) N. X*X,X*X}.] 9 u #   IXIXIX9 @ @ @ @ # # # IXIXIXIXIXIXIXIXIXIXIXIXIXIXIXIXIXIXIXIXIXIXIXIXIXIXIXIXIXIXIX",
"IXIXIXIXIXIXIXIXIXIXIXIXIXIXIXIXIXIXIXIXIXIXIXIXIXIXIXIXIXIXIXIXIXIXIXIXIXIXIXIXIXIXIXIXIXIXIXIXIXIXIXIXIX# @ 0 9 e e 9 9 9 @ 4 Z.}.{.M.n.n.n.IXIX( m.{.XX,X,X.XM.A 8 # # IXIXIXIX0 8 8 8 @ # # IXIXIXIXIXIXIXIXIXIXIXIXIXIXIXIXIXIXIXIXIXIXIXIXIXIXIXIXIXIXIXIX",
"IXIXIXIXIXIXIXIXIXIXIXIXIXIXIXIXIXIXIXIXIXIXIXIXIXIXIXIXIXIXIXIXIXIXIXIXIXIXIXIXIXIXIXIXIXIXIXIXIXIXIXIXIX+ # @ 9 9 9 0 0 0 # 4 {. XN.m.d.n.IXIXIXIXN.{.XX<X,X.Xm.C 8 # + IXIXIXIXIX8 8 8 # # + IXIXIXIXIXIXIXIXIXIXIXIXIXIXIXIXIXIXIXIXIXIXIXIXIXIXIXIXIXIXIXIX"
};
