/* XPM */
static const char *bos2f4[] = {
/* columns rows colors chars-per-pixel */
"128 128 244 2 ",
"   c #0D0D0D",
".  c #141414",
"X  c #1A1614",
"o  c #1C1C1C",
"O  c #191817",
"+  c #18140D",
"@  c #231A0D",
"#  c #281C0E",
"$  c #381D0C",
"%  c #231C14",
"&  c #281B16",
"*  c #381B19",
"=  c #2F0B0B",
"-  c #2C220F",
";  c #2D2313",
":  c #2A241A",
">  c #332412",
",  c #3C2B16",
"<  c #382818",
"1  c #3A2813",
"2  c #1E1F20",
"3  c #1F2021",
"4  c #232324",
"5  c #2B2B2B",
"6  c #292726",
"7  c #352A27",
"8  c #3C3428",
"9  c #2E3232",
"0  c #333333",
"q  c #3B3B3B",
"w  c #3A3835",
"e  c #2D2F30",
"r  c #480505",
"t  c #580303",
"y  c #461919",
"u  c #571616",
"i  c #411E09",
"p  c #640101",
"a  c #6C0101",
"s  c #670C0C",
"d  c #730101",
"f  c #7B0101",
"g  c #750B0B",
"h  c #691616",
"j  c #771818",
"k  c #46240C",
"l  c #58290A",
"z  c #422D1B",
"x  c #462916",
"c  c #582C13",
"v  c #4B341C",
"b  c #47331A",
"n  c #54371D",
"m  c #5A310C",
"M  c #6D2B03",
"N  c #6A2805",
"B  c #732B00",
"V  c #762B00",
"C  c #7B3402",
"Z  c #793707",
"A  c #763A14",
"S  c #673710",
"D  c #482626",
"F  c #562525",
"G  c #473627",
"H  c #533B22",
"J  c #5A3E24",
"K  c #493A36",
"L  c #553838",
"P  c #682525",
"I  c #703131",
"U  c #784714",
"Y  c #5B4326",
"T  c #47433A",
"R  c #564934",
"E  c #6C4A29",
"W  c #664526",
"Q  c #734D2B",
"!  c #774C26",
"~  c #79522D",
"^  c #7B5634",
"/  c #6A5331",
"(  c #655126",
")  c #3D3F40",
"_  c #3F4142",
"`  c #444444",
"'  c #4B4B4B",
"]  c #494746",
"[  c #554A48",
"{  c #585549",
"}  c #4E5152",
"|  c #535354",
" . c #5B5B5B",
".. c #595857",
"X. c #4D514F",
"o. c #654646",
"O. c #675957",
"+. c #70564D",
"@. c #6A675B",
"#. c #786C50",
"$. c #5E6161",
"%. c #636363",
"&. c #6C6C6C",
"*. c #676868",
"=. c #766A67",
"-. c #737373",
";. c #7B7C7C",
":. c #777878",
">. c #71736E",
",. c #5A5A6C",
"<. c #840101",
"1. c #8C0101",
"2. c #870B0B",
"3. c #940101",
"4. c #9C0101",
"5. c #950B0B",
"6. c #8A1515",
"7. c #A20000",
"8. c #AB0101",
"9. c #A70909",
"0. c #B30101",
"q. c #BB0404",
"w. c #B31C1C",
"e. c #823C05",
"r. c #843A03",
"t. c #933434",
"y. c #A92E2E",
"u. c #C30000",
"i. c #CA0202",
"p. c #D70101",
"a. c #CA1414",
"s. c #E80000",
"d. c #F70000",
"f. c #E31B1B",
"g. c #CD2C2C",
"h. c #864207",
"j. c #894509",
"k. c #8D4A0B",
"l. c #874409",
"z. c #914D0B",
"x. c #94520E",
"c. c #9B570D",
"v. c #8C5516",
"b. c #965511",
"n. c #9B5C13",
"m. c #975A15",
"M. c #884B14",
"N. c #9C6318",
"B. c #83601D",
"V. c #A66C1A",
"C. c #A46717",
"Z. c #AB731C",
"A. c #AD781E",
"S. c #B17A1D",
"D. c #865934",
"F. c #8E5930",
"G. c #98653B",
"H. c #916F29",
"J. c #AA7823",
"K. c #AB762D",
"L. c #8F4E4C",
"P. c #AF4F4F",
"I. c #916E4C",
"U. c #A66C43",
"Y. c #B77649",
"T. c #AC7046",
"R. c #8D7470",
"E. c #AF7371",
"W. c #CB4E4E",
"Q. c #C7756B",
"!. c #7D816D",
"~. c #B48323",
"^. c #B88A27",
"/. c #BC932B",
"(. c #AF8C32",
"). c #A38631",
"_. c #C2982D",
"`. c #C49D33",
"'. c #CAA636",
"]. c #D4B43D",
"[. c #8F8456",
"{. c #A88E4E",
"}. c #B7AC53",
"|. c #958678",
" X c #A88D6F",
".X c #CC8455",
"XX c #D7BA42",
"oX c #C3AF4B",
"OX c #C7B87A",
"+X c #DDC347",
"@X c #E9D856",
"#X c #E2CB4C",
"$X c #F1E45C",
"%X c #CBC668",
"&X c #FBF66A",
"*X c #F8F26B",
"=X c #3737A1",
"-X c #797986",
";X c #59599D",
":X c #4444CA",
">X c #7D8282",
",X c #848484",
"<X c #8B8B8B",
"1X c #878788",
"2X c #8D9191",
"3X c #949494",
"4X c #9C9C9C",
"5X c #969798",
"6X c #938D8B",
"7X c #A69A97",
"8X c #B59999",
"9X c #B09289",
"0X c #AEA698",
"qX c #9899A5",
"wX c #9DA1A1",
"eX c #A3A3A3",
"rX c #ABACAC",
"tX c #A8A8A6",
"yX c #B6A9A8",
"uX c #B4B4B4",
"iX c #BBBBBB",
"pX c #B7B7B7",
"aX c #AFB1B0",
"sX c #C38E8E",
"dX c #C2B8B6",
"fX c #C6C3B0",
"gX c #CDC998",
"hX c #ACACC6",
"jX c #BCC3C3",
"kX c #C3C3C3",
"lX c #CCCCCC",
"zX c #C5C9CA",
"xX c #D3D3D3",
"cX c #DBDBDB",
"vX c #D5D8D9",
"bX c #CDD1D1",
"nX c #E3E4E4",
"mX c #ECECEC",
"MX c #E6E8E8",
"NX c #F0F0F0",
"BX c #EFF0F0",
"VX c #DDE0E0",
"CX c None",
"ZX c black",
/* pixels */
"CXCXCXCXCXCXCXCXCXCXCXCXCXCXCXCXCXCXCXCXCXCXCXCXCXCXCXCXCXCXCXCXCXCXCXCXCXCXCXCXCXCXCXCXCXCXCXCXCXCXCXCXCXCXCXCXCXCXCXCXCXCXCXCXCXCXCXCXCXCXCXCXCXCXCXCXCXCXCXCXCXCXCXCXt t t t p a d f <.1.3.4.7.8.0.u.i.p.s.s.s.s.d.d.CXCXCXCXCXCXCXCXCXCXCXCXCXCXCXCXCXCXCXCX",
"CXCXCXCXCXCXCXCXCXCXCXCXCXCXCXCXCXCXCXCXCXCXCXCXCXCXCXCXCXCXCXCXCXCXCXCXCXCXCXCXCXCXCXCXCXCXCXCXCXCXCXCXCXCXCXCXCXCXCXCXCXCXCXCXCXCXCXCXCXCXCXCXCXCXCXCXCXCXCXCXCXCXCXE.L.L.I I t.t.t.t.t.t.t.t.t.y.y.y.w.q.u.i.p.p.p.p.p.CXCXCXCXCXCXCXCXCXCXCXCXCXCXCXCXCXCXCX",
"CXCXCXCXCXCXCXCXCXCXCXCXCXCXCXCXCXCXCXCXCXCXCXCXCXCXCXCXCXCXCXCXCXCXCXCXCXCXCXCXCXCXCXCXCXCXCXCXCXCXCXCXCXCXCXCXCXCXCXCXCXCXCXCXCXCXCXCX;.;.<X5XeXtXuXiXkXkXlXlXlXlXlXkXdXpXuXyXyXyXyXyXyXtX7X7X7X7X7XE.L.t.5.4.7.8.0.0.u.i.p.s.s.s.CXCXCXCXCXCXCXCXCXCXCXCXCXCX",
"CXCXCXCXCXCXCXCXCXCXCXCXCXCXCXCXCXCXCXCXCXCXCXCXCXCXCXCXCXCXCXCXCXCXCXCXCXCXCXCXCXCXCXCXCXCXCXCXCXCXCXCXCXCXCXCXCXCXCXCXCXCXCXCXCXCX>X2X2X5XeXrXuXiXkXlXxXxXxXcXcXcXcXcXcXVXVXcXcXcXcXvXvXbXbXzXjXjXpXrX7XE.L.L.L.t.t.6.5.7.8.u.p.p.s.d.CXCXCXCXCXCXCXCXCXCXCXCX",
"CXCXCXCXCXCXCXCXCXCXCXCXCXCXCXCXCXCXCXCXCXCXCXCXCXCXCXCXCXCXCXCXCXCXCXCXCXp a a f <.1.3.4.4.7.7.7.7.7.8.0.0.u.i.p.p.s.s.d.d.s.g.P.R.1X5XtXuXjXlXxXxXcXcXcXnXMXMXMXMXMXmXmXmXmXmXmXmXmXmXmXmXnXcXvXxXlXkXdXiXyXeX6XR.=.o.P s f 3.8.q.p.s.d.d.CXCXCXCXCXCXCXCXCXCX",
"CXCXCXCXCXCXCXCXCXCXCXCXCXCXCXCXCXCXCXCXCXCXCXCXCXCXCXCXCXCXCXr r t t p a a a a d d d d d a a a a d d f f <.1.3.4.7.8.0.u.i.p.a.g.g.P.E.yXpXjXzXxXxXcXcXnXnXnXMXMXMXmXmXmXBXNXNXNXNXNXNXNXmXmXMXnXcXcXxXxXlXkXiXrX4X1X=.O.L P h f 3.0.p.s.d.d.d.CXCXCXCXCXCXCXCX",
"CXCXCXCXCXCXCXCXCXCXCXCXCXCXCXCXCXCXCXCXCXCXCXCXCXCXCXCXCXCXu u u h h h j j j j j j j P P P P P P P P P P j j j j j j 2.2.4.7.0.i.p.f.W.E.8XyXdXkXlXxXvXcXcXcXcXnXnXMXmXmXmXmXmXmXmXmXmXmXmXmXmXMXMXnXnXcXxXlXkXiXuXeX2X:.%.[ F u a 1.0.i.s.d.d.d.CXCXCXCXCXCXCX",
"CXCXCXCXCXCXCXCXCXCXCXCXCXCXCXCXCXCXCXCXCXCXCXCXCXCXCXCX] } { O.O.=.R.R.R.E.9X9X9X8X8XyXyXyXyXyXyXyXyX8X8X9X6XR.R.R.=.+.I h a f 1.4.9.a.g.W.Q.sXiXjXzXlXxXxXxXvXcXcXnXMXMXmXmXmXmXmXmXmXmXmXmXmXmXmXmXmXMXnXcXxXlXkXpXeX3X;.*.' G F h 2.8.u.p.s.d.CXCXCXCXCXCXCX",
"CXCXCXCXCXCXCXCXCXCXCXCXCXCXCXCXCXCXCXCXCXCXCXCXCXCX] ' ..$.&.;.1X3X4XtXuXiXzXbXvXcXnXMXmXmXBXBXBXmXMXnXcXbXkXpXrXeX5X,X=.L F u s a <.4.0.a.g.W.sXsXdXkXzXbXxXxXxXcXcXnXnXMXmXmXmXmXmXmXmXNXNXmXmXBXBXmXmXMXnXcXvXxXkXuXeX3X;.*.| K F s <.7.u.p.s.d.CXCXCXCXCXCX",
"CXCXCXCXCXCXCXCXCXCXCXCXCXCXCXCXCXkXlXxXMXmXxX4X&.] ] ..&.-.,X3X4XtXuXiXkXlXxXcXnXmXmXmXmXmXBXBXmXmXmXMXnXcXxXlXzXkXpXtX5XR.=.o.F r t p d 1.9.a.g.W.Q.yXjXzXbXxXxXcXcXcXnXMXMXmXMXmXmXmXmXmXmXmXmXmXmXmXmXmXMXnXcXxXlXkXuXeX3X>X&...L u p <.7.u.p.s.d.d.CXCXCXCX",
"CXCXCXCXCXCXCXCXCXCXCXCXCXCXCXCXxXzXkXiXuXtX5X;.%.....&.;.,X3XeXtXuXiXkXlXxXcXcXnXMXmXmXmXmXmXmXmXmXMXMXnXcXcXxXxXlXlXiXuXeX<X=.[ D y r t p f 4.0.w.g.Q.sXsXdXzXbXbXxXcXcXnXnXMXnXMXMXMXmXmXmXmXmXmXmXmXmXMXMXcXcXxXlXkXiXtX4X<X-.O.[ D u s <.7.u.p.d.d.d.CXCXCX",
"CXCXCXCXCXCXCXCXCXCXMXMXMXMXnXcXlXiXeX<X&.| ] ' ..*.&.;.,X3X4XeXrXuXiXiXkXlXxXxXcXcXnXnXnXcXcXcXcXcXcXcXcXcXxXxXxXlXlXkXiXuXeX<X&.| K D r r t p d 3.q.a.g.W.9XyXiXkXlXxXxXcXcXcXcXcXcXcXnXnXMXMXMXMXMXMXMXnXcXcXxXlXzXiXuXtX4X<X;.&. .] K F g 1.8.i.s.s.d.CXCXCX",
"CXCXCXCXCXCXCXCXmXmXmXmXcXlXuX4X,X&...] ` q ` ' $.&.;.,X<X3X5XeXtXrXuXuXiXkXlXlXxXxXcXcXcXcXcXxXxXxXxXxXxXxXlXlXlXlXkXkXdXiXrX5X;.*...[ L D y r t d 3.8.q.g.g.W.Q.sXdXzXlXlXxXxXxXcXcXcXcXcXcXVXnXnXnXnXnXcXcXxXlXlXkXiXuXtX4X<X,X-.$.} ] F h f 3.0.i.p.p.CXCXCX",
"CXCXCXCXCXCXCXlXlXcXMXMXxXuX<X*.] 5 o o 5 ) ' ..*.>.;.,X,X<X5X5X4XeXeXtXrXuXiXkXkXlXlXxXxXlXlXlXlXkXkXkXkXkXkXkXkXkXiXiXiXuXtX5X,X-.*.$...[ K y r t a <.4.q.p.f.W.sXyXiXjXkXlXlXlXxXxXxXxXxXxXxXcXcXcXcXcXxXxXlXlXkXiXuXrXeX5X<X,X-.*...' L u a f 4.0.q.u.CXCXCX",
"CXCXCXCXkXuX5X,X,X5XiXxXxXiX5X-.| w 4 4 0 ` ' ..%.&.-.-.;.,X<X2X5X5X5X4XeXeXtXrXuXuXiXiXiXiXiXuXuXuXuXuXuXuXuXuXuXuXuXrXtXeX4X<X;.-.*.%. .| ] K G F u a <.7.u.a.W.E.eXaXpXiXjXkXkXkXkXkXkXlXlXlXlXxXxXxXlXlXkXkXiXiXuXrXeX4X3X<X;.-.&.$.[ L u t a 1.7.0.u.p.s.s.",
"CXCXCXrXtX4X<X-.&.,XrXlXxXlXuX5X-.] 0 5 w ` ] | ..$.*.&.>.-.;.-X,X,X<X<X<X3X5X5X4X4XeXeXeXeXeXeXeXeXeXeXeXeXeXeXeXeX4X4X5X5X<X,X:.&.*. ..... .| } L u t a <.7.9.y.P.E.9XyXaXuXpXiXiXiXiXiXiXkXkXkXkXkXkXkXiXiXiXuXuXrXeX4X5X<X,X;.>.*.%...L D r t f 3.8.u.p.p.s.",
"CXCXCX&.&.-.,X5XtXuXkXlXxXcXxXkX3X..0 6 5 q ` ] ' .... .%.*.*.&.&.>.-.-.;.;.;.,X,X,X<X<X<X<X<X3X3X3X3X3X3X3X3X3X3X<X<X,X,X,X;.-.&.*.%. .....$.%.%.[ F t t d <.4.9.a.g.W.E.7XeXrXrXuXuXuXuXuXuXuXpXiXiXpXuXuXuXrXrXtXeXeX4X3X<X;.-.&.*. .| ] w 7 y s <.4.0.i.p.p.",
"CXCXCX3X,X<X4XuXzXlXkXjXkXxXxXkX3X..5 4 6 0 w q ` ] ] ' ' | .......... . .%.*.*.&.&.&.-.-.-.-.;.;.;.;.;.;.;.;.;.-.-.-.>.&.&.&.%. .....| | ..%.&.>.O.L F u s d 1.8.u.p.g.P.E.5XwXeXeXeXtXtXtXtXrXrXrXrXtXtXeXeXeXeX4X5X5X3X<X,X-.&.%. ...' _ 0 e D u d 3.8.q.i.p.",
"nXcXxXlXkXiXiXkXkXiXuXrXtXrXrX4X-.] 6 o o 6 5 0 w q q q q ` ` ] ] ] ] ] ] ] ' | .... . . .%.%.*.*.*.*.%. . . . . ...........| ' ] ] ] ] ] '  .>.:.&. .' L u s f 4.0.u.w.P.R.1X2X3X5X5X5X5X4X4XeXeXeXeXeX4X4X5X5X3X6X<X,X,X;.-.&. ...| ] ` q e 5 * u a <.4.0.q.u.",
"cXxXxXlXkXiXuXaXtXwX3X1X,X>X;.&.| 0 o O o o 4 6 5 5 0 0 w w q q q q q q ` ] ] |  .*.&.>.-.-.&.*.%...| ] ` ` ` ` ] ] ] ] ] ` q q w w w q ] | *.-.;.:.&. .[ F h d 1.8.q.w.L.R.-X1X<X<X6X3X3X3X5X5X5X5X5X5X5X5X3X<X<X,X;.-.-.&.%. ...| ' ] ` w e 6 * u a <.3.7.8.0.",
"lXzXiXuXeX5X6X1XR.-.*.O...} ] q 0 4 O O O o o o 4 4 6 5 5 0 w w q q q ` ] .. .&.;.,X<X5X5X3X<X;.&. .' q w 0 0 0 0 w w w w 0 e 5 5 5 q ]  .*.&.-.;.-.>.*.o.I h d 1.7.8.w.L.=.;.>X>X,X,X<X<X<X<X3X3X5X5X5X3X<X<X,X,X;.-.&.%. ...| | ' ] ] ` w e 6 * u d <.3.3.4.4.",
"uXaXeX2X:.*.O.o.I P P P F D 7 6 4 o o o O o o o o o 3 4 6 5 0 q ` ' ..*.-.,X<X5XeXrXuXiXkXiXiXrX4X<X-...] q 5 5 6 6 5 5 6 6 5 e q ] ..-.<X<X,X&.*.%.&.&.O.I j f 1.7.8.w.L.=.-.-.-.;.;.>X,X,X,X<X<X<X<X<X,X,X;.-.-.&.*.%.....' ] ] ` ` q q 0 5 6 y s <.3.3.1.1.1.",
"5X3X,X&.[ L F u t p s s u y & o o o o o o o o o o o 4 4 5 0 q ] ..*.-.,X3X5XeXtXrXuXiXkXlXxXxXlXkXuX4X,X&...] w 5 5 5 5 5 5 w ] ..&.,X5XeXeX,X%.' '  . .+.I j <.3.7.9.w.L.=.-.-.>.-.-.;.;.;.,X,X,X,X,X;.;.-.&.&.&.*.*.*.&.*.%. ...| ' ] q 0 5 6 y g 3.7.3.<.f d ",
":.-.O.o.F u t p a h P L [ L CXCXo 4 6 6 5 5 5 5 5 5 5 0 q ]  .&.;.,X,X,X,X,X,X,X,X<X<X5XeXuXiXlXlXlXkXiXtX3X;.%.| ] q q ` '  .-.<X4XeXeX4X<X-..._ 0 9 0 D u g 1.3.4.9.y.L.R.<X,X:.-.-.-.;.;.;.;.;.;.-.-.-.&.&.*.*.&.-.,X5XeXeX4X3X,X-.*..._ 9 5 y g 3.4.1.d p p ",
" ...[ F s p s h h I o...$.CXCXCXCX4 6 5 0 q q q ` ` ] ' ..%.-.;.;.;.-.&.%. ...........*.-.;.<X4XtXuXiXjXiXuXeX3X,X;.-.&.-.;.<X5XeXtXeX5X,X&...] 0 7 * * r t d <.1.1.5.t.R.7X4X2X;.-.-.-.-.-.-.-.-.&.&.&.*.%.%.*.-.;.,X3X5X4X5X3X,X:.*. .' K D u h 2.3.3.f p t t ",
"} ' L P s s P L o...CXCXCXCXCXCXCXo o 6 0 q ] |  .*.&.-.:.-.>.*. .' ` w 0 5 5 6 6 6 5 5 0 q ] | %.-.,X5XeXrXuXiXiXiXuXuXuXrXtXeXeX5X<X-.%.' _ 0 7 y u g d d a a a d g t.R.7XeX5X,X-.&.&.*.*.*.*.*.%.%. .......&.,X4XeX<X-...] q 0 5 4 6 7 u 2.9.9.4.1.f a t r r ",
"} } L P g g P o. .$.CXCXCXCXCXCXCX. O o 6 e q ] | .. .%.%. .| ] q 5 4 o O O . . . . . . O o 3 6 0 ) | %.-.<X4XrXuXiXiXuXuXtX4X5X,X;.&...] w 5 6 & * t a d a p t t t u I R.6X3X<X:.&.%. ...............| } ' | *.,X4X4X;.| e & & = = r r t g 3.7.4.1.d p t t r r ",
" ...o.I 2.2.P o... .CXCXCXCXCXCXCXO O O o o 4 6 5 0 w w 0 e 5 4 % o o O O O O O O O O O O O X o % 6 5 w ] ..&.;.1X<X3X<X<X,X-.&. .| ] q 0 5 4 3 % & = r r r r r y * 0 ] %.-.;.-.%...| X.' ' ' } ' ' ] ] ] ] ] ..-.,X,X%.q % = r p d <.3.3.1.<.f a p t t r CXCXCX",
"CXCXo.I I I I o.CXCXCXCXCXCXCXCXCXu u y & + . . o o o o o o % & : : > < ; ; ; < G H J G , < < < < < < < 7 w T ] | .. . ...| ] ` q 0 5 5 5 5 5 5 5 4 & = = = = * 7 K }  .*.&.&. ...' ] ] ] ] ] ] ] ] ` ` q q ` ' %.&.&.} e o = = t p d d d a p t t t r CXCXCXCXCX",
"CXCXCX . . . .CXCXCXCXCXCXCXCXCXCXL.t.I L 7 6 2 o O . . X % > z v H H H n v v Y ^ G.G.D.E J H Y Y n v z , > : 4 6 5 0 0 e 5 6 4 o o 4 6 5 e 0 w w e 5 4 4 3 4 5 ` ..*.&.*.%...| ] ` ` ` ] ] ] ] ] ` q q q w q ` ] | | ` e 4 & = r r r r r r r r r CXCXCXCXCXCXCX",
"CXCXCXCXCXCXCXCXCXCXCXCXCXCXy.P.E.9X8X8X7X5X|.O.w ; @ % > z J Q ~ Q E W W W Q D.U.Y.Y.U.D.E E ~ D.^ Q Y v , > ; % % % % % % X X X o o 4 6 5 5 0 0 w w q ` ' .. .%.%.%. ...} ] ` q q q q q q ) q q q w 0 0 5 5 0 q q ` ` q q w 8 8 7 7 * & & @ = + CXCXCXCXCXCXCX",
"CXCXCXCXCXCXCXCXCXCXCXCXCXy.t.P.E.8XkXbXbXkXrXR.R b 1 , b J ^ G.G.F.~ E Q D.F.U.Y..X.XT.D.Q ~ G.U.G.D.E Y n b , 1 ; # @ @ @ + + X X o o o 4 4 6 5 e w q ] ..%.*.%...| ] ] ) q q w w w w q q q q w 0 0 5 5 6 6 5 5 5 0 w q q q q 0 e 5 6 4 o O . . CXCXCXCXCXCXCX",
"CXCXCXCXCXCXCXCXCXCXCXCXCX6.6.t.E.8XdXjXuX4X1X=./ H v v H E G.Y.Y.G.~ E ~ G.T.Y..X.X.XU.D.E ~ G.Y.Y.G.E Y Y W W Y v z > # @ + + . . . . . O O o o o 4 4 6 5 0 w w q w w w 0 0 0 0 0 0 0 0 0 0 0 0 5 5 5 6 6 6 4 4 4 4 4 4 4 4 4 4 3 o o o o O . . CXCXCXCXCXCXCX",
"CXCXCXCXCXCXCXCXCXCXCXCXCXF.F.L.E.8XpXrX3X-.@.+./ E W J Y Q G.Y.Y.G.Q W ~ U.Y..X.XY.Y.G.^ Q D.G.Y.Y.F.E Y W ~ D.^ W G < ; @ @ % : 5 0 q ] ' | ......' ` q 5 6 4 4 6 5 5 5 5 5 5 5 5 5 5 5 5 5 5 5 5 6 6 6 4 4 o o o 6 0 ` ' ' ' ] q 5 o O . . . CXCXCXCXCXCXCXCX",
"CXCXCXCXCXCXCXCXCXCXP.P.P.E.E. X0XyXaX5X:...[ R E Q E W W ~ F.G.G.^ W Y ^ U..X.XY.U.G.D.D.D.F.G.T.G.D.W H E D.G.D.W v 1 # @ % 6 q X.*.,X5XtXiXkXkXiXeX<X-...q 5 6 6 6 6 6 6 6 6 5 5 5 5 6 6 6 6 6 6 4 4 4 o o o 4 5 ) *.<XeXtX4X<X-.' 5 O   CXCXCXCXCXCXCXCXCXCX",
"CXCXCXCXCXCXCXCXP.P.P.P.P.E.9X0XrXeX5X;. .` w G Y E Q Q Q ~ D.D.D.Q W E D.U.Y.Y.U.^ Q ~ ^ D.F.G.F.D.E H n W ~ D.Q J z > # # > 8 [ %.;.3XtXiXlXxXvXxXlXiXeX1X&.| q 5 4 o o 4 4 4 4 4 4 4 4 4 4 o o o o o o o o 5 ] *.,X5XuXiXuXtX5X;. .` 0 5 CXCXCXCXCXCXCXCXCXCX",
"CXCXCXCXCXCXCXW.P.P.y.t.P.E.8XaXeX3X;.*.] w 7 8 H Y E Q ~ ~ Q E W E Q ~ F.G.U.G.^ W Y W ^ D.D.~ E W H v v H W W J z > - - > , K { &.;.<X4XtXuXiXkXlXlXlXkXrX5X;...0 o . O o o o o o o o o o o o o O O O O o 5 ' ;.tXkXkXiXrXeX3X,X-.%...' ] CXCXCXCXCXCXCXCXCXCX",
"CXCXCXCXCXCXCXCXCXCXCXCXE.8XpXuX5X;.%.| ] CX: < z v J W Q E Y H J W ~ D.D.F.D.~ W H H W ~ D.~ W n z z v v v n n v , ; - > 1 G R ..&.;.<X5XwXtXuXuXiXiXuXrX4X<X-.} 5 O     . . .           . . . .     O 5 `  .;.eXiXlXkXuXeX<X;.&. .| ] ` ` CXCXCXCXCXCXCXCXCXCX",
"CXCXCXCXCXCXCXCXCXCXCXCXCXjXiXrX3X-.| ] CXCXCXCX> 1 z H W J v z b J Q D.^ Q W J n v v Y E Q W n , 1 , z b z z , , > ; ; > , G R { *.-.>X<X3X5X4X4XeX4X5X<X,X-. .] e 4 o 4 6 5 5 5 0 0 0 0 5 5 6 4 o o 6 ` *.,X4XrXiXiXrX5X,X-.%.' ] q q w w CXCXCXCXCXCXCXCXCXCX",
"CXCXCXCXCXCXCXCXCXCXCXCXCXeXeXeX5X,XCXCXCXCXCXCX- > , v n b , < , v Y E W J H v z z b H J Y H z > > , z z , > # # # > > > > < G [  .&.-.-.;.;.;.;.;.;.;.-.*...' ] q q ] ..&.;.<X5X4X4X5X5X<X;.&. .' ] ]  .;.5XeXeX4X5X,X-.%.| ` w 5 5 CXCXCXCXCXCXCXCXCXCXCXCXCX",
"CXCXCXCXCXCXCXCXCXCXCXCXCX,X,X,X,XCXCXCXCXCXCXCX- ; 1 , z , 1 - > , b n v z 1 > 1 1 , z z , , > - - ; > > ; # @ @ # 1 1 > - ; 7 T X... .%.%.%.%. . . . ...| ] ] ] | ..&.,X5XrXkXxXvXvXxXlXiXeX2X;.*.....%.;.<X<X<X,X-.*.| ` w 5 4 o o CXCXCXCXCXCXCXCXCXCXCXCXCX",
"CXCXCXCXCXCXCXCXCXCXCXCXCX*.*.*.*.CXCXCXCXCXCXCX- - > > 1 > > - ; < , z , < > > > > > > > ; - # @ @ @ @ @ @ @ @ # > , , > # % : w ` ] ] ] ] ] ] ] ] ` ` ` ` ] ' ..%.-.;.2XwXuXkXxXvXxXlXkXuX4X<X-.%.| ] | %.&.>.&.%...] q 5 6 4 o o o CXCXCXCXCXCXCXCXCXCXCXCXCX",
"CXCXCXCXCXCXCXCXCXCXCXCXCXCXCX..CXCXCXCXCXCXCXCX- # # - > < 8 G T [ { O.O.@.@.@.=.=.=.@.@.{ [ T 8 < ; @ @ @ @ # - > < < ; % % 4 5 w q q w w w w w 0 5 5 0 q ] ..%.&.:.-X;X;X;XqXhXkXkXiXaX8XE.P.P.L.[ ` ` ' | | ' ] ` w 5 4 o o o CXCXCXCXCXCXCXCXCXCXCXCXCXCXCX",
"CXCXCXCXCXCXCXCXCXCXCXCXCXCXCXCXCXCXCXCXCXCXCXCX@ @ @ # ; 8 T ..&.:.,X6X4XtXuXiXdXdXiXuXrX4X6X!.@.{ G : @ @ # - - - - ; ; : 4 6 6 5 5 5 5 5 6 6 6 6 4 6 5 q ' ..%.>.-.;X=X:X:X:XqXeXtXwX5XE.W.f.a.w.P w 0 w q q w 0 5 6 4 o o CXCXCXCXCXCXCXCXCXCXCXCXCXCXCXCXCX",
"CXCXCXCXCXCXCXCXCXCXCXCXCXCXCXCXCXCXCXCXCXCXCXCX+ + X : 6 w ] ..%.&.-.:.-X1X<X<X1X1X1X5XeXtXtXwX6X;...q : % @ @ @ @ # @ % o o o o o o o o o o o o 4 6 5 w q ] |  .%.%.,.=X=X=X;X-X-X!.:.=.L.y.a.0.2.u 7 5 6 6 6 4 4 o o o O O CXCXCXCXCXCXCXCXCXCXCXCXCXCXCXCXCX",
"CXCXCXCXCXCXCXCXCXCXCXCXCXCXCXCXCXCXCXCXCXCXCXCX- > , G T { ..@.@.@.@.@.@.@.@.@.{ [ { @.;.3XeXrXrX4X;...q 5 : : % @ @ @ % 4 5 5 5 5 5 5 6 4 o o o 4 5 0 w q ` ] ] ' | | | ...... . . .} ] L P 2.g s * 4 3 o o o O O . . . . . CXCXCXCXCXCXCXCXCXCXCXCXCXCXCXCXCX",
"CXCXCXCXCXCXCXCXCXCXCXCXCXCXCXCXCXCXCXCXCXCXCXCXU B.H.).}.}.}.%X%X%X%X%X%X%X}.}.(.).H.#.O.%.:.4XuXrX3X>...| | ' K 7 % ; w ..&.;.<X<X,X-. .] w 4 O O o 6 5 5 0 0 w w w w w w w w q q w 0 0 7 D D y * & o O O . . .     . . . . CXCXCXCXCXCXCXCXCXCXCXCXCXCXCXCXCX",
"CXCXCXCXCXCXCXCXCXCXCXCXCXCXCXCXCXCXCXCXCXCXCXA.~.^.'.XX#X$X*X&X&X&X&X&X*X$X@X#X].'./.H./ R @.6XrXaX5X!.&.*.*.O.| T w T ..;.5XtXuXiXrX5X;.%.] 0 4 6 5 q ` ] ] ' ' X.| | | | | | | | X.' ' ] ] ] _ q 0 5 6 4 3 3 4 6 6 4 4 o o CXCXCXCXCXCXCXCXCXCXCXCXCXCXCXCXCX",
"CXCXCXCXCXCXCXCXCXCXCXCXCXCXCXCXCXCXCXCXCXn.C.A.^._.'.].+X#X@X$X$X$X$X$X@X#X+XXX].'./.J.N.B.I. X0XeX5X,X-. .' ] '  .&.-.;.;.,X<X5X4X5X,X-.%.' ` ` ' *.;.<X3X5X4XeXtXrXuXuXiXpXuXuXrXtXeX5X5X<X,X;.&.$...] ] ` ] ' ....' ` q w CXCXCXCXCXCXCXCXCXCXCXCXCXCXCXCXCX",
"CXCXCXCXCXCXCXCXCXCXCXCXCXCXCXCXCXCXCXCXz.x.n.V.~./._.`.'.'.].+X+X+X+X+X+XXX].'.'._.^.Z.C.m.G. X7XwX5X1X-.%.| ] '  .&.-.-.-.-.;.,X<X,X-.&...' ] ]  .-.3XeXrXuXjXlXxXxXcXnXnXnXcXcXxXlXkXiXuXeX5X<X;.&.%...' ] ' ..*.*...] ` q CXCXCXCXCXCXCXCXCXCXCXCXCXCXCXCXCX",
"CXCXCXCXCXCXCXCXCXCXCXCXCXCXCXCXCXCXCXCXl.j.x.N.Z.S.~.~.~.^./.`.'.'.'.'.'.'.`././.~.A.N.x.M.F.R.3X4X5X<X;.-.*...| ' ' ' | ..%.&.-.;.;.&. ...] ` ` | *.;.<X4XtXuXiXkXlXlXxXxXxXlXlXkXiXuXrXeX5X,X;.&. .| ] q q _ ] ..| ] q 0 e CXCXCXCXCXCXCXCXCXCXCXCXCXCXCXCXCX",
"CXCXCXCXCXCXCXCXCXCXCXCXCXCXCXCXCXCXCXCX~ ^ D.I.{. X X X{.{.{.{.{.(.(.^.~.~.S.A.V.C.n.k.e.l.D.R.7XeX5X1X;.-.-.&.%...] ] ` ] ] |  .%. ...' ] q w w q '  .&.-.;.1X3X5X5X4XeXeX4X5X5X3X<X,X;.-.&.%...' ` q 0 5 5 0 q ` ` q 0 5 6 CXCXCXCXCXCXCXCXCXCXCXCXCXCXCXCXCX",
"CXCXCXCXCXCXCXCXCXCXCXCXCXCXCXCXCXCXCXCX>.-.R.6XeXaXuXaXrXtX4X3X|.[.{.K.J.N.m.b.k.j.h.C V Z D.|.tXtX5X;.-.-.;.;.-.%.| ] q w 0 w q ] ` ) q w 5 6 6 5 w q ] ] ' | .. .%.*.*.*.%.$. ...| ' ] ` q q w 5 5 4 3 o o 4 5 0 w 5 5 6 4 CXCXCXCXCXCXCXCXCXCXCXCXCXCXCXCXCX",
"CXCXCXCXCXCXCXCXCXCXCXCXCXCXCXCXCXCX,X1X2X5XeXpXzXxXvXvXxXbXzXiXaX7X XI.I.^ / W A Z C V V Z D. XtXtX<X&.%.-.<X5X<X-...] w 5 5 5 5 5 5 5 5 6 4 o o o o 4 6 6 5 5 5 0 w q q q q q q w w 0 5 5 5 6 4 o o O O O O o 3 6 6 4 o o o CXCXCXCXCXCXCXCXCXCXCXCXCXCXCXCXCX",
"CXCXCXCXCXCXCXCXCXCXCXCXCXCXCXCXCX,X,X2X7XrXiXkXkXlXxXvXcXcXvXxXkXuX5X,X>. .] K n m N N N A L.|.eXwX,X*.%.;.5XrX4X;...` 0 5 6 6 5 w w w 0 5 6 o o o O o o 4 6 5 0 w q q ` ] ] ] ] ] ] ] ] ` q w 0 5 4 o O O O o 4 6 5 5 6 6 6 CXCXCXCXCXCXCXCXCXCXCXCXCXCXCXCXCX",
"CXCXCXCXCXCXCXCXCXCXCXCXCXCXCXCXCX<X<X5XeXtXeX5X<X1X2XeXuXiXiXiXiXrXeX2X:. .] 0 7 > < G R +.=.|.3X3X<X;.;.3XeXrX4X;...q 5 4 6 q | *.&.%...] ` w 5 5 5 0 q ] ..*.-.;.,X<X5X5X4X4X4X4X4X5X5X<X,X;.&...] w 5 4 3 6 0 q ] ] ' ' ] ` q w CXCXCXCXCXCXCXCXCXCXCXCXCXCX",
"CXCXCXCXCXCXCXCXCXCXCXCXCXCXCXCX3X5X5X5X5X3X,XR.L.+.+.=.R.<X5XwXeX4X5X,X&..._ e 4 3 6 ` %.:.;.;.;.;.<X5XwXtXuXrX5X-...q 5 o 6 ] >.3X5X<X;.-.%.| ] ` q ` ] ..&.;.<X4XtXiXkXlXxXxXxXxXxXxXlXiXrX4X<X&.| ` q w q ]  .&.;.;.;.;.&...] q q CXCXCXCXCXCXCXCXCXCXCXCXCX",
"CXCXCXCXCXCXCXCXCXCXCXCXCXCX;.,X<X5X5X2X>X&.+.t.w.w.w.I [  .&.>X,X,X-.&...] w 5 6 6 w ..;.3X<X&. .*.,XtXiXiXuXeX2X-...q 6 o 4 ] ;.tXuXuXeX5X<X-.*...' ] ] '  .*.;.<XeXuXkXxXcXnXnXnXcXcXxXkXrX5X;.%.] q q ]  .-.3XtXuXiXuXeX<X&.| ] ` CXCXCXCXCXCXCXCXCXCXCXCXCX",
"CXCXCXCXCXCXCXCXCXCXCXCXCX-.-.;.,X3X5X3X1X;.R.L.y.w.t.o.O.%.>.:.-.&. .| ` w 5 5 0 q | -.<X4X<X-.%.&.<XrXiXuXeX3X;.%.] w 4 o 6 ' ,XrXkXkXkXiXuXeX<X;.%.| ] ` ] '  .-.,X5XtXiXkXlXxXxXxXlXiXtX3X;.*.' q q ] *.,X4XuXzXlXlXiXtX<X&.| ` q CXCXCXCXCXCXCXCXCXCXCXCXCX",
"CXCXCXCXCXCXCXCXCXCXCXCXCX&.&.-.;.<X5X4XeX4X3X:.O.O.O.:.,X<X,X;.&. .' q 5 6 4 5 ] %.-.,X<X3X<X>X;.,X3XeXtX4X<X-. .] q 5 o o 6 ] -.4XuXkXlXxXlXkXuX5X;.%.' ) w w ` '  .&.;.<X4XtXuXuXrXeX5X,X&.| ] q q ] %.,XeXiXkXlXlXiXtX3X-...` w 0 CXCXCXCXCXCXCXCXCXCXCXCXCX",
"CXCXCXCXCXCXCXCXCXCXCXCXCX.. .%.&.;.<X5XeXeX4X2X>X:.>X<X2X<X;.&. .' q 5 6 4 6 q  .;.<X,X-.&.-.;.,X,X<X<X,X-.*...] q 5 6 o o 4 q ..;.3XeXuXkXlXlXkXuX5X;.%.] q 0 0 w ) '  .&.;.,X,X,X,X;.&...] w 0 q ]  .;.5XuXiXkXiXrX5X,X&.| q 5 6 4 CXCXCXCXCXCXCXCXCXCXCXCXCX",
"CXCXCXCXCXCXCXCXCXCXCXCXCX] ' |  .&.:.,X<X5X5X5X3X2X<X<X,X;.&...' q 5 6 4 o 6 q *.,X<X;.*...$.>.;.;.-.&. ...] ` q 5 6 o o O o 6 q ' %.-.<X4XrXiXiXuX4X,X&.| q 5 6 6 5 0 ` ' .... . . .| ] q 5 4 5 q ..-.<XeXrXrXeX5X,X&...` 0 6 o o o CXCXCXCXCXCXCXCXCXCXCXCXCX",
"CXCXCXCXCXCXCXCXCXCXCXCXCXq q ` ] ' ..%.&.-.;.;.;.;.-.&.*. .| ] q w 5 6 4 o 4 0 ' &.-.-.-.&.&.&.*.%. ...| ] q 0 5 6 3 o O . . O 4 5 q ] ..&.;.<X5X3X<X;.*.' w 6 o o o 4 5 0 q q q q q w e 5 4 4 5 ] %.-.,X<X<X,X&. .' q 0 5 3 o O . . CXCXCXCXCXCXCXCXCXCXCXCXCX",
"CXCXCXCXCXCXCXCXCXCXCXCXCX0 0 0 w w q ] ' .... .%. ...' ] q q w 0 5 6 6 4 o 4 e ] ..*.&.>.&.%...] ] ] ] ` q 5 6 3 o o X % % # % X o o 6 0 _ '  .&.&.*. .| q 5 3 O . . O o 3 4 6 6 6 4 4 3 o 3 6 0 ] ..&.&.*. .| ` 0 6 o o o X % # # # CXCXCXCXCXCXCXCXCXCXCXCXCX",
"CXCXCXCXCXCXCXCXCXCXCXCXCX6 6 6 6 5 5 0 w q q ` ` ` q 0 5 5 5 6 6 4 3 o 4 5 0 ` ..&.&.%.} ` q 0 e 5 5 6 6 4 4 o o . . % 1 m S l > X . O 3 6 5 0 q q q q w 5 4 o O . . . . O O O O O O O O o 4 5 0 q ] ' ] ) w 5 4 o O . . O # k S Z Z CXCXCXCXCXCXCXCXCXCXCXCXCX",
"CXCXCXCXCXCXCXCXCXCXCXCXCXY Y Y T w 0 q '  .*.&.&.*...' q w 5 6 4 o o 4 5 ` | .. . ...[ R H v v b , : % O . . O % < b Y U v.x.U m k $ $ $ $ & % o 3 4 4 3 o O X ; , z b z x , 1 1 $ $ $ $ # : 6 5 e 0 e 5 4 o o % # $ $ $ 1 m A j.z.x.CXCXCXCXCXCXCXCXCXCXCXCXCX",
"CXCXCXCXCXCXCXCXCXCXCXCXCX/.(.).H./ { %.,XeXuXiXiXuX4X1X-...` 5 4 o 3 5 ` %.-.-. .K 8 H U v.v.k.U S k # O . . X b ( H.^.^.J.Z.N.z.U Z B M l k # O O O O O . O ; v ! N.N.N.v.M.M.U Z Z B N l 1 & o o o % o O O # i l M M Z Z l.k.b.n.n.CXCXCXCXCXCXCXCXCXCXCXCXCX",
"CXCXCXCXCXCXCXCXCXCXCXCXCX~.~.J.H.#.@.;.4XiXlXxXlXkXrX5X;.%.] 0 5 5 q ] | $.*.@.{ Y W U m.C.C.c.k.Z k @ O : Y ( H.)./._._.^.A.V.n.x.k.h.e.Z N l i $ $ i k n Y ( B.J.A.S.V.C.n.x.z.j.r.r.C M l k k k k k k $ i k l M C r.j.z.x.b.n.CXCXCXCXCXCXCXCXCXCXCXCXCXCXCX",
"CXCXCXCXCXCXCXCXCXCXCXCXCXc.n.m.D.+.&.>XwXpXkXkXjXuXeX1X-...` 0 0 ` ..%.O...[ R ~ v.n.C.Z.Z.C.c.j.Z k > < ( ).'.].'.'._.^.~.A.V.C.n.x.k.j.e.C C B M N M U N.~.^.^.~.S.Z.C.n.b.z.j.l.h.h.e.C C B M M M M M M M B B B C l.z.n.n.CXCXCXCXCXCXCXCXCXCXCXCXCXCXCXCXCX",
"CXCXCXCXCXCXCXCXCXCXCXCXCXz.z.M.! /  .>.<XeXtXtXeX5X,X&. .] q 0 0 _ }  .O./ ~ B.N.V.Z.Z.V.C.b.j.C U U B.H.(.oXXXXX].'._.^.~.A.Z.C.n.b.z.j.h.r.C V N c n E B.J.^.^.~.S.Z.C.n.b.z.j.h.e.C C C C V B B B B V V V V C C e.x.N.V.Z.CXCXCXCXCXCXCXCXCXCXCXCXCXCXCXCXCX",
"CXCXCXCXCXCXCXCXCXCXCXCXCXr.e.Z S H ` | &.;.,X,X;.-.%.| ] q w w q ` [ +.^ F.N.C.V.Z.Z.V.N.b.j.C C l.J.`.XX+XXXXX'.'._./.~.S.Z.C.N.n.x.k.l.e.C C M c G K R ^ H.A.S.A.Z.Z.C.n.b.x.k.h.C C V B B V B B B B B B B C C h.k.n.V.A.S.CXCXCXCXCXCXCXCXCXCXCXCXCXCXCXCXCX",
"CXCXCXCXCXCXCXCXCXCXCXCXCXr.C M c z e w ] | ....| ] ` w 5 e w _ ] / ~ B.N.V.Z.Z.V.C.N.n.x.k.e.V V l.J.'.XXXX].'.`./.^.S.A.V.C.n.x.k.l.e.C C V V M c G w T / H.A.Z.V.C.N.N.n.n.x.k.h.C C V B B B B B B B B B B C l.k.b.n.CXCXCXCXCXCXCXCXCXCXCXCXCXCXCXCXCXCXCXCX",
"CXCXCXCXCXCXCXCXCXCXCXCXCXCXl l x < 5 e w ` ` q w 0 5 6 4 5 0 q R / B.C.V.Z.Z.V.N.b.k.j.h.e.h.j.v.N.~.'.'.'.`./.^.~.A.V.C.n.x.z.k.j.e.C V B B B B S n Y / B.N.V.C.C.n.n.b.b.x.k.l.e.C C V B B B B B B B B B B C j.b.n.n.CXCXCXCXCXCXCXCXCXCXCXCXCXCXCXCXCXCXCXCX",
"CXCXCXCXCXCXCXCXCXCXCXCXCX: 7 7 7 w q ] ' | ' ` q 0 5 6 6 6 5 0 K ( H.Z.Z.V.N.b.j.e.C V V C v.J./.'.'.'.`./.^.~.A.V.C.n.x.k.j.j.j.h.e.C V B B B C U v.N.V.N.N.N.n.n.n.b.x.k.h.e.C C V B B B B B B B B B B B V C j.b.n.n.CXCXCXCXCXCXCXCXCXCXCXCXCXCXCXCXCXCXCXCX",
"CXCXCXCXCXCXCXCXCXCXCXCXq q ) ` | %.-.;.<X<X<X,X;.&.%...| ] ) w G W v.N.n.x.k.e.C V B S A ! H.(.'.'.'._.^.~.A.V.C.n.x.z.k.j.h.h.e.C C C V M N c S U v.C.V.C.n.x.x.x.x.k.l.e.C C V B B B B B B B B B B V V C C C j.x.n.CXCXCXCXCXCXCXCXCXCXCXCXCXCXCXCXCXCXCXCXCX",
"CXCXCXCXCXCXCXCXCXCXq q ` ] ..*.;.5XtXiXlXxXxXbXkXpXtX5X,X&. .] K J U l.e.C C V B V A Q #.#.[.{./._./.~.A.Z.C.n.b.z.k.j.h.h.h.e.C V V B B N c G G Y ! v.n.x.k.j.j.j.h.e.C C V B B B B B B B B B B B B V C C h.h.j.CXCXCXCXCXCXCXCXCXCXCXCXCXCXCXCXCXCXCXCXCXCXCX",
"CXCXCXCXCXCXCXCXCXCX5 0 w ` '  .-.<X4XrXiXkXkXiXuXeX5X,X-.*...] T K H n m N B Z A Q ^ #.=.!.[.{./._.^.~.A.V.C.n.x.k.j.h.e.C C C V B B B B N c G w G W M.z.k.j.h.e.C C C V B B B B B B B B B B B B B B V C j.z.x.CXCXCXCXCXCXCXCXCXCXCXCXCXCXCXCXCXCXCXCXCXCXCXCX",
"CXCXCXCXCXCXCXCXCXCX6 6 5 w q '  .-.>X<X5X5X5X3X,X;.>.%...| ' ] ` q 0 7 z c S U ^ #.>.!.>.I.[.{././.^.~.Z.V.N.n.x.k.l.e.C C V B B B B B B N c 8 8 G S U h.h.h.e.C C V B B B B B B B B B B B B B B B V C e.k.b.n.CXCXCXCXCXCXCXCXCXCXCXCXCXCXCXCXCXCXCXCXCXCXCXCX",
"CXCXCXCXCXCXCXCX6 6 4 4 6 5 w ` | %.-.;.<X<X<X,X;.&.%...| ] ` q q 0 5 5 5 8 G R +.#.[.[.I.K.).~.~.~.A.V.C.n.x.k.j.e.C C V V B B B B B B B N c < 7 G S U h.r.C C V V B B B B B B B B B B B B B B V C C e.h.k.CXCXCXCXCXCXCXCXCXCXCXCXCXCXCXCXCXCXCXCXCXCXCXCXCXCX",
"CXCXCXCXCXCXCX5 5 5 5 5 w q ] |  .&.;.<X5XeXeX5X<X,X-.&. ...' ] q w e 5 5 0 q ] ..@.#.I.H.Z.Z.Z.Z.V.C.n.b.z.k.h.e.C V B B B B B B B V C V M c < 7 z m Z e.C V B B B B B B B B B B B B B B B B B V C e.h.j.CXCXCXCXCXCXCXCXCXCXCXCXCXCXCXCXCXCXCXCXCXCXCXCXCXCXCX",
"CXCXCXCXCXCXCX0 w q ` ' ..%.&.-.,X5XeXuXkXxXxXlXkXuXeX3X,X-.&.%...] q q w w q ` } ..@.#.H.N.C.C.C.n.b.k.j.j.j.l.e.C V B B B B B B B C C r.Z c , 7 < c M C C V B B B B B B B B B B B B B B B B B V C e.h.j.CXCXCXCXCXCXCXCXCXCXCXCXCXCXCXCXCXCXCXCXCXCXCXCXCXCXCX",
"CXCXCXCXCXCXCX0 0 q ` ] | ..%.&.;.,X5XeXuXiXiXiXuXeX5X,X-.&.%...| ] q w 0 w q ` }  .@.+.B.k.z.z.x.x.k.j.l.e.e.e.C C V B B B B B B B Z U ! Q Y 8 7 < l M B B B B B B B B B B B B B B B B B V V C C C e.h.CXCXCXCXCXCXCXCXCXCXCXCXCXCXCXCXCXCXCXCXCXCXCXCXCXCXCXCX",
"CXCXCXCXCXCXCX6 6 6 5 5 0 w q ` ] | ..*.&.-.-.-.&.*. ...' ] ` q q 0 5 5 5 e w ]  .&.=.+.! Z C e.h.j.j.j.l.e.C V B B B B B B B B B B A ^ +.O.' q 5 < l N B B B B B B B B B B B B B B B B V C C e.h.h.CXCXCXCXCXCXCXCXCXCXCXCXCXCXCXCXCXCXCXCXCXCXCXCXCXCXCXCXCXCX",
"CXCXCXCXCXCXCX4 4 4 4 4 4 5 0 w w w q ] |  .%...' ] ] } | ' ] q w q q q q w q ) ] ....{ / W A Z C C C C C V B B M M M M M M V M.D.I.R.R.&.$.X.q e 7 , x l N M B B B B B B B B B B V C C C C e.h.CXCXCXCXCXCXCXCXCXCXCXCXCXCXCXCXCXCXCXCXCXCXCXCXCXCXCXCXCXCXCXCX",
"CXCXCXCXCXCXCX4 4 3 o o 4 5 q q w 5 5 q | %.%...] q '  .&.%.| ` ` ] ....| ] q w w w q ` { { / W A Z Z Z Z Z Z Z Z A A A A A M.I.9XyXtX3X-...] q e 5 5 6 < x N M B M M M M M M M M M C C h.h.CXCXCXCXCXCXCXCXCXCXCXCXCXCXCXCXCXCXCXCXCXCXCXCXCXCXCXCXCXCXCXCXCXCX",
"CXCXCXCXCXCXCXo o o o o 5 ` ....] w 5 q ..&.&. .] ` ..-.,X;. .] ] ..-.;.&.' w 5 4 4 5 q X.@.@.#.#.I.R.R.|. X X9X9X8X8X8X9X9X9X9X7X4X2X:. .] q 0 5 6 4 6 6 7 z b x x x x x x x 1 $ $ k m CXCXCXCXCXCXCXCXCXCXCXCXCXCXCXCXCXCXCXCXCXCXCXCXCXCXCXCXCXCXCXCXCXCXCXCX",
"CXCXCXCXCXCXCXo o o O o 5 ] ..%.' w 5 w | *.*.| ` q ' &.-.&...` ` ..-.;.*.] 5 o o o 4 0 ] ..%.&.-.;.<X5XwXtXuXiXkXlXlXlXlXkXuXtX5X,X-.$.' ` w 5 6 6 6 5 5 5 5 5 5 5 6 6 4 4 o o O . . CXCXCXCXCXCXCXCXCXCXCXCXCXCXCXCXCXCXCXCXCXCXCXCXCXCXCXCXCXCXCXCXCXCXCXCXCX",
"CXCXCXCXCXCXCXCXCXO . O o 5 0 w 5 4 o 3 5 0 0 5 4 4 5 0 q w 5 6 5 w ` ] q 5 o o o : 6 6 5 5 w q ` ] ' X.| .. .%.&.-.;.,X,X,X,X;.;.-.&.%...] q 0 5 5 5 5 5 5 5 6 4 4 o o o O O . . . . CXCXCXCXCXCXCXCXCXCXCXCXCXCXCXCXCXCXCXCXCXCXCXCXCXCXCXCXCXCXCXCXCXCXCXCXCX",
"CXCXCXCXCXCXCXCXCXCXCX. O o o o o O . . O O O O . . . O O O o o o 4 6 6 4 o o o 4 6 6 4 4 4 5 0 q ) ` ] ] | .. .*.&.;.;.,X1X<X<X3X3X<X<X,X-.%.' q w 0 5 5 5 5 5 6 4 o o O O . . . . . CXCXCXCXCXCXCXCXCXCXCXCXCXCXCXCXCXCXCXCXCXCXCXCXCXCXCXCXCXCXCXCXCXCXCXCXCX",
"CXCXCXCXCXCXCXCXCXCXCXCXCXCXCXCXCXCXCXCXCXCXCXCXCXCXCXCXCXCXo o o o o o o 4 4 6 6 6 6 5 5 w ` }  .&.-.;.<X5XeXrXpXjXkXlXlXxXxXxXcXcXxXbXkXuX5X-. .] q 5 5 5 0 0 5 5 6 o o O . . . . . CXCXCXCXCXCXCXCXCXCXCXCXCXCXCXCXCXCXCXCXCXCXCXCXCXCXCXCXCXCXCXCXCXCXCXCXCX",
"CXCXCXCXCXCXCXCXCXCXCXCXCXCXCXCXCXCXCXCXCXCXCXCXCXCXCXCXCXCXCXo o o O o o o o 4 4 6 5 5 w q ' ..&.-.,X<X5XeXuXkXlXxXvXcXcXcXcXnXMXmXMXVXxXkXtX<X>...] q 5 5 5 5 6 4 o o o O . . . . CXCXCXCXCXCXCXCXCXCXCXCXCXCXCXCXCXCXCXCXCXCXCXCXCXCXCXCXCXCXCXCXCXCXCXCXCXCX",
"CXCXCXCXCXCXCXCXCXCXCXCXCXCXCXCXCXCXCXCXCXCXCXCXCXCXCXCXCXCXCXCXCXCXO O . . O o o 4 5 0 q ` ] .. .*.-.;.,X3X4XeXrXuXiXiXiXiXkXkXlXlXlXlXkXuXeX3X;.&...] w 5 o O O O O . . . . . CXCXCXCXCXCXCXCXCXCXCXCXCXCXCXCXCXCXCXCXCXCXCXCXCXCXCXCXCXCXCXCXCXCXCXCXCXCXCXCX",
"CXCXCXCXCXCXCXCXCXCXCXCXCXCXCXCXCXCXCXCXCXCXCXCXCXCXCXCXCXCXCXCXCXCXCXCX. . . O o o 4 5 5 w q ] ] | .. .%.&.&.-.;.;.;.,X,X<X3X5X4XeXtXrXrXtXeX5X,X-. .] q 5 o O . . . . .       CXCXCXCXCXCXCXCXCXCXCXCXCXCXCXCXCXCXCXCXCXCXCXCXCXCXCXCXCXCXCXCXCXCXCXCXCXCXCXCX",
"CXCXCXCXCXCXCXCXCXCXCXCXCXCXCXCXCXCXCXCXCXCXCXCXCXCXCXCXCXCXCXCXCXCXCXCXCX. . O O o o o 4 6 5 0 w q q ) ` ` ] ] ] ] ' ..%.&.-.;.,X<X5XeXtXrXtXeX5X,X&...` 0 6 o O O . .         CXCXCXCXCXCXCXCXCXCXCXCXCXCXCXCXCXCXCXCXCXCXCXCXCXCXCXCXCXCXCXCXCXCXCXCXCXCXCXCX",
"CXCXCXCXCXCXCXCXCXCXCXCXCXCXCXCXCXCXCXCXCXCXCXCXCXCXCXCXCXCXCXCXCXCXCXCXCX. . . . O O o o o 4 6 5 5 5 5 5 0 w q ` ] ..*.-.<X5XwXtXrXiXkXlXlXlXlXkXuX5X,X&.' 0 4 o O . .         CXCXCXCXCXCXCXCXCXCXCXCXCXCXCXCXCXCXCXCXCXCXCXCXCXCXCXCXCXCXCXCXCXCXCXCXCXCXCXCX",
"CXCXCXCXCXCXCXCXCXCXCXCXCXCXCXCXCXCXCXCXCXCXCXCXCXCXCXCXCXCXCXCXCXCXCXCXCX. . . . . . O O o o o 4 6 6 5 5 0 q ] | %.&.;.<X5XeXrXuXuXiXkXkXlXlXxXlXkXuX4X,X%.` 5 3 o O .       CXCXCXCXCXCXCXCXCXCXCXCXCXCXCXCXCXCXCXCXCXCXCXCXCXCXCXCXCXCXCXCXCXCXCXCXCXCXCXCXCX",
"CXCXCXCXCXCXCXCXCXCXCXCXCXCXCXCXCXCXCXCXCXCXCXCXCXCXCXCXCXCXCXCXCXCXCXCXCXCXCXCX. . . . . O o o 4 6 5 0 q ] ..*.-.-X1X<X<X<X<X<X<X<X<X<X3X5XeXrXuXuXtX4X<X-...` 5 4 O .   CXCXCXCXCXCXCXCXCXCXCXCXCXCXCXCXCXCXCXCXCXCXCXCXCXCXCXCXCXCXCXCXCXCXCXCXCXCXCXCXCXCXCX",
"CXCXCXCXCXCXCXCXCXCXCXCXCXCXCXCXCXCXCXCXCXCXCXCXCXCXCXCXCXCXCXCXCXCXCXCXCXCXCXCX. . . . O O o 4 6 e q ` ' ..%.&.-.-.-.-.-.&.&.&.-.;.,X<X5X4XtXuXuXiXuXrX4X,X&...q 6 O . CXCXCXCXCXCXCXCXCXCXCXCXCXCXCXCXCXCXCXCXCXCXCXCXCXCXCXCXCXCXCXCXCXCXCXCXCXCXCXCXCXCXCXCX",
"CXCXCXCXCXCXCXCXCXCXCXCXCXCXCXCXCXCXCXCXCXCXCXCXCXCXCXCXCXCXCXCXCXCXCXCXCXCXCXCX. . O O O o 4 5 0 q ] .. .....| ' ] ` ` ` ] | $.-.,X5XeXuXkXkXlXlXlXlXkXuX5X;.%.] 5 o   CXCXCXCXCXCXCXCXCXCXCXCXCXCXCXCXCXCXCXCXCXCXCXCXCXCXCXCXCXCXCXCXCXCXCXCXCXCXCXCXCXCXCXCX",
"CXCXCXCXCXCXCXCXCXCXCXCXCXCXCXCXCXCXCXCXCXCXCXCXCXCXCXCXCXCXCXCXCXCXCXCXCXCXCXCXCXCXO O O o o 6 5 0 q ` ] ` q w 0 5 5 0 ] ..&.-.;.<X<X5X5X4X4XeXeXeXtXeX5X,X&...` 5 o CXCXCXCXCXCXCXCXCXCXCXCXCXCXCXCXCXCXCXCXCXCXCXCXCXCXCXCXCXCXCXCXCXCXCXCXCXCXCXCXCXCXCXCXCX",
"CXCXCXCXCXCXCXCXCXCXCXCXCXCXCXCXCXCXCXCXCXCXCXCXCXCXCXCXCXCXCXCXCXCXCXCXCXCXCXCXCXCXCXCX. . O o 4 4 6 6 4 4 o o 4 4 5 q ..-.<X<X,X;.;.-.&.&.&.-.;.,X,X<X;.&...] ] CXCXCXCXCXCXCXCXCXCXCXCXCXCXCXCXCXCXCXCXCXCXCXCXCXCXCXCXCXCXCXCXCXCXCXCXCXCXCXCXCXCXCXCXCXCXCX",
"CXCXCXCXCXCXCXCXCXCXCXCXCXCXCXCXCXCXCXCXCXCXCXCXCXCXCXCXCXCXCXCXCXCXCXCXCXCXCXCXCXCXCXCXCXCXO O o o o O O O O o 5 ` ..*.-.-.-.&. ...| .. .&.;.3XeXtXtXeX5X,X-.&.&.CXCXCXCXCXCXCXCXCXCXCXCXCXCXCXCXCXCXCXCXCXCXCXCXCXCXCXCXCXCXCXCXCXCXCXCXCXCXCXCXCXCXCXCXCXCXCX",
"CXCXCXCXCXCXCXCXCXCXCXCXCXCXCXCXCXCXCXCXCXCXCXCXCXCXCXCXCXCXCXCXCXCXCXCXCXCXCXCXCXCXCXCXCXCXCX. . . . . . . O 4 w ..&.-.-.%...] q w ` | &.,X5XrXiXkXiXuXtX5X,X;.;.CXCXCXCXCXCXCXCXCXCXCXCXCXCXCXCXCXCXCXCXCXCXCXCXCXCXCXCXCXCXCXCXCXCXCXCXCXCXCXCXCXCXCXCXCXCXCX",
"CXCXCXCXCXCXCXCXCXCXCXCXCXCXCXCXCXCXCXCXCXCXCXCXCXCXCXCXCXCXCXCXCXCXCXCXCXCXCXCXCXCXCXCXCXCXCXCXCXCX. . O O o 4 0 ] ....' q w 0 w q | &.<X4XeXrXrXeX5X<X,X-.&.%.%.CXCXCXCXCXCXCXCXCXCXCXCXCXCXCXCXCXCXCXCXCXCXCXCXCXCXCXCXCXCXCXCXCXCXCXCXCXCXCXCXCXCXCXCXCXCXCX",
"CXCXCXCXCXCXCXCXCXCXCXCXCXCXCXCXCXCXCXCXCXCXCXCXCXCXCXCXCXCXCXCXCXCXCXCXCXCXCXCXCXCXCXCXCXCXCXCXCXCXCX. O O o o 5 w q q 0 6 4 5 q ] %.;.5X4X5X<X,X;.-.&.&.*.%. . .CXCXCXCXCXCXCXCXCXCXCXCXCXCXCXCXCXCXCXCXCXCXCXCXCXCXCXCXCXCXCXCXCXCXCXCXCXCXCXCXCXCXCXCXCXCXCX",
"CXCXCXCXCXCXCXCXCXCXCXCXCXCXCXCXCXCXCXCXCXCXCXCXCXCXCXCXCXCXCXCXCXCXCXCXCXCXCXCXCXCXCXCXCXCXCXCXCXCXCX. . . O O o 4 6 6 4 o 4 0 ] ..&.;.,X,X&...' ' ..%.&.-.-.;.;.CXCXCXCXCXCXCXCXCXCXCXCXCXCXCXCXCXCXCXCXCXCXCXCXCXCXCXCXCXCXCXCXCXCXCXCXCXCXCXCXCXCXCXCXCXCXCX",
"CXCXCXCXCXCXCXCXCXCXCXCXCXCXCXCXCXCXCXCXCXCXCXCXCXCXCXCXCXCXCXCXCXCXCXCXCXCXCXCXCXCXCXCXCXCXCXCXCXCXCXCX. . . . O o o o o o 4 w '  .*.*. ...' ] ] ..-.,X5XeXeXtXeX4XCXCXCXCXCXCXCXCXCXCXCXCXCXCXCXCXCXCXCXCXCXCXCXCXCXCXCXCXCXCXCXCXCXCXCXCXCXCXCXCXCXCXCXCXCXCX",
"CXCXCXCXCXCXCXCXCXCXCXCXCXCXCXCXCXCXCXCXCXCXCXCXCXCXCXCXCXCXCXCXCXCXCXCXCXCXCXCXCXCXCXCXCXCXCXCXCXCXCXCXCXCX. . O O o o o o 4 0 ] ....] w 0 q ]  .;.eXiXxXcXcXxXiXeX<X,XCXCXCXCXCXCXCXCXCXCXCXCXCXCXCXCXCXCXCXCXCXCXCXCXCXCXCXCXCXCXCXCXCXCXCXCXCXCXCXCXCXCXCXCX",
"CXCXCXCXCXCXCXCXCXCXCXCXCXCXCXCXCXCXCXCXCXCXCXCXCXCXCXCXCXCXCXCXCXCXCXCXCXCXCXCXCXCXCXCXCXCXCXCXCXCXCXCXCXCX. . . O O O O o o 5 q ` q 0 6 6 0 ] %.,XeXkXcXnXnXxXiX5X,X;.CXCXCXCXCXCXCXCXCXCXCXCXCXCXCXCXCXCXCXCXCXCXCXCXCXCXCXCXCXCXCXCXCXCXCXCXCXCXCXCXCXCXCXCX",
"CXCXCXCXCXCXCXCXCXCXCXCXCXCXCXCXCXCXCXCXCXCXCXCXCXCXCXCXCXCXCXCXCXCXCXCXCXCXCXCXCXCXCXCXCXCXCXCXCXCXCXCXCXCX. . . . . . O O o 4 6 5 5 4 o 4 0 ` ..-.5XuXkXlXlXiX4X,X&.%.CXCXCXCXCXCXCXCXCXCXCXCXCXCXCXCXCXCXCXCXCXCXCXCXCXCXCXCXCXCXCXCXCXCXCXCXCXCXCXCXCXCXCXCX",
"CXCXCXCXCXCXCXCXCXCXCXCXCXCXCXCXCXCXCXCXCXCXCXCXCXCXCXCXCXCXCXCXCXCXCXCXCXCXCXCXCXCXCXCXCXCXCXCXCXCXCXCXCXCXCXCX. . . . . O O o o 3 o o o 4 0 ` | %.-.,X<X<X3X,X&...` q CXCXCXCXCXCXCXCXCXCXCXCXCXCXCXCXCXCXCXCXCXCXCXCXCXCXCXCXCXCXCXCXCXCXCXCXCXCXCXCXCXCXCXCX",
"CXCXCXCXCXCXCXCXCXCXCXCXCXCXCXCXCXCXCXCXCXCXCXCXCXCXCXCXCXCXCXCXCXCXCXCXCXCXCXCXCXCXCXCXCXCXCXCXCXCXCXCXCXCXCXCXCX. . . . . . O o o o o o o 5 w ` ] ' | ......| ] 0 6 4 CXCXCXCXCXCXCXCXCXCXCXCXCXCXCXCXCXCXCXCXCXCXCXCXCXCXCXCXCXCXCXCXCXCXCXCXCXCXCXCXCXCXCXCX",
"CXCXCXCXCXCXCXCXCXCXCXCXCXCXCXCXCXCXCXCXCXCXCXCXCXCXCXCXCXCXCXCXCXCXCXCXCXCXCXCXCXCXCXCXCXCXCXCXCXCXCXCXCXCXCXCXCXO o O O . . O O o o O O o o 6 5 5 0 0 0 0 0 5 5 4 o o CXCXCXCXCXCXCXCXCXCXCXCXCXCXCXCXCXCXCXCXCXCXCXCXCXCXCXCXCXCXCXCXCXCXCXCXCXCXCXCXCXCXCXCX",
"CXCXCXCXCXCXCXCXCXCXCXCXCXCXCXCXCXCXCXCXCXCXCXCXCXCXCXCXCXCXCXCXCXCXCXCXCXCXCXCXCXCXCXCXCXCXCXCXCXCXCXCXCXCXCXCX*.] 0 5 4 4 o o o o o O . . O o o o o o o o o o o o O CXCXCXCXCXCXCXCXCXCXCXCXCXCXCXCXCXCXCXCXCXCXCXCXCXCXCXCXCXCXCXCXCXCXCXCXCXCXCXCXCXCXCXCXCX",
"CXCXCXCXCXCXCXCXCXCXCXCXCXCXCXCXCXCXCXCXCXCXCXCXCXCXCXCXCXCXCXCXCXCXCXCXCXCXCXCXCXCXCXCXCXCXCXCXCXCXCXCXCXCXuXeX3X-...] q q w 0 5 6 4 o O . O O O O O O O o o o o CXCXCXCXCXCXCXCXCXCXCXCXCXCXCXCXCXCXCXCXCXCXCXCXCXCXCXCXCXCXCXCXCXCXCXCXCXCXCXCXCXCXCXCXCXCXCX",
"CXCXCXCXCXCXCXCXCXCXCXCXCXCXCXCXCXCXCXCXCXCXCXCXCXCXCXCXCXCXCXCXCXCXCXCXCXCXCXCXCXCXCXCXCXCXCXCXCXCXCXCXcXxXlXiXuXeX<X,X;.-.&. .| ] q q w 0 5 6 6 4 4 6 5 w q ] ..&.CXCXCXCXCXCXCXCXCXCXCXCXCXCXCXCXCXCXCXCXCXCXCXCXCXCXCXCXCXCXCXCXCXCXCXCXCXCXCXCXCXCXCXCXCXCX",
"CXCXCXCXCXCXCXCXCXCXCXCXCXCXCXCXCXCXCXCXCXCXCXCXCXCXCXCXCXCXCXCXCXCXCXCXCXCXCXCXCXCXCXCXCXCXCXxXxXxXcXcXcXcXcXxXxXlXiXuXtXeX5X,X-.*. .....' ] q q q q ] | %.>.;.,X<X<X3XCXCXCXCXCXCXCXCXCXCXCXCXCXCXCXCXCXCXCXCXCXCXCXCXCXCXCXCXCXCXCXCXCXCXCXCXCXCXCXCXCXCXCXCX",
"CXCXCXCXCXCXCXCXCXCXCXCXCXCXCXCXCXCXCXCXCXCXCXCXCXCXCXCXCXCXCXCXCXCXCXCXCXCXCXCXCXCXCXCXCXlXxXxXcXcXcXxXxXxXxXxXxXlXkXuXtX4X3X,X-.&. ...' ] ` ` ] | *.-.,X5XeXrXaXrXrXrXCXCXCXCXCXCXCXCXCXCXCXCXCXCXCXCXCXCXCXCXCXCXCXCXCXCXCXCXCXCXCXCXCXCXCXCXCXCXCXCXCXCXCXCX",
"CXCXCXCXCXCXCXCXCXCXCXCXCXCXCXCXCXCXCXCXCXCXCXCXCXCXCXCXCXCXCXCXCXCXCXCXCXCXCXCXCXCXCXiXkXkXlXlXxXxXlXkXkXkXkXiXiXuXtX4X3X,X-.&.*...| ] q q q ) ' %.;.5XtXpXjXkXfXfXfXfXgXCXCXCXCXCXCXCXCXCXCXCXCXCXCXCXCXCXCXCXCXCXCXCXCXCXCXCXCXCXCXCXCXCXCXCXCXCXCXCXCXCXCXCX",
"CXCXCXCXCXCXCXCXCXCXCXCXCXCXCXCXCXCXCXCXCXCXCXCXCXCXCXCXCXCXCXCXCXCXCXCXCXCXjXuXeX5X5XeXrXuXiXiXiXuXrXeX4X5X5X<X<X,X;.&.*. .| ] ` q 0 5 5 5 0 q ' &.,XeXrXaXaXyX0XOX%X%X$X*X&XCXCXCXCXCXCXCXCXCXCXCXCXCXCXCXCXCXCXCXCXCXCXCXCXCXCXCXCXCXCXCXCXCXCXCXCXCXCXCXCXCX",
"CXCXCXCXCXCXCXCXCXCXCXCXCXCXCXCXCXCXCXCXCXCXCXCXCXCXCXCXCXCXCXCXCXCXCXCXgXdXuXtX5X,X;.,X<X3X3X3X<X<X,X;.-.&.*.%.....' ] ` q w 5 6 4 o o 3 6 5 w ]  .;.<X5X3X<X|. X}.XX#X@X*X&X&XCXCXCXCXCXCXCXCXCXCXCXCXCXCXCXCXCXCXCXCXCXCXCXCXCXCXCXCXCXCXCXCXCXCXCXCXCXCXCXCX",
"CXCXCXCXCXCXCXCXCXCXCXCXCXCXCXCXCXCXCXCXCXCXCXCXCXCXCXCXCXCXCXCXCXCX@X@X%X0X7X<X-.$..... .%.%. .....' ] ` ` q q w 0 0 5 5 6 4 o o O O o o o 6 5 w ] ..*.&.%...O.#.).`.].#X@X$X*X&X&X&XCXCXCXCXCXCXCXCXCXCXCXCXCXCXCXCXCXCXCXCXCXCXCXCXCXCXCXCXCXCXCXCXCXCXCXCXCX",
"CXCXCXCXCXCXCXCXCXCXCXCXCXCXCXCXCXCXCXCXCXCXCXCXCXCXCXCXCXCXCXCXCX+XXXoX{.[.=. .' q w w q q q q w 0 5 5 6 4 4 4 4 o o o o o O . . . . . O o o 4 5 0 q ] ] _ q K ( H.~._.'.XX#X@X$X*X*XCXCXCXCXCXCXCXCXCXCXCXCXCXCXCXCXCXCXCXCXCXCXCXCXCXCXCXCXCXCXCXCXCXCXCXCXCX",
"CXCXCXCXCXCXCXCXCXCXCXCXCXCXCXCXCXCXCXCXCXCXCXCXCXCXCXCXCXCX@X@X+X'.~.N.! Y w e 6 4 o 4 4 6 6 4 o o o O O O O O O O O O O O . .         . O O o o 4 5 5 5 5 6 7 n U m.Z.~._.'.XX#X@X$XCXCXCXCXCXCXCXCXCXCXCXCXCXCXCXCXCXCXCXCXCXCXCXCXCXCXCXCXCXCXCXCXCXCXCXCXCX",
"CXCXCXCXCXCXCXCXCXCXCXCXCXCXCXCXCXCXCXCXCXCXCXCXCXCXCXCXCXCX'.`.^.J.b.Z S x & O . . . . O O O O . . . . . .                                 . O O o o o o o o % k S Z z.n.V.~.'.XX#X#XCXCXCXCXCXCXCXCXCXCXCXCXCXCXCXCXCXCXCXCXCXCXCXCXCXCXCXCXCXCXCXCXCXCXCXCXCX",
"CXCXCXCXCXCXCXCXCXCXCXCXCXCXCXCXCXCXCXCXCXCXCXCXCXCXCXCXCXCXn.n.b.j.e.M l $ X .         . . X X X X X . . .                                   . . . . . . . . X $ l M e.j.b.V.^.'.].XXCXCXCXCXCXCXCXCXCXCXCXCXCXCXCXCXCXCXCXCXCXCXCXCXCXCXCXCXCXCXCXCXCXCXCXCXCX",
"CXCXCXCXCXCXCXCXCXCXCXCXCXCXCXCXCXCXCXCXCXCXCXCXCXCXCXCXCXCXC C C C C CXCXCXCXCXCXCXCXCXCXCXk m m m l CXCXCXCXCXCXCXCXCXCXCXCXCXCXCXCXCXCXCXCXCXCXCXCXCXCXCXCXCXCXCXCXCXCXCXCXZ.J.J.J.CXCXCXCXCXCXCXCXCXCXCXCXCXCXCXCXCXCXCXCXCXCXCXCXCXCXCXCXCXCXCXCXCXCXCXCXCX",
"CXCXCXCXCXCXCXCXCXCXCXCXCXCXCXCXCXCXCXCXCXCXCXCXCXCXCXCXCXCXB B B B CXCXCXCXCXCXCXCXCXCXCXCXCXj.j.j.j.CXCXCXCXCXCXCXCXCXCXCXCXCXCXCXCXCXCXCXCXCXCXCXCXCXCXCXCXCXCXCXCXCXCXCXCXCXn.n.n.CXCXCXCXCXCXCXCXCXCXCXCXCXCXCXCXCXCXCXCXCXCXCXCXCXCXCXCXCXCXCXCXCXCXCXCXCX"
};
