/* XPM */
static const char *bos2c7[] = {
/* columns rows colors chars-per-pixel */
"128 128 251 2 ",
"   c #0C0C0C",
".  c #1C160D",
"X  c #141414",
"o  c #1C1C1C",
"O  c #191817",
"+  c #0E0E0F",
"@  c #271B0C",
"#  c #251D16",
"$  c #371712",
"%  c #1A3813",
"&  c #172C10",
"*  c #292217",
"=  c #332413",
"-  c #3A2614",
";  c #3D2B15",
":  c #382A19",
">  c #2F2F13",
",  c #1E2122",
"<  c #242424",
"1  c #2C2C2C",
"2  c #282827",
"3  c #352B25",
"4  c #3A3228",
"5  c #333333",
"6  c #3C3C3C",
"7  c #383736",
"8  c #2D322F",
"9  c #1E1F21",
"0  c #590606",
"q  c #4D1611",
"w  c #690504",
"e  c #740303",
"r  c #7C0101",
"t  c #750C0B",
"y  c #711816",
"u  c #47260C",
"i  c #55280A",
"p  c #432D18",
"a  c #4B341C",
"s  c #473419",
"d  c #56371A",
"f  c #532E12",
"g  c #6B2B06",
"h  c #742C01",
"j  c #782801",
"k  c #7B3402",
"l  c #7A3A07",
"z  c #653B17",
"x  c #6A350F",
"c  c #493726",
"v  c #5B3D22",
"b  c #543B23",
"n  c #4D322F",
"m  c #6F3533",
"M  c #4A1F20",
"N  c #1E4216",
"B  c #234C1A",
"V  c #244518",
"C  c #28551D",
"Z  c #34521C",
"A  c #2B5D21",
"S  c #36512D",
"D  c #2E6424",
"F  c #336A26",
"G  c #38762C",
"H  c #3B7531",
"J  c #2B601F",
"K  c #554D19",
"L  c #774416",
"P  c #734B13",
"I  c #5B4225",
"U  c #4A433A",
"Y  c #574636",
"T  c #4D5234",
"R  c #634324",
"E  c #6A4829",
"W  c #744D2B",
"Q  c #774D28",
"!  c #7A532E",
"~  c #785334",
"^  c #685237",
"/  c #4A6F30",
"(  c #716A2D",
")  c #65641D",
"_  c #3E3F40",
"`  c #3D4243",
"'  c #434343",
"]  c #4B4B4C",
"[  c #484747",
"{  c #554A48",
"}  c #535454",
"|  c #5B5B5B",
" . c #595955",
".. c #52524D",
"X. c #655546",
"o. c #70514E",
"O. c #6F675A",
"+. c #5E6060",
"@. c #636363",
"#. c #6B6B6B",
"$. c #676767",
"%. c #766C69",
"&. c #737373",
"*. c #7B7B7B",
"=. c #777977",
"-. c #71716E",
";. c #5C695A",
":. c #840202",
">. c #8B0101",
",. c #840B09",
"<. c #940000",
"1. c #9B0000",
"2. c #970B0A",
"3. c #921818",
"4. c #A20101",
"5. c #AC0000",
"6. c #AC0A0A",
"7. c #B30000",
"8. c #BC0000",
"9. c #B50E0E",
"0. c #AD1313",
"q. c #823D05",
"w. c #822201",
"e. c #8F2E2D",
"r. c #A93030",
"t. c #C30101",
"y. c #CC0000",
"u. c #C90D0D",
"i. c #D30000",
"p. c #DB0000",
"a. c #D60C0C",
"s. c #D11717",
"d. c #E40000",
"f. c #EA0202",
"g. c #EB0E0E",
"h. c #D22A2A",
"j. c #864207",
"k. c #8A4609",
"l. c #8C4A0B",
"z. c #864408",
"x. c #914E0C",
"c. c #94530E",
"v. c #99580E",
"b. c #895416",
"n. c #9B5C13",
"m. c #955712",
"M. c #9D6316",
"N. c #8F6C1C",
"B. c #A56C1A",
"V. c #A36817",
"C. c #AA741D",
"Z. c #B27C1E",
"A. c #885A35",
"S. c #86592B",
"D. c #96623A",
"F. c #8F732A",
"G. c #AB7921",
"H. c #B17D21",
"J. c #A36D3D",
"K. c #8B4C4C",
"L. c #B05151",
"P. c #91704A",
"I. c #A86D42",
"U. c #B47448",
"Y. c #827B77",
"T. c #846E69",
"R. c #AF6F6F",
"E. c #CB7272",
"W. c #D56754",
"Q. c #3D8633",
"!. c #3D8730",
"~. c #438B36",
"^. c #4A9C3D",
"/. c #45953A",
"(. c #5A8B31",
"). c #5E9838",
"_. c #509647",
"`. c #4DA341",
"'. c #4EA944",
"]. c #51AC45",
"[. c #5AAA44",
"{. c #54B349",
"}. c #59BD4E",
"|. c #55B54A",
" X c #67B649",
".X c #72886C",
"XX c #5CC451",
"oX c #5ECA55",
"OX c #5CC853",
"+X c #63D65A",
"@X c #60CE56",
"#X c #978C30",
"$X c #B88827",
"%X c #BE932C",
"&X c #AD9033",
"*X c #A4AD3D",
"=X c #90A73B",
"-X c #C2972D",
";X c #C59D31",
":X c #C89F30",
">X c #CDAB3A",
",X c #C8A335",
"<X c #D2B33E",
"1X c #D0AF3C",
"2X c #988C53",
"3X c #A19560",
"4X c #D6BA43",
"5X c #C58052",
"6X c #B8CA54",
"7X c #DCC347",
"8X c #CCD256",
"9X c #E2CC4D",
"0X c #E7D653",
"qX c #E6D04E",
"wX c #F1E45C",
"eX c #F5EF67",
"rX c #D7EB66",
"tX c #7D7F81",
"yX c #7E8282",
"uX c #838384",
"iX c #8C8C8C",
"pX c #888887",
"aX c #939393",
"sX c #9C9C9C",
"dX c #979998",
"fX c #918F8D",
"gX c #A99595",
"hX c #9CA1A1",
"jX c #A4A4A4",
"kX c #ACACAC",
"lX c #A8A7A8",
"zX c #B3B3B3",
"xX c #BBBCBB",
"cX c #B7B8B9",
"vX c #B3AFAE",
"bX c #A0A49A",
"nX c #D38989",
"mX c #DFA0A0",
"MX c #C3C3C3",
"NX c #CCCCCC",
"BX c #C7C9C9",
"VX c #D3D3D3",
"CX c #DCDCDC",
"ZX c #CDD0D2",
"AX c #E2E2E2",
"SX c #E8E9E9",
"DX c #EFF5F5",
"FX c #E7DFDF",
"GX c #BEC1C3",
"HX c None",
"JX c black",
/* pixels */
"HXHXHXHXHXHXHXHXHXHXHXHXHXHXHXHXHXHXHXHXHXHXHXHXHXHXHXHXHXHXHXHXHXHXHXHXHXHXHXHXHXHXHXf.f.f.f.f.d.d.d.d.p.p.p.p.i.i.i.i.a.L.fXsXdXaXdXdXsXsXsXsXaXuX&.#.HXHXHXHXHXHXHXHXHXHXHXHXHXHXHXHXHXHXHXHXHXHXHXHXHXHXHXHXHXHXHXHXHXHXHXHXHXHXHXHXHXHXHXHXHXHXHXHXHXHXHXHX",
"HXHXHXHXHXHXHXHXHXHXHXHXHXHXHXHXHXHXHXHXHXHXHXHXHXHXHXHXHXHXHXHXHXHXHXHXHXHXHXHXHXHXi.p.p.p.i.y.t.t.t.8.8.7.7.7.7.7.7.8.8.r.L.R.R.R.R.R.gXlXkXlXsXiX=.&.HXHXHXHXHXHXHXHXHXHXHXHXHXHXHXHXHXHXHXHXHXHXHXHXHXHXHXHXHXHXHXHXHXHXHXHXHXHXHXHXHXHXHXHXHXHXHXHXHXHXHXHX",
"HXHXHXHXHXHXHXHXHXHXHXHXHXHXHXHXHXHXHXHXHXHXHXHXHXHXHXHXHXHXHXHXHXHXHXHXHXHXf.f.p.y.8.7.7.5.4.1.<.>.:.:.r r r r r e r >.1.6.0.s.s.s.s.h.W.mXGXcXlXaXuX&.+.| | @.#.&.uXiXsXkXxXNXVXCXCXCXVXNXMXxXzXHXHXHXHXHXHXHXHXHXHXHXHXHXHXHXHXHXHXHXHXHXHXHXHXHXHXHXHXHXHXHX",
"HXHXHXHXHXHXHXHXHXHXHXHXHXHXHXHXHXHXHXHXHXHXHXHXHXHXHXHXHXHXHXHXHXHXHXHXHXp.i.y.8.5.<.>.3.r.L.L.K.K.K.K.o.o.m m m m m y e :.1.5.8.t.y.y.h.R.R.R.R.R.K.K. . .+.$.&.uXiXaXjXzXxXNXVXCXCXCXVXNXMXMXMXMXHXHXHXHXHXHXHXHXHXHXHXHXHXHXHXHXHXHXHXHXHXHXHXHXHXHXHXHXHXHX",
"HXHXHXHXHXHXHXHXHXHXHXHXHXHXHXHXHXHXHXHXHXHXHXHXHXHXHXHXHXHXHXHXHXf.f.d.i.t.5.1.>.r e w m R.vXvXlXgXgXgXgXdXdXaXfXpX%.m 0 0 e e :.>.>.<.2.2.0.0.0.9.9.3.{ } +.#.uXaXjXjXkXzXMXNXVXVXCXCXVXNXNXVXVXVXVXNXMXxXHXHXHXHXHXHXHXHXHXHXHXHXHXHXHXHXHXHXHXHXHXHXHXHXHXHX",
"HXHXHXHXHXHXHXHXHXHXHXHXHXHXHXHXHXHXHXHXHXHXHXHXHXHXHXHXHXHXHXHXf.d.i.t.5.2.e.e.K.K.K.K.T.fXjXjXhXhXhXsXhXsXdXaXiXuX&.o.n m m m o.m y e e r :.>.>.1.1.,.m  .@.&.iXjXzXxXMXNXNXVXVXVXVXVXVXNXVXCXCXAXCXVXNXMXxXHXHXHXHXHXHXHXHXHXHXHXHXHXHXHXHXHXHXHXHXHXHXHXHXHX",
"HXHXHXHXHXHXHXHXHXHXHXHXHXHXHXHXHXHXHXHXHXHXHXHXHXHXHXHXHXHXHXf.d.y.5.<.t m O.uXaXsXjXjXsXiXuXuXiXiXiXfXaXiXiXpX*.&.#.$.$.#.&.*.uXT.m w w w w t e e e y n  .$.*.aXkXMXNXCXCXCXCXVXVXVXVXNXNXVXCXAXSXSXAXVXMXxXzXHXHXHXHXHXHXHXHXHXHXHXHXHXHXHXHXHXHXHXHXHXHXHXHX",
"HXHXHXHXHXHXHXHXHXHXHXHXHXHXHXHXHXHXHXHXHXHXHXHXHXHXHXHXHXf.d.i.8.4.,.y m O.uXaXiXpXaXsXhXsXsXsXjXjXjXjXjXsXsXaXiX*.&.&.&.*.pXpXyX&.O.o.o.o.o.o.o.m n n { | $.*.iXjXzXMXVXCXAXAXAXCXVXVXNXMXNXNXVXCXCXVXMXxXzXzXzXxXHXHXHXHXHXHXHXHXHXHXHXHXHXHXHXHXHXHXHXHXHXHX",
"HXHXHXHXHXHXHXHXHXHXHXHXHXHXHXHXHXHXHXHXHXHXHXHXHXHXHXHXf.d.i.7.<.r w m %.uXiXiX*.#.*.aXjXzXxXMXNXMXMXxXxXzXkXjXsXiXuX*.*.uXiXiX*.&.&.&.&.*.Y.Y.&.@.} .. .+.#.*.iXsXlXzXMXNXCXAXAXCXCXVXMXxXxXxXGXMXMXxXzXkXlXlXzXxXMXHXHXHXHXHXHXHXHXHXHXHXHXHXHXHXHXHXHXHXHXHX",
"HXHXHXHXHXHXHXHXHXHXHXHXHXHXHXHXHXHXHXHXHXHXHXHXHXHXHXf.p.y.7.<.:.e HX%.uXuXyX*.&.*.iXjXzXMXVXCXAXCXVXNXNXMXxXkXsXiXuX*.&.*.iXiXiXpX&.$.$.&.=.*.&.+.} } | #.pXsXlXzXzXzXzXxXMXNXNXVXVXNXxXzXkXlXkXkXkXkXlXlXlXlXzXxXMXNXHXHXHXHXHXHXHXHXHXHXHXHXHXHXHXHXHXHXHXHX",
"HXHXHXHXHXHXHXHXHXHXHXHXHXHXHXHXHXHXHXHXHXHXHXHXHXHXf.d.y.7.<.r e HXHXpXuX*.&.-.*.pXsXkXMXVXCXSXSXSXCXCXVXNXxXkXsXiX*.&.#.&.*.pXaXaX*.@.@.$.$.#.$.| ] } | &.dXzXMXMXxXzXkXkXzXzXxXxXMXMXzXjXjXsXsXsXsXjXlXkXzXzXzXxXMXNXNXHXHXHXHXHXHXHXHXHXHXHXHXHXHXHXHXHXHXHX",
"HXHXHXHXHXHXHXHXHXHXHXHXHXHXHXHXHXHXHXHXHXHXHXHXHXHXp.i.7.1.>.HXHX$.#.#.$.$.$.&.uXfXjXzXxXNXVXCXCXCXCXCXVXNXxXkXsXiX*.#.@.| | #.iXaXiX*.$.| | @.@. .] ] | &.aXzXMXNXNXxXzXkXlXlXlXlXzXkXjXsXaXaXaXaXsXlXxXMXNXNXMXMXMXMXxXHXHXHXHXHXHXHXHXHXHXHXHXHXHXHXHXHXHXHX",
"HXHXHXHXHXHXHXHXHXHXHXHXHXHXHXHXHXHXHXHXHXHXHXHXHXHXy.8.4.>.:.HXHX=.#.$.| | $.&.uXaXsXlXzXxXMXMXNXNXNXNXMXxXkXsXaXuX&.$.| } ] | &.iXaXaX*.| } | | } ' [  .$.uXsXkXxXzXkXjXjXsXsXsXsXsXsXsXaXaXiXpXuXiXsXzXMXVXCXVXNXMXxXzXHXHXHXHXHXHXHXHXHXHXHXHXHXHXHXHXHXHXHX",
"HXHXHXHXHXHXHXHXHXHXHXHXHXHXHXHXHXHXHXHXHXHXHXHXd.i.8.5.>.r e HXHX*.&.$.| | $.&.*.iXaXsXjXjXlXkXzXkXlXjXjXsXaXpX*.#.$.| | ] [ ] | &.aXjXiX$. . .} [ ' ' [  .@.#.*.uXpXpXpXiXiXaXaXaXaXaXaXaXaXiX*.$.@.#.uXsXMXCXAXCXVXMXxXxXxXHXHXHXHXHXHXHXHXHXHXHXHXHXHXHXHXHX",
"HXHXHXHXHXHXHXHXHXHXHXHXHXHXHXHXHXHXHXHXHXHXHXHXp.y.7.1.>.r HXHXHX&.#.@. .| @.#.*.pXiXiXaXaXaXaXaXiXpXuX*.*.&.#.$.| |  .} [ ' ' [ @.iXlXsX&.@. .[ ' 6 6 ' [ ] } | | @.$.$.#.&.*.pXpXuXuXiXiXiXiX*.@.} ]  .#.aXzXNXCXCXNXMXxXzXzXHXHXHXHXHXHXHXHXHXHXHXHXHXHXHXHX",
"HXHXHXHXHXHXHXHXHXHXHXHXHXHXHXHXHXHXHXHXHXHXHXHXt.8.5.1.<.HXHXHXHX@.|  .] } | $.&.*.*.uXuXpXuX*.&.#.$.| |  . . .} } ] [ ' 6 6 6 ' | iXkXjXiX-.| ' 6 6 6 ' ' ' ' [ ] } }  .| @.$.#.&.&.&.uXiXaXaXpX#. .6 5 6 } &.jXNXCXVXNXzXkXzXxXMXHXHXHXHXHXHXHXHXHXHXHXHXHXHX",
"HXHXHXHXHXHXHXHXHXHXHXHXHXHXHXHXHXHXHXHXHXHXHXHX7.5.4.1.HXHXHXHX@.|  .] ' [  .| @.$.$.#.#.$.$.@.| } ] ' ' 6 6 6 6 6 6 6 6 7 5 6 ' @.iXkXjXpX$.} ' 6 7 6 ' ' [ ]  .@.$.$.$.@.@.| @.@.$.#.&.uXiXaXaX*.| 6 2 < 1 ' &.sXxXNXNXzXlXkXzXxXMXHXHXHXHXHXHXHXHXHXHXHXHXHX",
"HXHXHXHXHXHXHXHXHXHXHXHXHXHXHXHXHXHXHXHXHXHXHXHX1.1.1.1.HXHXHX#.$.| ] ' 6 ' [ ] } } } } } } ] [ ' ' _ 6 7 5 5 7 7 7 5 5 5 5 5 ' | &.sXlXsX&.| [ 6 5 5 7 ' [  .@.&.uXiXiXiX*.&.$.| | | $.#.*.iXsXsXiX#.[ 2 O o 1 6 | iXzXMXzXlXlXkXzXMXBXHXHXHXHXHXHXHXHXHXHXHXHX",
"HXHXHXHXHXHXHXHXHXHXHXHXHXHXHXHXHXHXHXHXHXHXHXHX>.<.<.1.HXHXHX#.$. .[ 6 7 6 6 ' ' ' ' [ ' ' ' 6 6 6 6 6 6 ' ' [ ] ] } } ] }  .$.*.aXsXsXpX@.] ' 6 5 1 5 6 ] | $.*.iXaXhXjXjXsXiX&.$.| | $.&.iXjXlXhXpX| 5 o X X o 7 @.aXjXlXlXkXzXxXxXMXMXHXHXHXHXHXHXHXHXHXHXHX",
"HXHXHXHXHXHXHXHXHXHXHXHXHXHXHXHXHXHXHXHXHXHXHXHXr :.<.1.HXHXHX#.@.} ' 6 5 5 7 6 6 6 6 ' ' 6 6 6 6 ' [ } | @.$.&.&.*.*.*.&.*.*.iXsXsXaXpX#.] 6 6 7 1 1 1 6 [  .@.&.pXaXjXzXMXMXzXaX*.@. .| #.pXjXzXzXjX&.[ 1 o O O 2 ' $.pXsXlXzXxXxXzXzXMXNXHXHXHXHXHXHXHXHXHXHX",
"HXHXHXHXHXHXHXHXHXHXHXHXHXHXHXHXHXHXHXHXHXHXHXHXe r >.1.HXHXHX$.@.| ] 6 1 1 1 5 7 6 6 6 6 5 7 '  .#.uXaXsXjXjXlXkXkXlXjXaXaXiXiXiXuX&.$.] 6 1 5 5 1 1 1 7 ' [ | #.*.aXsXzXMXNXMXzXaX&.| | @.*.sXzXxXzXaX#. .' 7 5 5 '  .#.iXjXkXkXjXaXsXkXxXMXHXHXHXHXHXHXHXHXHX",
"HXHXHXHXHXHXHXHXHXHXHXHXHXHXHXHXHXHXHXHXHXHXHXHXw e :.1.4.HXHX@.@.+. .' 1 2 1 1 5 7 7 7 7 7 ' | *.aXzXMXMXNXNXMXMXxXzXlXsXaXpX&.$.| ] ' 7 1 2 1 1 1 2 1 5 6 ' ] @.&.pXaXjXzXMXMXxXjXuX@.} | #.iXjXxXxXkXaXuX#.@. .} ] } $.pXsXjXjXaX&.*.aXlXzXHXHXHXHXHXHXHXHXHX",
"HXHXHXHXHXHXHXHXHXHXHXHXHXHXHXHXHXHXHXHXHXHXHXHX0 w r <.5.t.e.o.| +.| ' 2 o 2 1 1 1 1 1 6 } #.pXsXzXxXxXxXzXlXjXsXaXpX*.&.$.| ] ' 7 1 1 2 2 2 2 1 2 2 2 1 1 7 ' } $.*.iXaXjXkXzXxXjXpX$.} } @.*.aXlXzXzXkXjXsXaXpX*.#.$.&.iXsXjXjXiX$.$.*.iXjXzXHXHXHXHXHXHXHXHX",
"HXHXHXHXHXHXHXHXHXHXHXHXHXHXHXHXHXHXHXHXHXHXHXHX0 w e :.4.8.3.o. .+.| ' 1 < < 2 2 2 1 7 ] -.iXsXjXlXjXsXaXuX&.$.@.| } ] ' 6 5 1 < * * * < 2 1 1 2 2 < < 2 1 1 6 [ | $.*.iXaXsXjXkXjXpX#.| ]  .$.*.aXjXlXzXzXzXzXjXaXiXuXpXaXjXkXkXaX&.@.$.*.aXzXxXHXHXHXHXHXHXHX",
"HXHXHXHXHXHXHXHXHXHXHXHXHXHXHXHXHXHXHXHXHXHXHXHXHXHXw e <.4.3.m .. .| ..` 5 < o o 2 6 } $.uXaXiXuX*.#.@. .] ' 6 7 5 1 1 2 < * = * * : 4 4 5 5 8 1 < o o < 2 8 6 ' [ | $.*.pXaXdXsXaXpX&.| [ ] | $.*.iXaXsXjXkXkXjXsXaXaXaXjXlXxXxXlXiX&.$.$.aXxXMXHXHXHXHXHXHXHX",
"HXHXHXHXHXHXHXHXHXHXHXHXHXHXHXHXHXHXHXHXHXHXHXHXHXHXw w r >.y n [ .. . . .[ 6 5 1 7 [ $.&.*.*.#.| ] ` 7 1 2 * # o o o O O @ = = = = s b U n 6 7 5 1 < o < 2 1 5 7 6 '  .$.&.*.pXiXiXpX*.@.] [ } | @.#.&.uXiXfXaXaXiXiXiXaXsXlXxXMXxXlXaX&.#.aXxXMXHXHXHXHXHXHXHX",
"HXHXHXHXHXHXHXHXHXHXHXHXHXHXHXHXHXHXHXHXHXHXHXHXHXHX0 w w e y n ` ' [ | $.$.$.@.| | @.$.$.| } ' 7 1 2 * # # . . @ @ * * * = ; ; = - a I Y [ ' ' 6 5 1 2 < < 2 1 1 5 6 ' [  .@.$.&.*.uX*.#.| } [ [ }  .| @.$.$.$.$.$.#.&.uXaXjXkXxXxXxXlXaXpXsXzXxXxXzXHXHXHXHXHX",
"HXHXHXHXHXHXHXHXHXHXHXHXHXHXHXHXHXHXHXHXHXHXHXHXHXHXHX0 0 0 0 M n 5 6 [ | $.$.$.@.| |  .] 6 5 2 * o O O . @ @ @ = - - = = a E E v a a v Y X.X. .} [ 6 7 1 2 < < 2 2 1 8 7 6 [ } | $.&.*.*.&.$.|  . .| | $.$.@.| | | | @.$.&.uXaXjXkXzXzXjXsXjXzXzXxXxXHXHXHXHXHX",
"HXHXHXHXHXHXHXHXHXHXHXHXHXHXHXHXHXHXHXHXHXHXHXHXHXHXHXHX0 0 0 0 q $ 1 5 6 ' [ [ [ ' 6 7 1 2 * O # . . @ @ = = - s d d p p E D.J.A.E v a R A.P.%.#.@. .[ 6 5 1 2 < o < 2 1 1 7 6 ' } @.&.*.uXuX*.=.&.&.*.uXuX*.&.$.|  . .}  .| #.*.iXsXjXjXjXlXkXzXxXxXHXHXHXHXHX",
"HXHXHXHXHXHXHXHXHXHXHXHXHXHXHXHXHXHXHXHXHXHXHXHXHXHXHXHXi q 0 0 0 $ 1 1 1 1 1 5 5 5 1 * # # # @ @ @ @ = = - - ; a E E v d W D.J.I.D.E b R A.P.O.$.-.&.#.$.| } ' 7 2 < < 2 2 1 1 5 6 [ | $.*.uXpXpXpXpXfXsXsXsXaXiXuX*.&.$.|  .| @.#.*.iXaXsXjXlXzXxXxXHXHXHXHXHX",
"HXHXHXHXHXHXHXHXHXHXHXHXHXHXHXHXHXHXHXHXHXHXHXHXHXHXHXHXE z f 0 q 3 5 1 < o o o 9 o o . @ - : = @ = - ; s s ; - a W A.! W E W A.U.U.A.R R W ~ X.| &.pXaXaXiXuX#. .6 5 1 1 1 1 2 2 1 7 6 ] | $.&.uXiXaXsXjXkXzXzXzXkXlXjXaX*.$.|  . .@.&.*.iXsXjXkXzXxXHXHXHXHXHX",
"HXHXHXHXHXHXHXHXHXHXHXHXHXHXHXHXHXHXHXHXHXHXHXHXHXHXHXHXE E z x f c 5 5 1 1 1 2 * # # . @ - p p ; - - p v R b s c R ! D.D.! R W I.U.I.A.W R R ^ o.O.-.*.iXaXaXaXuX#.| } [ ' 6 7 1 1 1 5 7 6 ' } | $.&.uXiXaXjXlXkXzXxXxXzXjXaXtX&.$.| | @.#.uXaXjXkXzXHXHXHXHXHX",
"HXHXHXHXHXHXHXHXHXHXHXHXHXHXHXHXHXHXHXHXHXHXHXHXHXHXHXHXE E E W R c 5 7 6 6 6 5 3 = @ @ @ = p c c p = ; R W E b c c E D.U.A.R E D.U.U.U.A.v v A.P.o.[ } #.uXaXsXsXaXuX&.$.|  .[ 6 7 5 5 1 2 1 1 6 '  .| $.&.*.pXiXsXlXzXzXzXkXjXaX*.$. ...} $.*.aXjXlXHXHXHXHXHX",
"HXHXHXHXHXHXHXHXHXHXHXHXHXHXHXHXHXHXHXHXHXHXHXHXHXHXHXHXR R R R b 4 1 5 6 6 6 7 4 3 = @ @ @ = s v c ; p b R W ! E b I A.I.D.S.! S.D.U.U.I.E R A.A.^ 5 7 [ } $.&.&.#.$.| } } ] ' 6 6 6 6 5 HXHXHXHXHXHX[ ' [ ]  .| $.&.uXiXiXaXaXaXiX*.$.} [  .$.*.aXsXHXHXHXHXHX",
"HXHXHXHXHXHXHXHXHXHXHXHXHXHXHXHXHXHXHXHXHXHXHXHXHXHXHXHXI I d a p : 2 1 5 7 7 5 5 1 3 : = @ @ p d v c c s a E A.S.R I ! D.D.J.D.W W I.5XU.A.W ! ! b 1 2 1 7 ' [ ] ] [ ' 6 6 _ 6 6 6 6 ' HXHXHXHXHXHXHXHX5 5 5 5 7 6 [ | @.$.#.*.uXpXpX&.| [ ] | #.pXaXHXHXHXHXHX",
"HXHXHXHXHXHXHXHXHXHXHXHXHXHXHXHXHXHXHXHXHXHXHXHXHXHXHXHXd d s p ; ; : 3 2 2 1 1 2 1 3 ; : = @ = p a v v a a I W ! ! ! E E A.U.J.! W D.U.U.I.D.! I c 1 8 7 6 ' [ ] ] ] ' 6 7 1 1 1 8 7 HXHXHXHXHXHXHXHXHXHXHXHXHXHXHXHXHX] [ [ } | @.$.$.@.| ] ] | *.pXHXHXHXHXHX",
"HXHXHXHXHXHXHXHXHXHXHXHXHXHXHXHXHXHXHXHXHXHXHXHXHXHXHXHXa s p - - s s : * o # < < < 3 4 ; - = @ @ p d R v d d v E A.A.E I ! I.I.A.! A.D.I.U.I.~ b c U [ ]  .@.$.#.&.&.$.| [ 7 5 1 1 HXHXHXHXHXHXHXHXHXHXHXHXHXHXHXHXHXHXHX7 6 6 ' [ } | | | ] '  .#.*.HXHXHXHXHX",
"HXHXHXHXHXHXHXHXHXHXHXHXHXHXHXHXHXHXHXHXHXHXHXHXHXHXHXHXp p ; - - s s ; = # # o o o * < : p p = @ @ ; a v R b a v W S.W E ! A.D.D.D.! E D.U.U.W v R A.P.%.*.aXjXzXxXxXzXsX*.| ] ' ' HXHXHXHXHXHXHXHXHXHXHXHXHXHXHXHXHXHXHXHXHXHXHXHXHXHX] [ ' ' } @.#.HXHXHXHXHX",
"HXHXHXHXHXHXHXHXHXHXHXHXHXHXHXHXHXHXHXHXHXHXHXHXHXHXHXHX- - - - - p s p - * # o 9 < 2 1 7 U U 4 * @ = ; a v b a b R E W W W E ! D.D.! I ~ I.I.W I W D.P.T.uXsXkXxXMXMXMXkXaX&.@. .] HXHXHXHXHXHXHXHXHXHXHXHXHXHXHXHXHXHXHXHXHXHXHXHXHXHXHX' 6 6 [  .| HXHXHXHXHX",
"HXHXHXHXHXHXHXHXHXHXHXHXHXHXHXHXHXHXHXHXHXHXHXHXHXHXHXHX@ = = - ; p p p ; = # o 1 7 6 ' ]  . .U 4 - = = - p a v v a b R W E d E A.D.S.E ! A.A.E I E W ^ | $.&.uXiXaXaXaXiX*.&.#.HXHXHXHXHXHXHXHXHXHXHXHXHXHXHXHXHXHXHXHXHXHXHXHXHXHXHXHXHXHX7 5 6 ' ] HXHXHXHXHX",
"HXHXHXHXHXHXHXHXHXHXHXHXHXHXHXHXHXHXHXHXHXHXHXHXHXHXHXHX{ U Y Y U c - - ; = # o 1 5 _ [ { o.o.m y f - = = = p v b a a b v v d v W ! ! W W E E R R v v b U ]  .| $.$.$.@.| |  . .HXHXHXHXHXHXHXHXHXHXHXHXHXHXHXHXHXHXHXHXHXHXHXHXHXHXHXHXHXHXHX1 7 ' ' HXHXHXHXHX",
"HXHXHXHXHXHXHXHXHXHXHXHXHXHXHXHXHXHXHXHXHXHXHXHX-.$.| | =.iXiXY.$.U = = ; - @ . # 2 8 6 n 3.6.6.2.t f - * @ = p a s s p p s c c a b E W R a s d I a p 4 7 _ [ ] ] ] ' 6 6 6 6 6 HXHXHXHXHXHXHXHXHXHXHXHXHXHXHXHXHXHXHXHXHXHXHXHXHXHXHXHXHXHXHXHXHXHXHXHXHXHXHXHX",
"HXHXHXHXHXHXHXHXHXHXHXHXHXHXHXHXHXHXHXHXHXHXHXP.2XT. .| pXzXjXyX$. . .O.O.{ : . . * M y 3.6.8.7.1.r y q $ @ @ @ = ; p - = - ; ; : : b R d - - p s - = c +.&.&.$.@.| | @.$.#.&.iXzXHXHXHXHXHXHXHXHXHXHXHXHXHXHXHXHXHXHXHXHXHXHXHXHXHXHXHXHXHXHXHXHXHXHXHXHXHXHXHX",
"HXHXHXHXHXHXHXHXHXHXHXHXHXHXHXHXHXHXHXHXHXc.n.$X,X&X^ } aXBXlX$.} &.aXlXkX3XU @ @ - y 6.t.t.7.1.:.e w 0 $ = * @ @ = - - = = = = * = : p p - - p c - : X.sXzXlXaXpX*.pXsXzXMXNXVXVXNXxXzXHXHXHXHXHXHXHXHXHXHXHXHXHXHXHXHXHXHXHXHXHXHXHXHXHXHXHXHXHXHXHXHXHXHXHXHX",
"HXHXHXHXHXHXHXHXHXHXHXHXHXHXHXHXHXHXHXHXHXl.c.C.-X&X^  .aXMXjX .6 | *.sXlXdX&...4 - t t.p.y.7.1.r w q M n U .. .U : @ @ @ @ @ @ . . @ @ @ @ 4 O.Y.Y.%.3XsXjXaXuXuXiXaXjXxXNXCXAXCXVXMXxXkXsXHXHXHXHXHXHXHXHXHXHXHXHXHXHXHXHXHXHXHXHXHXHXHXHXHXHXHXHXHXHXHXHXHXHX",
"HXHXHXHXHXHXHXHXHXHXHXHXHXHXHXHXHXHXHXHXHXq.k.v.C.F.^ | fXzXiX[ 1 6 ] $.*.aXsXpX .p t t.p.t.5.1.r 0 $ 5 [ @.*.iX-.c @ * = : : : * * * * * * { dXMXMXlXaX*.-.@.@.#.uXiXsXjXxXNXVXCXVXMXzXjXaXaXHXHXHXHXHXHXHXHXHXHXHXHXHXHXHXHXHXHXHXHXHXHXHXHXHXHXHXHXHXHXHXHXHX",
"HXHXHXHXHXHXHXHXHXHXHXHXHXHXHXHXHXHXHXHXHXk k k.c.b.^ +.yXaX&.6 < < 1 7 ' @.*..X#.X.e.a.p.y.7.1.r 0 # , 8 ' | $.@...[ ..| O.-.=.Y.3XiXfXiX3XiXjXlXaX*.@.] ' [ } +.&.*.iXsXkXxXMXMXzXjXaXpXuXiXlXcXkXaX.X~.!./.`.].{.{.{.].`.HXHXHXHXHXHXHXHXHXHXHXHXHXHXHXHXHXHX",
"HXHXHXHXHXHXHXHXHXHXHXHXHXHXHXHXHXHXHXHXHXh h k l Q o.#.&.&.| 6 1 1 1 1 1 6 } +.#.%.K.u.p.i.8.4.:.0 $ O # 2 5 6 [ } +.#.*.iXdXjXkXxXBXZXNXxXkXaX&.| ' 5 1 5 ' } | @.$.*.pXaXsXsXaXiX*.&.&.uXfXhXbXdXiX.X/.~.^.`.'.].].].].].'.].HXHXHXHXHXHXHXHXHXHXHXHXHXHXHXHX",
"HXHXHXHXHXHXHXHXHXHXHXHXHXHXHXHXHXHXHXHXHXj h g v X.Y.pX&.} ] } | $.$.@.} ' 6 6 ` { e.9.i.p.i.8.4.:.w q $ < 2 1 8 7 ` [ ..| $.-.&.*.pXiXpX*.&.| [ 6 5 1 5 6 } @.@.| | | | | | } ] ]  .#.aXkXbX.X_._._._.].].{.{.`.^.^.`.{.XXOXXX}.}.}.}.}.}.HXHXHXHXHXHXHXHXHXHX",
"HXHXHXHXHXHXHXHXHXHXHXHXHXHXHXHXHXHXHXHXHXL L v n } uXaX#.' ] $.pXsXlXsXuX@.6 1 2 3 y 1.t.i.p.y.8.7.4.,.q M M M 3 1 8 8 7 6 [ .. .| | @.@.| | } ] ' ' ' ' ] | $.$.@.|  .] ] [ ' ' ] $.pXvXBXbX;.F !.^.].}.XX}.].~.G G ~.^.}.@X@XXXXXXXXXXXXXOXHXHXHXHXHXHXHXHXHX",
"HXHXHXHXHXHXHXHXHXHXHXHXHXHXHXHXHXHXHXHXHX3XY.O.' ..&.pX$.] @.iXlXMXVXMXjXuX| ' 1 # q r 4.8.y.i.i.y.t.7.4.2.2.2.y n ` ` ' ..@.#.&.*.uXiXiXiXiXiXpX*.&.$.| }  .| $.&.&.*.*.*.*.pXaXjXzXMXMXxXaX_.!.^.{.}.XX}.].~.F B V B D ~.].XX+X@XXXXX@X+X+X+XHXHXHXHXHXHXHXHX",
"HXHXHXHXHXHXHXHXHXHXHXHXHXHXHXHXHXHXHXHXHXjXdX&.] ] $.&.+.} $.aXzXNXVXMXlXiX$.} ' n n y ,.1.8.y.p.p.i.i.y.y.i.y.0.e.m m m O.Y.iXdXhXlXvXcXGXGXMXxXzXlXaX*.$. .] | #.&.*.*.*.uXfXhXvXxXxXlXfX.X_.~.`.|.}.{.'./.G C % & & N D Q.].oXoX}.}.OX+X+X+X+XHXHXHXHXHXHXHX",
"HXHXHXHXHXHXHXHXHXHXHXHXHXHXHXHXHXHXHXHXHXaXiX&.} ] } | } ] @.uXsXkXzXlXaX*.|  .-.*.#.{ d t 1.7.t.y.i.p.p.p.p.p.i.u.u.9.0.L.gXlXzXxXMXNXCXAXSXAXAXAXCXNXzXfX$.[ [ } | | | |  .| @.$.=.=.;./ H H ~.^.`.`.^./.Q.F B % & & & N D ~.{.{.].].{.}.XXoX+X+X@XHXHXHXHXHX",
"HXHXHXHXHXHXHXHXHXHXHXHXHXHXHXHXHXHXHXHXHXuX*.&.@. .[ ' 6 6 } #.*.pXiXuX&.#.@.$.*.*.@.` 4 q w >.4.7.8.t.y.i.p.p.d.d.d.d.p.h.W.E.E.nXnXnXmXmXmXFXDXDXSXVXzXdX*.#.&.yXuXyX=.#.|  .] [ [ ' S B C F H ~.~.~.Q.!.G D B % & & & & V G /.`.`.`.^.^.'.{.}.XXXXXXHXHXHXHX",
"HXHXHXHXHXHXHXHXHXHXHXHXHXHXHXHXHXHXHXHXHX$.$.#.&.+._ 1 2 1 6 } | | | } ] | &.*.$...6 2 < # $ 0 r :.<.1.5.8.t.y.i.p.d.d.d.g.g.g.g.g.g.s.s.s.W.mXSXAXVXzXdXiXfXjXxXVXVXMXzXjXiX&.| [ 5 2 % V B C A D F G G G F A B N % % & & N D !.^.].`.~.Q.Q./.`.].{.}.}.HXHXHX",
"HXHXHXHXHXHXHXHXHXHXHXHXHXHXHXHXHXHXHXHXHX .| $.&.+.7 o X o 2 7 _ ' ' 6 7 ..&.*.| 6 4 p ; 3 1 n m m m y ,.1.4.5.7.t.y.y.i.p.p.d.f.f.f.f.d.d.g.W.nXnXE.E.L.L.L.E.E.nXnXnXgXgXkXdX*. .5 & % % N N V B C A D D D D C B B B B B C G ~.^.`.`./.~.~./.`.].]./.Q.~.HXHX",
"HXHXHXHXHXHXHXHXHXHXHXHXHXHXHXHXHXHXHXHXHX[ ] | $. .8 O X O * 1 5 7 6 5 1 [ #.&.} 7 d l z c 6 ] | @.@.o.y t r :.>.<.4.5.7.8.8.t.i.p.p.d.d.f.f.g.g.g.g.g.a.a.a.a.u.9.0.0.r.R.xXzXaX-.S V N N N % % N V B B C A A C C C A D F G !./.^.^.^.^.^.^.^.].}.'.G C G `.{.",
"HXHXHXHXHXHXHXHXHXHXHXHXHXHXHXHXHXHXHXHXHX7 6 ' } { c f d E ( ( ^ c 1 1 7 ' ] } Y R L z.l c 6 | =.yX=.%.T.K.m m M q w :.1.4.4.4.5.7.8.8.t.t.y.y.y.i.i.i.i.y.y.t.7.5.1.<.3.R.xXcXhX.XT B B A A C B N % > > ; p p u u > B C C C D F G G Q.Q.~./.`.{.XXXX'./.`.{.}.",
"HXHXHXHXHXHXHXHXHXHXHXHXHXHXHXHXHXHXHXHXHX2 1 5 6 U L l.B.%X>X4X&X^ 4 7 ' ' 6 c P m.c.k.z c 6 $.iXaXaXaXsXaX&.} 6 1 $ 0 e r r r :.:.:.:.>.1.1.4.5.5.7.7.7.5.5.4.1.1.<.>.3.R.kXkXdX.X/ C J F G G F A V > $ 0 0 w w w u > V % % V B Z F F F G Q./.'.}.OX+X+X@X}.{.",
"HXHXHXHXHXHXHXHXHXHXHXHXHXHXHXHXHXHXHXHXHXHXHX< 2 c P C.;X7X0XwX0X>X#X^ U n E Q m.n.c.k.l c [ &.jXzXzXzXcXkXiX$.] 6 1 $ $ q q q q q M M y r >.>.<.<.<.<.<.<.>.>.:.:.r r y K.aXfX&. .S C D G ~.^.^./.H Z > u g j w.j g z K K P P ) ( F.( / B C D F G Q.Q.^./.Q.Q.",
"HXHXHXHXHXHXHXHXHXHXHXHXHXHXHXHXHXHXHXHXHXHXHXHX# s P $X>X9XwXeXeXwX7X2XT ^ F.H.C.n.c.k.L b } tXkXMXZXVXNXxXsX*.| [ 7 2 O O o o # < 2 1 M 0 w e e e e e e t t t t t t w y o.*.#.] 7 8 B D G ^.{.}.}.].Q.F K P P z.L z.l.l.c.n.M.B.$X%X#X) V V Z Z Z Z / / / / / ",
"HXHXHXHXHXHXHXHXHXHXHXHXHXHXHXHXHXHXHXHXHXHXHXHXi x b.C.%X1X7XqXqX7X<X&X&X&X,X,X$XC.v.l.L Y  .uXkXNXCXCXCXMXjXpX$. .' 5 2 < < 9 o O O O # $ $ $ $ $ M M M n m o.o.o.o.X.{ }  .[ 7 1 % B A G /.].}.XXXX|.`.~./ ) ) ) ) M.V.c.l.k.k.v.B.B.N.( N.F.#X#X*X*X6X6X6X6X",
"HXHXHXHXHXHXHXHXHXHXHXHXHXHXHXHXHXHXHXHXHXHXHXHXh k k.n.C.$X;X>X>X,X;X>X4X7X7X<X-XH.M.l.L Y | uXzXNXAXSXCXNXkXiX&.| [ 6 8 1 2 < O O O o < 1 2 o O o < 2 8 6 [ } @.#.$.| ] ' 6 7 1 2 % V C F !.^.{.XXOXOXXX{.`.~.!.~.( F.B.M.c.j.q.j.x.n.V.B.H.$X%X,X4X9XwXeXeXeX",
"HXHXHXHXHXHXHXHXHXHXHXHXHXHXHXHXHXHXHXHXHXHXHXHXh k q.l.n.B.H.$X%X%X;X4X9XqX7X<X-XH.M.l.L Y | pXzXVXSXSXAXNXkXiX&.| [ 6 8 2 < 9 2 1 7 6 ]  .[ 1 X X O o 9 2 1 1 5 7 7 7 7 5 1 5 5 8 % % V C G ~.`.].}.XXoXoXoXXX].`./.(.(.#XH.C.V.n.l.z.q.j.l.c.M.B.H.%X;X>X<X4X",
"HXHXHXHXHXHXHXHXHXHXHXHXHXHXHXHXHXHXHXHXHXHXHXHXh k k q.k.x.c.M.B.$X;X4X0X0X7X>X%XZ.M.l.L Y | iXxXCXSXSXCXNXkXiX&.| [ 6 1 < O o 2 1 6 [ | $.| 6 < O O O O o # = @ X X o 9 9 < 1 5 8 * & % B D G ~.^.`.{.XXoX+X+XOX}.'.^.).=X&X#X#XN.n.c.l.k.l.c.M.B.H.$X;X>X<X4X",
"HXHXHXHXHXHXHXHXHXHXHXHXHXHXHXHXHXHXHXHXHXHXHXHXHXHXh k k k l l l.C.;X4X0X9X<X;X$XZ.M.l.L Y | aXMXCXSXSXCXMXlXiX&.| [ 7 1 o X X O 2 5 6 ] | | ] ' 5 2 o X @ f x u .   X X X O o 2 2 , o % V C D G !.~.^.`.].{.}.XXOXXX|.[.[.).(.(.(.&X$X$X$X$X$X%X,X4XqXwXwXeXeX",
"HXHXHXHXHXHXHXHXHXHXHXHXHXHXHXHXHXHXHXHXHXHXHXHXHXHXi i i i q q x F.,X7X9X4X,X$XH.B.v.j.z Y $.dXNXAXSXAXNXxXjXiX&.| ' 7 2 o O X X o 2 5 6 [ ] [ ' 5 < # = f l l.x u ; p ; @ + X O O X X & % N B C D G G ~.~./.^.].{.}.}.}.].`.^./.).=X*X*X*X*X*X*X*X6X6X8XrXeXeX",
"HXHXHXHXHXHXHXHXHXHXHXHXHXHXHXHXHXHXHXHXHXHXHXHX  X < 3 # .   + p F.<X7X4X>X%XZ.B.n.k.k z X.&.lXVXAXAXVXxXlXaX*.$. .' 5 2 o O O X X o 2 1 7 6 7 1 < O = x L l.c.m.b.m.M.b.s .   +       & & % % N B C D F F G G !.~.^.].{.].].'.].[. X X X X X X X X[.[.[. XHXHX",
"HXHXHXHXHXHXHXHXHXHXHXHXHXHXHXHXHXHXHXHXHXHXHXHXO o < < X   . s ( &X4X4X>X;X$XC.M.c.l f v O.pXkXNXCXVXMXzXsXpX&.@.] 6 1 o o O X X X X O < 2 2 < < # $ i k q.l.c.n.B.Z.$X$XN.K d a s u u s s > % % % N B B C C A D F G Q.~.~./././.^.`.`.`.`.`.`.^.~.Q.Q.Q.HXHXHX",
"HXHXHXHXHXHXHXHXHXHXHXHXHXHXHXHXHXHXHXHXHXHXHXHX1 1 < O + + s F.%X>X4X1X;X%X$XC.v.z.z c ' #.aXvXMXNXMXzXjXaX*.$. .' 7 1 o O O X +   + X O o o O # u g h h k q.l.n.B.$X%X%X%X$X$XG.M.M.m.m.m.P > % % % % V B B B B C A F F F F G G G G G G G G G G F F HXHXHXHXHX",
"HXHXHXHXHXHXHXHXHXHXHXHXHXHXHXHXHXHXHXHXHXHXHXHX5 1 < O     s #X,X1X>X;X%X$XC.V.x.l d 4 [ &.aXkXxXMXzXlXaX*.#.| ] ' 6 7 1 2 < O X HXHXX $ u u u u i h h h h l k.c.n.V.C.$X%X:X,X,X;X-X%X$XZ.N.P s > , 8 S T ] T S S K K ) T S F F HXHXHXHXHXHXHXHXHXHXHXHXHXHXHX",
"HXHXHXHXHXHXHXHXHXHXHXHXHXHXHXHXHXHXHXHXHXHXHXHX1 1 < O X . K G.;X;X-X$XH.B.M.c.q.h f c ] &.fXjXzXzXlXsXuX#.| } ' 6 6 6 6 7 2 < HXHXHXHXHXh h h h h h h h k l j.j.k.l.c.V.H.-X,X<X4X4X4X1X,X$XB.b.a 3 6 } +.$.@.[ 7 I b.S.^  .| HXHXHXHXHXHXHXHXHXHXHXHXHXHXHXHX",
"HXHXHXHXHXHXHXHXHXHXHXHXHXHXHXHXHXHXHXHXHXHXHXHX< o X . ; P N.$X;X%X$XZ.B.n.l.q.k h d U  .&.iXsXjXjXaXuX$.| ] ' 6 1 1 6 ' 7 2 o HXHXHXHXHXHXHXHXHXk l l l l k k q.j.k.l.c.B.$X;X,X<X7X0X0X0X4X-XB.L d n [ } @.| ' 5 v b.V.F.P.P.#.HXHXHXHXHXHXHXHXHXHXHXHXHXHXHX",
"HXHXHXHXHXHXHXHXHXHXHXHXHXHXHXHXHXHXHXHXHXHXHXHXO X   . K B.$X%X%X$XC.B.n.l.l h g g v { +.&.pXaXsXiX*.$. .[ ' 6 1 2 2 7 6 5 < O HXHXHXHXHXHXHXHXHXHXj.j.j.q.k k k q.q.q.k.n.C.$X%X,X7X0XeXeX0X<X%XV.z.d n ' } } ` 7 v b.B.%X%X2X%.%.HXHXHXHXHXHXHXHXHXHXHXHXHXHX",
"HXHXHXHXHXHXHXHXHXHXHXHXHXHXHXHXHXHXHXHXHXHXHXHXHX+   . K C.H.C.B.B.V.n.x.q.k g f a U | #.*.pXiXiX*.$.| [ 6 5 1 1 7 6 6 7 5 HXHXHXHXHXHXHXHXHXHXHXHXHXk.k.j.q.q.k k k k l z.c.V.H.%X,X4XqXwXwXqX<XH.m.z 4 7 [ ] _ 7 I b.C.:X>X&XJ.J.HXHXHXHXHXHXHXHXHXHXHXHXHXHX",
"HXHXHXHXHXHXHXHXHXHXHXHXHXHXHXHXHXHXHXHXHXHXHXHXHXHX  @ P M.B.n.c.v.c.l.j.k h g c 6 ..$.&.*.uX*.&.$.| [ 6 5 1 1 7 ' ' 7 1 1 HXHXHXHXHXHXHXHXHXHXHXHXHXHXj.j.k.j.q.k h h h k q.c.V.Z.$X;X<X9X0XqX4X$Xm.z 3 8 6 ' 6 7 v b.C.;X>X-X$XZ.HXHXHXHXHXHXHXHXHXHXHXHXHXHX",
"HXHXHXHXHXHXHXHXHXHXHXHXHXHXHXHXHXHXHXHXHXHXHXHXHXHXHXHXb.M.n.x.l.l.k.q.k h h x Y  .@.&.*.*.=.#.@. .' 7 1 2 1 6 ' ' _ 1 < o HXHXHXHXHXHXHXHXHXHXHXHXHXHXHXHXk.j.j.q.k h h h k q.l.n.C.$X;X>X<X1X;XH.m.z 3 2 5 7 8 1 a L n.Z.$X$XZ.Z.HXHXHXHXHXHXHXHXHXHXHXHXHXHX",
"HXHXHXHXHXHXHXHXHXHXHXHXHXHXHXHXHXHXHXHXHXHXHXHXHXHXHXHXc.c.x.k.j.q.q.k h g g z X.$.-.-.&.#.$.| ] ' 5 1 2 1 6 [ [ ' 7 1 o HXHXHXHXHXHXHXHXHXHXHXHXHXHXHXHXHXHXj.z.j.j.q.l k k k l k.n.B.H.$X%X$XH.B.b.d * 9 < 2 , * p l x.n.V.V.V.V.HXHXHXHXHXHXHXHXHXHXHXHXHXHX",
"HXHXHXHXHXHXHXHXHXHXHXHXHXHXHXHXHXHXHXHXHXHXHXHXHXHXk.k.k.k.k.k.q.k h h h x c U  .$.$.@.|  .} [ 6 5 2 2 8 6 [ } [ 7 1 2 HXHXHXHXHXHXHXHXHXHXHXHXHXHXHXHXHXHXHXHXj.j.l.x.x.l.q.k k k j.x.n.V.V.V.M.c.z.f # O o o O o u l k.l.l.l.l.l.HXHXHXHXHXHXHXHXHXHXHXHXHXHX",
"HXHXHXHXHXHXHXHXHXHXHXHXHXHXHXHXHXHXHXHXHXHXHXHXHXHXq.q.q.j.j.q.q.h h g f a 7 ` } | | ] ' 6 7 8 1 3 p c U [ ..] 6 1 < HXHXHXHXHXHXHXHXHXHXHXHXHXHXHXHXHXHXHXHXHXHXj.l.c.n.c.l.q.h h k q.k.x.c.c.x.l.l f # 9 8 6 6 ' X.P.P.P.P.D.A.A.HXHXHXHXHXHXHXHXHXHXHXHXHXHX",
"HXHXHXHXHXHXHXHXHXHXHXHXHXHXHXHXHXHXHXHXHXHXHXHXHXHXh k l j.q.k h h g d c 7 6 _ [ ] ' 6 1 2 * o * s L S.^ } ] ` 5 2 o HXHXHXHXHXHXHXHXHXHXHXHXHXHXHXHXHXHXHXHXHXHXHXHXHXHXn.c.k.k h h k q.z.k.k.k.k.L d 4 _ | &.uXfXsXjXvXvXvXbXfXfXHXHXHXHXHXHXHXHXHXHXHXHXHXHX",
"HXHXHXHXHXHXHXHXHXHXHXHXHXHXHXHXHXHXHXHXHXHXHXHXHXHXj h k k g i f d v Y [ ..}  . .] ' 5 < O O = a L l.b.^ ] ` 5 1 < HXHXHXHXHXHXHXHXHXHXHXHXHXHXHXHXHXHXHXHXHXHXHXHXHXHXHXHXn.x.k.q.k h k k q.k k x z ^ $.*.aXlXzXGXMXBXZXVXZXGXzXkXHXHXHXHXHXHXHXHXHXHXHXHXHXHX",
"HXHXHXHXHXHXHXHXHXHXHXHXHXHXHXHXHXHXHXHXHXHXHXHXHXHXh h h h d c 6 [ } +.$.&.*.*.&.$...6 1 o @ d b.c.l.L Y U 5 1 < HXHXHXHXHXHXHXHXHXHXHXHXHXHXHXHXHXHXHXHXHXHXHXHXHXHXHXHXHXHXHXc.l.l h h h h h x b [ &.sXzXMXNXVXVXVXVXVXCXVXNXMXGXHXHXHXHXHXHXHXHXHXHXHXHXHXHX",
"HXHXHXHXHXHXHXHXHXHXHXHXHXHXHXHXHXHXHXHXHXHXHXHXHXX.^ ^ ~ o.O.%.*.uXfXsXjXkXcXxXkXsX*.| U v z L c.b.W Y n 5 1 2 HXHXHXHXHXHXHXHXHXHXHXHXHXHXHXHXHXHXHXHXHXHXHXHXHXHXHXHXHXHXHXHXd d f u u u d R X.%.*.aXjXkXkXzXzXxXxXMXMXMXMXzXlXjXHXHXHXHXHXHXHXHXHXHXHXHXHXHX",
"HXHXHXHXHXHXHXHXHXHXHXHXHXHXHXHXHXHXHXHXHXHXHXHX| | | @.-.*.iXhXlXkXzXxXMXNXVXCXVXMXjX*.O.S.b.l.z.Q X.[ 7 1 HXHXHXHXHXHXHXHXHXHXHXHXHXHXHXHXHXHXHXHXHXHXHXHXHXHXHXHXHXHXHXHXHXHX2 2 < < < 1 ' +.*.aXjXjXaXiXuXuXpXiXaXsXsXsXsXiXuX*.HXHXHXHXHXHXHXHXHXHXHXHXHXHX",
"HXHXHXHXHXHXHXHXHXHXHXHXHXHXHXHXHXHXHXHXaXaXiX*.$.| | | $.&.*.uXpXuXpXiXaXsXlXzXxXxXlXaX=.X.R x k z U ` 7 HXHXHXHXHXHXHXHXHXHXHXHXHXHXHXHXHXHXHXHXHXHXHXHXHXHXHXHXHXHXHXHXHX1 8 5 7 6 ' ] } $.tXiXaXiX*.#.|  .} } | | @.$.$.@.| } ] HXHXHXHXHXHXHXHXHXHXHXHXHXHX",
"HXHXHXHXHXHXHXHXHXHXHXHXHXHXHXHXHXHXHXaXsXsXsXaXuX*.&.#.&.&.&.&.$.$.| | @.$.&.*.pXiXaXiX&.[ 4 f x d c 7 HXHXHXHXHXHXHXHXHXHXHXHXHXHXHXHXHXHXHXHXHXHXHXHXHXHXHXHXHXHXHXHXHX2 2 1 6 ' [ } | $.=.uXuX&.$.| } ] [ [ [ [ [ [ ' 6 7 5 1 1 HXHXHXHXHXHXHXHXHXHXHXHXHXHX",
"HXHXHXHXHXHXHXHXHXHXHXHXHXHXHXHXHXaXsXjXkXzXMXMXMXxXzXkXjXsXsXsXaXuX&.@. .] ] ] [ ]  .| } 6 5 4 c c HXHXHXHXHXHXHXHXHXHXHXHXHXHXHXHXHXHXHXHXHXHXHXHXHXHXHXHXHXHXHXHXHXHX1 < o < 1 1 7 6 ' [ ] } } ' ' [ | $.*.uXpXuX&.$.| ' 7 1 < o HXHXHXHXHXHXHXHXHXHXHXHXHXHX",
"HXHXHXHXHXHXHXHXHXHXHXHXHXHXHXHXaXsXjXkXxXxXMXNXCXAXCXCXNXMXMXxXzXjXaX*.$. .' 6 1 2 1 6 6 5 1 5 6 HXHXHXHXHXHXHXHXHXHXHXHXHXHXHXHXHXHXHXHXHXHXHXHXHXHXHXHXHXHXHXHXHXHX5 5 1 2 2 1 1 1 2 1 1 1 7 6 ' ] @.*.aXkXzXzXlXaX*.$.[ 7 2 o HXHXHXHXHXHXHXHXHXHXHXHXHXHXHX",
"HXHXHXHXHXHXHXHXHXHXHXHXHXHXHX&.iXlXzXxXzXjXsXjXxXNXVXCXCXCXCXVXNXxXzXjXaX*.@.[ 7 2 2 1 1 2 < 2 HXHXHXHXHXHXHXHXHXHXHXHXHXHXHXHXHXHXHXHXHXHXHXHXHXHXHXHXHXHXHXHXHXHXHX6 6 ' ' ' ' 6 5 1 2 2 1 6 ] #.iXjXzXMXNXNXxXlXaX*.| ' 5 1 HXHXHXHXHXHXHXHXHXHXHXHXHXHXHXHX",
"HXHXHXHXHXHXHXHXHXHXHXHXHXHX| @.*.sXzXMXMXkXsXsXjXlXzXMXNXVXNXNXMXxXkXjXsXpX$.] 6 1 < < o o O HXHXHXHXHXHXHXHXHXHXHXHXHXHXHXHXHXHXHXHXHXHXHXHXHXHXHXHXHXHXHXHXHXHXHXHX6 ' ' [ } } } [ ' 6 6 [ | &.sXzXMXNXVXVXNXzXsXpX$.} 6 1 HXHXHXHXHXHXHXHXHXHXHXHXHXHXHXHXHX",
"HXHXHXHXHXHXHXHXHXHXHXHXHXHX6 ' | *.sXMXVXVXMXlXaXiXaXsXsXjXjXjXsXaXiXiXpX&.| ' 5 2 o O X HXHXHXHXHXHXHXHXHXHXHXHXHXHXHXHXHXHXHXHXHXHXHXHXHXHXHXHXHXHXHXHXHXHXHXHXHXHX5 7 6 ' ] | $.#.&.&.&.*.aXjXzXxXMXMXMXMXzXhXpX#. .' 1 2 HXHXHXHXHXHXHXHXHXHXHXHXHXHXHXHXHX",
"HXHXHXHXHXHXHXHXHXHXHXHXHXHX7 7 ' | uXlXMXVXVXxXsXpX*.&.&.&.*.*.&.&.#.#.$.| [ 6 1 < O X HXHXHXHXHXHXHXHXHXHXHXHXHXHXHXHXHXHXHXHXHXHXHXHXHXHXHXHXHXHXHXHXHXHXHXHXHXHX6 5 5 6 ' ] | $.#.&.&.*.iXsXjXkXzXzXzXkXjXsXuX$. .' 7 1 < HXHXHXHXHXHXHXHXHXHXHXHXHXHXHXHXHX",
"HXHXHXHXHXHXHXHXHXHXHXHX[ ' 6 5 6 ' | *.sXxXNXNXzXaX&. .} } } ] ] ] ] ] [ ' 6 1 < o O HXHXHXHXHXHXHXHXHXHXHXHXHXHXHXHXHXHXHXHXHXHXHXHXHXHXHXHXHXHXHXHXHXHXHXHXHXHX' 6 6 6 ' [ } | |  . .| $.&.uXiXaXaXsXsXaXpX&.@.] 6 5 1 HXHXHXHXHXHXHXHXHXHXHXHXHXHXHXHXHXHXHX",
"HXHXHXHXHXHXHXHXHXHXHXHX[ ' 6 7 5 7 ' @.*.sXxXMXxXjX&.] ' 6 6 6 6 6 6 6 6 7 1 2 o O X HXHXHXHXHXHXHXHXHXHXHXHXHXHXHXHXHXHXHXHXHXHXHXHXHXHXHXHXHXHXHXHXHXHXHXHXHXHX[ ' 6 6 ' } | $.$.| } ] ]  .@.$.&.*.*.&.#.@.} ' 7 1 < o HXHXHXHXHXHXHXHXHXHXHXHXHXHXHXHXHXHXHX",
"HXHXHXHXHXHXHXHXHXHXHXHX..] [ ' 7 1 7 [ $.uXsXzXxXjX*.| ' 7 1 1 1 5 5 5 8 1 2 < O X X HXHXHXHXHXHXHXHXHXHXHXHXHXHXHXHXHXHXHXHXHXHXHXHXHXHXHXHXHXHXHXHXHXHXHXHXHXHX] ] [ [ ..| $.*.*.&.@.[ 6 6 ' [ } |  .} [ ' 7 1 2 o X X HXHXHXHXHXHXHXHXHXHXHXHXHXHXHXHXHXHXHX",
"HXHXHXHXHXHXHXHXHXHXHXHX| | | } ' 5 5 6 } #.iXjXzXkXaX&. .6 1 2 2 2 1 1 1 2 < o O HXHXHXHXHXHXHXHXHXHXHXHXHXHXHXHXHXHXHXHXHXHXHXHXHXHXHXHXHXHXHXHXHXHXHXHXHXHXHXHX .| $.#.$.@.$.&.*.uXuX#.| [ 6 7 7 6 6 6 7 1 < o O X X HXHXHXHXHXHXHXHXHXHXHXHXHXHXHXHXHXHXHXHX",
"HXHXHXHXHXHXHXHXHXHXHXHX@.$.#.$.| ' 6 7 ' | *.aXlXlXjXiX#.] 7 2 o o < < < < o O HXHXHXHXHXHXHXHXHXHXHXHXHXHXHXHXHXHXHXHXHXHXHXHXHXHXHXHXHXHXHXHXHXHXHXHXHXHXHXHXHX| $.pXaXpX=.$.@.#.pXaXaXuX$.] 6 7 5 5 5 1 < O X X X HXHXHXHXHXHXHXHXHXHXHXHXHXHXHXHXHXHXHXHXHX",
"HXHXHXHXHXHXHXHXHXHX#.$.@.$.uXiX*.@.] 6 7 [ @.&.iXaXaXiX*.@.[ 5 < o O O O O O HXHXHXHXHXHXHXHXHXHXHXHXHXHXHXHXHXHXHXHXHXHXHXHXHXHXHXHXHXHXHXHXHXHXHXHXHXHXHXHXHXHX} $.pXsXlXjXiX#.$.&.uXaXsXaXuX&.@. .} [ 6 1 o O HXHXHXHXHXHXHXHXHXHXHXHXHXHXHXHXHXHXHXHXHXHXHX",
"HXHXHXHXHXHXHXHXHX$.$.@.| $.iXjXsXpX$.' 7 6 ] | $.&.*.uX&.$.} 6 1 o X X X X HXHXHXHXHXHXHXHXHXHXHXHXHXHXHXHXHXHXHXHXHXHXHXHXHXHXHXHXHXHXHXHXHXHXHXHXHXHXHXHXHXHXHX' | *.aXzXxXjXpX-.$.$.uXaXsXsXaXpX&.$.| [ 5 < HXHXHXHXHXHXHXHXHXHXHXHXHXHXHXHXHXHXHXHXHXHXHXHX",
"HXHXHXHXHXHXHXHXHX| |  .] | uXjXlXjXiX| ' 6 6 ' ]  .| @.@.| ] 6 1 o X X HXHXHXHXHXHXHXHXHXHXHXHXHXHXHXHXHXHXHXHXHXHXHXHXHXHXHXHXHXHXHXHXHXHXHXHXHXHXHXHXHXHXHXHXHX6 [ | &.aXjXkXjXaX*.$.$.&.&.*.uXuX*.&.@.[ 5 2 HXHXHXHXHXHXHXHXHXHXHXHXHXHXHXHXHXHXHXHXHXHXHXHX",
"HXHXHXHXHXHXHXHXHX .} [ ' ] &.aXkXzXsX&. .' 7 7 6 ' ' [ [ ' 6 7 1 o X HXHXHXHXHXHXHXHXHXHXHXHXHXHXHXHXHXHXHXHXHXHXHXHXHXHXHXHXHXHXHXHXHXHXHXHXHXHXHXHXHXHXHXHXHXHX' ] | $.*.iXjXzXkXaX=.$.| | @.$.#.#.$. .' 5 2 HXHXHXHXHXHXHXHXHXHXHXHXHXHXHXHXHXHXHXHXHXHXHXHX",
"HXHXHXHXHXHXHXHXHX] ] ' 5 6 | *.sXzXlXiX#.] 7 1 5 7 7 7 5 5 1 2 < o HXHXHXHXHXHXHXHXHXHXHXHXHXHXHXHXHXHXHXHXHXHXHXHXHXHXHXHXHXHXHXHXHXHXHXHXHXHXHXHXHXHXHXHXHXHXHX@.$.*.*.&.&.pXsXlXlXsX*.| ] ] ] } ..' 6 7 HXHXHXHXHXHXHXHXHXHXHXHXHXHXHXHXHXHXHXHXHXHXHXHXHXHX",
"HXHXHXHXHXHXHXHXHX} ] ' 5 5 [ $.iXjXlXdX*. .5 1 1 1 1 2 2 < o O X HXHXHXHXHXHXHXHXHXHXHXHXHXHXHXHXHXHXHXHXHXHXHXHXHXHXHXHXHXHXHXHXHXHXHXHXHXHXHXHXHXHXHXHXHXHXHXHX$.*.aXsXuX&.&.pXaXlXlXfX#.| [ ' 6 7 1 1 2 HXHXHXHXHXHXHXHXHXHXHXHXHXHXHXHXHXHXHXHXHXHXHXHXHXHX",
"HXHXHXHXHXHXHXHXHX|  .[ 7 5 '  .&.aXsXsXpX| 7 2 < o o o O X X X X HXHXHXHXHXHXHXHXHXHXHXHXHXHXHXHXHXHXHXHXHXHXHXHXHXHXHXHXHXHXHXHXHXHXHXHXHXHXHXHXHXHXHXHXHXHXHXHX| *.jXzXsXpX&.$.&.aXjXsXiX&.| ' 7 1 < O X HXHXHXHXHXHXHXHXHXHXHXHXHXHXHXHXHXHXHXHXHXHXHXHXHXHX",
"HXHXHXHXHXHXHXHXHX$.@.} _ 7 6 ' +.*.iXiXuX| 7 2 9 o o o O X X X X HXHXHXHXHXHXHXHXHXHXHXHXHXHXHXHXHXHXHXHXHXHXHXHXHXHXHXHXHXHXHXHXHXHXHXHXHXHXHXHXHXHXHXHXHXHXHXHX[ $.aXkXkXsX*.@.@.*.iXaXaXpX$.} 6 1 < X HXHXHXHXHXHXHXHXHXHXHXHXHXHXHXHXHXHXHXHXHXHXHXHXHXHXHX",
"HXHXHXHXHXHXHXHXHX#.$.| [ 6 7 7 ] $.&.*.&. .6 1 2 < < < o O O HXHXHXHXHXHXHXHXHXHXHXHXHXHXHXHXHXHXHXHXHXHXHXHXHXHXHXHXHXHXHXHXHXHXHXHXHXHXHXHXHXHXHXHXHXHXHXHXHXHX1 [ &.aXkXzXiX@. .@.&.pXiXiX*.$.[ 7 1 HXHXHXHXHXHXHXHXHXHXHXHXHXHXHXHXHXHXHXHXHXHXHXHXHXHXHXHX",
"HXHXHXHXHXHXHXHXHX#.#.$.| [ 7 1 6 } | @.| [ 7 5 5 8 1 1 2 o HXHXHXHXHXHXHXHXHXHXHXHXHXHXHXHXHXHXHXHXHXHXHXHXHXHXHXHXHXHXHXHXHXHXHXHXHXHXHXHXHXHXHXHXHXHXHXHXHXHXHXHX' | *.sXkXaX$.} } | #.*.uX*.$.} 6 6 HXHXHXHXHXHXHXHXHXHXHXHXHXHXHXHXHXHXHXHXHXHXHXHXHXHXHXHX",
"HXHXHXHXHXHXHXHXHX$.$.$.$. .6 1 5 ' [ ] [ 6 5 7 6 6 5 1 1 HXHXHXHXHXHXHXHXHXHXHXHXHXHXHXHXHXHXHXHXHXHXHXHXHXHXHXHXHXHXHXHXHXHXHXHXHXHXHXHXHXHXHXHXHXHXHXHXHXHXHXHXHXHX' | tXsXiX$.} ' '  .#.&.-.$.} ' 6 HXHXHXHXHXHXHXHXHXHXHXHXHXHXHXHXHXHXHXHXHXHXHXHXHXHXHXHX",
"HXHXHXHXHXHXHXHXHX} | | $.| ' 1 1 7 6 6 6 7 5 7 6 6 1 < HXHXHXHXHXHXHXHXHXHXHXHXHXHXHXHXHXHXHXHXHXHXHXHXHXHXHXHXHXHXHXHXHXHXHXHXHXHXHXHXHXHXHXHXHXHXHXHXHXHXHXHXHXHXHX1 6 @.*.&.| [ 6 7 [ | $.$.| [ 6 6 HXHXHXHXHXHXHXHXHXHXHXHXHXHXHXHXHXHXHXHXHXHXHXHXHXHXHXHX",
"HXHXHXHXHXHXHXHXHX' [  .@.@.[ 5 1 1 5 7 7 5 1 5 7 5 < X HXHXHXHXHXHXHXHXHXHXHXHXHXHXHXHXHXHXHXHXHXHXHXHXHXHXHXHXHXHXHXHXHXHXHXHXHXHXHXHXHXHXHXHXHXHXHXHXHXHXHXHXHXHXHX< 1 ' | | } ' 5 1 6 ]  . .] ' 7 7 HXHXHXHXHXHXHXHXHXHXHXHXHXHXHXHXHXHXHXHXHXHXHXHXHXHXHXHX",
"HXHXHXHXHXHXHXHXHX6 6 ] @.$.} 6 5 1 1 8 5 1 1 1 1 1 < HXHXHXHXHXHXHXHXHXHXHXHXHXHXHXHXHXHXHXHXHXHXHXHXHXHXHXHXHXHXHXHXHXHXHXHXHXHXHXHXHXHXHXHXHXHXHXHXHXHXHXHXHXHXHXHXo < 5 ' ' [ 6 1 < 1 7 6 ' 6 7 5 5 6 HXHXHXHXHXHXHXHXHXHXHXHXHXHXHXHXHXHXHXHXHXHXHXHXHXHXHX",
"HXHXHXHXHXHXHXHXHX5 7 ' | @. .' 7 1 2 1 1 2 < < < < HXHXHXHXHXHXHXHXHXHXHXHXHXHXHXHXHXHXHXHXHXHXHXHXHXHXHXHXHXHXHXHXHXHXHXHXHXHXHXHXHXHXHXHXHXHXHXHXHXHXHXHXHXHXHXHXHXO o < 1 7 6 7 2 o o 2 1 7 6 6 6 ' .. .HXHXHXHXHXHXHXHXHXHXHXHXHXHXHXHXHXHXHXHXHXHXHXHXHXHX",
"HXHXHXHXHXHXHXHXHXHX5 6 [ } [ 6 5 < < 2 2 < o O O O HXHXHXHXHXHXHXHXHXHXHXHXHXHXHXHXHXHXHXHXHXHXHXHXHXHXHXHXHXHXHXHXHXHXHXHXHXHXHXHXHXHXHXHXHXHXHXHXHXHXHXHXHXHXHXHXHXX X O O < 2 2 o o o < 1 6 [ | $.*.pXiXpXuXHXHXHXHXHXHXHXHXHXHXHXHXHXHXHXHXHXHXHXHXHXHXHXHX",
"HXHXHXHXHXHXHXHXHX7 1 5 6 6 6 7 1 o O o o O O X X X HXHXHXHXHXHXHXHXHXHXHXHXHXHXHXHXHXHXHXHXHXHXHXHXHXHXHXHXHXHXHXHXHXHXHXHXHXHXHXHXHXHXHXHXHXHXHXHXHXHXHXHXHXHXHXHXHXX X X X X X O O o < 2 7 ' | *.aXjXkXjXaXpX*.HXHXHXHXHXHXHXHXHXHXHXHXHXHXHXHXHXHXHXHXHXHXHX",
"HXHXHXHXHXHXHX$.| ' 1 1 5 5 1 1 < o O X X X X X X X HXHXHXHXHXHXHXHXHXHXHXHXHXHXHXHXHXHXHXHXHXHXHXHXHXHXHXHXHXHXHXHXHXHXHXHXHXHXHXHXHXHXHXHXHXHXHXHXHXHXHXHXHXHXHXHXHXX X X X X   X X o 2 5 ' | &.aXlXxXMXzXsXpX*.*.aXzXMXHXHXHXHXHXHXHXHXHXHXHXHXHXHXHXHXHXHXHX",
"HXHXHXHXHXHXHX$.@.[ 5 1 5 7 7 5 5 1 1 < o O X X O < 6 HXHXHXHXHXHXHXHXHXHXHXHXHXHXHXHXHXHXHXHXHXHXHXHXHXHXHXHXHXHXHXHXHXHXHXHXHXHXHXHXHXHXHXHXHXHXHXHXHXHXHXHXHXHXHXHX6 1 < O X   X O < 1 6 ' | &.iXjXkXzXjXaXpXiXiXdXhXbX3XHXHXHXHXHXHXHXHXHXHXHXHXHXHXHXHXHXHX",
"HXHXHXHXHXHXHX&.$.} 6 7 6 ' [ ] } } [ ' 7 2 o o 2 6 } @.HXHXHXHXHXHXHXHXHXHXHXHXHXHXHXHXHXHXHXHXHXHXHXHXHXHXHXHXHXHXHXHXHXHXHXHXHXHXHXHXHXHXHXHXHXHXHXHXHXHXHXHXHXsXiX$.] 7 < O X X o 2 1 6 ' ] | &.uXiXiXpXuXiXjXkXaX&.T.3X4XqX0X0XHXHXHXHXHXHXHXHXHXHXHXHXHXHX",
"HXHXHXHXHXHXHX&.$.} 6 6 ' } | $.&.*.&.$.} _ 1 2 1 6  .$.&.HXHXHXHXHXHXHXHXHXHXHXHXHXHXHXHXHXHXHXHXHXHXHXHXHXHXHXHXHXHXHXHXHXHXHXHXHXHXHXHXHXHXHXHXHXHXHXHXHXHXHX3XpXuX=.$.[ 5 < X X O < 1 7 6 6 ' } | @.$.&.uXiXsXdXY.X.~ &X>X4X7X9XHXHXHXHXHXHXHXHXHXHXHXHXHXHX",
"HXHXHXHXHXHXHX#.$.] 7 7 '  .$.*.aXjXsXiX&.| [ 6 5 6  .#.*.pXtX&.$.HXHXHXHXHXHXHXHXHXHXHXHXHXHXHXHXHXHXHXHXHXHXHXHXHXHXHXHXHXHXHXHXHXHXHXHXHXHXHXHXHXHXHXHXHX:X%XP.O.@.-.$.} 6 2 O X X o 2 1 1 1 1 6 _ 6 ' | pXaXyX$.^ L m.B.$X%X,X4X9X0XHXHXHXHXHXHXHXHXHXHXHXHX",
"HXHXHXHXHXHX$.@. .' 8 5 6 } $.tXdXlXbX3X2X2X3X2XF.( { } +.#.&.-.%.2XHXHXHXHXHXHXHXHXHXHXHXHXHXHXHXHXHXHXHXHXHXHXHXHXHXHXHXHXHXHXHXHXHXHXHXHXHXHXHXHXHXHXHX>X%XG.! n 6 [ [ 6 1 o X   X X O o o o o < 2 2 1 ' #.*.@...R L x.n.B.C.H.%X>X4X9XHXHXHXHXHXHXHXHXHXHXHX",
"HXHXHXHXHX-.$.| [ 7 2 2 7 ' | &.iXdX3X&X%X7XwXwX4X&XY 1 7 ] | $.%.2X;X<XqX0XHXHXHXHXHXHXHXHXHXHXHXHXHXHXHXHXHXHXHXHXHXHXHXHXHXHXHXHXHXHXHXHXHXHXHXHXHXHX4X>X$Xm.d * o < 2 < o X             X X X X X X o 7  .@.} [ I L l.c.n.n.M.B.Z.%X4XqXHXHXHXHXHXHXHXHXHXHX",
"HXHXHX4X3X%.| ] 6 1 o o 2 7 } $.=.*.T.J.%X7XwXwX4X#XI o < 7 _ [ X.S.C.-X<X7X7XHXHXHXHXHXHXHXHXHXHXHXHXHXHXHXHXHXHXHXHXHXHXHXHXHXHXHXHXHXHXHXHXHXHXHXHXHX;X%X$XHXHXHXHXHXHXHXHXHXHXHXHXHXHXHXHXHXHXHXHXHXHXHXHXHXHXHXHXHXHXHXHXHXHXHXHX$X;X>X>XHXHXHXHXHXHXHXHXHX",
"HXHX<X>X2XO..._ 5 < X X O 1 [ | +.| X.F.$X<X9X7X,XF.s X O < 2 1 c z l.V.$X,X>X<XHXHXHXHXHXHXHXHXHXHXHXHXHXHXHXHXHXHXHXHXHXHXHXHXHXHXHXHXHXHXHXHXHXHXHXHXH.H.HXHXHXHXHXHXHXHXHXHXHXHXHXHXHXHXHXHXHXHXHXHXHXHXHXHXHXHXHXHXHXHXHXHXHXHXHXHXH.H.HXHXHXHXHXHXHXHXHXHX",
"7X1X%XG.! Y 7 1 < X X   X 2 ' } [ 6 b L M.%X>X,XH.b.; + X o o 9 = i k k.n.C.$X;X>X4XHXHXHXHXHXHXHXHXHXHXHXHXHXHXHXHXHXHXHXHXHXHXHXHXHXHXHXHXHXHXHXHXHXHXHXHXHXHXHXHXHXHXHXHXHXHXHXHXHXHXHXHXHXHXHXHXHXHXHXHXHXHXHXHXHXHXHXHXHXHXHXHXHXHXHXHXHXHXHXHXHXHXHXHXHXHX",
"<X;XH.l.z 4 1 9 O X     X 2 6 [ 6 1 ; x c.C.$XH.V.L =   + O o O # i h k j.c.B.$X;X>X<XHXHXHXHXHXHXHXHXHXHXHXHXHXHXHXHXHXHXHXHXHXHXHXHXHXHXHXHXHXHXHXHXHXHXHXHXHXHXHXHXHXHXHXHXHXHXHXHXHXHXHXHXHXHXHXHXHXHXHXHXHXHXHXHXHXHXHXHXHXHXHXHXHXHXHXHXHXHXHXHXHXHXHXHXHX",
"H.G.V.HXHXHXHXHXHXHXHXHXHXHXHXHXHXHXHXHXHXc.n.n.HXHXHXHXHXHXHXHXHXHXHXHXHXHXHXHX$X%X%XHXHXHXHXHXHXHXHXHXHXHXHXHXHXHXHXHXHXHXHXHXHXHXHXHXHXHXHXHXHXHXHXHXHXHXHXHXHXHXHXHXHXHXHXHXHXHXHXHXHXHXHXHXHXHXHXHXHXHXHXHXHXHXHXHXHXHXHXHXHXHXHXHXHXHXHXHXHXHXHXHXHXHXHXHX",
"n.n.HXHXHXHXHXHXHXHXHXHXHXHXHXHXHXHXHXHXHXj.j.j.HXHXHXHXHXHXHXHXHXHXHXHXHXHXHXHXZ.Z.Z.HXHXHXHXHXHXHXHXHXHXHXHXHXHXHXHXHXHXHXHXHXHXHXHXHXHXHXHXHXHXHXHXHXHXHXHXHXHXHXHXHXHXHXHXHXHXHXHXHXHXHXHXHXHXHXHXHXHXHXHXHXHXHXHXHXHXHXHXHXHXHXHXHXHXHXHXHXHXHXHXHXHXHXHXHX"
};
