/* XPM */
static const char *bos2b8[] = {
/* columns rows colors chars-per-pixel */
"128 128 256 2 ",
"   c #0C0C0C",
".  c #040404",
"X  c #1C1407",
"o  c #151515",
"O  c #1C1C1C",
"+  c #171819",
"@  c #120F0A",
"#  c #241916",
"$  c #2B1810",
"%  c #1B3813",
"&  c #192A13",
"*  c #2A230F",
"=  c #26240F",
"-  c #2D2511",
";  c #29251C",
":  c #332B13",
">  c #3B2E16",
",  c #352A1B",
"<  c #3E3118",
"1  c #2D3514",
"2  c #1C1E22",
"3  c #1C2022",
"4  c #242424",
"5  c #2B2B2C",
"6  c #292926",
"7  c #342C25",
"8  c #2B3528",
"9  c #383428",
"0  c #333333",
"q  c #3B3B3B",
"w  c #383837",
"e  c #2D2F32",
"r  c #2A1F20",
"t  c #480404",
"y  c #590303",
"u  c #4D1A12",
"i  c #690202",
"p  c #790202",
"a  c #6E1A16",
"s  c #432C15",
"d  c #433319",
"f  c #4A361B",
"g  c #4D391D",
"h  c #433116",
"j  c #523C1E",
"k  c #563518",
"l  c #542D0D",
"z  c #742B00",
"x  c #752B00",
"c  c #7B3402",
"v  c #793606",
"b  c #6C340F",
"n  c #483925",
"m  c #563E23",
"M  c #49302D",
"N  c #703232",
"B  c #1E4416",
"V  c #234C1A",
"C  c #24451A",
"Z  c #28561D",
"A  c #35501A",
"S  c #2A4623",
"D  c #2C5A22",
"F  c #345927",
"G  c #394B35",
"H  c #2E6423",
"J  c #346926",
"K  c #3A7C2E",
"L  c #36752B",
"P  c #3A6F31",
"I  c #514E18",
"U  c #724D13",
"Y  c #6E661B",
"T  c #5C4222",
"R  c #564428",
"E  c #47443B",
"W  c #544C32",
"Q  c #634525",
"!  c #6A4928",
"~  c #724D2B",
"^  c #774B29",
"/  c #7C522E",
"(  c #77572A",
")  c #6E5631",
"_  c #47792C",
"`  c #496E2B",
"'  c #706730",
"]  c #53641F",
"[  c #3D3F42",
"{  c #3D4143",
"}  c #434344",
"|  c #4B4C4C",
" . c #484846",
".. c #544C48",
"X. c #5A5449",
"o. c #535354",
"O. c #5B5B5B",
"+. c #585756",
"@. c #4C534E",
"#. c #645D58",
"$. c #6D5349",
"%. c #526B4F",
"&. c #6D6752",
"*. c #636464",
"=. c #6C6C6C",
"-. c #686866",
";. c #737373",
":. c #7B7B7B",
">. c #777778",
",. c #72716A",
"<. c #5E6061",
"1. c #403E40",
"2. c #880202",
"3. c #970303",
"4. c #941717",
"5. c #A70202",
"6. c #BB0101",
"7. c #B50404",
"8. c #B01616",
"9. c #823C05",
"0. c #8D2F2F",
"q. c #B03333",
"w. c #C30101",
"e. c #CC0101",
"r. c #C50B0B",
"t. c #D30000",
"y. c #DB0000",
"u. c #CB1616",
"i. c #E40101",
"p. c #EB0101",
"a. c #E90B0B",
"s. c #F60303",
"d. c #EE1616",
"f. c #ED2E2E",
"g. c #D33434",
"h. c #894609",
"j. c #914D0B",
"k. c #95540D",
"l. c #995A13",
"z. c #895016",
"x. c #9D6316",
"c. c #886B1C",
"v. c #A46918",
"b. c #AB731C",
"n. c #AC771E",
"m. c #B27B1B",
"M. c #84562A",
"N. c #8C5C35",
"B. c #845832",
"V. c #915E36",
"C. c #87522A",
"Z. c #9B653C",
"A. c #976438",
"S. c #8E702C",
"D. c #AA7A26",
"F. c #B17D22",
"G. c #A26A3D",
"H. c #A57333",
"J. c #8F504D",
"K. c #8E7154",
"L. c #A96D42",
"P. c #B67549",
"I. c #A9744C",
"U. c #867A77",
"Y. c #8F7368",
"T. c #B06F6F",
"R. c #A84949",
"E. c #D15151",
"W. c #C37D4E",
"Q. c #D06F6F",
"!. c #E66262",
"~. c #3C8432",
"^. c #3E8933",
"/. c #3C812F",
"(. c #418B35",
"). c #448935",
"_. c #47973A",
"`. c #478632",
"'. c #5C9837",
"]. c #539448",
"[. c #4EA642",
"{. c #51AC46",
"}. c #56B74B",
"|. c #59BF50",
" X c #728C6F",
".X c #648B5D",
"XX c #5CC753",
"oX c #59C04F",
"OX c #64D85C",
"+X c #61CE57",
"@X c #6DEA65",
"#X c #918B35",
"$X c #B48324",
"%X c #B98B28",
"&X c #BD922C",
"*X c #AE9035",
"=X c #B2A23B",
"-X c #92AA3C",
";X c #C2982E",
":X c #C59D32",
">X c #CAA738",
",X c #D2B13C",
"<X c #968D4B",
"1X c #A69248",
"2X c #B4AF48",
"3X c #87867C",
"4X c #988B76",
"5X c #A88C6F",
"6X c #AFA17D",
"7X c #D7BA43",
"8X c #C8B148",
"9X c #CE8658",
"0X c #DAC54E",
"qX c #E7D554",
"wX c #E3CB4C",
"eX c #EFE865",
"rX c #7E8283",
"tX c #848484",
"yX c #8C8C8C",
"uX c #878889",
"iX c #958A87",
"pX c #939393",
"aX c #9C9C9C",
"sX c #979998",
"dX c #90928E",
"fX c #A8928C",
"gX c #B3A692",
"hX c #9EA2A3",
"jX c #A4A4A4",
"kX c #ABABAC",
"lX c #A6A8A8",
"zX c #B6ABA9",
"xX c #B3B3B3",
"cX c #BBBBBB",
"vX c #B5B8B9",
"bX c #ADB0B0",
"nX c #9DA0A0",
"mX c #C7B8B3",
"MX c #CCA192",
"NX c #D0C3B9",
"BX c #BDC1C1",
"VX c #C3C4C4",
"CX c #CBCBCB",
"ZX c #C7C7C7",
"AX c #D3D3D3",
"SX c #DBDBDC",
"DX c #D7D8D9",
"FX c #CDD0D0",
"GX c #E4E4E4",
"HX c #ECECEC",
"JX c #F0F0F0",
"KX c #DEE0E2",
"LX c #BFBFC0",
"PX c None",
"IX c black",
"UX c #7E7F81",
/* pixels */
"PXPXPXPXPXPXPXPXPXPXPXPXPXPXPXPXPXPXPXPXPXPXPXPXPXPXPXPXPXPXPXPXPXPXw.w.w.w.w.w.w.e.e.t.t.y.y.y.i.i.p.p.p.s.s.s.f.Q.mXFXAXFXCXZXVXVXBXLXLXcXcXvXvXvXvXvXxXxXxXxXxXkXkXlXlXlXlXkXkXfXT.q.7.w.t.y.i.p.p.p.p.PXPXPXPXPXPXPXPXPXPXPXPXPXPXPXPXPXPXPXPXPXPXPXPXPXPXPX",
"PXPXPXPXPXPXPXPXPXPXPXPXPXPXPXPXPXPXPXPXPXPXPXPXPXPXPXPXPXPXPXPXPX3.5.5.5.5.5.5.5.7.7.6.w.w.e.e.t.t.y.i.i.p.p.s.f.E.Q.MXmXmXVXBXvXxXxXxXxXxXxXkXkXlXlXlXlXkXkXlXlXjXjXnXaXsXsXsXpXiXY.J.0.8.8.w.t.y.i.p.p.p.PXPXPXPXPXPXPXPXPXPXPXPXPXPXPXPXPXPXPXPXPXPXPXPXPXPX",
"PXPXPXPXPXPXPXPXPXPXPXPXPXPXPXPXPXPXPXPXPXPXPXPXPXPXPX3.3.3.2.2.p p p p p p p p 2.2.2.3.3.5.5.5.7.6.w.e.t.y.i.i.p.a.d.f.!.MXzXkXlXjXjXjXjXjXaXsXsXsXsXsXsXaXjXjXaXsXsXpXyXuXtX:.>.;.;.;.,.J.0.4.5.6.e.y.i.i.p.p.PXPXPXPXPXPXPXPXPXPXPXPXPXPXPXPXPXPXPXPXPXPXPXPX",
"PXPXPXPXPXPXPXPXPXPXPXPXPXPXPXPXPXPXPXPXPXPXPXPXPX7 M a a a a a a N N N N N N N N N N 0.0.0.J.R.R.R.q.8.7.6.w.t.y.p.p.a.f.E.E.T.fXiXpXdXyXyXpXsXaXaXaXaXjXlXkXxXxXkXlXlXlXlXjXjXjXaXaXaXsXiXY.J.0.4.5.7.w.t.i.p.p.p.PXPXPXPXPXPXPXPXPXPXPXPXPXPXPXPXPXPXPXPXPXPX",
"PXPXPXPXPXPXPXPXPXPXPXPXPXPXPXPXPXPXPXPXPXPXPXPX} } }  .| ....o.+.O.#.*.-.=.=.,.;.>.>.;.;.;.tXpXaXiXJ.0.3.3.7.6.w.t.y.i.p.p.a.g.T.iXyXyXtXyXsXjXlXkXlXkXxXvXVXVXVXcXcXVXCXAXAXSXAXAXCXCXcXkXsXtX,.$.4.3.5.6.e.y.i.p.p.a.PXPXPXPXPXPXPXPXPXPXPXPXPXPXPXPXPXPXPXPX",
"PXPXPXPXPXPXPXPXPXPXPXPXPXPXPX=.;.>.:.tXtXyXyXtXtXtXtXuXyXyXyXyXuXuXtXtXtXtXrX:.;.=.=.*.*.=.;.tXdXdXiXY.J.0.4.5.5.7.w.e.y.i.y.g.T.fXjXlXjXjXlXkXxXxXxXxXxXxXvXvXvXvXvXcXVXCXAXSXSXSXSXSXAXZXvXlXpXU.$.N 0.4.7.w.t.y.t.8.0...PXPXPXPXPXPXPXPXPXPXPXPXPXPXPXPXPXPX",
"PXPXPXPXPXPXPXPXPXPXPXPXPX=.=.;.>.:.tXyXpXsXjXkXvXVXVXVXVXVXVXcXvXkXjXaXsXsXyXtX>.*.O.+.+.+.*.=.:.tXdXsXiXY.J.4.4.3.5.7.7.r.u.E.fXzXcXBXBXVXVXmXcXcXvXxXxXxXxXxXxXxXxXvXVXVXCXAXAXSXSXSXSXAXCXcXkXsXtX,.$.0.3.5.6.e.r.4.N  . .PXPXPXPXPXPXPXPXPXPXPXPXPXPXPXPXPX",
"PXPXPXPXPXPXPX| o.+.*.=.;.>.>.:.tXpXaXlXxXcXVXAXSXGXGXGXGXGXGXSXAXCXVXvXkXjXsXpXtX:.=.*.+.o.+.+.*.=.:.tXyXuXU.Y.J.0.3.3.0.R.T.fXzXmXZXZXVXCXCXAXAXCXcXxXxXxXvXcXcXVXVXVXVXVXVXCXAXAXSXSXAXAXZXcXxXkXjXiXY.0.2.3.7.w.7.4.N }  .| +.*.=.:.tXPXPXPXPXPXPXPXPXPXPXPX",
"PXPXPXPXPXPX| o.+.O.=.;.:.:.tXyXsXjXxXcXCXAXSXGXHXJXJXJXJXJXHXHXGXGXAXCXVXxXlXaXsXyXtX;.*.+.o.o.+.+.*.;.:.tXyXyXU.J.0.0.J.U.sXlXvXVXCXCXCXCXAXAXCXVXvXkXlXkXkXxXxXxXxXxXxXxXxXcXVXCXCXVXVXVXcXvXxXxXbXjXiXJ.0.4.8.7.7.4.N ..| @.o.O.=.:.tXtX:.PXPXPXPXPXPXPXPXPX",
"PXPXPXPX}  .| +.*.=.:.tXyXpXsXaXlXxXcXVXAXSXGXGXHXHXJXJXHXHXHXHXHXGXSXAXCXcXxXlXjXsXyXtX;.*.+.o. .| +.*.=.>.tXyXtX;.-.,.U.yXsXjXkXvXVXCXCXCXVXcXxXxXkXlXjXaXsXpXyXyXtXuXyXpXsXjXxXxXxXkXlXkXxXvXvXxXlXjXnXaXfXT.R.8.5.4.N X.o.@.| +.=.tXyXtX:.=.=.PXPXPXPXPXPXPX",
"PXPXPX . . .o.+.*.;.:.tXyXpXsXjXlXxXcXVXAXSXSXGXGXHXHXHXHXHXHXHXHXGXSXAXCXVXxXkXjXaXpXuX:.;.*.o. . . .o.O.=.>.tX:.;.;.>.uXaXlXkXxXxXxXvXcXcXcXvXxXvXcXcXvXxXlXaXsXyXuXtXtXyXpXaXlXxXxXxXbXxXvXcXvXkXaXsXsXaXaXiXJ.0.a N $.+.o.@.| +.=.tXdXyX:.>.;.PXPXPXPXPXPXPX",
"PXPXPX . .| o.+.*.=.>.tXtXyXpXsXjXkXxXcXCXFXAXSXSXKXGXGXGXGXGXGXSXDXAXCXVXcXxXkXjXsXpXuX:.>.*.+. .} }  .| +.=.;.;.=.-.>.pXbXVXVXvXkXlXjXjXjXkXvXVXCXAXAXAXAXCXLXvXkXjXaXsXpXsXaXlXxXcXVXVXCXVXVXxXjXpXtXtXyXyXU.-.+.....o.+.o.|  .+.=.tXpXyXyXtXtXPXPXPXPXPXPXPX",
"PXPXPX . .| o.+.O.*.;.:.tXtXyXpXsXjXlXxXvXmXVXCXCXCXAXAXAXAXAXAXCXCXVXVXcXxXxXlXjXsXpXtX:.;.*.+. .} w w q  .+.*.=.*.=.:.sXvXCXCXVXxXlXaXpXpXsXjXxXcXCXCXAXAXAXCXCXCXCXVXxXlXjXjXjXkXvXVXCXAXCXVXxXjXpXuXyXpXsXsXsXdXuX>.*.+.|  . .o.*.:.yXpXpXpXyX:.=.PXPXPXPXPX",
"PXPXPX}  . .| o.+.*.=.;.:.tXtXyXpXsXaXjXlXkXxXxXvXcXVXVXVXVXLXcXvXvXxXxXxXkXlXjXaXsXyXtX:.=.*.o. .q 0 0 0 q | +.O.O.*.>.pXkXVXVXVXcXkXaXyXtXyXsXjXlXxXvXcXcXcXVXCXSXSXSXAXVXcXkXjXjXkXcXCXCXCXVXxXlXsXpXsXaXjXkXvXcXxXpX=.| } }  .o.*.;.U.yXsXaXpX:.=.*.*.PXPXPX",
"5 0 0 w q }  .| +.O.*.;.>.:.tXyXyXpXsXaXaXjXjXjXlXlXkXkXkXkXkXlXlXlXjXjXjXnXaXsXpXyXtX:.=.*.+.| } w 0 5 5 w  .o.o.o.o.O.>.yXjXkXxXxXkXaXyXyXyXpXsXaXjXjXjXsXpXsXlXVXAXSXSXSXCXvXjXaXjXkXxXvXvXvXvXxXkXjXjXjXjXjXlXjXsX:.+.1.w q  .o.+.*.;.yXaXjXaXtX>.=.*.PXPXPX",
"5 5 0 0 w q }  .| +.O.*.=.;.:.:.tXtXtXyXyXyXyXpXpXsXsXsXsXsXsXsXsXpXyXyXyXyXyXtXtX:.:.=.*.+.|  .q 0 5 6 6 0 }  . . . .| O.=.:.yXsXaXaXsXpXyXpXpXpXyXtX:.=.*.+.*.>.sXxXVXAXSXSXZXxXjXaXsXaXjXlXkXxXxXxXxXxXlXjXsXpXtX;.+.q 5 5 w  .| o.+.*.tXaXlXjXpX:.;.=.PXPXPX",
"6 6 5 0 0 w w q }  .o.+.O.*.*.*.*.*.*.-.=.=.;.;.>.:.:.:.:.:.:.:.:.>.;.=.=.=.=.=.=.=.*.*.+.|  .q 0 5 4 4 4 5 w }  . . . .o.+.*.*.=.;.:.tXyXsXsXpXuX;.o.w 6 O O 6 } *.U.aXcXAXSXAXVXvXjXpXtXtXpXaXjXkXxXxXvXxXbXaXtX*. .0 O o O 0  . . .| +.>.sXkXlXsXtX:.:.PXPXPX",
"4 4 4 6 5 5 0 0 w q }  . .| | | |  . . . . .| | o.+.+.O.O.*.*.*.O.O.+.+.+.+.+.+.+.+.o.|  .} w 0 5 6 4 O O 6 0 q  .| +.+.*.=.=.=.*.*.=.:.tXyXpXyX:.*.q O   . .   O 0 | =.sXvXCXAXAXCXxXsXtXtXyXsXjXkXxXxXcXVXVXjX:.| 5 O     o 5 }  . . .o.;.sXkXkXjXpXtX:.PXPXPX",
"O O O O O 4 4 6 e 0 0 0 0 0 w w w 0 0 0 0 0 0 0 0 w q q }  . . . . . . . . . . .} } q w 0 0 5 6 4 4 O O O 4 0 q  .+.=.:.yXsXaXpXtX;.;.;.:.:.tXtX:.*.} 4 o           O q =.sXxXCXAXAXcXjXpXyXsXjXlXkXxXxXVXAXCXxX:.} O   . . + 0  . . .q  .=.pXkXxXjXsXtX;.O.|  .",
"O O O O O O O 4 4 4 4 6 6 6 5 5 5 0 0 } | O.*.*.*.*.O.+.|  .q w 0 0 0 0 0 0 0 0 0 0 e 5 6 4 4 O O O O O O 4 4 0  .*.:.pXjXxXxXxXjXsXyX:.=.=.:.yXyX:.O.q 6 O o   . .   4  .=.yXkXVXCXvXjXyXyXyXsXaXnXjXlXvXVXVXjX=.0 o . .   4 w | | } 0 q O.tXjXjXjXpXtX=.+. .} ",
"O O O O O O O O O O 4 4 4 4 6 5 0 q | *.tXsXlXkXkXjXsXyX>.*.o.} 0 5 6 4 4 4 4 6 6 4 4 4 O O O o o o O O O O O 6 } *.tXsXkXvXVXVXVXvXjXtX=.*.:.sXjXsXtX*.o.w 4 o       O 5  .*.yXkXcXxXsXyXtXtXyXpXsXaXjXkXxXxXsX=.} 4 O O 4 0  .o.| q 5 0 | ;.yXsXsXyXtX=.+. .} ",
"5 5 6 4 4 4 O O O O O 4 4 5 0 } +.=.tXsXlXvXVXCXAXAXCXcXkXjXpXtX=.| 0 4 O O O O O O O O O O O O O 4 4 6 5 6 4 6 q O.:.pXjXkXvXVXCXVXkXyX=.*.:.sXkXkXlXsXtX=. .0 4 O o + 4 0 @.:.aXkXjXyXtXtXyXaXlXxXxXcXVXCXCXcXjXyX;.+. .} }  .|  .w 6 5 } O.>.tXpXpXyX:.*.+.o.",
"0 0 0 0 5 5 6 4 4 4 6 0 w  .o.*.:.pXjXlXkXkXxXcXCXAXAXFXCXVXVXxXjX:.O.} 0 5 6 4 4 4 4 4 4 4 6 5 5 0 0 w w 0 4 6 0 o.=.tXpXaXlXxXVXVXkXyX=.=.:.sXlXvXVXVXxXsX:.*. .w 6 4 6 0  .=.yXjXsXyXtXtXsXjXxXVXCXAXSXGXGXGXAXVXxXsX:.=.O.o. .} 0 5 0 } +.;.tXpXsXsXtX;.*.O.",
"4 4 6 0 q } } q [  .| +.*.;.tXyXsXsXsXyX:.;.;.>.tXyXsXjXbXvXmXVXcXxXlXsXtX=.O.o. . . . .| | o.o.|  . .q 0 5 4 4 5  .O.=.:.yXsXlXvXcXkXyX;.*.=.:.pXlXVXAXFXVXlXsX:.=.+. . . .o.=.yXsXsXsXyXpXpXsXjXvXCXSXGXHXHXHXGXSXAXVXxXsXtX*. .w 0 0 q o.=.tXpXsXsXyX:.=.O.+.",
"+ O 6 w  .| o.+.O.*.=.>. XyXyXyXuX:.;.*.o. .} }  .o.O.=.:.yXsXjXxXcXVXVXvXjXsXyX:.>.=.=.=.*.*.+.o. .q 0 5 4 O O 6 w  .+.-.>.tXsXjXlXjXyX>.=.*.=.>.yXlXVXCXCXVXcXlXsXtX>.=.*.=.:.pXaXjXaXsXyX:.>.:.pXkXVXAXGXHXHXHXGXSXCXxXaX:.O.} 0 0 q | O.>.tXyXyXtX>.=.+.o.| ",
"PXPXPX0 q  .+.*.>.tXyXyXyX3X>.=.+.| [ 0 0 5 5 6 5 5 e 0 w  .o.*.>.yXlXvXVXVXVXcXxXjXsXtX;.*.+. .w 0 4 O O O O O 4 5 w  .o.O.=.:.tXdXyXyXtX>.*.+.+.=.tXsXkXcXCXCXVXxXjXsXpXyXpXaXlXkXkXjXsX:.+.} } +.>.pXbXCXGXHXHXGXAXxXyX=.+.} 0 0 q  .+.*.=.=.=.*.+.o. . .} q ",
"PXPXPX6 5 0 } +.*.=.=.=.=.O.o. .q 9 7 ; 7 7 ; ; ; ; ; ; ; 7 0 q  .+.=.:.tXyXpXpXuX:.;.*.o. .w 5 4 O O o o o o O O O 4 5 w  .o.O.*.=.>.:.:.>.*.+.| o.O.=.:.yXsXaXaXaXaXaXaXjXlXbXxXxXxXkXaXtX+.0 6 0  .=.yXxXAXGXGXSXVXsX=. .0 5 5 0 w  . .| o.o.|  .} q q w w w ",
"PXPXPXO O 4 6 0 w q q q w 0 5 5 7 , : > < < < > : : > < d 9 7 7 5 5 5 e 0 w w w 0 0 e 6 4 4 O O + o O O O O o o o o o o 4 5 w }  .| +.*.=.;.*.+.o.| | o.o.o.+.O.*.=.:.tXsXjXlXkXxXxXvXxXkXpX*.q 5 6 0  .;.aXVXAXSXAXxXyX+.0 4 4 6 5 0 0 w w 0 0 0 0 0 0 0 PXPXPX",
"PXPXPXPXPXO ; ; ; 7 7 7 , ; ; ; : : > h f j g f d d g m T m n 9 < 9 n n < , , , , , , , - ; ; 4 4 4 4 4 4 4 4 O O + o o O O 4 4 6 0 w  .| +.O.*.*.=.*.*.*.O.+.+.+.+.+.O.*.;.:.yXsXjXxXxXxXjXtX*.| q 0 q *.yXxXVXCXVXkXtXo.5 ; ; 7 7 9 9 9 9 9 9 7 7 , , , PXPXPX",
"PXPXPXPXPXPXPX- - - : : : : : : : > d f j T T T T T Q ! ~ ~ ! Q Q Q ! ! Q m m g g g f f d d 9 9 0 0 0 0 0 0 0 0 0 0 5 5 6 6 6 6 5 5 0 w }  .+.*.=.>.:.:.:.>.=.=.*.+.+.o.o.o.+.=.:.yXaXjXkXlXsXyX:.*.| | *.yXkXcXVXVXkXyX*.} 9 n n f f g g g j g d < : : : PXPXPX",
"PXPXPXPXPXPXPX: : : : > > : : : > d f n m m Q ~ B.N.B./ ~ / N.Z.Z.V.B.~ / / / / ! T j j j j n n 0 0 w q }  .+.+.O.*.*.*.*.*.*.*.*.*.*.*.*.*.+.o.o.+.*.;.:.tXyXyXpXpXpXyX:.>.=.*.*.*.;.tXpXsXaXaXsXyXtXtXpXlXcXVXCXVXcXlXpX:.-.$.! Q T j T T Q Q j f > : - PXPXPX",
"PXPXPXPXPXPXPX: : : > < > > : > d g m m m T Q B.Z.L.A.B.^ B.L.W.W.L.V.B.N.Z.L.Z.B.! T T Q Q R n 0 0 0 q } | +.*.=.;.:.tXtXyXyXyXyXyXyXpXyXtX>.*.+.o.+.O.-.>.tXpXaXlXkXkXjXaXyX:.=.*.*.=.>.tXyXsXjXjXjXlXxXcXZXCXCXCXCXLXxXnXiXK.N./ ~ ! ! ~ / / ! m d : : PXPXPX",
"PXPXPXPXPXPXPX- - : > < d < > d f j T T T T ! B.G.L.Z.N.B.A.P.9X9XP.Z.N.A.L.P.P.Z./ ~ ~ / / ! n 7 6 6 6 5 0 w  .| +.*.=.>.:.tXpXsXjXjXjXjXjXjXsXyX>.+. .q  .+.*.>.yXsXlXxXvXvXkXaXyX:.*.+.O.=.:.yXsXjXxXvXVXVXCXAXAXAXVXvXlXfXY.L.V.M./ / B.V.A.B.Q g < > PXPXPX",
"PXPXPXPXPXPXPX* - : > d d d d d g m Q Q T Q ~ N.L.L.L.V.N.Z.P.9X9XP.Z.V.Z.P.W.W.L.N./ B.N.N./ R n 7 5 5 5 5 5 5 0 w }  .| +.<.=.>.tXtXyXyXpXsXsXpX:.O. .w 0 w } o.*.:.yXjXxXvXcXvXkXsX:.=.*.O.*.=.tXsXlXxXcXVXCXAXAXCXVXxXjXfX5XI.G.V.B./ N.Z.G.A.~ T f d PXPXPX",
"PXPXPXPXPXPXPX* - : > d d d < d j T Q Q Q Q ~ N.L.P.L.A.N.Z.P.9X9XP.Z.N.Z.P.W.P.L.N.B.N.A.Z.N.~ R n n M q w 0 6 6 4 4 4 4 4 6 e w } | +.O.*.=.;.;.=.=.#.o.} 0 0 w  .+.*.:.yXsXkXvXcXxXlXsXtX*.+.+.*.:.pXjXxXVXCXCXCXVXxXlXsX4X5XI.G.V.B./ N.G.L.Z./ T j g PXPXPX",
"PXPXPXPXPXPXPX* - : > d d d d d g m T T T T ! B.G.L.G.V.B.V.L.W.W.L.V.B.A.L.W.P.Z.B./ B.N.N.B.! T R W ..+.+.+.o. .q 0 6 4 O O 4 6 0 } o.*.;.UXyXpXpXpXyXtX>.*.O.+.+.+.O.*.=.>.yXaXlXkXkXjXsX:.*.+.+.*.;.tXjXxXcXcXcXxXjXsXtXU.Y.I.G.V.B./ N.G.L.Z./ T j f PXPXPX",
"PXPXPXPXPXPXPX* - : > < d d > h d g j j j T Q / V.Z.A.B.B.N.Z.L.L.Z.N.B.V.G.L.L.V./ ~ ~ / / ! T j R ..#.=.:.tXtX:.*.o.} 0 6 4 4 6 0  .<.:.yXaXkXxXxXxXxXlXjXsXyX:.;.*.+.o.| o.*.>.tXpXaXjXaXyX:.=.O.o.o.*.tXaXlXlXjXaXyX:.,.&.K.L.A.N./ / N.Z.G.V.~ m f d PXPXPX",
"PXPXPXPXPXPXPX* * - : : : : : > > < d d g T T Q ~ / / N.A.A.V.N.N.N.V.A.N.N.N.B.B./ / ! Q T j g g R X.-.>.tXpXpXyX>.O.| q 0 6 4 4 5 q | *.;.tXdXsXaXjXaXsXyXtX>.*.+.| } 0 0 0 } o.*.;.:.tXyXyXyX:.*. .} @.=.tXyXyXtX:.;.<.+.$.$.N.B./ ~ ! / N.N.B.Q g d > PXPXPX",
"PXPXPXPXPXPXPX* * * * * - - : : : : : < g m T m j T ~ B.A.N./ ! ~ / A.Z.N./ Q Q ~ / / ! m d d d f R X.*.;.:.tXyXtX;.O.| q 0 4 4 4 6 0 } o.O.=.>.UXtXyXyXtX:.;.*.+. .} 0 5 6 6 0 w  .| +.*.=.:.:.>.O.} w } +.=.=.=.*.O.o. .E W ! ~ ~ ! Q Q ! / / ~ T f > > PXPXPX",
"PXPXPXPXPXPXPXPXPXPX= * * - : : : : : > d g g g f g T ! ~ ~ ! T Q ~ B.N./ ! T T Q ! ! T g d h h f n E ..+.<.*.*.*.+. .q 0 4 4 4 4 6 0  .+.*.=.:.tXyXpXsXpXyXtX:.;.*.+.| } 0 0 5 5 5 0 w q  .o.+.+.| q w {  .o.+.@. .} M 9 n n T Q Q T T T Q ~ ~ ! m d > > PXPXPX",
"PXPXPXPXPXPXPXPXPXPXu - * - - : : : : : > h h d d f j m T T j j j Q ! ~ ! T j j T Q T j f s s h d n n q q }  . .} w 0 6 4 4 4 6 0 q  .+.=.>.tXpXaXjXlXkXkXlXjXaXsXyXtX>.*.+.|  .q w 0 0 0 0 w q q w 0 0 w q } q w 0 9 7 > > d g j m m j j T Q ! Q j d > > PXPXPX",
"PXPXPXPXPXPXPXs.p.7.a : - = * * - : : : : : > < d f g g j g f d d g m T j g d d g j j g d h h d d d 9 7 5 5 5 6 4 3 O O O 4 5 w  .+.*.>.tXpXjXxXcXVXCXCXCXCXCXVXcXxXlXsXyX:.>.=.*.O.o. .q 0 0 5 5 6 6 6 5 0 0 e 7 , , : : : < d f g f f f j T T m f > : : PXPXPX",
"PXPXPXPXPXPXs.s.i.7.a s 7 8 9 9 E E ..X.X.X.X.W m f f h h h s s s h h h h h s s h h n W W X.X.E n 9 7 4 4 3 O O O o o o O 4 5 q  .+.*.=.>.:.yXsXjXjXlXkXkXkXkXkXjXaXsXyX:.=.*.O.+.o. .q 0 5 6 4 4 4 4 4 4 6 6 ; , : : : : : > < d d d d d f j j g d : : : PXPXPX",
"PXPXPXPXs.s.p.i.e.5.a M 0 w } | +.-.;.3XyXyX3X&.W n d f n n n n n n n n n n m n g n R $.,.U.;.O.} 0 6 4 O O O O O o o o O 4 6 0 w }  . .| o.+.*.=.=.;.>.>.>.>.>.;.=.*.O.o. .q w 0 0 5 6 4 4 4 6 4 4 4 O # = - - - : : : : : : > > s s > d d f f d < : : : PXPXPX",
"PXPXPXs.p.p.i.t.7.2.u r 4 4 5 0 q } | +.*.=.-.#.X...X.#.&.,.U.3X3X4X4X4XiXiXiXiX3X,.,.-.-.*.o.q 5 4 O O O O O 4 4 4 O O 4 4 4 6 6 5 0 0 0 0 q  .| o.+.+.O.O.O.O.+.+.o. . .} w 0 0 5 6 4 4 6 e 0 0 0 6 4 ; ; - * * - : : : : > > > > > > d d d d d < : : : PXPXPX",
"PXPXPXi.i.y.e.6.5.p u # o o o o O O O 4 5 0 q  .| +.*.;.:.yXsXjXkXxXxXvXcXVXVXLXxXaXyX;.+.} 0 e 5 6 6 6 6 5 0 0 0 5 6 4 4 4 4 4 4 4 6 6 5 0 q  .+.O.*.=.=.=.=.*.*.+.+.o.|  . .q 0 0 5 6 5 0 } | |  .w e 5 ; - * * * * * - : : > > > > > > d d d < : : : - PXPXPX",
"PXPXPXe.e.e.w.6.5.p u # o o o + O O 4 4 4 6 5 0 0 q } | o.+.+.+.O.O.O.O.*.=.;.;.;.=.=.*.*.#.*.=.=.=.=.=.=.=.=.=.+.} 5 4 4 4 5 5 0 w }  .o.*.;.tXsXjXlXxXxXbXlXjXsXyX:.;.*.O.o. .q w 0 w q | *.;.;.*.o.M e ; # X X X X X X $ - : : > > > > > > > : * $ X X PXPXPX",
"PXPXPX7.6.6.6.6.7.2.y # o + O 4 4 6 5 5 5 5 5 5 6 6 5 0 0 0 0 0 5 5 6 6 5 0 w q  .| +.-.>.tXpXnXlXkXkXlXjXjXaXpXtX*.| } w 0 0 w } | +.O.=.:.yXjXvXCXAXSXSXAXCXVXxXjXsXtX:.=.*.o. .} q q  .o.*.;.;.*.o.M e ; + o # # # # # X X $ * * * * * * * * $ X X @ @ PXPXPX",
"PXPXPX5.5.5.7.w.e.w.PXPXPX3 4 6 0 w }  . .} q w 0 0 e 5 0 0 }  .|  . .} } }  . .o.O.=.:.dXjXxXVXCXAXSXAXAXCXvXkXjXaXsXtX=.o. . .| +.+.O.*.;.tXsXlXxXVXCXCXVXvXxXjXsXdXtX:.>.=.O.o. .q w 0 w }  . .} 0 5 6 6 6 e q  .} w ; # X X X X X X X X X X X X @ @ @ PXPXPX",
"PXPXPX2.2.3.5.w.t.i.s.PXPXu 7 5 w } | +.+.+.+.o.|  .q 0 0 w } | +.*.*.=.*.O.+.+.+.*.=.:.pXjXxXVXAXKXHXHXHXGXAXVXcXxXkXjXpXtX;.*.+.o.| o.+.<.=.:.tXpXaXjXjXaXsXyXtX:.:.;.=.=.*.+. .} w 0 0 0 0 w w 0 5 6 4 4 6 0 q  . .E w 9 7 9 w q M  .....+.#.+.X.......PXPXPX",
"PXPXPXi i p 3.6.t.i.p.p.r.4.u 5 w  .+.O.*.=.=.=.=.*.+. .q w w q | *.tXyXuX>.*.O.+.+.*.=.:.yXjXxXVXAXSXGXHXHXGXSXCXxXjXnXlXxXkXpX=.| M q  . .o.+.O.*.=.;.;.=.*.*.O.+.+.o.|  . .q 0 0 0 5 0 0 w q } w 0 5 6 4 3 4 4 6 0 q  .o.O.*.=.:.yXsXjXxXcXVXcXxXjXpXU.=.O.+.",
"PXPXPXy y i 2.5.w.y.p.p.r.4.u 6 e { | +.*.=.;.:.:.:.>.=.O.o. .[  .+.;.tXtXyXtX:.=.O.+.O.=.>.tXsXjXxXVXCXAXSXSXAXVXxXjXjXjXkXkXjXpXtX=.o.q 0 0 w q }  .| |  . . .} 1.q w w w 0 0 5 5 5 e 0 q  .+.+.o. .} 0 6 O O O O 4 5 w  .| o.+.<.=.;.:.yXpXsXsXyX:.=.+. .[ w ",
"PXPXPXPXt y p 2.5.w.y.i.r.4.u 7 e w } | +.*.;.tXyXpXpXyXtX>.*.o. .| +.*.>.yXsXpXrX=.O.+.+.O.=.>.tXpXaXlXxXvXVXVXvXkXjXsXpXpXsXjXvXcXjX;. .6 4 6 5 0 w } }  . . . . .} } } } q w w 0 0 w q  .+.*.*.*.+.o.} 5 4 o o o o O 4 4 6 6 5 5 0 0 q  .| o.o. .q 0 5 4 4 O ",
"PXPXPXPXPXPXi p p 3.6.t.t.r.7.4.a M 0 { @.<.=.:.yXsXjXlXkXjXyX:.=.+.o.| O.>.tXyXyXyXtX;.O.o.o.+.*.=.>.tXyXsXaXjXjXsXpXyX:.>.:.sXxXVXxXyX*. .q q }  .+.*.=.:.tXyXyXyXyXtXtX:.>.;.=.*.O.+.o.o.o.+.+.o.|  .0 6 O o       o + O 4 6 0 q  .o.*.=.:.tX:.>.=.+. .0 4 4 ",
"PXPXPXPXPXPXPXy y p 3.7.e.i.p.i.7.a u M N $.&.,.:.tXsXkXvXvXxXjXpX>.O.o.+.*.=.:.pXaXsXyX>.*.+.o.o.o.+.*.=.;.:.:.:.:.>.=.*.+.*.:.jXvXvXjXyX>.*.O.+.*.=.:.pXjXvXCXCXCXCXVXvXxXjXaXsXyX:.=.*.+.|  .} } q w 5 4 o         o O 4 6 0  .+.*.:.yXjXxXvXvXkXaXuX=. .0 5 ",
"PXPXPXPXPXPXPXt t y i p 3.7.e.y.y.e.r.r.u.u.q.0.$.*.>.dXhXbXvXcXxXaXtX;.*.*.*.=.:.pXsXnXaXsXyX;.*.+.o.| | o.+.+.+.+.o.|  . .o.=.pXkXcXLXvXkXsX:.=.=.=.:.yXjXcXCXAXSXSXAXCXVXvXxXlXaXyX:.=.*.+. . .} q w 6 O o       o O 6 0 q  .o.*.:.dXjXvXCXAXAXVXxXaX:.+. .q ",
"PXPXPXPXPXPXPXt t t y y i 2.3.7.w.y.p.p.s.s.a.u.0.0.J.J.T.fXMXmXBXvXjXpXrX=.*.*.=.UXyXaXlXkXlXsXtX:.=.O.+.o.@.| |  . .| | o.O.:.sXxXVXCXAXVXkXyX>.=.;.:.tXaXxXVXCXAXAXAXVXcXxXkXjXsXyX:.=.O.|  .q q w 0 4 O o     o O 4 5 w }  .+.*.:.pXjXvXVXCXCXVXxXsX:.+. .q ",
"PXPXPXPXPXPXPXPXPXPXt t y y i p 2.5.7.w.t.i.p.p.a.a.a.d.d.g.Q.gXxXvXvXxXaXtX;.-.=.=.>.tXsXjXkXxXvXxXaXyX:.;.-.*.O.O.*.=.;.:.yXaXkXcXCXCXCXVXlXyX:.;.;.:.tXpXjXkXxXvXcXvXxXkXjXaXpXtX>.*.+. .q 0 0 5 5 6 4 O o o o O O 4 6 0 w } | O.;.tXpXaXlXkXlXnXpX:.*.| q 0 ",
"PXPXPXPXPXPXPXPXPXPXPXt t t y y i p 2.2.5.7.w.t.i.p.p.s.s.d.f.E.Q.Q.Q.Q.T.iXtX:.;.=.=.;.:.yXsXkXvXvXxXjXaXsXpXpXpXsXsXaXjXkXxXvXcXVXVXcXxXlXsXUX;.=.=.=.;.:.yXpXsXsXaXaXsXsXyXtX:.=.*.o. .q w 0 0 e 6 6 4 4 4 4 O O O O 4 6 0 w  .o.<.=.:.:.tXtXtX:.=.O.| q 0 5 ",
"PXPXPXPXPXPXPXPXPXPXPXPXPXPXPXPXPXy y y i p 2.3.5.6.e.y.i.p.s.s.a.d.d.d.g.Q.fXpXtX>.,.=.=.;.:.yXsXjXjXlXbXxXcXVXVXVXVXVXVXVXLXcXvXxXkXnXpXuX:.,.*.<.+.+.O.*.=.;.>.:.:.:.:.:.>.=.*.+.| } q q }  . .q 0 0 w q } q 0 4 O O O O 4 5 w }  .o.+.+.+.+.+.o. .} 0 5 4 4 ",
"PXPXPXPXPXPXPXPXPXPXPXPXPXPXPXPXPXPXPXt $ t u y i 2.3.3.5.6.e.y.i.p.s.s.d.f.E.Q.T.fXaXdXrX;.=.=.;.:.tXyXsXlXxXvXbXsX3X X X X X X X X X.X.X.X.X%.%.%. .} } | o.o.+.+.+.+.+.+.+.o.|  .} q q  .+.*.=.*.+.+.+.+.O.+.+.| } 0 4 o o O 4 5 e e e 0 0 0 0 e e 5 4 O + o ",
"PXPXPXPXPXPXPXPXPXPXPXPXPXPXPXPXPXPXPXPXO O # $ t t y i i p 3.5.6.e.y.i.p.s.s.f.!.MXmXzXaXuX>.*.+.o.+.-.;.tXpXpX X%.F V V Z D J L K ~.(._._._._._._ P G w q G E G w w 0 w w w w w q q  .| *.:.dXsXpXyX:.:.>.>.>.:.:.;.+.q 4 # # ; ; ; ; , 9 9 9 9 9 9 9 7 ; = # ",
"PXPXPXPXPXPXPXPXPXPXPXPXPXPXPXPXPXPXPXPXPXPXPX# # $ $ $ , u i p 2.3.5.6.e.y.i.a.f.f.!.Q.MXzXsX>.+. .G G G ` %.%.%.` J J J L K /.^._.[.}.}.XXXXXXoX{.]._ P P F F S 8 5 5 5 5 5 5 5 0  .+.=.tXjXcXCXVXvXkXjXsXyXpXsXaXaXyX>.-.X.Q k b U c.S.#X*X1X1X1X#X#XS.c.( U ",
"PXPXPXPXPXPXPXPXPXPXPXPXPXPXPXPXPXPXPXPXPXPXPXPX+ O 2 3 4 # $ u y i p 2.5.7.w.t.i.p.d.!.MXmXkXrX+.E S S V Z H J K ^.(._._._._.[.[.{.}.XXOXOX@X@X@XOXXX{._.(.L J D S 8 6 6 4 6 6 0 [ +.;.yXlXVXSXGXGXAXCXvXjXsXaXlXxXvXvXbXnX4XK.z.j.v.$X:X,XwXqXqXwX7X,X;X$Xn.b.",
"PXPXPXPXPXPXPXPXPXPXPXPXPXPXPXPXPXPXPXPXPXPXPXPXPXPXPX+ O 2 4 7 , u y i p 2.3.5.6.e.u.E.MXzXaX>.+.E G D H J /.(.[.{.}.oX|.}.}.{.[.[.{.}.XXOX@X@X@X@XOXXX}.[.(.L J D V % 8 6 5 0 } +.;.yXlXVXAXGXHXGXSXCXvXjXsXsXlXcXCXFXFXVXgXI.z.j.l.b.%X>X,X7X0X,X>X;X$Xb.v.v.",
"PXPXPXPXPXPXPXPXPXPXPXPXPXPXPXPXPXPXPXPXPXPXPXPXPXPXS.) W R 9 5 6 r u u y i p 2.5.5.8.q.T.iXrX*.@.G F P L K ~.(.(._.[.{.oX+XOX+X|.}.{.{.}.|.XXOX@XOXOXXX}.[._.~.L J Z S 8 8 0 1.| *.:.aXxXCXSXGXGXGXSXCXvXjXsXsXjXvXVXAXSXSXmXfXI.A.x.v.b.$X;X>X>X:X&X$Xb.x.k.j.",
"PXPXPXPXPXPXPXPXPXPXPXPXPXPXPXPXPXPXPXPXPXPXPXPX;X:X>X>X=X#X) 9 4 4 e 9 u a p p 2.2.4.0.$.#.%.%.J J L ~.^.K J D Z V Z J [.+X@X@XOXXX}.[._.(._.{.}.{.{.[.[._._.(.K L H F G w q  .o.*.:.aXxXCXAXSXSXSXAXCXvXjXsXsXaXlXxXZXSXSXDXVXzXfX<XH.v.v.n.F.$X$XF.b.x.j.h.h.",
"PXPXPXPXPXPXPXPXPXPXPXPXPXPXPXPXPXPXPXPXPXPXPXPX%X&X>X,X7X*X' 9 O 2 6 5 9 M k N N N N $...o.@.P P K ^._.(.K D B % & & B H (.{.oX+X+XXX[.(.K K K ~.~.K K K K K K L J H D S 0 w } @.*.:.sXkXcXCXAXAXAXAXCXvXlXaXsXpXpXaXxXCXSXSXDXZXzX5XA.k.k.l.v.v.b.v.x.j.h.c c ",
"PXPXPXPXPXPXPXPXPXPXPXPXPXPXPXPXPXPXPXPXPXPXPXPXn.$X;X>X,X*X' 9 O O 3 6 e w } o.#.-.-.#.o. .G P K `._._._.K D B & & & & % B D ~.{.XXXX[.~.L H D Z Z Z Z Z Z H H H H H D S 8 e w  .+.=.tXsXlXvXVXCXCXCXVXcXbXjXpXtX:.tXsXxXCXAXDXAXmX5XA.z.h.k.l.l.l.l.j.h.c z z ",
"PXPXPXPXPXPXPXPXPXPXPXPXPXPXPXPXPXPXPXPXPXPXPXPXn.$X;X>X,X*X' , O 2 6 0 e 5 5 0 } | @. .G S F J L ~.(._._.^.L H Z C % % % % V L _.{.{._.L H Z V C % % % B C V Z D H D D V C S w G  .O.;.yXsXlXvXVXVXVXVXvXkXaXyX>.*.=.:.sXxXVXFXAXVXgX4XK.N.C.j.h.h.9.c c z z z ",
"PXPXPXPXPXPXPXPXPXPXPXPXPXPXPXPXPXPXPXPXPXPXPXPXb.F.&X>X>X*XS.W 9 0 w w 0 5 6 6 5 e e 8 % C V D J L L _ _ `.`./.L J Z Z Z Z H L (._._.`.L J H D Z V C C C V Z D H J J H Z Z S S 8 w | *.>.yXsXlXxXvXvXxXkXaXyX:.*.o.@.*.:.sXlXcXZXVXxXaXtXK.M.h.c c z z z z z z ",
"PXPXPXPXPXPXPXPXPXPXPXPXPXPXPXPXPXPXPXPXPXPXPXPXv.v.F.&X>X>X8X2X1X&.W E [  .|  .0 6 ; & % B B V V C < l l I ` `.^.~./.~.~.~.(._._._._._._.(.(.(.(.(.(.(.(.~.~./.K K K L J H D S 8 5 q | *.;.tXpXsXjXjXjXsXuX>.<. .w w  .O.;.yXjXxXvXbXnXiXK.C.v z z z z z PXPXPX",
"PXPXPXPXPXPXPXPXPXPXPXPXPXPXPXPXPXPXPXPXPXPXPXPXk.l.v.F.&X>X0XwX0X<X' E } @.O.+.| q 0 8 % C B V V C > u u l I ] ` _ )._._.[.[.[.[.[.[.{.{.[._.(.(._.{.|.oX}.{.[.(.K L J J H D C 4 4 5 q | O.=.:.tXyXdXyXUX=.O.+.X.W W W ..+.=.uXaXjXjXnXdXY.$.b b z z z z PXPXPX",
"PXPXPXPXPXPXPXPXPXPXPXPXPXPXPXPXPXPXPXPXPXPXPXPXh.j.l.v.F.;X,X7X8X#XW w w } o.O.*.=.-.@.G V V Z J J D A A > u u l I _ (._.[.{.{.{.{.{.}.}.{.~.H Z L [.OX@X@XOXoX_.J C C Z D D C ; 3 4 e q  .+.=.;.>.>.;.*.+.| &.<X2X2X<X$. .o.=.tXpXsXaXsXtX-.X.R b b z z PXPXPX",
"PXPXPXPXPXPXPXPXPXPXPXPXPXPXPXPXPXPXPXPXPXPXPXPXc 9.h.l.v.$X;X>X=XS.R 6 6 e [ o.*.;.,.%.G B B Z J L L L J I l z l I F J L ~.^.(.(._._.[.{.[.(.L L (.}.+XOXOX+X}._.L Z Z Z H J ` ' ' W E 0 w  .+.O.*.*.#.o.{ G X.1XqXqX8X<X' $.#.-.>.tXyXdXuXUX=.#.W k l l PXPXPX",
"PXPXPXPXPXPXPXPXPXPXPXPXPXPXPXPXPXPXPXPXPXPXPXPXz c 9.j.l.b.$X&X*X' R 6 4 6 e q o.*.<.@.G % B V D J K ~.`.] U U U I A V V Z D Z H J L K (._._._.[.{.}.}.}.}.{._._.`.K L H J _ #X2X8X1X) 9 5 w  .| o.o.o.} w q ) 1XqXeXqX7X*XS.' X.+.-.>.tXyXyXtX=.o.w 6 ; PXPXPX",
"PXPXPXPXPXPXPXPXPXPXPXPXPXPXPXPXPXPXPXPXPXPXPXPXPXc 9.h.j.l.b.$X$X*XS.' W n 6 5 q | +.O.O.%.@.F D Z J K `._ ` ] ] I I I U Y Y ] A C B V D H L L K ~.~.~.~.~.~.~.K K L H H D ` #X8X7X1X) 5 2 6 0 q [ [ } E W ( S.2X0XqX0X:XD.c.! M { o.*.;.>.>.=.<. .0 5 6 PXPXPX",
"PXPXPXPXPXPXPXPXPXPXPXPXPXPXPXPXPXPXPXPXPXPXPXPXPXPXPX9.h.j.l.v.$X;X,X>X#XW 7 3 5 w  .*.>.:.=.@.S V Z H L L K _ ] Y U h.l.v.x.Y I A 1 C A A A F J J ` ` _ _ _ _ _ ` J F Z A ] #X=X>X*X' E 9 5 5 e e 0 n Q M.x.$X:X>X>X&Xn.l.U k 9 0 } +.#.*.O.+.| [ 0 5 5 PXPXPX",
"PXPXPXPXPXPXPXPXPXPXPXPXPXPXPXPXPXPXPXPXPXPXPXPXPXPXPXc c 9.j.l.b.%X:X&XS.R ; O 4 0 } +.=.;.<.G C % B V Z H H J ] U h.h.j.k.k.l.c.c.c.c.S.#X#X#X#X=X2X2X2X2X2X2X-X#Xc.Y U U U S.&X>X>X2X1X#X) w 7 , s l b h.j.l.v.b.b.v.k.h.v z l k m ..o.o.o.|  .q 0 e 5 PXPXPX",
"PXPXPXPXPXPXPXPXPXPXPXPXPXPXPXPXPXPXPXPXPXPXPXPXPXPXPXz z c 9.j.x.n.%X%XS.( R 9 9 0 q | O.*.o.G 8 % % % B V Z D ] I U U U 9.h.j.l.v.n.F.$X&X;X>X>X,X7X0XwXwX0X7X>X%Xb.l.j.h.j.x.*X1X8X0X0X2X<XX. .W ~ C.N.V.A.G.G.G.Z.A.N.C.z.v b b m E  . .} } w 0 5 6 6 PXPXPX",
"PXPXPXPXPXPXPXPXPXPXPXPXPXPXPXPXPXPXPXPXPXPXPXPXPXPXPXz z c c h.j.x.b.$X%X*X*X#X' E 0 [ @.+.o. .w 8 8 % % B V Z D J ` ] I b c 9.h.j.j.k.k.l.x.v.b.F.$X&X&X$XF.b.v.l.j.h.9.c v B.K.4X4X4XfXiX3X3XtXdXgXzXmXNXNXNXNXmXzXfX4XU.,.&.$.....} q 0 5 4 4 4 4 O O PXPXPX",
"PXPXPXPXPXPXPXPXPXPXPXPXPXPXPXPXPXPXPXPXPXPXPXPXPXPXPXPXz z c c h.j.l.v.$X>X,X=XS.W 0 w }  . .} w e 6 & & % % B V D H J ] I U U h.h.j.j.k.k.x.b.F.$X%X&X%X$Xn.v.l.j.h.h.U ^ / &.U.uXyXuXuXuXyXdXsXlXcXZXAXSXKXSXAXVXvXlXpXtX;.-.+.| } w 0 4 O O o o O O PXPXPXPX",
"PXPXPXPXPXPXPXPXPXPXPXPXPXPXPXPXPXPXPXPXPXPXPXPXPXPXPXPXPXPXz z c c 9.j.v.$X&X*X' E 0 e w q w 0 6 4 O + + & & % B V V Z H J ` ] Y l.l.v.b.F.&X>X>X,X7X,X,X>X;X%Xb.k.h.C.J.Y.U.yXdXpXdXyXtXtXtXtXyXaXkXvXVXVXVXcXxXjXsXyX:.;.*.+. .} 0 5 4 4 O o o PXPXPXPXPXPXPX",
"PXPXPXPXPXPXPXPXPXPXPXPXPXPXPXPXPXPXPXPXPXPXPXPXPXPXPXPXPXPXz z z c 9.h.k.v.b.S.) n 5 5 5 5 6 4 O # $ : s l l l I 1 % B B Z Z F ] Y Y Y Y '.#X-X-X-X-X-X#X#X'.Y Y ~ ! ) #.,.>.rXuXyXpXsXsXsXpXsXsXlXxXVXCXCXCXCXVXxXjXsXtX>.*.+. .q 0 5 4 O O o o PXPXPXPXPXPXPX",
"PXPXPXPXPXPXPXPXPXPXPXPXPXPXPXPXPXPXPXPXPXPXPXPXPXPXPXPXPXPXz z z c 9.h.j.k.l.z.T 9 6 4 4 4 O O + - l U z.l.l.x.( I A C C S S D F J J P _ `._.].].]._.`._ P J F G E | o.o.+.O.=.>.:.yXsXnXjXjXjXlXxXcXCXAXSXGXSXAXCXvXjXpX:.=.+. .q 0 5 4 O O o o PXPXPXPXPXPXPX",
"PXPXPXPXPXPXPXPXPXPXPXPXPXPXPXPXPXPXPXPXPXPXPXPXPXPXPXPXPXPXz z z z c c 9.h.h.U k - O + + O $ $ u k J.5XgXMXMXMXgXfXdX3X X;.,.*.%.%.%.%.%.%.%. X X X.X-.-.-.,.,.-.*.<.+.o.| | +.O.*.;.:.tXyXyXpXsXjXkXvXVXCXAXCXVXxXjXsXtX;.*.o. .w 0 6 4 4 O PXPXPXPXPXPXPXPXPX",
"PXPXPXPXPXPXPXPXPXPXPXPXPXPXPXPXPXPXPXPXPXPXPXPXPXPXPXPXPXPXPXz z z z b b v U U m 9 5 5 e 0 M k ^ J.5XmXSXGXGXGXSXAXVXvXlXsXyX:.=.O.o. . .o.=.yXaXsXtX:.:.tXyXyXyXtX>.=.+.|  . . .| +.O.=.=.;.:.tXyXsXaXjXkXkXlXnXpXtX:.=.O.o. .q 0 5 6 4 4 PXPXPXPXPXPXPXPXPXPX",
"PXPXPXPXPXPXPXPXPXPXPXPXPXPXPXPXPXPXPXPXPXPXPXPXPXPXPXPXPXPXPXPXPXs > s M m W X.#.-.=.;.>.:.U.4XfXgXmXCXSXSXSXAXVXxXjXdX:.=.O.o. .1.w 0 0 } =.pXlXnXuX;.=.;.:.tXyXpXyXtX=.+.|  .} }  .| o.+.O.*.*.=.;.>.:.:.:.>.;.*.O.+.|  .q 0 0 5 6 PXPXPXPXPXPXPXPXPXPXPXPXPX",
"PXPXPXPXPXPXPXPXPXPXPXPXPXPXPXPXPXPXPXPXPXPXPXPXPXPXPXPXPXPXPXPXPX3 4 6 0 q | +.=.>.tXtXtXyXyXpXsXnXlXkXxXxXxXlXaXyX:.=.+. .w 0 5 6 4 4 4 w *.pXlXjXtX=.*.*.*.=.:.yXsXpXtX>.*.+. .q q q } }  . .| o.+.+.+.+.+.o.|  . .} w 0 5 6 4 4 4 PXPXPXPXPXPXPXPXPXPXPXPXPX",
"PXPXPXPXPXPXPXPXPXPXPXPXPXPXPXPXPXPXPXPXPXPXPXPXPXPXPXPXPXPXPXo o O 4 6 0 w } | +.O.<.<.O.O.+.+.+.O.*.=.>.:.:.:.;.=.*.+. .w 0 5 6 4 4 O O 0 +.tXjXaXyX;.*.+.o.o.*.>.tXyXsXpXuX;.+. .q 0 5 5 0 0 0 w q q q q q q q q w 0 5 6 4 4 O O O PXPXPXPXPXPXPXPXPXPXPXPXPX",
"PXPXPXPXPXPXPXPXPXPXPXPXPXPXPXPXPXPXPXPXPXPXPXPXPXPXPXPXPXPXo o O O 4 4 5 0 w }  .| | | | o.o.o.+.*.=.:.tXyXpXpXpXyXtX:.*.+. .w 0 5 4 O O 6 | ;.yXyXyX:.=.+. .}  .+.=.>.tXyXyX:.=.+.| q 0 5 6 6 6 6 6 6 6 6 6 6 6 6 6 6 4 4 O O O PXPXPXPXPXPXPXPXPXPXPXPXPXPXPX",
"PXPXPXPXPXPXPXPXPXPXPXPXPXPXPXPXPXPXPXPXPXPXPXPXPXPXPXPXPXPXO O O O 4 4 6 0 w q  . .o.+.+.O.*.;.:.yXaXkXcXVXCXAXAXCXVXxXsXtX=.+. .w 5 4 O 4 q +.=.:.tXtX:.*. .w w q  .+.*.;.>.:.>.=.*.o. .w 0 6 4 4 O O O O O O O O O O O O O PXPXPXPXPXPXPXPXPXPXPXPXPXPXPXPXPX",
"PXPXPXPXPXPXPXPXPXPXPXPXPXPXPXPXPXPXPXPXPXPXPXPXPXPXPXPXo o O O O 4 6 0 0 {  .o.O.=.;.:.:.tXpXaXkXvXCXAXSXGXGXHXHXGXSXCXxXsX:.=.+. .w 6 4 4 0 | O.=.>.:.;.*.| } 0 0 0 w  .o.+.*.=.=.*.+.| } w 0 5 6 6 4 4 4 O O O + o o O PXPXPXPXPXPXPXPXPXPXPXPXPXPXPXPXPXPXPX",
"PXPXPXPXPXPXPXPXPXPXPXPXPXPXPXPXPXPXPXPXPXPXPXPXPXPXPXo o o o O O 4 5 0 }  .+.*.;.:.yXpXsXjXkXvXCXAXSXGXHXHXHXHXHXGXSXCXxXaXtX;.O.| q 5 4 4 0  .+.*.=.=.*.O.o. .q 0 6 6 5 0 q  .| o.o.|  .} q w 0 0 5 6 6 4 4 O O o o o PXPXPXPXPXPXPXPXPXPXPXPXPXPXPXPXPXPXPXPX",
"PXPXPXPXPXPXPXPXPXPXPXPXPXPXPXPXPXPXPXPXPXPXPXPXPXPXPXo o o o O O 4 4 5 0 }  .+.*.=.>.:.tXyXsXjXxXcXVXAXSXSXGXGXGXSXAXLXjXyX>.*.o.} 0 4 O 4 q +.=.=.<.+.+.+.+.o. .0 6 4 4 4 6 5 0 0 0 0 0 5 5 6 4 4 O O O O O O o PXPXPXPXPXPXPXPXPXPXPXPXPXPXPXPXPXPXPXPXPXPXPX",
"PXPXPXPXPXPXPXPXPXPXPXPXPXPXPXPXPXPXPXPXPXPXPXPXPXPXPXo o o O O O 4 4 5 0 0 q } | +.+.*.*.=.>.tXyXsXjXkXxXcXVXVXVXvXkXaXyX;.O.| } 0 5 4 4 5  .O.=.*.+. . .| +.+.| q 0 6 4 O O O O O 4 4 4 O O O O o o o o o o o PXPXPXPXPXPXPXPXPXPXPXPXPXPXPXPXPXPXPXPXPXPXPXPX",
"PXPXPXPXPXPXPXPXPXPXPXPXPXPXPXPXPXPXPXPXPXPXPXPX4 4 4 O O O O 4 4 6 0 0 0 0 0 0 w q }  . .| +.O.*.=.>.:.tXyXyXyXyXtX:.=.*.o. .w 0 6 6 6 0 w  .| +.o. .} } | o.+.+.|  .w 6 O o o O O O O O O O o o o PXPXPXPXPXPXPXPXPXPXPXPXPXPXPXPXPXPXPXPXPXPXPXPXPXPXPXPXPXPX",
"PXPXPXPXPXPXPXPXPXPXPXPXPXPXPXPXPXPXPXPXPXPXPXPX5 5 6 4 4 4 4 4 4 e w q } } q w 0 0 0 0 0 w }  .| o.+.O.*.*.*.*.*.O.+.o. .q 0 6 4 O O 4 6 0 0 w q q w 0 w } | o.o.o. .q 5 O O 3 4 6 4 O O o o o o PXPXPXPXPXPXPXPXPXPXPXPXPXPXPXPXPXPXPXPXPXPXPXPXPXPXPXPXPXPXPX",
"PXPXPXPXPXPXPXPXPXPXPXPXPXPXPXPXPXPXPXPXPXPXPXPX0 0 0 0 0 0 6 4 6 0 q  .| +.+.+. .w 0 0 0 0 0 q }  . .| | | | |  . . .} w 0 6 4 O O O O O 4 4 4 4 6 6 6 5 0 }  . . .} w 5 4 6 0 w q 0 4 O o PXPXPXPXPXPXPXPXPXPXPXPXPXPXPXPXPXPXPXPXPXPXPXPXPXPXPXPXPXPXPXPXPXPX",
"PXPXPXPXPXPXPXPXPXPXPXPXPXPXPXPXPXPXPXPXPXPXPXPX0 w }  .|  .} 0 0 0 w } o.*.;.;.=.*.+.|  .q w w w w q q q w w w 0 0 0 5 6 4 4 6 5 0 0 5 6 4 4 O O O O 4 4 5 0 w w 0 0 0 0 0 0 0 0 5 6 4 o PXPXPXPXPXPXPXPXPXPXPXPXPXPXPXPXPXPXPXPXPXPXPXPXPXPXPXPXPXPXPXPXPXPXPX",
"PXPXPXPXPXPXPXPXPXPXPXPXPXPXPXPXPXPXPXPXPXPXPXPX5 0  .+.*.*.O.o. .} q } | *.>.tXyXyXyX:.=.*.+.|  . .} } q q w 0 0 6 4 4 O O 4 0 | O.O.o.} w 5 4 O O O O O 4 6 5 6 4 4 5 0 q w 5 3 o o PXPXPXPXPXPXPXPXPXPXPXPXPXPXPXPXPXPXPXPXPXPXPXPXPXPXPXPXPXPXPXPXPXPXPXPXPX",
"PXPXPXPXPXPXPXPXPXPXPXPXPXPXPXPXPXPXPXPXPXPXPXPX3 6 w o.*.;.:.:.>.*.o. .| +.*.;.tXsXjXjXjXjXjXaXsXyXtX:.;.=.O.o. .w 5 4 O o O q <.:.tX:.=.*.| q 5 4 O o o O 3 4 O O O O 4 6 6 O o     PXPXPXPXPXPXPXPXPXPXPXPXPXPXPXPXPXPXPXPXPXPXPXPXPXPXPXPXPXPXPXPXPXPXPXPXPX",
"PXPXPXPXPXPXPXPXPXPXPXPXPXPXPXPXPXPXPXPXPXPXPXPX4 4 0 } +.=.tXsXsXyX>.*.+.o.o.+.=.tXsXlXvXVXCXCXVXcXxXjXsXtX;.*.o.} 0 6 O O 4 } =.yXsXsXpXtX;.+.} 0 4 O O O O O O o o o O O O O O 4 6 PXPXPXPXPXPXPXPXPXPXPXPXPXPXPXPXPXPXPXPXPXPXPXPXPXPXPXPXPXPXPXPXPXPXPXPXPX",
"PXPXPXPXPXPXPXPXPXPXPXPXPXPXPXPXPXPXPXPXPXPXPXPXw w 0 0 w o.>.sXlXlXjXsXtX=.+.o.| +.*.>.yXjXlXkXlXjXsXyXtX;.*.| } 0 4 4 4 6 0 | =.tXpXaXaXsXtX=.+. .0 6 4 4 4 4 O O O O O 4 6 0  .o.O.=.:.:.PXPXPXPXPXPXPXPXPXPXPXPXPXPXPXPXPXPXPXPXPXPXPXPXPXPXPXPXPXPXPXPXPXPX",
"PXPXPXPXPXPXPXPXPXPXPXPXPXPXPXPXPXPXPXPXPXPXPXPX+.o. .0 0 } *.tXsXkXvXvXjXyX=.+. .q q | O.=.>.:.:.:.;.=.*.+. .w 0 4 O O 4 6 0  .+.=.:.yXpXpXtX>.*.+. .q 0 0 6 4 4 O O O 4 4 0 } o.*.=.:.UXtXtXPXPXPXPXPXPXPXPXPXPXPXPXPXPXPXPXPXPXPXPXPXPXPXPXPXPXPXPXPXPXPXPXPX",
"PXPXPXPXPXPXPXPXPXPXPXPXPXPXPXPXPXPXPXPXPXPXPXPX;.=.O.@. . . .+.,.pXxXVXcXlXpX:.O. .w 0 w q }  . . . .} q w 0 6 4 3 O O O O 4 0 } o.O.=.;.>.;.;.=.*.O.+.|  .w 0 6 4 O O 4 4 5 w  .+.*.:.tXtXtX:.>.PXPXPXPXPXPXPXPXPXPXPXPXPXPXPXPXPXPXPXPXPXPXPXPXPXPXPXPXPXPXPX",
"PXPXPXPXPXPXPXPXPXPXPXPXPXPXPXPXPXPXPXPXPXPXPXPX*.*.*.*.*.+. .q | ;.aXxXcXvXkXsX:.O. .w 0 6 6 6 5 5 0 0 0 0 6 4 4 O O O o o O 4 5 w  .| +.O.*.*.=.;.>.:.;.*.+. .q 5 4 4 4 6 5 0 q  .O.;.tXyXyXyXyXtX>.PXPXPXPXPXPXPXPXPXPXPXPXPXPXPXPXPXPXPXPXPXPXPXPXPXPXPXPXPX",
"PXPXPXPXPXPXPXPXPXPXPXPXPXPXPXPXPXPXPXPXPXPXPXPX . .O.=.>.=. .0 w o.>.sXlXvXcXxXsX:.*.| w 5 4 4 4 5 w } } w 5 4 4 PXPXPXPXo o O 4 6 0 w } | o.O.*.:.yXaXaXpXUX=.+.} 0 5 5 5 0 0 w } +.=.:.yXaXlXjXpX:.=.*.PXPXPXPXPXPXPXPXPXPXPXPXPXPXPXPXPXPXPXPXPXPXPXPXPXPXPX",
"PXPXPXPXPXPXPXPXPXPXPXPXPXPXPXPXPXPXPXPXPXPXPXPX0 q o.*.;.=.| w 0 } +.=.uXjXxXxXjXyX:.*. .w 0 0 q  .o.O.+.| w 6 4 PXPXPXPXPXPXo O O 4 4 5 w  .+.=.tXjXxXcXxXjXpX;.+.q 0 5 5 5 0 w  .+.*.:.dXlXvXvXjXpX:.>.;.=.PXPXPXPXPXPXPXPXPXPXPXPXPXPXPXPXPXPXPXPXPXPXPXPXPX",
"PXPXPXPXPXPXPXPXPXPXPXPXPXPXPXPXPXPXPXPXPXPXPXPX6 0 } o.*.O.o. .q w q  .*.yXjXlXjXsXyX;.+. . .@.+.*.=.=.=.+.} 5 4 PXPXPXPXPXPXPXo o o O 4 5 q o.-.tXjXxXcXvXxXaX:.+.q 5 6 6 6 0 w  .o.*.;.tXaXxXxXlXsXyX:.=.*.O.PXPXPXPXPXPXPXPXPXPXPXPXPXPXPXPXPXPXPXPXPXPXPXPX",
"PXPXPXPXPXPXPXPXPXPXPXPXPXPXPXPXPXPXPXPXPXPXPXPXO 4 6 w  . .|  . .w 0 w | =.yXsXsXsXyX:.*.+.+.*.;.;.=.*.+.| } PXPXPXPXPXPXPXPXPXo o o o O 4 5 w  .O.;.tXyXyXtX;.O.} 5 4 4 4 4 6 0 w }  .o.*.;.:.tX:.;.*.+.| } q PXPXPXPXPXPXPXPXPXPXPXPXPXPXPXPXPXPXPXPXPXPXPXPX",
"PXPXPXPXPXPXPXPXPXPXPXPXPXPXPXPXPXPXPXPXPXPXPXPXo o O 4 5 w }  .} 0 5 5 w +.=.:.tXyXtX>.*.+.O.=.;.=.+. .q w PXPXPXPXPXPXPXPXPXPXo o o o O O O 4 0  .O.=.:.:.>.=.+.} 0 4 3 O O 4 4 5 0 w } | +.*.=.=.=.=.O.| { w PXPXPXPXPXPXPXPXPXPXPXPXPXPXPXPXPXPXPXPXPXPXPXPX",
"PXPXPXPXPXPXPXPXPXPXPXPXPXPXPXPXPXPXPXPXPXPXPXPXPXPXPXO 4 4 5 0 0 6 4 4 5 [ o.*.=.:.>.=.+.| | o.+.| q 5 4 4 PXPXPXPXPXPXPXPXPXPXPXPXPXo o o O 4 5  .=.tXsXjXlXnXyX=.@.q 5 4 O O O 4 6 0 } o.*.;.tXpXnXjXpX:.*.O.PXPXPXPXPXPXPXPXPXPXPXPXPXPXPXPXPXPXPXPXPXPXPXPX",
"PXPXPXPXPXPXPXPXPXPXPXPXPXPXPXPXPXPXPXPXPXPXPXPXPXPXo o o O O 4 4 4 4 4 5 0 q  .| +.+.| } w w q q w 0 4 o PXPXPXPXPXPXPXPXPXPXPXPXPXPXo o o O 4 e E &.4X6XgXgXgX6X<X&.W 9 6 O O O O 6 0  .X.&.Y.4X6XgXgXgX5XK.K.PXPXPXPXPXPXPXPXPXPXPXPXPXPXPXPXPXPXPXPXPXPXPXPX",
"PXPXPXPXPXPXPXPXPXPXPXPXPXPXPXPXPXPXPXPXPXPXPXPXo o o o o o o o O 4 0 w w w w w 0 e 5 6 6 6 6 5 0 0 0 PXPXPXPXPXPXPXPXPXPXPXPXPXPXPXPXo o o O 4 0 W ( H.*X8X8X8X8X&XD.M.R 7 4 O O 3 5 q  .X.B.H.*X:X8X8X8X*X$XD.PXPXPXPXPXPXPXPXPXPXPXPXPXPXPXPXPXPXPXPXPXPXPXPX",
"PXPXPXPXPXPXPXPXPXPXPXPXPXPXPXPXPXPXPXPXPXPXPXPXO O O O O O 4 5 w  .+.*.*.*.*.+.| } 0 5 4 4 4 4 6 0 } +.PXPXPXPXPXPXPXPXPXPXPXPXPXPXPXPXPXo + 3 7 R S.%X>XwXqXqX0X>X&XD.( n 4 2 O 4 e w } ) S.*X>X7XqXqX0X>X;X%XPXPXPXPXPXPXPXPXPXPXPXPXPXPXPXPXPXPXPXPXPXPXPXPX",
"PXPXPXPXPXPXPXPXPXPXPXPXPXPXPXPXPXPXPXPXPXPXPX0 6 6 4 4 4 0 } o.*.>.tXyXsXsXsXyX:.*.+. .0 6 4 4 4 0  .+.*.=.PXPXPXPXPXPXPXPXPXPXPXPXPXPXPXPXPX+ ; R S.>X0XqXeXeXqX,X;X&XPXPXPXPXPXPXPX0 q ) S.=X7XqXeXeXqX7X:X&XPXPXPXPXPXPXPXPXPXPXPXPXPXPXPXPXPXPXPXPXPXPXPXPX",
"PXPXPXPXPXPXPXPXPXPXPXPXPXPXPXPXPXPXPXPXPXyX>.O. .q w 0 w  .+.=.:.yXsXjXkXxXxXlXsXtX;.O. .w 5 6 4 5 w  .o.*.;.tXyXsXsXyX:.=.O.PXPXPXPXPXPXPXPXPXPX! c.D.&X>X7X7X>X$Xv.x.PXPXPXPXPXPXPXPXPX' H.%X>X7XwXqX7X:XF.b.PXPXPXPXPXPXPXPXPXPXPXPXPXPXPXPXPXPXPXPXPXPXPXPX",
"PXPXPXPXPXPXPXPXPXPXPXPXPXPXPXPXPXPXPXPX3XtX:.=.+. .} }  .+.=.:.yXsXaXjXkXxXxXxXjXsXuX>.*.+. .q 0 5 5 0 q | *.;.:.tXtX:.;.*.O.+.PXPXPXPXPXPXPXPXPXPXl.l.v.b.$X$Xb.l.h.9.PXPXPXPXPXPXPXPXPXPXPXn.$X&X:X>X&XF.v.l.PXPXPXPXPXPXPXPXPXPXPXPXPXPXPXPXPXPXPXPXPXPXPXPX",
"PXPXPXPXPXPXPXPXPXPXPXPXPXPXPXPXPXF.D.H.K.,.=.O.| } q }  .+.=.:.tXyXpXsXsXjXjXjXnXaXsXsXdXuX;.<.| q e 5 6 e q  .| o.o.+.+.+.+.*.=.;.>.>.>.>.PXPXPXPXPXPXPXj.h.h.h.h.PXPXPXPXPXPXPXPXPXPXPXPXPXPXPXx.x.x.x.l.PXPXPXPXPXPXPXPXPXPXPXPXPXPXPXPXPXPXPXPXPXPXPXPXPXPX",
"PXPXPXPXPXPXPXPXPXPXPXPXPXPXPXPXb.b.v.S.&.#.+.| [ w w q  .o.<.=.>.:.:.tXtXtXyXpXsXaXnXaXfX4X4XK.&.&.) W W E 7 4 4 6 e w } o.O.=.>.tX3XU.Y.Y.<XPXPXPXPXPXPXPXz z PXPXPXPXPXPXPXPXPXPXPXPXPXPXPXPXPXPX9.9.9.PXPXPXPXPXPXPXPXPXPXPXPXPXPXPXPXPXPXPXPXPXPXPXPXPXPXPX",
"PXPXPXPXPXPXPXPXPXPXPXPXPXPXF.b.v.l.j.U T E q w 0 0 0 0 w  .o.+.*.*.-.=.=.;.>.tXdXaXaX5XI.A.H.D.*X=X8X8X2X#XR ; o + 4 5 } o.*.:.yXsXfX5X1X*X&X>X7X7XPXPXPXPXPXPXPXPXPXPXPXPXPXPXPXPXPXPXPXPXPXPXPXPXPXPXPXPXPXPXPXPXPXPXPXPXPXPXPXPXPXPXPXPXPXPXPXPXPXPXPXPXPXPX",
"PXPXPXPXPXPXPXPXPXPXPXPXPXv.v.x.k.h.c b f 7 5 5 6 6 6 5 5 0 q  . . .| | o.+.*.;.tXsXfX5XZ.x.v.m.%X>X,XwX0X2X#X) R 9 6 5 [ +.-.,.Y.Y.<XH.D.$X;X,X7X0XwXPXPXPXPXPXPXPXPXPXPXPXPXPXPXPXPXPXPXPXPXPXPXPXPXPXPXPXPXPXPXPXPXPXPXPXPXPXPXPXPXPXPXPXPXPXPXPXPXPXPXPXPXPX",
"PXPXPXPXPXPXPXPXPXPXPXPXPXh.h.h.9.c z l s 6 4 3 O O O 4 4 4 6 5 0 0 0 0 w } | O.;.tXiXY.A.l.x.v.n.%X:X,X7X7X7X>X#X) 9 e [ o.#.$./ z.k.x.b.$X&X>X7X0XwXqXqXPXPXPXPXPXPXPXPXPXPXPXPXPXPXPXPXPXPXPXPXPXPXPXPXPXPXPXPXPXPXPXPXPXPXPXPXPXPXPXPXPXPXPXPXPXPXPXPXPXPXPX",
"PXPXPXPXPXPXPXPXPXPXPXPXPXc c c c c z u - # O O O o o O O O O O O O O 4 4 5 w  .O.=.,.$./ h.h.j.l.v.n.%X:X,X7X7X*X' 9 6 e q E R b v 9.h.k.x.b.%X;X>X,X,X7X,X>XPXPXPXPXPXPXPXPXPXPXPXPXPXPXPXPXPXPXPXPXPXPXPXPXPXPXPXPXPXPXPXPXPXPXPXPXPXPXPXPXPXPXPXPXPXPXPXPXPX",
"PXPXPXPXPXPXPXPXPXPXPXPXPXPXz z z PXPXPXO O O + o o o o o o o o o o o o O 4 5 w  .o.X.! b z c c h.j.l.v.$X;X>X>X*X' 9 O 2 6 7 d l z c c h.j.l.v.F.%X&X;X;X;X;X;X;XPXPXPXPXPXPXPXPXPXPXPXPXPXPXPXPXPXPXPXPXPXPXPXPXPXPXPXPXPXPXPXPXPXPXPXPXPXPXPXPXPXPXPXPXPXPXPX",
"PXPXPXPXPXPXPXPXPXPXPXPXPXPXPXPXPXPXPXPXPXPXPXPXPXPXPXPXPXPXPXPXPXPXPXPXPXPXPXPXPXPXPXPXPXPXPXPXPXPXPXPXPX%X&X&X$XS.PXPXPXPXPXPXPXPXPXPXPXPXPXPXPXPXPXPXPX%X$X$X$XPXPXPXPXPXPXPXPXPXPXPXPXPXPXPXPXPXPXPXPXPXPXPXPXPXPXPXPXPXPXPXPXPXPXPXPXPXPXPXPXPXPXPXPXPXPXPX",
"PXPXPXPXPXPXPXPXPXPXPXPXPXPXPXPXPXPXPXPXPXPXPXPXPXPXPXPXPXPXPXPXPXPXPXPXPXPXPXPXPXPXPXPXPXPXPXPXPXPXPXPXPXPXn.n.n.PXPXPXPXPXPXPXPXPXPXPXPXPXPXPXPXPXPXPXPXn.n.n.n.PXPXPXPXPXPXPXPXPXPXPXPXPXPXPXPXPXPXPXPXPXPXPXPXPXPXPXPXPXPXPXPXPXPXPXPXPXPXPXPXPXPXPXPXPXPXPX"
};
