/* XPM */
static const char *bos2h4[] = {
/* columns rows colors chars-per-pixel */
"128 128 246 2 ",
"   c #0D0D0D",
".  c #141414",
"X  c #1B1C1C",
"o  c #1A1814",
"O  c #13110F",
"+  c #261A16",
"@  c #32120D",
"#  c #2B230F",
"$  c #2C2411",
"%  c #28241C",
"&  c #342A13",
"*  c #3A2E15",
"=  c #362919",
"-  c #3E3018",
";  c #1F2022",
":  c #232323",
">  c #2C2C2C",
",  c #2B2725",
"<  c #332A26",
"1  c #343434",
"2  c #3C3C3C",
"3  c #393736",
"4  c #32312E",
"5  c #1E1F20",
"6  c #490505",
"7  c #580202",
"8  c #4D1814",
"9  c #680202",
"0  c #780202",
"q  c #6F1717",
"w  c #582609",
"e  c #42321A",
"r  c #4C391D",
"t  c #49351A",
"y  c #55391C",
"u  c #512B13",
"i  c #692C07",
"p  c #742C01",
"a  c #752A00",
"s  c #66340C",
"d  c #7C3402",
"f  c #7A3607",
"g  c #663717",
"h  c #763B15",
"j  c #622E10",
"k  c #572727",
"l  c #483626",
"z  c #563C25",
"x  c #453C39",
"c  c #50302E",
"v  c #763737",
"b  c #68352D",
"n  c #774419",
"m  c #5C4222",
"M  c #5A4328",
"N  c #48433A",
"B  c #584838",
"V  c #585439",
"C  c #634524",
"Z  c #694828",
"A  c #764C2A",
"S  c #79522D",
"D  c #795534",
"F  c #6A5036",
"G  c #736437",
"H  c #3C3E41",
"J  c #3E4042",
"K  c #434343",
"L  c #4B4B4B",
"P  c #494846",
"I  c #544947",
"U  c #58534B",
"Y  c #4E5152",
"T  c #535354",
"R  c #5C5C5C",
"E  c #575758",
"W  c #4C4E50",
"Q  c #744848",
"!  c #675847",
"~  c #635B58",
"^  c #74544B",
"/  c #696559",
"(  c #78685A",
")  c #6A6447",
"_  c #5B5C60",
"`  c #535379",
"'  c #5D6163",
"]  c #646464",
"[  c #6B6B6B",
"{  c #676867",
"}  c #79726A",
"|  c #6D7171",
" . c #737373",
".. c #7B7B7B",
"X. c #797776",
"o. c #736D6A",
"O. c #840101",
"+. c #8B0000",
"@. c #890D0D",
"#. c #9C0101",
"$. c #940404",
"%. c #921717",
"&. c #A50101",
"*. c #AA0000",
"=. c #B70101",
"-. c #AB1818",
";. c #833C05",
":. c #813A06",
">. c #883838",
",. c #942D2D",
"<. c #A93131",
"1. c #C80101",
"2. c #DC0101",
"3. c #D30101",
"4. c #CA1B1B",
"5. c #E70202",
"6. c #F50202",
"7. c #EB1717",
"8. c #DB3333",
"9. c #E33131",
"0. c #864206",
"q. c #894609",
"w. c #8D4A0A",
"e. c #874409",
"r. c #914E0C",
"t. c #93520D",
"y. c #99580D",
"u. c #874913",
"i. c #955511",
"p. c #9B5C13",
"a. c #955913",
"s. c #8A5519",
"d. c #9D6317",
"f. c #A16516",
"g. c #A56B19",
"h. c #A56C17",
"j. c #AA731C",
"k. c #AE791E",
"l. c #A7701B",
"z. c #B17B1F",
"x. c #875934",
"c. c #925E39",
"v. c #8D5828",
"b. c #98643A",
"n. c #92692C",
"m. c #AD7A22",
"M. c #B17D20",
"N. c #A47039",
"B. c #8E4E4B",
"V. c #B04F4F",
"C. c #886447",
"Z. c #917152",
"A. c #A86C41",
"S. c #B77649",
"D. c #A3784F",
"F. c #87776A",
"G. c #8A7C75",
"H. c #946F68",
"J. c #AD736E",
"K. c #CF5454",
"L. c #C27C4E",
"P. c #C66B6B",
"I. c #B48323",
"U. c #B98B27",
"Y. c #BE922C",
"T. c #B08D34",
"R. c #A08534",
"E. c #C2992E",
"W. c #C1972D",
"Q. c #C39C31",
"!. c #CDAB39",
"~. c #C9A536",
"^. c #D2B33E",
"/. c #D0AE3A",
"(. c #9A894E",
"). c #AE8F51",
"_. c #90846F",
"`. c #A98D6F",
"'. c #B9A46D",
"]. c #B7A64F",
"[. c #CC8557",
"{. c #D6BA42",
"}. c #C9B34D",
"|. c #C8B373",
" X c #DCC348",
".X c #CFC658",
"XX c #E1CB4C",
"oX c #E9D855",
"OX c #E6D14F",
"+X c #EFE25B",
"@X c #F2E85C",
"#X c #D5D165",
"$X c #F5ED61",
"%X c #FCF869",
"&X c #F7F572",
"*X c #E2D565",
"=X c #3030A7",
"-X c #7A7B84",
";X c #6464A2",
":X c #3C3CCE",
">X c #7E8383",
",X c #838484",
"<X c #8B8B8B",
"1X c #888787",
"2X c #988B87",
"3X c #939393",
"4X c #9C9C9C",
"5X c #999796",
"6X c #90918F",
"7X c #B98787",
"8X c #A59C9B",
"9X c #AB958D",
"0X c #ABA595",
"qX c #989AA4",
"wX c #9EA2A2",
"eX c #A4A4A4",
"rX c #ABABAB",
"tX c #A7A8A7",
"yX c #B5ABA8",
"uX c #ADB3B3",
"iX c #B3B3B3",
"pX c #BBBBBB",
"aX c #B7B8B8",
"sX c #B3B2AA",
"dX c #C3BBB9",
"fX c #C7B0A7",
"gX c #C6B294",
"hX c #D4CD8D",
"jX c #CBC6BB",
"kX c #E9E095",
"lX c #BDC2C2",
"zX c #C4C4C4",
"xX c #CBCCCC",
"cX c #C7C8C7",
"vX c #D3D3D3",
"bX c #DBDBDB",
"nX c #D8D7D5",
"mX c #D2D1CE",
"MX c #DEE1E1",
"NX c #E4E4E4",
"BX c #ECECEC",
"VX c #F0F0F0",
"CX c #E0DBDB",
"ZX c #AAAAC6",
"AX c None",
"SX c black",
/* pixels */
"AXAXAXAXAXAXAXAXAXAXAXAXAXAXAXAXAXAXAXAXAXAXAXAXAXAXAXAXAXAXAXAXAXAX*.*.*.*.*.*.*.*.*.=.1.3.2.2.2.5.5.6.6.5.-.Q R ' [ ..6XeXrXpXzXcXcXcXcXxXxXvXxXcXpXiXtX2XB.@.O.0 9 0 0 +.$.*.=.3.2.AXAXAXAXAXAXAXAXAXAXAXAXAXAXAXAXAXAXAXAXAXAXAXAXAXAXAXAXAXAXAXAXAXAXAXAXAX",
"AXAXAXAXAXAXAXAXAXAXAXAXAXAXAXAXAXAXAXAXAXAXAXAXAXAXAXAXAXAXAXAXAX*.*.&.&.&.#.$.+.O.+.+.#.*.*.*.=.=.1.3.3.1.-.,.>.B.B.H.2XeXuXpXzXcXxXcXcXxXxXvXvXxXcXpXiX8XJ.V.B.>.>.>.>.%.@.+.$.&.*.=.AXAXAXAXAXAXAXAXAXAXAXAXAXAXAXAXAXAXAXAXAXAXAXAXAXAXAXAXAXAXAXAXAXAXAXAX",
"AXAXAXAXAXAXAXAXAXAXAXAXAXAXAXAXAXAXAXAXAXAXAXAXAXAXAXAXAXAXAX&.&.&.&.&.#.$.O.9 7 7 7 7 9 9 9 9 9 0 +.$.$.#.*.1.3.5.7.8.J.8XrXpXzXcXxXxXcXxXxXvXvXvXvXxXxXcXdXdXdXyXyX8X2XF.b 7 7 9 9 O.#.=.3.2.5.AXAXAXAXAXAXAXAXAXAXAXAXAXAXAXAXAXAXAXAXAXAXAXAXAXAXAXAXAXAXAX",
"AXAXAXAXAXAXAXAXAXAXAXAXAXAXAXAXAXAXAXAXAXAXAXAXAXAXAXAXAXAXx v >.>.>.B.B.B.B.Q Q Q ^ ^ Q Q Q Q Q v v v v b %.#.=.3.5.7.8.K.7XyXaXlXzXcXcXxXxXvXnXnXnXnXnXnXbXMXMXbXvXxXpX8XG.^ b c k q 0 +.&.=.1.3.AXAXAXAXAXAXAXAXAXAXAXAXAXAXAXAXAXAXAXAXAXAXAXAXAXAXAXAXAXAX",
"AXAXAXAXAXAXAXAXAXAXAXAXAXAXAXAXAXAXAXAXAXAXAXAXAXAXAXAXAXL W R [ X.1X6X3X3X3X5X8XtXrXrXtX8X4X5X6X1X..o.{ ~ b q 0 $.=.3.5.7.K.J.8XrXaXpXcXxXvXvXnXnXbXNXNXBXBXBXBXBXNXbXnXcXiX4X1X .~ c 8 7 9 0 #.=.3.AXAXAXAXAXAXAXAXAXAXAXAXAXAXAXAXAXAXAXAXAXAXAXAXAXAXAXAXAX",
"AXAXAXAXAXAXAXAXAXAXAXAXAXAXAXAXAXAXAXAXAXAXAXAXiX3X[ L L T R | >X<X4XwXtXrXiXaXpXcXvXvXmXcXlXaXrXwX3X1X..| ~ I k q O.&.1.5.7.9.K.7XtXaXlXxXmXvXbXbXNXBXBXBXBXVXVXBXBXBXNXbXcXiXeX<XX.~ x k 8 7 9 $.*.1.5.AXAXAXAXAXAXAXAXAXAXAXAXAXAXAXAXAXAXAXAXAXAXAXAXAXAXAX",
"AXAXAXAXAXAXAXAXAXAXAXAXAXAXAXAXAXAXAXAXAXAXAXeX5X,X] T T ]  .,X3X4XtXtXiXpXzXcXxXnXNXNXNXbXnXxXpXrXeX3X<X,X .' I c 8 0 &.1.5.6.7.K.J.0XaXcXxXvXnXbXNXBXBXBXBXBXBXBXBXBXBXMXvXzXiXeX<XX.] I k 6 6 9 O.*.1.2.AXAXAXAXAXAXAXAXAXAXAXAXAXAXAXAXAXAXAXAXAXAXAXAXAXAX",
"AXAXAXAXAXAXAXAXAXAXAXAXAXAXAXAXAXAXAXbXnXxXrX..R T T R ]  .,X3XeXtXrXiXaXpXzXxXvXnXNXBXBXNXbXvXcXpXrXeX5X3X,X| R I c k q +.=.2.5.7.9.K.7XaXlXxXvXnXbXNXBXBXBXBXVXVXBXVXBXNXnXcXpXrX5X,X[ E x < @ 6 9 O.&.=.3.5.AXAXAXAXAXAXAXAXAXAXAXAXAXAXAXAXAXAXAXAXAXAXAXAX",
"AXAXAXAXAXAXAXAXAXAXAXAXAXAXAXAXAXAXNXnXnXcXtX .K 2 L ]  ...<X5XtXrXiXiXaXpXzXxXnXnXNXNXNXNXbXvXxXpXrXtX4X3X,XX.{ R L x c q %.=.2.6.6.9.J.rXpXcXxXvXnXbXNXNXBXBXBXBXBXVXBXNXnXxXzXaXeX<X .] L x l 8 8 9 0 #.1.2.5.AXAXAXAXAXAXAXAXAXAXAXAXAXAXAXAXAXAXAXAXAXAXAX",
"AXAXAXAXAXAXAXAXAXAXAXAXAXVXBXBXBXNXbXnXxXpX4X .L K T ]  ...<X5XtXtXrXrXiXaXpXxXvXnXbXNXNXbXnXxXcXaXtX4X3X<X,X .{ _ E R ] ( >.-.1.5.6.9.J.tXuXpXcXxXxXnXbXNXNXNXBXBXBXBXBXNXbXvXcXpXtX3X..{ E L T U I k 7 O.*.1.AXAXAXAXAXAXAXAXAXAXAXAXAXAXAXAXAXAXAXAXAXAXAXAX",
"AXAXAXAXAXAXAXAXAXAXAXAXNXNXbXnXxXxXxXzXtX<X[ R L L R ]  ...<X3X4XtXtXtXtXrXiXpXcXxXvXvXvXxXxXzXpXrXeX3X<X,X.. .[ ] R {  .X.B.%.#.1.5.7.K.P.7XyXpXzXxXvXnXbXMXNXNXBXBXBXNXbXnXxXcXpXrX3X,X[ R T T T I 8 6 9 $.=.1.AXAXAXAXAXAXAXAXAXAXAXAXAXAXAXAXAXAXAXAXAXAXAX",
"AXAXAXAXAXAXAXAXAXAXbXbXvXzXiXtX4X4XtXtX,XT 1 2 K T R {  ...,X<X3X5X4X4X4XeXtXrXaXpXpXpXpXpXaXiXtXeX5X<X<X,X.. .{ ] ] { X.X.Q q O.*.2.6.6.7.K.9XaXlXxXxXvXnXnXbXNXNXNXNXbXnXvXxXzXpXrX5X,X .] T L K 3 = 6 9 O.&.1.5.6.AXAXAXAXAXAXAXAXAXAXAXAXAXAXAXAXAXAXAXAXAX",
"AXAXAXAXAXAXAXAXAXnXvXzXtX,X] T L R ..<X .K > 1 L T ] {  . .....,X<X<X<X3X3X3X4XeXtXtXrXtXtXtXtXeX4X3X<X<X,X .[ ] ] ] ] ] ] ~ Q >.-.1.5.6.7.K.9XaXlXxXxXxXvXnXbXnXbXbXnXnXnXvXxXzXaXtX3X,X .] T L K x x c k 0 #.=.2.5.AXAXAXAXAXAXAXAXAXAXAXAXAXAXAXAXAXAXAXAXAX",
"AXAXAXAXAXAXAXAXNXnXpX5X[ K X . . > R ..{ K 1 2 L T ] { { { { [  . .....,X<X<X<X3X3X5X4X5X3X5X5X5X3X3X<X,X.. .{ ] ] ] R W L '  .H.<.=.3.5.7.K.7XyXpXcXxXxXxXxXvXvXvXvXvXvXvXxXxXzXiXtX3X,X .] T L K L T R v q +.=.3.5.AXAXAXAXAXAXAXAXAXAXAXAXAXAXAXAXAXAXAXAXAX",
"AXAXAXAXAXAXNXNXNXcX3XT 1 X     . 1 ] ,X .L 1 2 K T R R R R R ] ] ] { [  ...,X,X,X<X<X3X3X3X<X<X<X<X,X.... .[ ] R ] ] R L L R [ C.,.=.1.3.5.7.8.K.7XdXcXcXxXxXxXxXxXxXxXxXxXxXxXpXiXeX3X..[ R T P K K W T b q +.*.1.1.AXAXAXAXAXAXAXAXAXAXAXAXAXAXAXAXAXAXAXAXAX",
"AXAXAXAXAXNXNXNXNXcX<XT 2 2 2 K L R ,X3X..L 1 1 K L L T T T T T T R R ] ] [  . .....,X,X,X,X,X,X.... . .[ { ] R R R R T L K Y R ^ >.-.-.1.3.2.2.8.P.iXlXzXzXzXzXcXcXcXcXcXcXcXlXaXtX4X<X..{ R L K 2 2 J K k q $.&.*.=.AXAXAXAXAXAXAXAXAXAXAXAXAXAXAXAXAXAXAXAXAX",
"AXAXAXBXNXnXnXbXNXnXpX4X4XtXiXaXiXiXaXtX,XL > > 2 J K L L L L L L L L T T T R ] { [  . . . . . . .[ { ] ] ] R R T T L L K 2 K L E / H.B.-.=.=.=.<.J.8XuXaXpXpXpXpXpXpXpXpXpXaXiXtX4X3X,X..{ T K 2 1 4 1 1 k @.&.&.#.$.AXAXAXAXAXAXAXAXAXAXAXAXAXAXAXAXAXAXAXAXAX",
"AXAXAXvXzXtX3XtXxXnXnXxXxXnXbXnXxXzXiX5X .2 : : > 1 2 2 K K K 2 2 2 K K L T R {  .....-X.. .[ ] R R T T T T L L L K K 2 1 1 1 K T | ,XH.<.=.*.#.,.H.5XtXtXrXiXaXaXaXiXiXiXiXiXrXtX4X3X<X,X .] T L K 2 1 4 k @.*.&.$.+.AXAXAXAXAXAXAXAXAXAXAXAXAXAXAXAXAXAXAXAXAX",
"AXAXAX4X,XR 2 ] tXxXnXvXxXxXcXpXtX5X,X[ L > X X : > > 1 1 2 2 1 1 1 2 K T ]  .<X3XeXtXeX5X<X .R L K K 2 2 2 2 2 2 1 1 > > > 1 2 T  .1XH.<.=.#.O.,.H.4XeXeXtXrXiXiXrXrXtXrXrXiXiXtXeX4X4X5X3X<X.. .] T K 3 k @.*.&.$.+.AXAXAXAXAXAXAXAXAXAXAXAXAXAXAXAXAXAXAXAXAX",
"AXcX3X[ R T R ..tXzXcXpXaXtX3X<X .] T K 1 : X X 5 : : : > > > > > 2 L R  .<XeXiXpXcXxXxXzXaX5XX.R K 2 1 > > > > > > > > : : 1 K L Y T v %.&.+.9 v G.rXrX4X5XeXrXrXrXtXtXtXrXrXrXtXtXtXrXiXiXiXrXtX5X1X| T v -.=.#.0 9 AXAXAXAXAXAXAXAXAXAXAXAXAXAXAXAXAXAXAXAXAX",
"NXxX3XR T ..4XrXiXiXtX4X<X .] T K 2 > : X . . . X X X X : : > > 1 K ] ..3XrXpXxXvXnXnXbXnXvXaX3X .R L 2 1 > > : : > > > > > 1 2 2 > + 6 0 +.0 9 v 9XzXpX4X6X5XtXtXtXtXtXtXtXtXtXtXtXrXpXcXxXxXcXpXaXeX,X( >.-.*.+.9 7 AXAXAXAXAXAXAXAXAXAXAXAXAXAXAXAXAXAXAXAXAX",
"BXnXpX3X3XtXpXaXrX4X,X[ R L 2 1 > : : AX. . . X X : : , > 1 2 K L R [ ..<X6X3X5X4XtXtXrXrXtXeX5X3X<X,X..[ R T K K K K 2 > : : : , 8 7 9 9 9 7 7 b 2XdXaX4X3X3X4XeXeXtXtXtXtXtXtXrXiXpXxXnXxXiX3X..{ ~ B.,.-.$.+.9 7 6 AXAXAXAXAXAXAXAXAXAXAXAXAXAXAXAXAXAXAXAXAX",
"NXNXvXcXpXpXiXtX3X..] L 2 1 > : X X AXAXAX. . X X : > > 1 2 K L T R ] ] ] R R R ] ] { [ [ [ X.,X6X5XeXeX3X,X .{ R T L 2 > : X . @ 9 O.O.9 7 6 6 b G.rXrX5X3X3X3X5X5X4X4X4X4X4XtXrXaXcXnXbXzX<X~ x < 8 0 *.&.O.9 7 6 6 AXAXAXAXAXAXAXAXAXAXAXAXAXAXAXAXAXAXAXAXAX",
"nXnXxXpXiX4X<X .R T L AXAXAXAXAXAXAXAXAXAX  . . X : : > 1 2 2 2 2 2 1 1 > > > > > > > 4 4 1 2 K T ]  .,X<X<X,X..[ R K 2 > : X X + 6 9 9 7 6 @ @ x  .5X4X6X<X<X<X6X3X3X3X3X3X3X3XeXrXpXvXnXuX| x k q 0 O.O.0 9 7 6 AXAXAXAXAXAXAXAXAXAXAXAXAXAXAXAXAXAXAXAXAXAXAX",
"vXxXzXrX5X..{ T K 2 AXAXAXAXAXAXAXAXAXAX] K 1 : X X X : , > > > : : % o o o o o o o o o o + % , > 3 P T ] [ [ ] R L 1 > : : : : , @ 6 6 @ @ @ > P | <X<X,X..,X,X,X,X,X,X,X,X,X<X3XtXiXcXcX4XE < 6 0 O.0 9 7 6 @ AXAXAXAXAXAXAXAXAXAXAXAXAXAXAXAXAXAXAXAXAXAXAXAX",
"mXcXiX3X..] L K AXAXAXAXAXAXAXAX7 b H.eXeX<X[ K : . . . . X X o o o $ & $ $ & & * * & & & * * * & % , > > 1 1 1 1 > : : : : 1 2 2 4 , + + + 3 W ] ..,X.. . .....-X............,X<X5XtXaXaX<XL + @ 6 7 7 7 @ @ O AXAXAXAXAXAXAXAXAXAXAXAXAXAXAXAXAXAXAXAXAXAXAXAX",
"zXaX4X..] T K AXAXAXAXAXAXAXAXv B.H.9XrXtX3X .L : O O o o o o o o + $ & & & * - e - * * * e - * & $ + o o + % % % X X X X : 2 L T T T E R ] {  . . . .[ ] {  ..... . . . . .....,X<X5XrXiX6XT > + @ @ 8 8 = + X AXAXAXAXAXAXAXAXAXAXAXAXAXAXAXAXAXAXAXAXAXAXAXAX",
"rXeX,X{ R AXAXAXAXAXAXAXAXq >.J.fXmXcXaX4X,X] 2 : o o # # # # # $ $ & & & * * - e - * * - e e * & & $ $ $ $ $ $ $ + X X X : 2 T ]  .,X3XtXtX5X,X .] R R R ] {  . . .[ [ [  . .X...,X<X4XtX3X[ L 2 4 4 3 x 2 1 > AXAXAXAXAXAXAXAXAXAXAXAXAXAXAXAXAXAXAXAXAXAXAXAX",
"<X,X..] AXAXAXAXAXAXAXAXV.J.7XfXvXnXlXtX<X .R K 1 , % $ # $ & & & & * * e t t t t r y y r t t r r e * & * * * & & % , : : : > 2 L R ] ..,X<X..{ R L L L T R ] { { ] ] ] ] { [  . . ...,X3X3X<X,X..[ ] R T K 2 1 AXAXAXAXAXAXAXAXAXAXAXAXAXAXAXAXAXAXAXAXAXAXAXAX",
" . . .AXAXAXAXAXAXAX,.,.J.fXCXMXvXpXeX<X .R T P K 3 = $ # & & & & * * e r m m m m C A A Z C C Z Z m z r r r t e e < > > : : : : : > 1 K L T L K K 2 2 K T R R ] R R R R R R ] ] ] ] ] ] [ ..<X3X3X<X..] T K 1 > AXAXAXAXAXAXAXAXAXAXAXAXAXAXAXAXAXAXAXAXAXAXAXAX",
"AXAXAXAXAXAXAXAXAX<.,.%.B.fXbXvXaX4X,X{ T K 1 1 > < = & & * * * & * e t r m C S x.x.A S x.b.b.x.A S x.S C y y y l - , : 5 X X . . X X : > 1 2 2 2 K K L T T T T T T T T L L L L L K K K K K L L L K 2 1 > : X X X AXAXAXAXAXAXAXAXAXAXAXAXAXAXAXAXAXAXAXAXAXAXAX",
"AXAXAXAXAXAXAXV.V.V.>.B.H.yXcXaX3X..R L 2 > : : : % $ & * * * * * - t z z m Z c.A.b.S S A.L.S.b.x.c.A.b.D C m C Z B P P L L L K K K K 2 > > > 1 2 K L L L L L K L L L L K K 2 1 1 2 2 K L K K 2 1 > : X . . . . AXAXAXAXAXAXAXAXAXAXAXAXAXAXAXAXAXAXAXAXAXAXAXAX",
"AXAXAXAXAXAXV.V.<.V.J.fXdXdXrX3X .R K 1 > : : : AXAX$ $ & - e - * t y m m m A b.A.b.x.x.S.[.[.A.x.b.S.S.b.A A S x.F.6XtXaXzXzXpXaXaXtX..K : : 1 1 2 2 x 2 2 2 2 2 2 K 2 2 1 > > 1 2 T  .3X3X<X.. .] L > .   AXAXAXAXAXAXAXAXAXAXAXAXAXAXAXAXAXAXAXAXAXAXAXAXAXAX",
"AXAXAXAXP.V.V.V.,.V.7XmXvXiX<X[ T K 1 > : : : AXAXAX# $ & - e e e t z C C C A b.S.N.x.c.S.[.[.A.c.A.L.S.b.x.S x.Z.`.sXxXbXNXNXbXnXnXxXtX..T 2 > > > 1 1 1 1 1 1 1 1 1 1 1 > : : 1 T  .3XtXtX4X<X..[ R 2 X AXAXAXAXAXAXAXAXAXAXAXAXAXAXAXAXAXAXAXAXAXAXAXAXAXAXAX",
"AXAXAXP.P.V.V.<.,.B.7XdXiX<X{ L 2 1 AXAXAXAXAXAXAXAX# $ & - e e e r m C C C S b.S.A.c.b.S.[.L.A.c.A.L.S.b.x.x.b.D.`.yXpXzXzXcXzXzXzXzXpXrX3X] 1 X : > > > 1 1 1 1 1 1 > > : X X K ..4XeX5X3X,X .] T L AXAXAXAXAXAXAXAXAXAXAXAXAXAXAXAXAXAXAXAXAXAXAXAXAXAXAXAXAX",
"AXAXAXAXP.V.V.J.J.7X9XeX<X{ L 2 1 AXAXAXAXAXAXAXAXAX# $ & - e e e r m Z C C S b.S.A.b.b.S.[.L.A.c.A.L.S.b.x.x.b.D.`.8XtXuXiXaXaXaXaXaXpXaXwX] > . . X X : : : : : : : : : : > 2 ] <X4X3X<X..{ R L K K AXAXAXAXAXAXAXAXAXAXAXAXAXAXAXAXAXAXAXAXAXAXAXAXAXAXAXAXAX",
"AXAXAXAXAXAXAXAXvXcXrX1X{ T 2 2 AXAXAXAXAXAXAXAXAXAX# $ & - e e e r m C C C S b.S.A.c.c.S.[.S.b.c.A.L.S.b.x.x.b.A.H.1X3X4XeXtXtXtXtXtXeXeX<XR 1 X : : > > 1 1 1 > > : : : > K R  ...,X..[ ] L K 2 1 1 AXAXAXAXAXAXAXAXAXAXAXAXAXAXAXAXAXAXAXAXAXAXAXAXAXAXAXAXAX",
"AXAXAXAXAXAXAXAXlXuX<X{ T L AXAXAXAXAXAXAXAXAXAXAXAX# $ & - e e e t y m m m Z b.A.b.x.x.A.L.S.b.x.b.S.S.b.S S x.c.Z.} ..,X<X<X<X<X<X,X.. .] T K L R  .,X3X3X3X<X .R L 2 2 K T R ] ] ] T L K 1 > : : : AXAXAXAXAXAXAXAXAXAXAXAXAXAXAXAXAXAXAXAXAXAXAXAXAXAXAXAXAX",
"AXAXAXAXAXAXAXAX3X<X .T L AXAXAXAXAXAXAXAXAXAXAXAXAX# $ & * - - * e r r r y C D b.x.x.x.b.A.N.x.x.b.A.N.x.A Z A F ! ] { [ |  . .[ [ ] R T L L R  .<XrXcXnXNXbXxXrX,X] T L L T T T L K 2 1 > : : X . . AXAXAXAXAXAXAXAXAXAXAXAXAXAXAXAXAXAXAXAXAXAXAXAXAXAXAXAXAX",
"AXAXAXAXAXAXAXAX[ { ] AXAXAXAXAXAXAXAXAXAXAXAXAXAXAX# # $ & & & * * * * t z m C Z S x.b.x.x.x.b.b.x.D S S S F B N P T T T T R R R T L L L L R { >X5XsXzXnXMXnXcXuX6X .' L K L L L K 2 1 > : : X X AXAXAXAXAXAXAXAXAXAXAXAXAXAXAXAXAXAXAXAXAXAXAXAXAXAXAXAXAXAXAX",
"AXAXAXAXAXAXAXAXR R AXAXAXAXAXAXAXAXAXAXAXAXAXAXAXAX# # # # # # & & $ & e y y r r C x.x.S Z A x.b.x.C C A S Z x 1 2 K K K K K K K 2 2 2 L T ]  .-X;X;XZXlXxXzXaX8XJ.H.Q I J J J 2 2 1 > : : X X X AXAXAXAXAXAXAXAXAXAXAXAXAXAXAXAXAXAXAXAXAXAXAXAXAXAXAXAXAXAXAX",
"AXAXAXAXAXAXAXAXAXAXAXAXAXAXAXAXAXAXAXAXAXAXAXAXAXAX# # # # # $ & & & & e t r t t z Z Z C m C S x.A m m C Z z 4 > > 1 1 1 1 1 > > > > 1 L R ] [ ;X=X:X:XqXtXtX8XJ.8.4.,.c 2 1 1 1 1 > : X X . . . AXAXAXAXAXAXAXAXAXAXAXAXAXAXAXAXAXAXAXAXAXAXAXAXAXAXAXAXAXAXAX",
"AXAXAXAXAXAXAXAXAXAXAXAXAXAXAXAXAXAXAXAXAXAXAXAXAXAX# # - N U U ~ / / o.} G.G.G.F.F.F.F.F.( ) D Z m y y m m l < : : > > : : : : : : > 2 L T / ] ` =X=X=X-X,X,XG.V.4.1.%.c 1 > , : : : X X . . . AXAXAXAXAXAXAXAXAXAXAXAXAXAXAXAXAXAXAXAXAXAXAXAXAXAXAXAXAXAXAXAX",
"AXAXAXAXAXAXAXAXAXAXAXAXAXAXAXAXAXAXAXAXAXAXAXAXAXAX$ = N o.,X6X5XtXaXcXmXnXnXnXmXjXpXsXtX8X_.! M r e e r y e % X 5 : : X X X X : > 1 K K L T T E E _ _ ] ] ' R v %.$.q l > : X X X X . . . AXAXAXAXAXAXAXAXAXAXAXAXAXAXAXAXAXAXAXAXAXAXAXAXAXAXAXAXAXAXAXAXAXAX",
"AXAXAXAXAXAXAXAXAXAXAXAXAXAXAXAXAXAXAXAXAXAXAXAXAX1X{ U R { o._.`.'.|.hXkXkXkXkXhXhX'.`.).Z.H.F.} U l * e e & + . . . . . . . . X : > 1 1 1 2 2 2 2 2 N K K K x c k 8 8 , : X . . . . . . . AXAXAXAXAXAXAXAXAXAXAXAXAXAXAXAXAXAXAXAXAXAXAXAXAXAXAXAXAXAXAXAXAXAX",
"AXAXAXAXAXAXAXAXAXAXAXAXAXAXAXAXAXAXAXAXAXAXAXtXtX4X3X,X| ~ ! n.I.E.^. XoXoXoXoX X!.Y.m.d.i.b._.2X} B l e - = % % : : : : X X X X : > 1 2 2 2 K K K K P L L L L P P K 2 1 : : X X X X X X X AXAXAXAXAXAXAXAXAXAXAXAXAXAXAXAXAXAXAXAXAXAXAXAXAXAXAXAXAXAXAXAXAXAX",
"AXAXAXAXAXAXAXAXAXAXAXAXAXAXAXAXAXAXAXAXAXAX3X3X6X3X4X4X_.Z.n.T.~.{.oX@X$X$X$X$X@XOX^.E.I.h.d.n.C.Z.( / U P P Y R [ .. .] T K 2 2 T {  ...,X<X3X5X4XeXtXtXtXeX5X3X6X,X .R L K 2 K T T L 2 > : . AXAXAXAXAXAXAXAXAXAXAXAXAXAXAXAXAXAXAXAXAXAXAXAXAXAXAXAXAXAXAXAX",
"AXAXAXAXAXAXAXAXAXAXAXAXAXAXAXAXAXAXAXAXAX3X3X3X3X3X5X9X).T.I.E.^.XX@X%X%X%X%X%X%X+XXX^.Q.U.h.t.u.C._.,X[ T R { ..5XrXtX<X[ T L L [ <X3XeXtXaXzXxXvXnXNXNXNXnXxXcXpXrX3X..] T Y R { [ R L 1 : . . AXAXAXAXAXAXAXAXAXAXAXAXAXAXAXAXAXAXAXAXAXAXAXAXAXAXAXAXAXAXAX",
"AXAXAXAXAXAXAXAXAXAXAXAXAXAXAXAXAXAXAX3X<X,X<XeXaXyX`.N.l.m.I.Y.~.{.OX@X%X%X%X$X+XoX X{.!.E.k.y.u.C.G.,X[ R T R [ <X4X5X..] T K K R  .,X3XeXtXiXpXcXxXnXbXbXvXcXpXiXeX<X .] L K L R R T 2 > X . . AXAXAXAXAXAXAXAXAXAXAXAXAXAXAXAXAXAXAXAXAXAXAXAXAXAXAXAXAXAXAX",
"AXAXAXAXAXAXAXAXAXAXAXAXAXAXAXAXAXAX<X3X3X3X4XtXrX9XA.t.y.f.k.U.E.!. XOXoX@X+XoXOX X{.!.~.Y.k.y.u.C.G.>X[ T L T R  .,X,X{ T K 1 2 L R {  .,X1X<X5XeXrXaXpXpXaXtX4X3X,X .] L 2 1 2 L L K 1 , X . . AXAXAXAXAXAXAXAXAXAXAXAXAXAXAXAXAXAXAXAXAXAXAXAXAXAXAXAXAXAXAX",
"AXAXAXAXAXAXAXAXAXAXAXAXAXAXAXAXAXAX..,X5XiXpXtX<XF.x.u.r.p.g.M.W.~.^.{. X X X X{.^.~.E.U.I.h.t.u.C.G...] L K K L R ] R L 2 1 > > 1 2 K L T R ] {  ...<X<X<X,X.. .{ R T K 1 > > > 2 2 1 > : X . . AXAXAXAXAXAXAXAXAXAXAXAXAXAXAXAXAXAXAXAXAXAXAXAXAXAXAXAXAXAXAX",
"AXAXAXAXAXAXAXAXAXAXAXAXAXAXAXAXAX<X....3XaXpX5X ./ Z.Z.b.i.t.f.m.U.W.Q.~.!.!.!.!.~.Y.I.z.g.p.r.u.x.}  .' L 2 1 > 1 2 1 > : : X X : : > > 1 2 2 K L T R ~ R T L L K 2 1 > : X X : > > > : : X o . AXAXAXAXAXAXAXAXAXAXAXAXAXAXAXAXAXAXAXAXAXAXAXAXAXAXAXAXAXAXAX",
"AXAXAXAXAXAXAXAXAXAXAXAXAXAXAXAX3X6X,X..3XrXiX<X] [ 3X0X`.b.u.t.p.f.l.M.U.Y.E.Q.E.U.I.j.g.p.t.q.u.D / { _ L 2 : . . . . . . . . . . . . X X : > > 1 2 2 2 2 1 1 > > : X . . . . X : : > : : X X X AXAXAXAXAXAXAXAXAXAXAXAXAXAXAXAXAXAXAXAXAXAXAXAXAXAXAXAXAXAXAX",
"AXAXAXAXAXAXAXAXAXAXAXAXAXAXAXAX3X6X-X..3XuXiX<X] { 3XiXyX`.D.c.w.w.t.p.l.I.U.U.I.M.l.f.p.r.0.:.f A / { _ L 2 : .   O . . . . . . . . . . . X : : > 1 1 1 > > > : : X . . . . . . X : : : : X . . AXAXAXAXAXAXAXAXAXAXAXAXAXAXAXAXAXAXAXAXAXAXAXAXAXAXAXAXAXAXAX",
"AXAXAXAXAXAXAXAXAXAXAXAXAXAXAXAX0X0X<X,X3XtXtX<X . .<XeXiXpXyX`.c.u.0.q.t.g.j.j.l.g.p.t.w.0.;.f h F ~ ] R L 2 : . . . . . . . . . . . X : > 1 1 2 K L T T L L K 2 2 1 : X X o X : > 1 K K K 2 1 2 AXAXAXAXAXAXAXAXAXAXAXAXAXAXAXAXAXAXAXAXAXAXAXAXAXAXAXAXAXAXAX",
"AXAXAXAXAXAXAXAXAXAXAXAXAXAXAXAX*XhXhXtX5X,X,X3XwX4X>X..wXxXvXdX9XZ.u.d ;.w.t.t.t.t.w.q.:.d h ^ ( { R T T W 2 > X : : : : : X X X X : 1 L R {  ...<X3XeXrXrXeX3X,X .] T K 1 > > K ] ..<X5X5X3X,X.. .{ AXAXAXAXAXAXAXAXAXAXAXAXAXAXAXAXAXAXAXAXAXAXAXAXAXAXAXAXAX",
"AXAXAXAXAXAXAXAXAXAXAXAXAXAXAX@X@X*XhXsX3X .[ ,X5X2XH.B.H.8XaXaXrX2XC.h f f ;.;.;.;.:.:.h A ^ } X.[ T L K K 2 > > 1 2 K 2 2 1 > : : > 2 T { ..<X5XtXpXxXNXNXnXcXiX4X<X[ T K 1 2 R ,XtXzXvXnXxXpX5X.. .AXAXAXAXAXAXAXAXAXAXAXAXAXAXAXAXAXAXAXAXAXAXAXAXAXAXAXAXAX",
"AXAXAXAXAXAXAXAXAXAXAXAXAXoXoXOXXX}.'.3X,X .[ [ { B.<.4.,.Q ' -X3X1Xo.! Z f p p p p p h C.G._.X.] R L H 1 4 > 1 2 L R { { ] R K 1 > > 1 K T ]  .,X5XrXxXNXBXNXvXzXrX3X .T 2 1 K ] 3XpXnXNXNXnXzXtX<X..AXAXAXAXAXAXAXAXAXAXAXAXAXAXAXAXAXAXAXAXAXAXAXAXAXAXAXAXAX",
"AXAXAXAXAXAXAXAXAXAXAXAX X X X}.|.'._.[ [ X.,X1X1XH.<.-.,.I R [  .| ' T x u w i p h S C.F.1X-X{ T L 2 1 > > 1 K R  .<X3X4X4X<X..] L 2 1 1 2 L R [ ,X4XaXxXnXvXzXiX4X,X] K 1 > 2 T ,XeXpXxXcXiX4X<X . ...AXAXAXAXAXAXAXAXAXAXAXAXAXAXAXAXAXAXAXAXAXAXAXAXAXAXAXAX",
"AXAXAXAXAXAXAXAXAXAX{.{.^.~.~.'.0X<X/ K Y  .5XaXcXrXX.U ~ X...[ R T K 2 2 3 l j h x.F.1X,X .] T K 2 > > > 2 K R  .<XtXpXcXcXpXtX<X{ L 2 > > 2 K R [ ,X5XrXaXrXeX3X..] L 1 : : > 2 R  .,X3X<XX.] R T R  .,X<XAXAXAXAXAXAXAXAXAXAXAXAXAXAXAXAXAXAXAXAXAXAXAXAXAXAX",
"AXAXAXAXAXAXAXP K V N.Y.Q.].`._.o._ K 2 L [ <XtXaXtX,X[ { | { R L 2 2 K T ] { ( ^ ( X. .{ T K 2 > : : , 4 2 L R [ >X3XwXrXiXrX4X<X .R P 2 > > 1 K T ] ..<X<X,X..{ R K 1 : X : > 1 2 K W Y W K 2 1 1 K ] ..,XAXAXAXAXAXAXAXAXAXAXAXAXAXAXAXAXAXAXAXAXAXAXAXAXAXAX",
"AXAXAXAXAXT L L L U G n.D._.,X| T K K K T ]  .,X<X<X,X .{ R T L K K P T [ ,X<X,X..[ ] T P 2 4 : X X : > 4 2 K T _ ] {  .,X<X,X.. .[ ] T K 1 > > > 2 L R ] ] R T K 3 > 5 X X : > > < < < < , , , % % 3 U {  .AXAXAXAXAXAXAXAXAXAXAXAXAXAXAXAXAXAXAXAXAXAXAXAXAXAX",
"AXAXAX{ ] R R ] { { ! F ! ~ ]  .....{ R R R R ] { { _ E L L L R { [ { { ] ] ] ] _ T L J 1 > > : : : , > > 4 1 H K K P L T E E T E R R T L 2 > : : > 1 2 2 2 1 > : : X X X 5 5 : = u w w s s s s s s g B R ..4XpXAXAXAXAXAXAXAXAXAXAXAXAXAXAXAXAXAXAXAXAXAXAXAXAX",
"AXAXAX.. .| [ ..<X,X[ T L T ] ,XtXtX3X .] T K K L L L L L L T ]  . . .{ R L K K K K K 2 1 > > , > 3 N V V V V ! ) ) ) ) ) ) ) ! U U L L L K 1 : X X : : : : X X . . . X 5 : % & u i d 0.w.t.t.t.t.t.s.S ! } 5XrXAXAXAXAXAXAXAXAXAXAXAXAXAXAXAXAXAXAXAXAXAXAXAXAX",
"AXAXAX4X3X<X,X3XtXtX,X] R [ ,XeXzXzXtX<X{ L 2 4 > 1 L R ] { { R T Y L L K H 2 K K K L K 2 1 4 > 1 F R.].}.}..X#X#X#X#X#X.X}.}.].(.G N 2 J H 1 : X . . . . . . . . . . . . + u s f f e.t.h.k.I.I.U.U.M.d.v.C._.6XAXAXAXAXAXAXAXAXAXAXAXAXAXAXAXAXAXAXAXAXAXAXAXAX",
"AXAXAXtX4X<X,X3XtXtX,X] R [ ,X4XiXiX4X,X] K 1 4 1 L ( _._._.F./ L K K K K K K L L T T L J 2 x B G R.{.OXoX+X$X%X%X%X%X$X@XoXXX^.Y.n.M l 3 1 > 5 . . .   . . . . O O . O @ u s w.t.t.d.j.U.Q.~.~.!.!.Q.I.l.n.C.Z.G.AXAXAXAXAXAXAXAXAXAXAXAXAXAXAXAXAXAXAXAXAXAXAX",
"AXAXAXeX3X..[ ..<X<X[ T L R { ..,X,X..] W 2 1 K R _.]..X{.~.R.) U L P K P L T R ] R T L H 2 V R.}. XOXoXoXoXoXoXoX+XoXoXXX{.~.U.m.g.s.n l > ; X . .                 O @ w p q.i.f.g.M.E.!.{.{.{.{.{.^.~.Y.m.a.v.H.0XaXAXAXAXAXAXAXAXAXAXAXAXAXAXAXAXAXAXAXAXAXAX",
"AXAXAX<X..] T R  . .R K K K P L T T L L K J L / (.].}./.Q.I.d.n z z P L T T R ] ] R L P V G R.}.OXoXoXoXOXXXXXXXXX X{.{.!.Q.U.k.f.y.w.s * % X X .               O @ 8 w d 0.r.p.g.k.I.E.!.^.{.{. XXXXX X{.W.h.d.D.8XtXAXAXAXAXAXAXAXAXAXAXAXAXAXAXAXAXAXAXAXAXAX",
"AXAXAX .] T K L R R T K 1 > > > > 1 1 1 K E ( (.}.~.Y.m.d.t.0.f h Z ! R ' ] ] ] ~ T K B n.T.!. XoXoXoXOX X{.{.{.^.!.Q.Y.I.k.g.d.t.;.p w $ X o . .           O . @ w p d ;.q.t.p.f.l.M.U.E.~.^.{.XXoXoXoXoX{.W.R.(._.<XAXAXAXAXAXAXAXAXAXAXAXAXAXAXAXAXAXAXAXAXAX",
"AXAXAX[ ] L 2 K L T L K 2 > X X X > H T / Z.(.T.I.z.f.t.0.d :.c.J.`.2X<X,X..[ _ T ! D n.R.Y.!.{. XXXXX X^.!.~.Q.Y.I.k.l.g.f.i.q.;.d p w $ X . O     . O   . X : = w p :.;.w.t.p.p.f.g.I.W.~.^.{.XXoX+X$X$XoX^.T.Z./ ' AXAXAXAXAXAXAXAXAXAXAXAXAXAXAXAXAXAXAXAXAX",
"AXAXAX] R L 2 2 K L L L 2 > X X X > P / Z.T.I.l.p.r.w.e.:.u.c.9XdXcXaXtX3X,X| E P F n.I.U.E.~.^.{.{.{.^.~.W.U.M.l.f.p.p.p.i.q.d p p i u $ X .     O . . . X : 4 l j p d ;.w.t.i.i.p.f.m.Y.~.^.{.XXoX@X%X%X$XoX}.(.! I AXAXAXAXAXAXAXAXAXAXAXAXAXAXAXAXAXAXAXAXAX",
"AXAXAXT T K 2 1 1 2 K K 2 > : 5 : < Z v.d.d.y.w.;.d AXAX`.9XyXjXnXmXpXtX3X..] W N F n.I.U.E.~.^.{.^.~.Q.Y.I.k.g.f.p.p.i.t.w.;.p i j l < : X .       . . . X > 1 l j p d ;.e.w.w.r.i.d.l.I.Y.!. XoX$X%X%X%X%X%XoXY.n.x.G.4XAXAXAXAXAXAXAXAXAXAXAXAXAXAXAXAXAXAXAX",
"AXAXAXK K 2 2 1 > > 1 2 1 > > : : < y n n h s j w w AXAXAXbXnXbXnXxXaX4X,X .~ I M S g.I.U.E.~.!./.~.E.U.M.l.f.p.i.i.i.r.q.;.f s j l 3 4 : X .       . . X : > 3 x z h f :.;.;.e.w.t.p.f.k.I.Q.!.XX@X%X%X%X%X%X@X!.m.b._.3XqXAXAXAXAXAXAXAXAXAXAXAXAXAXAXAXAXAXAX",
"AXAXAX1 1 2 2 1 > > > > > > : : X % % = = = = % + + AXAXAXMXbXnXnXzXtX3XX.] ! S s.d.l.I.U.E.Q.~.Q.Y.I.k.g.d.i.w.q.q.q.0.d p j l 3 3 1 1 AXAX      . . . X : > 2 P U ! Z f d :.0.e.q.r.d.j.M.I.U.!.OX@X%X%X%X$XOX!.I.N.F.,X,XAXAXAXAXAXAXAXAXAXAXAXAXAXAXAXAXAXAX",
"AXAXAXAX> 1 1 > > : : : : : : X X X X X X X X X X 4 AXAXxXnXnXxXzXiX5X,X{ T B A i.f.l.M.I.U.Y.Y.U.I.j.g.p.t.w.q.0.;.;.d p p y x H H 2 AXAXAXAX    . . . X 5 > 1 L [ o.^ h p p :.;.0.w.p.g.l.j.M.E.{.XXoX+X+XoX X!.Y.m.C.C.( AXAXAXAXAXAXAXAXAXAXAXAXAXAXAXAXAXAX",
"AXAXAXAXAX: : : : : X X X X X X X X . . . . . AXAXAXeXtXaXcXcXpXtX3X,X[ T K l g q.y.g.k.M.z.M.M.k.g.d.i.w.q.e.0.;.d d p p i z N L AXAXAXAXAXAXAXAX. . . X X : 1 T X.1XZ.n p p p d ;.q.t.p.f.l.M.U.E.~.^.{.{.{.{.!.Q.I.d.u.e.AXAXAXAXAXAXAXAXAXAXAXAXAXAXAXAXAXAX",
"AXAXAXAXAXAXAX: X X X X X X . . . . . . . . AXAXAXAXeXeXrXpXpXtX3X,X{ R K 3 l g e.y.l.k.j.g.g.g.f.p.t.w.q.e.;.f d p p i j y c N AXAXAXAXAXAXAXAXAX    . . X : > L  .<X2XG.Z.v.p p d f 0.w.i.d.g.k.I.U.Y.W.Q.Q.W.U.z.h.t.0.;.AXAXAXAXAXAXAXAXAXAXAXAXAXAXAXAXAXAX",
"AXAXAXAXAXAXAXAXX X X X X . . . . . . . . AXAXAXAXAX<X3X4XtXtX3X..{ R P 2 1 l g e.t.g.j.g.p.p.p.i.r.q.0.0.0.f d p p p s z x H AXAXAXAXAXAXAXAXAXAX      . . % > K ] ..4XrX9XC.f a p p d ;.w.t.p.f.l.k.k.k.k.k.l.g.d.s.u.u.e.AXAXAXAXAXAXAXAXAXAXAXAXAXAXAXAXAXAX",
"AXAXAXAXAXAXAXAXAXAXAXAXAXAXAXAXAXAXAXAXAXAXAXAXAXAXX.....,X,X .{ R L 2 1 > = w d q.p.f.f.p.i.r.w.q.e.;.f d d p p p p g B L Y AXAXAXAXAXAXAXAXAXAXAXAX  . . X > 2 L ] -X3X_.x.p a p p p d f 0.w.p.d.f.f.f.y.t.i.x.C.( ^ ! F AXAXAXAXAXAXAXAXAXAXAXAXAXAXAXAXAXAX",
"AXAXAXAXAXAXAXAXAXAXAXAXAXAXAXAXAXAXAXAXAXAXAXAXAXAX] ] ] ] ] R T L 2 1 > > < y h n w.t.t.i.t.w.e.0.0.;.d p p p p i i g B E AXAXAXAXAXAXAXAXAXAXAXAXAXAX. . X : > 1 K R [ o.^ A h p p p p d d ;.q.w.i.d.n.n.v.c.Z.X. .] R T AXAXAXAXAXAXAXAXAXAXAXAXAXAXAXAXAXAX",
"AXAXAXAXAXAXAXAXAXAXAXAXAXAXAXAXAXAXAXAXAXAXAXAXAXAXR R T T L L L 2 1 > : : 1 I ! D h d ;.q.w.q.q.q.0.;.d p p p i y l x AXAXAXAXAXAXAXAXAXAXAXAXAXAXAXAXAXAX. X X > 1 K T ] } F.C.h p a p p p d p d n C.F.2X9X9X5X<X..] T L K K AXAXAXAXAXAXAXAXAXAXAXAXAXAXAXAX",
"AXAXAXAXAXAXAXAXAXAXAXAXAXAXAXAXAXAXAXAXAXAXAXAXAXAXT L L K 2 2 2 > : : : > K ] ..G.Z.c.s.;.d d d d d d p p p p i z x J AXAXAXAXAXAXAXAXAXAXAXAXAXAXAXAXAXAX. . X : > 1 K T [  .( D h h p p a p h A C.F.<X3X3X6X,X .{ R T T T T T AXAXAXAXAXAXAXAXAXAXAXAXAXAXAX",
"AXAXAXAXAXAXAXAXAXAXAXAXAXAXAXAXAXAXAXAXAXAXAXAXAXAXK K K 2 1 > > : X : > K R ,XwXpXcXfXD.u.p p f f p p p p p p i z P L AXAXAXAXAXAXAXAXAXAXAXAXAXAXAXAXAXAX. . . X : > 1 K L T ~ ] ~ A h p a f x.F.<X<X1X..] T Y L T R ] {  .[ ] T L AXAXAXAXAXAXAXAXAXAXAXAXAX",
"AXAXAXAXAXAXAXAXAXAXAXAXAXAXAXAXAXAXAXAXAXAXAXAXAXAX2 2 1 1 > : X : > 2 T  .3XrXzXbXNXnXfX`.H.H.J.J.H.Z.C.D F b z z P AXAXAXAXAXAXAXAXAXAXAXAXAXAXAXAXAXAXAXAXAX. . X X : > 1 2 L E E B z b F ^ ( X...[ ] T L W R [ ..<X5XeXeX3X..] T K AXAXAXAXAXAXAXAXAXAXAXAX",
"AXAXAXAXAXAXAXAXAXAXAXAXAXAXAXAXAXAXAXAXAXAXAXAXAXAX> > > > : : : > 2 R ..eXpXcXvXnXvXxXcXdXdXzXzXzXdXrX3X../ W K x AXAXAXAXAXAXAXAXAXAXAXAXAXAXAXAXAXAXAXAXAXAXAX. . . X : : > 1 2 K K K T [ X.| ] T K 2 K T ] ,XeXaXzXxXxXpXrX<X[ T K 2 2 AXAXAXAXAXAXAXAXAXAX",
"AXAXAXAXAXAXAXAXAXAXAXAXAXAXAXAXAXAXAXAXAXAXAXAXAXAX: : : : : > 1 K R  .<XeXtXtXeX4X3X<X1X,X,X1X<X1X,X..[ R W K H AXAXAXAXAXAXAXAXAXAXAXAXAXAXAXAXAXAXAXAXAXAXAXAXAXAX. . . X X : : 1 J W E _ R W K 2 2 K R  .3XtXpXcXpXiXtX3X..] T K K L T R AXAXAXAXAXAXAXAXAX",
"AXAXAXAXAXAXAXAXAXAXAXAXAXAXAXAXAXAXAXAXAXAXAXAXAXAXX X X X : 1 K T {  ...,X.. .[ { { ] ] ] ] { { ] ' R T L K 2 2 AXAXAXAXAXAXAXAXAXAXAXAXAXAXAXAXAXAXAXAXAXAXAXAXAXAXAX. . . . . X : 2 L L K 2 1 > 1 K T [ <XeXiXaXrX5X,X| R T L L T ] { { { ] AXAXAXAXAXAXAXAX",
"AXAXAXAXAXAXAXAXAXAXAXAXAXAXAXAXAXAXAXAXAXAXAXAXAXAX. . X : > 1 K L T T T T L L T R { ..,X3X4XtXtX4X3X,X .{ R AXAXAXAXAXAXAXAXAXAXAXAXAXAXAXAXAXAXAXAXAXAXAXAXAXAXAXAXAXAXAX. . . X X > 1 > > , > 1 2 K L ]  .,X,X..[ R L K K T [ ,X5XtXtX3X..[ R K AXAXAXAXAXAX",
"AXAXAXAXAXAXAXAXAXAXAXAXAXAXAXAXAXAXAXAXAXAXAXAXAXAXAX. X : > 1 2 2 2 2 1 1 2 L R  .<XtXaXcXxXvXvXxXzXiXeX3X<XAXAXAXAXAXAXAXAXAXAXAXAXAXAXAXAXAXAXAXAXAXAXAXAXAXAXAXAXAXAXAXAX. . o X X X X X X : 1 2 K L T R R T L 2 1 1 K R  .5XaXzXcXpX4X,X] T K 2 AXAXAXAXAX",
"AXAXAXAXAXAXAXAXAXAXAXAXAXAXAXAXAXAXAXAXAXAXAXAXAXAXAXAXAXX : : > > > > 1 2 T  .3XrXxXnXNXNXNXNXNXbXnXnXxXzXtX..] AXAXAXAXAXAXAXAXAXAXAXAXAXAXAXAXAXAXAXAXAXAXAXAXAXAXAXAXAXAXAXAX. . . . . . . : > 1 2 K K 2 1 > , > 1 K { 3XiXcXmXxXpXtX,X{ T K 2 1 AXAXAXAXAX",
"AXAXAXAXAXAXAXAXAXAXAXAXAXAXAXAXAXAXAXAXAXAXAXAXAXAXAXAXAX. X X : : > > 2 L ] <XtXzXvXnXnXnXnXnXvXmXxXxXxXpX4X .R AXAXAXAXAXAXAXAXAXAXAXAXAXAXAXAXAXAXAXAXAXAXAXAXAXAXAXAXAXAXAXAXAX. . . . . X : > 1 1 1 > > : : : 1 L [ 3XaXcXcXpXtX3X..{ T K 2 1 1 > AXAXAXAX",
"AXAXAXAXAXAXAXAXAXAXAXAXAXAXAXAXAXAXAXAXAXAXAXAXAXAXAXAXAX. . X : > 1 2 L R  .3XtXiXiXiXrXrXrXaXaXaXiXiXiXtX<X .R T AXAXAXAXAXAXAXAXAXAXAXAXAXAXAXAXAXAXAXAXAXAXAXAXAXAXAXAXAXAXAXAXAX. . . . X : > > : X X X : > 2 T  .3XrXpXpXtX<X..{ R R T L K 2 1 > : AXAXAX",
"AXAXAXAXAXAXAXAXAXAXAXAXAXAXAXAXAXAXAXAXAXAXAXAXAXAXAXAXAX. . X : > 2 K T R { ..,X,X,X,X<X3X4XtXaXpXzXzXcXpXtX<X .] T AXAXAXAXAXAXAXAXAXAXAXAXAXAXAXAXAXAXAXAXAXAXAXAXAXAXAXAXAXAXAXAXAXAX. . X X : : X . . X : 2 T  .<X5X4X3X<X.. . ...,X,X<X,X..[ T K 1 AXAXAX",
"AXAXAXAXAXAXAXAXAXAXAXAXAXAXAXAXAXAXAXAXAXAXAXAXAXAXAXAXAX. . X : > 2 K L T T T T T R ] ..3XtXaXcXvXnXbXbXnXzXeX,X] T L AXAXAXAXAXAXAXAXAXAXAXAXAXAXAXAXAXAXAXAXAXAXAXAXAXAXAXAXAXAXAXAXAXAX. . . X X . . X : 1 L { ..,X,X..[ { [  .<X4XiXpXpXiXeX<X .R L AXAXAX",
"AXAXAXAXAXAXAXAXAXAXAXAXAXAXAXAXAXAXAXAXAXAXAXAXAXAXAXAXAXAXAXX X : 1 2 2 2 2 2 K T ] ,XeXzXnXbXNXNXNXNXNXbXcXtX,X{ T L AXAXAXAXAXAXAXAXAXAXAXAXAXAXAXAXAXAXAXAXAXAXAXAXAXAXAXAXAXAXAXAXAXAXAXAX. . . X X > 1 K T ] ] ] R R ]  .<XtXpXxXxXxXpXtX<X .] T L AXAXAX",
"AXAXAXAXAXAXAXAXAXAXAXAXAXAXAXAXAXAXAXAXAXAXAXAXAXAXAXAXAXAXAXX X X : > > > > 1 2 T  .3XaXvXbXbXbXnXnXvXvXcXiX3X..R L K AXAXAXAXAXAXAXAXAXAXAXAXAXAXAXAXAXAXAXAXAXAXAXAXAXAXAXAXAXAXAXAXAXAXAXAXAX. X X : 1 K L L L L K K T [ ,XtXpXcXzXpXrX5X,X[ R T L K AXAXAX",
"AXAXAXAXAXAXAXAXAXAXAXAXAXAXAXAXAXAXAXAXAXAXAXAXAXAXAXAXAXAXAX. . X X : : : > 1 K R  .<XeXiXaXrXtXtXeX4X5X3X,X[ R L K 2 AXAXAXAXAXAXAXAXAXAXAXAXAXAXAXAXAXAXAXAXAXAXAXAXAXAXAXAXAXAXAXAXAXAXAXAXAXX X : : 1 2 2 1 1 1 2 L ] ,X3X4XeX3X,X .] T T R R L 2 1 AXAXAX",
"AXAXAXAXAXAXAXAXAXAXAXAXAXAXAXAXAXAXAXAXAXAXAXAXAXAXAXAXAXAXAXAX. . X X : : > 2 K T ] [ ..,X,X.. ...,X,X<X<X,X .] T K 2 AXAXAXAXAXAXAXAXAXAXAXAXAXAXAXAXAXAXAXAXAXAXAXAXAXAXAXAXAXAXAXAXAXAXAXAXAXX X : : > > > > : > 2 L ] ..<X3X3X,X] T K 2 2 K L 2 1 > AXAXAX",
"AXAXAXAXAXAXAXAXAXAXAXAXAXAXAXAXAXAXAXAXAXAXAXAXAXAXAXAXAXAXAXAXAXAXX X : > 1 1 2 K K L L T T T R { ..<XeXtXtX5X,X{ L K AXAXAXAXAXAXAXAXAXAXAXAXAXAXAXAXAXAXAXAXAXAXAXAXAXAXAXAXAXAXAXAXAXAXAXAXAX. . X : : : X : : 1 K T R ]  .,X3X,X{ T K 2 2 2 2 1 > : AXAXAX",
"AXAXAXAXAXAXAXAXAXAXAXAXAXAXAXAXAXAXAXAXAXAXAXAXAXAXAXAXAXAXAXAXAXAX. X X : > > > 1 1 2 K T R { ..3XtXpXxXxXxXcXrX,XR L AXAXAXAXAXAXAXAXAXAXAXAXAXAXAXAXAXAXAXAXAXAXAXAXAXAXAXAXAXAXAXAXAXAXAXAXAX. . X : : X X X : 1 K T R ] ] ] ] R L K K L T R R L 2 1 AXAXAX",
"AXAXAXAXAXAXAXAXAXAXAXAXAXAXAXAXAXAXAXAXAXAXAXAXAXAXAXAXAXAXAXAXAXAX. . X : : : : > 1 K T { ,X3XtXzXnXNXNXNXNXnXzX<X] T AXAXAXAXAXAXAXAXAXAXAXAXAXAXAXAXAXAXAXAXAXAXAXAXAXAXAXAXAXAXAXAXAXAXAXAXAX. . X : : X X : : 1 K L R R T K 1 1 1 2 L ]  .<X<X .T K AXAXAX",
"AXAXAXAXAXAXAXAXAXAXAXAXAXAXAXAXAXAXAXAXAXAXAXAXAXAXAXAXAXAXAXAXAXAXAXAXX X : > 1 K T R [ ,X3XeXiXzXxXnXvXxXzXiX5X .T L AXAXAXAXAXAXAXAXAXAXAXAXAXAXAXAXAXAXAXAXAXAXAXAXAXAXAXAXAXAXAXAXAXAXAXAXAXAX. X X X X X : > 2 K L L K 2 1 > 1 L R ..3XtXrXtX,X] L AXAXAX",
"AXAXAXAXAXAXAXAXAXAXAXAXAXAXAXAXAXAXAXAXAXAXAXAXAXAXAXAXAXAXAXAXAXAXAXAXAXX : 1 K L R ]  ...,X3X4XtXiXpXpXiXtX3X..] L K AXAXAXAXAXAXAXAXAXAXAXAXAXAXAXAXAXAXAXAXAXAXAXAXAXAXAXAXAXAXAXAXAXAXAXAXAXAXAX. . . X X > 1 2 K K 2 > > > 1 L { ,X4XiXaXiXeX,XR L AXAXAX",
"AXAXAXAXAXAXAXAXAXAXAXAXAXAXAXAXAXAXAXAXAXAXAXAXAXAXAXAXAXAXAXAXAXAXAXAXAXX : > 2 K K L L L T ] | ,X3XeXtXtXtX5X,X{ T K AXAXAXAXAXAXAXAXAXAXAXAXAXAXAXAXAXAXAXAXAXAXAXAXAXAXAXAXAXAXAXAXAXAXAXAXAXAXAX. . . X : > 2 2 2 1 1 > > 1 K ] <XtXtX4X3X<X..R K 2 AXAXAX",
"AXAXAXAXAXAXAXAXAXAXAXAXAXAXAXAXAXAXAXAXAXAXAXAXAXAXAXAXAXAXAXAXAXAXAXAXAXX X : > > > 1 1 2 K T { ..3XeXrXiXrXtX3X .R L AXAXAXAXAXAXAXAXAXAXAXAXAXAXAXAXAXAXAXAXAXAXAXAXAXAXAXAXAXAXAXAXAXAXAXAXAXAXAXAX. X X : 1 1 1 1 > > > 1 K R  .3X5X3X..[ ] T K 1 > AXAXAX",
"AXAXAXAXAXAXAXAXAXAXAXAXAXAXAXAXAXAXAXAXAXAXAXAXAXAXAXAXAXAXAXAXAXAXAXAXAX. . X X X X : 1 K R  .,X3XtXiXpXzXpXiX4X..] T AXAXAXAXAXAXAXAXAXAXAXAXAXAXAXAXAXAXAXAXAXAXAXAXAXAXAXAXAXAXAXAXAXAXAXAXAXAXAXAXAXAX: : > 1 1 > : > 1 K R  ... .[ ] T L 2 1 > > : AXAXAX",
"AXAXAXAXAXAXAXAXAXAXAXAXAXAXAXAXAXAXAXAXAXAXAXAXAXAXAXAXAXAXAXAXAXAXAXAXAX. . X X X : > 2 L R ]  ...,X<X3X5X5X3X,X{ T L AXAXAXAXAXAXAXAXAXAXAXAXAXAXAXAXAXAXAXAXAXAXAXAXAXAXAXAXAXAXAXAXAXAXAXAXAXAXAXAXAXAXX : > > > : : > 2 K R ] ] T L K K 2 1 > : : : AXAXAX",
"AXAXAXAXAXAXAXAXAXAXAXAXAXAXAXAXAXAXAXAXAXAXAXAXAXAXAXAXAXAXAXAXAXAXAXAXAXAXAXX X : > 1 2 K L L L L L T R ] ] ] R L K 2 AXAXAXAXAXAXAXAXAXAXAXAXAXAXAXAXAXAXAXAXAXAXAXAXAXAXAXAXAXAXAXAXAXAXAXAXAXAXAXAXAXAXX X : : : : : 1 2 L L L K 2 1 2 K K 2 1 > : : AXAXAX",
"AXAXAXAXAXAXAXAXAXAXAXAXAXAXAXAXAXAXAXAXAXAXAXAXAXAXAXAXAXAXAXAXAXAXAXAXAXAXAX. X X : > > 1 1 > 1 2 K T ] ] ] T L K 2 AXAXAXAXAXAXAXAXAXAXAXAXAXAXAXAXAXAXAXAXAXAXAXAXAXAXAXAXAXAXAXAXAXAXAXAXAXAXAXAXAXAXAXX X X X : : : 1 2 K L L K 1 1 L R ] ] T K > : AXAXAX",
"AXAXAXAXAXAXAXAXAXAXAXAXAXAXAXAXAXAXAXAXAXAXAXAXAXAXAXAXAXAXAXAXAXAXAXAXAXAXAX. . X X : X X X : 1 L ] ..,X,X .T K AXAXAXAXAXAXAXAXAXAXAXAXAXAXAXAXAXAXAXAXAXAXAXAXAXAXAXAXAXAXAXAXAXAXAXAXAXAXAXAXAXAXAXAXAXX X X X X : > > 1 2 K K 2 1 2 R ,X3X3X,X] 2 : AXAXAX",
"AXAXAXAXAXAXAXAXAXAXAXAXAXAXAXAXAXAXAXAXAXAXAXAXAXAXAXAXAXAXAXAXAXAXAXAXAXAXAXAXAX. . X . X > 2 R ,XtXpXzXaX3X] L AXAXAXAXAXAXAXAXAXAXAXAXAXAXAXAXAXAXAXAXAXAXAXAXAXAXAXAXAXAXAXAXAXAXAXAXAXAXAXAXAXAXAXAXAX. . X X X : > 1 2 2 1 1 1 2 L ..tXpXpXtX..K > AXAXAX",
"AXAXAXAXAXAXAXAXAXAXAXAXAXAXAXAXAXAXAXAXAXAXAXAXAXAXAXAXAXAXAXAXAXAXAXAXAXAXAXAXAXAX. . . X 1 T ..rXnXNXnXpX3X] K AXAXAXAXAXAXAXAXAXAXAXAXAXAXAXAXAXAXAXAXAXAXAXAXAXAXAXAXAXAXAXAXAXAXAXAXAXAXAXAXAXAXAXAXAX. . . X X : : > 1 1 > > 1 K R <XaXcXzXiX,XT > AXAXAX",
"AXAXAXAXAXAXAXAXAXAXAXAXAXAXAXAXAXAXAXAXAXAXAXAXAXAXAXAXAXAXAXAXAXAXAXAXAXAXAXAXAXAXX X X : 2 R ,XiXnXnXaX<X] K > AXAXAXAXAXAXAXAXAXAXAXAXAXAXAXAXAXAXAXAXAXAXAXAXAXAXAXAXAXAXAXAXAXAXAXAXAXAXAXAXAXAXAXAXAXAXAX. . X X : , > > : > 2 T [ 3XrXaXtX5X<XAXAXAXAXAX",
"AXAXAXAXAXAXAXAXAXAXAXAXAXAXAXAXAXAXAXAXAXAXAXAXAXAXAXAXAXAXAXAXAXAXAXAXAXAXAXAXAX: : : : > 2 R ..3XrXtX,XR K 1 : AXAXAXAXAXAXAXAXAXAXAXAXAXAXAXAXAXAXAXAXAXAXAXAXAXAXAXAXAXAXAXAXAXAXAXAXAXAXAXAXAXAXAXAXAXAXAXAXX X X X : : : > > 2 T { ..<X,X..[ { AXAXAXAXAX",
"AXAXAXAXAXAXAXAXAXAXAXAXAXAXAXAXAXAXAXAXAXAXAXAXAXAXAXAXAXAXAXAXAXAXAXAXAXL K 1 > : : : > > 2 L R { [ ] L 2 1 > > AXAXAXAXAXAXAXAXAXAXAXAXAXAXAXAXAXAXAXAXAXAXAXAXAXAXAXAXAXAXAXAXAXAXAXAXAXAXAXAXAXAXAXAXAXAXAX: : X X . X : : > 2 K T T T T L K 2 2 AXAXAXAXAX",
"AXAXAXAXAXAXAXAXAXAXAXAXAXAXAXAXAXAXAXAXAXAXAXAXAXAXAXAXAXAXAXAXAXAXAX] ] ] R K 1 > : : : : > 1 2 K K K 2 1 2 2 K 2 1 AXAXAXAXAXAXAXAXAXAXAXAXAXAXAXAXAXAXAXAXAXAXAXAXAXAXAXAXAXAXAXAXAXAXAXAXAXAXAXAXAXAXAXAXK 1 > : X . X : > 1 K K L K 2 > : : X X AXAXAXAXAX",
"AXAXAXAXAXAXAXAXAXAXAXAXAXAXAXAXAXAXAXAXAXAXAXAXAXAXAXAXAXAXAX] ] ] ] {  ... .R K 1 : X X X : : > > 1 2 K L R { { R L K AXAXAXAXAXAXAXAXAXAXAXAXAXAXAXAXAXAXAXAXAXAXAXAXAXAXAXAXAXAXAXAXAXAXAXAXAXAXAXAXAXAXT L K 1 > : X X : > 1 K K 2 1 > : X X X X AXAXAXAXAX",
"AXAXAXAXAXAXAXAXAXAXAXAXAXAXAXAXAXAXAXAXAXAXAXAXAXAXAXJ E  ...[ ] {  ...,X<X..{ T x > : : : : > 1 K T R [ ..3XrXuX4X,X..AXAXAXAXAXAXAXAXAXAXAXAXAXAXAXAXAXAXAXAXAXAXAXAXAXAXAXAXAXAXAXAXAXAXAXAXAXAXAXAX] ] { ] T K 1 : X X X : > > 1 1 4 1 1 2 P L L L AXAXAXAX",
"AXAXAXAXAXAXAXAXAXAXAXAXAXAXAXAXAXAXAXAXAXAXAXAXAXAXl N U [  .{ ] ]  ...,X,X..] T K 2 > > > 1 2 L ]  .<X4XrXpXjXjXjXsXsXAXAXAXAXAXAXAXAXAXAXAXAXAXAXAXAXAXAXAXAXAXAXAXAXAXAXAXAXAXAXAXAXAXAXAXAXAXAXAX] {  .....{ T 2 > : X X X : > > 1 2 L R { ,X<X..{ R AXAXAX",
"AXAXAXAXAXAXAXAXAXAXAXAXAXAXAXAXAXAXAXAXAXAXAXAXM.d.s.n Z U T T T T R R ] ] ] T L K 2 1 > 1 2 T { ,X3XtXaXdXgX'.}.#X*XkXAXAXAXAXAXAXAXAXAXAXAXAXAXAXAXAXAXAXAXAXAXAXAXAXAXAXAXAXAXAXAXAXAXAXAXAXAX] {  ...,X<X,X .R K 1 > : : : > 2 K T ]  .<XwXaXzXiXwX6XAXAXAX",
"AXAXAXAXAXAXAXAXAXAXAXAXAXAXAXAXAXAXAXAXAXAXAXl.g.d.r.f g l 1 2 K K 2 2 K K K K 2 1 1 > > > 2 T ] ..<XwXrXsX`.N.k.~.oX@X$XAXAXAXAXAXAXAXAXAXAXAXAXAXAXAXAXAXAXAXAXAXAXAXAXAXAXAXAXAXAXAXAXAXAXAX[ ] ] [  .......{ R L 2 1 > > 1 2 L ] ..<X4XrXaXdXfXfXgXgXAXAXAX",
"AXAXAXAXAXAXAXAXAXAXAXAXAXAXAXAXAXAXAXAXAXM.j.d.t.e.:.p w + X : > > > > > > > > > : : X X X > 1 K T ] | .._.Z.v.a.k.~. X+X%XAXAXAXAXAXAXAXAXAXAXAXAXAXAXAXAXAXAXAXAXAXAXAXAXAXAXAXAXAXAX2 L { .. .{ R T T T R R T L K 2 1 1 > 2 L ] ..3XtXaXpXyX`.N.].}.*XAXAXAX",
"AXAXAXAXAXAXAXAXAXAXAXAXAXAXAXAXAXAXAXAXAXd.d.a.w.:.d i 8 + . X : : : : X X X X X X X . . . X : > 1 2 L T E F h ;.t.g.Y. X+X$XAXAXAXAXAXAXAXAXAXAXAXAXAXAXAXAXAXAXAXAXAXAXAXAXAXAXAXAXZ M B ~ { ] _ T K 2 2 2 2 2 1 1 > > > : 1 K R [ ,X3XwXtX2Xb.t.h.E.{.XXAXAX",
"AXAXAXAXAXAXAXAXAXAXAXAXAXAXAXAXAXAXAXAXAXq.q.q.AXAXAXAXAXAXAXAXAXAXX X X . . . . . . . . . . X X : > 4 2 x z s d d w.g.Q.{. XAXAXAXAXAXAXAXAXAXAXAXAXAXAXAXAXAXAXAXAXAXAXAXAXAXAXk.l.p.e.n B P L L P 2 > : : : : : : X X X X : > 2 L T ] |  .( A f w.g.U.^.OXoX",
"AXAXAXAXAXAXAXAXAXAXAXAXAXAXAXAXAXAXAXAXAXAXAXAXAXAXAXAXAXAXAXAXAXAXAXAXAXAXAXAXAXAXAXAXAXAXAXAXAXAXAXAXAXAXAXAXAXAXAXp.m.I.I.AXAXAXAXAXAXAXAXAXAXAXAXAXAXAXAXAXAXAXAXAXAXAXAXk.g.d.y.w.;.s e , 4 1 1 > : X X X X X X . . . . X : : > 1 2 L Y I g p d w.g.Y.^. X",
"AXAXAXAXAXAXAXAXAXAXAXAXAXAXAXAXAXAXAXAXAXAXAXAXAXAXAXAXAXAXAXAXAXAXAXAXAXAXAXAXAXAXAXAXAXAXAXAXAXAXAXAXAXAXAXAXAXAXAXAXp.p.p.AXAXAXAXAXAXAXAXAXAXAXAXAXAXAXAXAXAXAXAXAXAXAXk.l.d.t.0.d p w @ o X : : : X X . . . . . . . . . . X X X : > 1 x l j p d ;.t.j.U.Y.",
"AXAXAXAXAXAXAXAXAXAXAXAXAXAXAXAXAXAXAXAXAXAXAXAXAXAXAXAXAXAXAXAXAXAXAXAXAXAXAXAXAXAXAXAXAXAXAXAXAXAXAXAXAXAXAXAXAXAXAXAXAXAXAXAXAXAXAXAXAXAXAXAXAXAXAXAXAXAXAXAXAXAXAXAXAXAXt.t.t.AXAXAXAXAXAXAXAXAXAXAXAXAXAXAXAXAXAXAXAXAXAXAXAXAXAXAXAXu j j i AXAXAXAXa.p.p.",
"AXAXAXAXAXAXAXAXAXAXAXAXAXAXAXAXAXAXAXAXAXAXAXAXAXAXAXAXAXAXAXAXAXAXAXAXAXAXAXAXAXAXAXAXAXAXAXAXAXAXAXAXAXAXAXAXAXAXAXAXAXAXAXAXAXAXAXAXAXAXAXAXAXAXAXAXAXAXAXAXAXAXAXAXAXAX0.0.0.AXAXAXAXAXAXAXAXAXAXAXAXAXAXAXAXAXAXAXAXAXAXAXAXAXAXAXAXp p p AXAXAXAXAX0.0.0."
};
