/* XPM */
static const char *bos2d4[] = {
/* columns rows colors chars-per-pixel */
"128 128 246 2 ",
"   c #141414",
".  c #1C1A13",
"X  c #1C1C1C",
"o  c #181615",
"O  c #0F1414",
"+  c #370B0B",
"@  c #241C19",
"#  c #311810",
"$  c #2B230E",
"%  c #2B2418",
"&  c #342A14",
"*  c #3B2E16",
"=  c #382818",
"-  c #3C2F16",
";  c #1E2121",
":  c #232324",
">  c #2B2B2B",
",  c #292726",
"<  c #362B27",
"1  c #3A3227",
"2  c #2D2E31",
"3  c #2D3132",
"4  c #343434",
"5  c #3B3C3C",
"6  c #393837",
"7  c #1D1F21",
"8  c #470606",
"9  c #580202",
"0  c #471A1A",
"q  c #591515",
"w  c #680303",
"e  c #7C0202",
"r  c #750404",
"t  c #691919",
"y  c #781717",
"u  c #452915",
"i  c #42321A",
"p  c #4B371B",
"a  c #553A1B",
"s  c #55290E",
"d  c #692804",
"f  c #742B01",
"g  c #742900",
"h  c #7B3402",
"j  c #793507",
"k  c #6E3812",
"l  c #462827",
"z  c #473627",
"x  c #553C21",
"c  c #463936",
"v  c #553030",
"b  c #783838",
"n  c #6B2E2D",
"m  c #734516",
"M  c #5C4222",
"N  c #5B432A",
"B  c #574939",
"V  c #4A463C",
"C  c #634424",
"Z  c #6B4928",
"A  c #754B29",
"S  c #78532C",
"D  c #7B5434",
"F  c #664B35",
"G  c #7A6431",
"H  c #57401E",
"J  c #3E3F41",
"K  c #3F4142",
"L  c #434343",
"P  c #4C4C4C",
"I  c #484747",
"U  c #554B48",
"Y  c #585349",
"T  c #535353",
"R  c #5B5B5B",
"E  c #575858",
"W  c #4E4F51",
"Q  c #734949",
"!  c #635956",
"~  c #70574A",
"^  c #766655",
"/  c #716752",
"(  c #575768",
")  c #5D6262",
"_  c #636464",
"`  c #6B6B6B",
"'  c #686867",
"]  c #756A66",
"[  c #6D7172",
"{  c #737373",
"}  c #7B7B7B",
"|  c #777878",
" . c #75726E",
".. c #8B0000",
"X. c #850303",
"o. c #950101",
"O. c #9C0101",
"+. c #980A0A",
"@. c #911515",
"#. c #A50000",
"$. c #AB0000",
"%. c #A20808",
"&. c #B30202",
"*. c #BC0303",
"=. c #AF1818",
"-. c #823C05",
";. c #813D0A",
":. c #8E3333",
">. c #AD2727",
",. c #C30000",
"<. c #CB0202",
"1. c #D40000",
"2. c #DB0000",
"3. c #DB0909",
"4. c #E80303",
"5. c #F40404",
"6. c #EC1B1B",
"7. c #D72E2E",
"8. c #E23030",
"9. c #864207",
"0. c #8D4B0B",
"q. c #894508",
"w. c #914E0B",
"e. c #93530D",
"r. c #9A5A0D",
"t. c #9A5C13",
"y. c #955713",
"u. c #8A5015",
"i. c #9E6215",
"p. c #98611B",
"a. c #8F651E",
"s. c #A56C1A",
"d. c #A26716",
"f. c #AA741C",
"g. c #AB761D",
"h. c #B17D1E",
"j. c #844A28",
"k. c #85532E",
"l. c #8C5B35",
"z. c #875633",
"x. c #915E37",
"c. c #925A27",
"v. c #97633A",
"b. c #8F6D2F",
"n. c #AA7825",
"m. c #B17E21",
"M. c #A1693E",
"N. c #A37333",
"B. c #A15E0F",
"V. c #8E4F4A",
"C. c #AA5757",
"Z. c #926E4D",
"A. c #A86C42",
"S. c #AA7345",
"D. c #B67549",
"F. c #A57C5C",
"G. c #867B78",
"H. c #8F776D",
"J. c #B47474",
"K. c #CE5252",
"L. c #C37C4E",
"P. c #C46868",
"I. c #B48324",
"U. c #B98B28",
"Y. c #BD922B",
"T. c #B08C34",
"R. c #B2811E",
"E. c #C2982E",
"W. c #C39C32",
"Q. c #CDAC3A",
"!. c #C9A536",
"~. c #D2B33E",
"^. c #D9B83D",
"/. c #D1AF3B",
"(. c #C18C1F",
"). c #AF924C",
"_. c #928776",
"`. c #AC8E72",
"'. c #A7965B",
"]. c #CB8456",
"[. c #D7BB43",
"{. c #C7AE4E",
"}. c #C6B16D",
"|. c #DDC449",
" X c #DBC656",
".X c #E1CC4D",
"XX c #E9D855",
"oX c #E5D150",
"OX c #EEE259",
"+X c #F1E65D",
"@X c #F4EC62",
"#X c #FDFB6D",
"$X c #F8F368",
"%X c #FEFD72",
"&X c #F2F377",
"*X c #E9E677",
"=X c #DED271",
"-X c #2B2BAC",
";X c #767688",
":X c #4949AB",
">X c #4A4ACB",
",X c #7E8182",
"<X c #848484",
"1X c #8B8C8C",
"2X c #878889",
"3X c #958A88",
"4X c #8E9293",
"5X c #939393",
"6X c #9C9C9C",
"7X c #979897",
"8X c #95928F",
"9X c #A89B98",
"0X c #AE9189",
"qX c #A9A49A",
"wX c #B8A78F",
"eX c #999BA6",
"rX c #9EA1A2",
"tX c #A3A3A3",
"yX c #ABACAC",
"uX c #A8A8A8",
"iX c #B5ACA8",
"pX c #AEB4B4",
"aX c #B3B4B4",
"sX c #BBBBBB",
"dX c #B7B7B7",
"fX c #B6B3AD",
"gX c #C3BCB7",
"hX c #C4B5AC",
"jX c #C4AB8C",
"kX c #D1CD8F",
"lX c #CDC6B3",
"zX c #E8E1AF",
"xX c #BCC1C2",
"cX c #C3C4C4",
"vX c #CBCBCB",
"bX c #C9C8C6",
"nX c #D3D3D3",
"mX c #DBDBDB",
"MX c #D4CFCC",
"NX c #E3E3E3",
"BX c #EBEBEB",
"VX c #F0F0F0",
"CX c #DDE1E1",
"ZX c #B5B6C2",
"AX c None",
"SX c black",
/* pixels */
"AXAXAXAXAXAXAXAXAXAXAXAXAXAXAXAXAXAXAXAXAXAXAXAXAXAXAXAXAXAXAXAXAXAXAXAXAXAX#.#.#.#.#.#.#.#.#.#.#.#.&.,.1.2.2.2.2.4.4.5.5.5.4.=.:.E ) ) [ } 2X7XtXyXsXsXbXbXbXbXbXbXbXvXnXnXbXcXsXpXuX3XC.:...X.r r r e e ..o.#.&.,.1.2.2.AXAXAXAXAXAXAXAXAXAXAXAXAXAXAXAXAXAXAX",
"AXAXAXAXAXAXAXAXAXAXAXAXAXAXAXAXAXAXAXAXAXAXAXAXAXAXAXAXAXAXAXAXAXAXAXAXAXAX#.#.#.#.#.O.o...........o.O.#.$.$.$.&.*.<.<.1.1.<.=.>.:.V.V.V.C.H.7XuXpXsXgXbXbXbXbXbXcXbXvXnXnXvXbXcXsXdXtX0XC.V.:.:.:.:.:.n y @.X...O.#.$.&.$.AXAXAXAXAXAXAXAXAXAXAXAXAXAXAXAXAXAX",
"AXAXAXAXAXAXAXAXAXAXAXAXAXAXAXAXAXAXAXAXAXAXAXAXAXAXAXAXAXAXAXAXAXAXAX#.#.#.#.#.#.O.o...e w 9 9 9 9 9 w w w w w r e ..o.o.o.O.$.*.<.3.4.4.7.K.0XtXpXdXgXbXbXbXbXbXcXbXvXnXnXnXnXnXvXbXbXgXgXhXfXiX9X9X3XG.^ n q 9 9 w w e o.#.*.<.2.4.AXAXAXAXAXAXAXAXAXAXAXAXAX",
"AXAXAXAXAXAXAXAXAXAXAXAXAXAXAXAXAXAXAXAXAXAXAXAXAXAXAXAXAXAXAXAXAXAXn b :.:.:.V.V.V.V.V.V.Q Q Q Q ~ Q Q Q Q Q Q Q b b b b n n @.+.$.,.2.4.6.8.K.P.0XiXdXsXxXcXbXbXbXvXvXnXnXnXmXmXmXmXmXmXCXCXmXnXvXxXpXrX2X] U v v l 0 q r e o.O.$.*.,.1.AXAXAXAXAXAXAXAXAXAXAX",
"AXAXAXAXAXAXAXAXAXAXAXAXAXAXAXAXAXAXAXAXAXAXAXAXAXAXAXAXAXAXAXAXI I T R '  .G.3X8X5X5X5X7X7X9XtXyXyXyXuX9X7X7X5X4X2XG. .` _ ! v t r X.#.*.1.4.5.6.K.J.9XuXyXdXsXcXbXvXnXnXnXmXmXNXNXNXNXBXBXBXBXNXmXnXbXsXuX5XG. .! T L l 0 8 9 w r ..$.,.1.AXAXAXAXAXAXAXAXAXAX",
"AXAXAXAXAXAXAXAXAXAXAXAXAXAXAXAXAXAXAXAXAXAXAXAXAXAXAX` R T I I T E _ [ ,X1X5X6XtXuXyXpXdXdXsXbXnXnXnXvXbXcXsXdXuXrX5X1X,X| ` ! U v t y X.O.,.2.4.6.8.K.P.0XyXdXxXbXvXnXnXnXmXNXNXBXBXBXBXVXVXVXBXBXNXnXbXaXtX5X<X[ ) T L c l 0 8 9 w e o.#.,.1.AXAXAXAXAXAXAXAX",
"AXAXAXAXAXAXAXAXAXAXAXAXAXAXAXAXAXAXAXAXAXAXAXAXAX` _ R E T P T R _ | 2X5X6XtXtXyXaXsXcXbXbXvXnXCXNXNXNXmXmXvXbXsXyXtX6X5X2X<X{ _ E c l q w o.&.<.4.5.5.8.P.0XqXfXgXbXvXnXnXmXNXNXBXBXBXBXBXBXBXBXBXNXmXbXsXyX6X1X} ` R E P L c 0 8 8 9 w ..#.,.1.2.AXAXAXAXAXAX",
"AXAXAXAXAXAXAXAXAXAXAXAXAXAXAXAXAXAXAXAX5X5X1X2X| R I L I T R _ ` | 2X7XtXuXyXyXaXdXsXcXbXvXnXmXNXNXBXBXNXNXnXvXcXsXyXtX6X6X4X<X{ _ E I c l t r o.*.2.4.5.6.8.K.0XiXsXcXbXnXmXmXNXNXBXBXBXBXBXBXBXBXNXnXbXsXaXtX5X<X| ` ) E T I c < = 8 8 w e O.$.,.1.4.AXAXAXAX",
"AXAXAXAXAXAXAXAXAXAXAXAXAXAXAXAXAXAXAX6X6X7X5X1X} R I 6 L E _ ` | <X1X6XtXyXyXaXaXaXsXcXbXvXnXmXNXNXNXNXNXNXmXvXbXsXpXtXtX6X5X2X} ` _ E P L v n y +.*.2.4.5.5.8.P.9XpXxXbXvXnXnXmXmXNXNXNXNXNXNXNXNXmXnXbXcXaXuX6X2X} { ` _ E W I 5 6 l 0 q w r ..#.,.2.4.AXAXAX",
"AXAXAXAXAXAXAXAXAXAXAXAXAXAXAXAX6XtXtXtXtXtX6X7X2X` T I I E _ ` | <X1X6XtXuXuXyXyXaXaXsXcXvXnXmXmXmXNXNXmXmXnXbXcXaXuXrX6X5X1X<X} { _ R E E _ ' ~ :.=.*.1.4.5.8.P.9XyXdXsXbXbXvXnXnXmXmXmXmXmXmXmXmXmXnXvXcXsXyX6X1X<X| ` _ _ E P I I P U v l q w ..$.,.<.AXAXAX",
"AXAXAXAXAXAXAXAXAXAXAXAXAXAXAXtX6X6X6XtX6X7X2X{ _ E P I T R _ { } <X2X7X6XtXtXtXuXuXyXaXaXcXbXvXnXnXnXnXvXbXbXsXaXyXtX6X5X2X2X} | ` ` _ R _ [ | ] V.@.o.&.2.4.6.8.K.P.0XiXsXcXbXvXnXnXnXnXnXmXmXmXnXnXvXbXsXaXtX6X1X<X} { ` _ R E P P P I c l 8 9 e O.&.,.1.AXAX",
"AXAXAXAXAXAXAXAXAXAXAXAXAXyXuXtX6X6X6X6X5X} R 5 4 6 L P E _ ` { | } 2X1X7X6X6X6X6X6XtXtXtXyXaXsXsXsXsXsXsXaXaXyXuXtX6X5X2X2X} } { ` ` _ _ ` { } ] Q t r O.,.2.5.5.6.8.P.9XpXxXbXbXvXvXvXvXnXnXnXnXnXvXbXsXaXtX6X7X2X<X} | ` ` _ E W I 5 6 < # 8 9 w ..#.,.2.4.5.",
"AXAXAXAXAXAXAXAXAXAXAXAXAXuXuXuXuXtX6X5X<X` P 6 > 6 I T E _ ` { { | } } 2X2X2X1X4X5X5X7X6X6XtXtXuXyXyXuXtXtXtXtXtX6X7X5X2X2X} | ` ` _ _ _ _ _ _ ! ! Q b :.=.<.4.5.5.8.K.0XuXdXxXbXbXbXbXvXvXvXvXvXvXbXsXaXuXtX6X5X2X<X} { ` _ R E T I 5 6 4 c v v t e o.&.1.4.4.",
"AXAXAXAXAXAXAXAXAXAXAXAXAXyXyXyXyXtX6X2X` E I 6 4 6 I T E _ ` ` ` ` ` ` { | } } } <X2X2X1X1X5X7X6X6X6X6X7X7X6X6X6X7X5X1X2X<X} { ` _ _ _ _ R T P W ) [ H.V.>.*.1.4.4.7.C.3XrXyXdXsXcXbXbXbXbXbXbXbXbXsXaXyXtX6X7X1X2X} | ` _ E E T P I 5 6 5 P E ! n y ..#.,.2.4.",
"AXAXAXAXAXAXAXAXAXAXuXyXaXaXaXtX5X} ` _ E I 5 6 4 6 I P T E R R R R ! _ _ _ ` ` ` | } } <X2X2X2X1X5X5X5X4X1X1X1X2X2X<X<X} } | ` _ ) R _ _ R T I P E ` ] V.>.&.<.1.3.7.C.G.7XrXyXaXsXsXcXbXbXcXcXcXsXaXyXtX6X7X5X2X<X} | ` _ E T P I I 5 6 5 I T U n y ..O.*.<.1.",
"AXAXAXAXAXAXAXAXAXAXyXyXaXaXtX1X` T I L L 5 6 > 4 6 5 I I T T T T T T E E E E R _ _ ` ` { | } } <X<X2X2X2X<X<X} } } | { { ` ` _ ) R E R R E P I I E ' ] V.>.&.*.,.<.>.C.G.5X6XtXuXaXaXsXsXsXsXsXdXaXyXtX6X7X5X2X2X} } { ` _ E T I I 5 6 6 6 J L c n y ..O.#.&.&.",
"AXAXAXAXAXAXAXAXAXAXaXaXuX6X2X` I > > > 4 2 > , > > 6 5 L I I I I I I I I P P P T T E E R _ ` ` { { | | | { { { ` ` ` _ _ _ R R E E E T P I L 5 I E ` ] V.>.&.&.&.&.>.V.G.4X7X6XtXuXuXyXyXyXyXyXpXyXtXtX6X5X2X2X} } { ` _ _ E P I 5 6 4 4 2 3 4 l t +.#.#.O.o.o.",
"AXAXAXAXAXAXAXAXAXAXsXaX6X} E 5 , o o > 6 6 > , : , > 4 6 5 5 K L L L 5 5 5 L L I I T E _ ` | } } } } } | { ` _ R E E E T T T P P P I I J 6 4 4 K R } G.C.>.&.$.#.o.:.V.G.4X5X5X7X6XtXtXtXtXtXtXuXtXtX6X5X1X2X<X} | ` ` _ R E P L 6 4 4 > > 3 > l t +.$.#.O.....",
"AXAXAXAXAXAXAXAXAXAXcXyX2XT > o   o : 6 I I 6 , X 7 , > > > 4 6 6 6 6 6 4 4 6 5 I T R ` } 1X6XrXtXtX6X7X2X} ` E I L L 5 5 5 5 5 6 6 6 6 4 > , , 6 ) <X3XC.>.&.#...e n V.3X5X1X2X2X1X6XtXtXtXtXtXtXtX6X7X1X2X2X<X<X} | ` ` _ E T I 6 6 4 2 > 3 > l t +.$.#.O.....",
"AXAXAXAXAXAXAXAXAXAXcXuX} L X , L E _ _ E P 6 : o o X : : : , , > > > > > 6 L W _ | 2X6XuXaXxXbXbXbXbXcXaXtX2X` E I 6 4 4 > > > > , > > > > > > 4 I ) ' V.=.$.O.e r b H.9XuX6X2X<X2X6X6XtXtX6X6XtX6X6X5X1X2X2X2X2X1X5X7X7X7X1X} ` E I 6 > , > > < t +.&.#...e r ",
"AXAXAXAXAXAXAXAXAXAXaXtX} I 6 T 2XtXtX<X_ I > X o o o X X X X : : , > > 4 L E ` } 7XuXaXcXbXnXnXmXmXmXmXnXsXtX2X` E I 5 6 4 > > , : , > > 4 > > > 4 4 l t X...X.w w b 3XgXcXuX1X2X2X7X6X6X6X6X6X6X6X6X5X1X2X2X1X5XtXyXaXsXsXaX6X<X` T 5 > , , < 0 y +.$.o.r w 9 ",
"AXAXAXAXAXAXAXAXAXAX6X6X2X} | 2XtXuX7X` L > X o o o X : : , , > 4 6 6 L I E _ | <X2X1X5X6X6XrXtXuXyXyXyXuXtX6X6X5X1X2X<X| _ E T I L K L L 6 2 , , 0 q y r r r w 9 9 b H.fXsXuX1X2X2X5X6X6X6X6X6X6X6X7X1X2X2X5X6X6XtX9X6X2X| ' ) E T I 5 2 < t @.+.+.o...r 9 9 8 ",
"AXAXAXAXAXAXAXAXAXAX<X2X5X6XtX6X7X2X| E 5 > X o o o X : , > > 6 6 L I P T E _ _ _ _ R R R R _ _ ` ` ` ` ` | } 2X5X6XtXtX6X1X<X| ` _ E T I J 2 : # q r ..X.w 9 8 8 0 b G.yXpXrX2X<X2X1X5X5X5X5X5X5X5X1X2X<X2X7X6X6X1X} ' U c < < l v v c l t @.*.,.#.X.w 9 9 8 8 ",
"AXAXAXAXAXAXAXAXAXAX` ` } 2X1X} _ P T R _ E 5 :     o X : , > 4 6 5 5 5 5 6 6 6 4 > > > , , > > > > 2 4 4 6 L I E _ { } 2X2X2X2X} { _ E I 6 > : @ 8 9 w w 9 8 8 0 c ! G.7X6X4X} | } <X2X2X2X2X2X2X2X<X} | } 2X7X2X` P 6 0 t r X.+.+.+.+.+.+.o...X.r 9 9 8 AXAXAX",
"AXAXAXAXAXAXAXAXAXAXI T _ { | _ L 4 I ` 2X<X_ 6 , X o o o X : , > > > > , : % @ . . . o . . . . o o . . @ % % , > 6 I T R ' ` ` ` _ E I 6 4 2 4 < = 0 8 8 8 + l c E ` <X1X1X<X| { | } ,X<X<XG.<X<X<X} { ` { } } { W > @ + w ..o.O.#.#.#.O...e w 9 8 + + + AXAXAX",
"AXAXAXAXAXAXAXAXAXAX> 4 I E _ E L 5 T } 6X6X<X_ I 6 : o   o o o o o o o o . % % & & $ & & = = & & & & = = = = & & % , , > 4 4 6 6 4 > , : > 5 I P c < @ @ @ < c ! | ;X<X<X} | ` ` { | } } } } } } } } | { ` ` _ E 5 : o + 8 9 9 9 w 9 9 9 9 9 8 8 + .     AXAXAX",
"AXAXAXAXAXAXAXAXAXAXX , 6 I E T I I _ 2XtXtX1X` E L > : X . . . . . . . . @ $ & * - i p p p p p p p p p p p p p i = % % % % % % % % , , > 6 I T T I K 6 6 6 K P _ ` { { ` ` ` ` ` ` ` ` ` ` ` { | | | { ` _ _ E P 5 > @ @ # + + + + + + + + + + # @     O AXAXAX",
"AXAXAXAXAXAXAXAXAXAX> > 6 L P T E R | 5XtXtX2X_ T I 5 4 < % $ $ $ & & & & & = * i p x M M M M M Z Z Z C M M C C C x p i i i p i i i z c I P P P P P T T T E E E T T T E E R R _ _ _ _ _ _ _ _ _ ` ` ` _ _ _ R E T I 6 4 > : @ @ @ : : , : : : : @ o o     AXAXAX",
"AXAXAXAXAXAXAXAXAXAXP P I L I E ` <X5XtXtX6X} _ P J 6 2 , & & & & * * & = = - i p p x M Z S D D S A S z.l.l.z.S A A S A Z M a p p p z c V L L L L L L L L L I I I I I P T T E E E E E E E E E E E R E E E T P I I J 6 6 > , : ; ; ; ; ; ; ; X X o o o     AXAXAX",
"AXAXAXAXAXAXAXAXAXAX` _ E I I R <X6XtXtX6X2X` E L 4 > : % % & & * * * * = * i z x x x M S v.A.v.z.A z.A.D.D.M.z.k.l.v.v.l.Z M M M C N B I P T E E E T P P I I I L L L I I I I P P P P P P P P P P P I I I L 5 6 6 6 6 6 5 5 5 6 6 4 > : X o o o           AXAXAX",
"AXAXAXAXAXAXAXAXAXAXR E T I P _ <X7X7X1X} ` E L 4 , X o . $ $ & * i i - * i p x M M M C D v.A.v.l.z.v.D.].].S.x.l.M.D.D.M.z.A Z Z D ~ H.2X7XuXaXaXaXyXuXtXtX7X| T 6 > 4 6 6 5 L L L L L L L L L L L L 5 5 6 4 > > 4 6 I _ } 2X2X} { E 6 X           AXAXAXAXAXAX",
"AXAXAXAXAXAXAXAXAXAXI I P T E _ | } } ` R P 5 4 , X o   . . $ & * i i i i p a M C M M Z z.M.S.A.x.l.v.D.].].D.v.x.A.L.L.S.x.D S k.x.F.0XfXbXnXNXNXNXmXmXmXmXbXtX| P 6 4 > > 4 6 6 6 6 6 6 6 6 6 6 6 6 6 4 > , : , 6 W ` 2X6XyXyXtX4X{ P > o o o   AXAXAXAXAXAXAX",
"AXAXAXAXAXAXAXAXAXAX5 L P E R ) R E E P I 6 > X o o     . @ $ & * i i i i p a C C C C Z z.A.D.A.v.l.v.D.].].S.v.x.A.L.L.S.v.z.k.l.v.F.0XiXsXcXbXbXbXbXbXbXbXcXsXuX7X{ P > X : > > > 4 4 4 4 4 4 4 4 4 > > , o o > P } 7X6XrX6X7X2X} ` E I 5 4 AXAXAXAXAXAXAXAXAX",
"AXAXAXAXAXAXAXAXAXAX6 6 I T E T P L 5 6 4 > X o         . @ $ & * i i - i p x C Z C C Z z.A.D.S.v.l.v.D.].].S.v.x.A.L.L.S.v.z.z.v.A.F.`.qXyXaXaXaXsXsXsXsXsXaXsXsXyX2XE > o o X : : , , , , , , > > , , : : : > L _ 2X6X6X5X2X} ` _ E P I I AXAXAXAXAXAXAXAXAXAX",
"AXAXAXAXAXAXAXAXAXAX> 4 6 L I L 5 6 4 > : o o o     AXAXAX$ $ & * i i - i p x C Z C C Z z.A.D.S.v.l.v.D.].].S.x.x.A.L.L.S.x.z.z.v.A.F._.3X7XrXtXuXyXyXyXuXuXuXuXtX6X} T > o o X : : , > , , , , , , : X X > 5 T _ | <X2X2X} { _ E I L 5 6 6 AXAXAXAXAXAXAXAXAXAX",
"AXAXAXAXAXAXAXAXAXAX> > 4 6 6 6 4 > : X o o o   AXAXAXAXAX$ $ & * i i i i i a M M M M C D v.S.M.x.z.v.S.L.D.A.l.l.M.D.L.A.l.S D z.v.Z.H.} ,X2X1X5X5X5X5X5X5X1X2X} | _ P 5 5 I E _ { } } } | ` _ W L 6 6 6 5 I E _ ` ` ` _ E P I 5 6 > > , , AXAXAXAXAXAXAXAXAXAX",
"AXAXAXAXAXAXAXAXAXAX, , > > > > : X o o o   AXAXAXAXAXAXAX$ $ & * i i i * i p p a a a M S l.v.v.z.z.l.M.S.S.v.z.z.v.S.S.v.z.A A A D ~ / ' ` { | | | | | | { ` _ E P P P E _ } 6XyXcXnXmXmXvXsXtX<X` E P I P T E E E T I L 6 4 > > , X o o o AXAXAXAXAXAXAXAXAXAX",
"AXAXAXAXAXAXAXAXAXAXX : : : : X o o o       AXAXAXAXAXAXAX$ $ $ & & & = = * * - i p a M C Z S D l.v.v.x.l.l.x.x.x.l.l.z.z.k.S Z F B V U E E E R R R R R E E E P I P W R ` } 8XuXsXvXmXNXNXnXbXpX4X} ' E P I I P P I I 5 6 > > , : X o o AXAXAXAXAXAXAXAXAXAXAXAX",
"AXAXAXAXAXAXAXAXAXAXo o o o o o o           AXAXAXAXAXAXAX$ $ $ $ $ $ $ & & & & * p a a a a x Z z.v.l.S Z A z.v.v.z.Z C Z S D F c 6 6 5 I I I I I I I I L L 5 L I T E _ { ;X2X4XeXZXcXvXvXcXaXqX3XH.^ Y I L L L L 5 5 6 4 > , : X o o AXAXAXAXAXAXAXAXAXAXAXAXAX",
"AXAXAXAXAXAXAXAXAXAXAXAXo o o o         AXAXAXAXAXAXAXAXAX$ $ $ $ $ $ $ $ $ $ $ & * i p i i i a Z A Z C a C A z.z.S C M C Z Z N z 2 > 2 6 6 6 6 6 6 4 4 > > > 6 I T R ' [ ;X:X>X>X>XeXpXpXyX9XJ.K.7.>.b c 5 6 6 6 6 4 4 > : X o o o o AXAXAXAXAXAXAXAXAXAXAXAXAX",
"AXAXAXAXAXAXAXAXAXAXAXAXAX            AXAXAXAXAXAXAXAXAXAX$ $ & 1 c V V B U Y Y ! ! / / / / / ^ ^ ^ ^ / ~ ~ D S A C a a a M M z < : : : , , , , , , : : , , > 6 I T R _ ' ( -X-X-X:X;X1X4X1XG.C.7.3.*.@.v 4 3 > > > > , : X o o o     AXAXAXAXAXAXAXAXAXAXAXAXAX",
"AXAXAXAXAXAXAXAXAXAXAXAXAXAXAXAXAXAXAXAXAXAXAXAXAXAXAXAXAX$ & c R { <X1X8X6XuXaXsXlXbXbXbXbXlXgXfXiXuXqX7X_.^ F a p p p p a a i = @ X : : : : X X X X : , > 6 5 I P T E E E ( ( ( ( ' ` ` _ ! b @.%.+.t 1 > , : X X X X o o o   AXAXAXAXAXAXAXAXAXAXAXAXAXAXAXAX",
"AXAXAXAXAXAXAXAXAXAXAXAXAXAXAXAXAXAXAXAXAXAXAXAXAXAXAXAX] Y U Y _ { G._.`.}.jXkXzXzXzXzXzXzXzXkXjXwX`.`._.H.H.^ / B z * * i p z V I T _ ` _ E I 6 > X o X , > 6 6 6 5 L L L V V L I I I I I L v t t q 0 , : X o o o o           AXAXAXAXAXAXAXAXAXAXAXAXAXAXAXAX",
"AXAXAXAXAXAXAXAXAXAXAXAXAXAXAXAXAXAXAXAXAXAXAXAXAXAXuXtX6X2X} ` ) R ~ b.N.Y.!.[. XoXXXXXXX X[.{.W.U.n.t.u.l.F.3X3X] B i * * z B _ G.6XaXbXsXtX<X_ L , o o : > > 4 6 6 6 6 6 6 6 5 5 J L L L c c c c 6 < > : X o o o o o o o o o AXAXAXAXAXAXAXAXAXAXAXAXAXAXAXAX",
"AXAXAXAXAXAXAXAXAXAXAXAXAXAXAXAXAXAXAXAXAXAXAXAX7X7X7X7X7X6X7X_.Z.b.b.I.Y.Q.|.oXOX+X+X@X@X+XXX.X~.W.U.f.i.p.v.Z.Z.Z./ ! Y V V Y ' <X6XsXbXxXtX2X` P 6 4 5 T R _ ` ` { } } <X2X2X1X4X5X5X1X2X2X<X,X| ` R W I 5 6 6 5 I I L 6 > > X o AXAXAXAXAXAXAXAXAXAXAXAXAXAX",
"AXAXAXAXAXAXAXAXAXAXAXAXAXAXAXAXAXAXAXAXAXAX7X7X5X5X1X1X5X7X9X`.).I.U.E.~.|.XX@X#X#X#X%X%X%X$X@XoX[.!.Y.m.s.r.0.u.Z.H.<X{ ) E E _ | 2X6XyXtX5X} _ E I I R | 1X7X6XtXyXaXsXbXvXnXmXmXNXNXmXnXbXxXsXyX6X2X| _ E W T R ` ` _ T L 4 : o   AXAXAXAXAXAXAXAXAXAXAXAXAX",
"AXAXAXAXAXAXAXAXAXAXAXAXAXAXAXAXAXAXAXAX6X5X2X2X1X6XyXiX0X`.S.N.n.m.U.E.!.[..XOX@X#X#X#X#X$X@XXX[.Q.W.Y.I.s.r.0.u.Z.H.2X| _ E E R _ } 5X6X6X2X{ _ P I I E ` ,X1X7XtXuXaXsXcXbXnXmXmXNXNXmXnXbXsXaXuX6X2X| _ T I I T _ _ E I 5 > : o   AXAXAXAXAXAXAXAXAXAXAXAXAX",
"AXAXAXAXAXAXAXAXAXAXAXAXAXAXAXAXAXAXAX5X5X5X1X1X7XuXdXiX`.v.t.r.d.f.h.I.Y.!.~.|.oXXX+X+XOXXX.X[.!.E.U.I.g.d.e.q.u.Z.H.<X| _ E T T E _ } 2X2X} _ T I 6 6 I E _ { } 2X1X5X6XtXuXaXsXcXbXbXcXaXyXtX6X5X<X| _ E I 6 6 L P T I 5 4 , X o   AXAXAXAXAXAXAXAXAXAXAXAXAX",
"AXAXAXAXAXAXAXAXAXAXAXAXAXAXAXAXAXAXAX<X2X8XtXaXdXuX7X_.Z.c.0.w.e.t.d.g.m.U.E.!.Q.Q.~.~.Q.Q.!.W.Y.I.g.f.d.y.q.j k V.H.<X{ R P I I I T _ ` _ E I 5 6 > > 4 5 I P E E _ _ ` { } 2X1X7X6X6X5X2X<X} { ` _ T I 5 4 > > 4 5 5 6 4 > : o o   AXAXAXAXAXAXAXAXAXAXAXAXAX",
"AXAXAXAXAXAXAXAXAXAXAXAXAXAXAXAXAXAX<X} } 1XuXsXsXrX} ' ^ Z.Z.A.S.S.N.s.d.d.s.g.m.I.I.I.U.U.U.I.h.f.d.t.y.0.-.h j D ] } [ R I L 5 5 I E R E I 6 4 > : : : , > 2 4 6 6 5 L I T E R _ _ _ _ E T P I I 5 4 > , ; X X , > > > , : X o o   AXAXAXAXAXAXAXAXAXAXAXAXAX",
"AXAXAXAXAXAXAXAXAXAXAXAXAXAXAXAX7X7X1X<X} 2XtXaXyX5X{ _ | 8XqXiXiXqX`.Z.y.0.q.0.e.y.t.d.s.g.g.g.s.i.y.w.0.-.h f k F / ` _ E P L 6 6 5 T R E I 4 , : X X o o o o X : , > > 4 6 5 L L L L 5 5 6 6 > > , X o o o o o X , > > > > , : X o AXAXAXAXAXAXAXAXAXAXAXAXAX",
"AXAXAXAXAXAXAXAXAXAXAXAXAXAXAXAXkXkXwXqX7X7X5X5X5X1X1X2X2X1X4XuXxXvXgXwX`.Z.j.;.h -.0.e.y.t.t.t.y.e.q.-.h j m D ~ ~ ! R E E P L 4 > 4 6 I L 6 > : X X o o o X , 6 L I T E R _ ` | } } } } { ` _ E P L 6 4 > : : > L E _ ` ` ` R T I L AXAXAXAXAXAXAXAXAXAXAXAXAX",
"AXAXAXAXAXAXAXAXAXAXAXAXAXAXAXAX$X$X*XkXfXrX2X{ { 1XtXuX8X .] <XyXvXnXbXyX0XZ.A j h -.9.q.q.q.9.9.9.-.j j A ~  .| ` E W P P I 5 4 > > > 4 6 4 > > , 7 X X : > 5 T _ | } 2X7XrXuXsXbXnXnXvXcXaXtX5X<X{ R P L 6 4 L ` 5XyXsXsXaXtX1X} { AXAXAXAXAXAXAXAXAXAXAXAXAX",
"AXAXAXAXAXAXAXAXAXAXAXAXAXAXXXXXXXXX=XjXqX7X;X[ ` [ } G.V.:.>.:.V.G.1X7XrX5XG.~ F k j h h h h h h h m z.Z.H. .{ ` ) T I L 6 6 6 4 6 6 I P T T P I 5 4 > , : > 6 I E _ { } 1X6XyXsXnXNXBXNXmXbXsXyX6X<X` E I 5 5 T | tXsXvXnXnXcXuX5X} _ I AXAXAXAXAXAXAXAXAXAXAX",
"AXAXAXAXAXAXAXAXAXAXAXAXAXoXoX.X X{.}.`._.} | | { [ [ ] V.>.=.@.n U E [ <X<X| _ Y F k d d f f f j k z.H.1X2X| _ E T I L 6 4 4 6 L P R ` } <X} } { _ T L 6 > > > 6 L P E _ | 2X6XyXbXmXNXCXnXbXsXuX6X} _ P 5 6 5 T { 7XaXcXvXvXcXuX5X| E L 6 AXAXAXAXAXAXAXAXAXAX",
"AXAXAXAXAXAXAXAXAXAX|.[.^.~.Q.{.}.wX_.] T T _ } 5XtXaXyX3XV.b b !  .[ ` ` _ E P L 6 1 u s d f A V.H.G._.} { _ E I L 6 6 6 6 L T _ | 2XtXaXsXaXyXtX5X<X[ E I 6 > > 4 6 L T _ { <X7XuXsXbXcXsXyX6X1X} _ P 6 > > 4 L R } 1X6XtXuX6X2X| _ P 5 6 AXAXAXAXAXAXAXAXAXAX",
"AXAXAXAXAXAXAXAXAXT.!.Q.!.).).'._.<X[ W 6 L R } 6XaXcXsX6X{ R ) [ } { _ T I L 5 5 L I P B Z A V.H.<X,X{ _ E P L 6 6 4 6 5 P R [ 2X7XuXsXbXbXbXsXaXtX1X} _ T 5 6 > > > 6 5 I E ` } 2X6X6X6X5X2X} ` E I 6 > , , > 6 I E ' { } } | _ E I J 6 4 AXAXAXAXAXAXAXAXAXAX",
"AXAXAXAXI I I I Y l.n.T.).`._.} _ T L 5 6 I E { <X5X6X6X5X<X| [ ' ) E P L 5 5 L P _ } <X<XG. . .` _ R T I 5 4 > > > 4 L T _ } 1XrXyXaXaXaXyXuXtX7X2X| _ E P L 6 4 > > > > 6 L T R ` { | ` _ E P I 6 > , : X : , > 6 5 I P T T W I 5 6 4 > > AXAXAXAXAXAXAXAXAXAX",
"AXAXR E E E E E ! ~ G l.^ ] { [ ` _ E E T T E _ ` { } } | [ ' ) T P P T E E E R _ ` | } } | [ _ E P I 6 6 > > , > 6 L T _ } 2X7XtXtXtXqX6X5X1X2X} ` _ E I L 5 6 6 6 4 > : , > 6 L I P P I L 6 4 > , : o o o o X : : , > 2 2 3 2 > , : : ; ; AXAXAXAXAXAXAXAXAXAX",
"` ` ` _ _ ` | } | ' Y I I W R { 2X6X7X<X` _ E T P T E E T P I I I I E _ | } } { ` _ E P P P P I L 5 6 4 > > > > 6 I E _ { } 2X2X2X2X2X<X} | ` ` _ E P I 5 6 4 6 L I 5 > : X : > > 6 6 6 6 4 > , : X o o o o o X @ @ % % % : : : % % % % @ @ AXAXAXAXAXAXAXAXAXAX",
"1X1X2X} } <X5X6X6X} _ T E _ | 1XuXsXaXtX2X[ E I 5 6 6 6 K I W T E R ) _ _ _ _ R E P I 5 6 6 4 4 4 > > > > > 4 6 L I E R _ ` ` ` ` _ _ R E T W P L J 6 4 > , > 6 I T P L 6 4 4 6 6 L I I I L 5 6 4 > : X o @ & u s a C Z S G G G G S Z H a s AXAXAXAXAXAXAXAXAXAX",
"uXtX6X1X2X1XtXaXuX1X` R _ | 2XqXaXcXsXtX1X{ E L 4 > > 4 L R ]  . . .] R P I I I L 5 5 6 4 > , , , > > > 2 6 6 5 L I I P P P I I I L 5 6 6 6 6 c c 1 < < , , > 5 T _ R T I I I I P E R _ _ R E P L 6 2 , % = s j 0.i.g.U.!.~.[.[.Q.W.I.i.0.9.AXAXAXAXAXAXAXAXAXAX",
"uXtX7X2X| } 1X6X7X} _ E E ' | 2X7X6X7X2X| _ I 6 2 6 L E ] '.{.{.{.).Z./ Y I I I L 6 4 > > , , > > 4 4 6 6 6 6 6 5 5 6 6 4 4 2 > > > , ; : < z C m m k a x c L T ` | ` R P P T E _ ` ` [ ` _ R T I 5 z p k k m 0.d.I.!.|.XX+X+XOX.X^.Y.s.e.q.AXAXAXAXAXAXAXAXAXAX",
"6X5X2X{ _ _ { <X} ` T I I W E ) ` ` ` _ E P K 6 5 Y ^ _.'.{.|.^.!.U.N.D F V L V 6 4 , : : , > > 4 6 6 5 L I I I I c z 1 < = = = 1 1 1 1 i H m p.d.B.e.u.S ~ _ | 2X5X<X` E T R ` { | | | [ ' R W J 4 z k m w.e.d.n.W.[.XX+X@X+XXX|.Q.Y.d.0.9.AXAXAXAXAXAXAXAXAXAX",
"} | ` E I P E _ _ E I 5 6 6 6 6 5 5 5 6 6 5 L W ! _.).{.!.W.Y.m.d.y.0.j k a z < > : X o X : > > 4 6 L P E _ [ | ] ~ k d d k k m u.a.a.b.n.I.I.U.U.h.f.n.S._.8XrXyXyX6X} _ R _ [ | } | { ` R T K 2 , = s m e.d.I.E.Q.[.|..X.X|.[.!.U.f.t.0.9.AXAXAXAXAXAXAXAXAXAX",
"` ` R P 5 5 I E E T I 5 4 > : : : , > 4 J P ! ^ '.).Y.E.U.f.i.e.q.-.h h f d u = : o o o o : > 4 6 L P R ` <X5X6X8XZ.j.h h -.q.t.f.I.E.!.~.^.^.~.Q.W.Y.U.T.'._.9XfXsXyX1X` _ ` { | | | ` _ T L 6 < = s k q.t.g.Y.!.Q.^.[.[.^.Q.E.I.s.t.e.0.9.AXAXAXAXAXAXAXAXAXAX",
"` ` R P 5 5 L I P P I L 6 > X o o : 2 I R ^ '.T.T.I.f.i.y.e.0.-.h h f AXAXAXAXAXAX    o X , > 6 5 I R { 2X6XdXcXhX`.j.h f h 0.t.g.Y.Q.[..XXXXXXX.X[.!.Y.g.t.c.F.wXcXdX7X| ` ` ` ` { ` _ T L 4 l s d j 9.y.d.m.Y.!.Q.~.[.~.Q.E.I.i.0.q.AXAXAXAXAXAXAXAXAXAXAXAXAX",
"_ R E I 5 6 6 5 J I I I 6 > : X X : 1 B D v.N.n.s.t.w.q.-.9.-.h h f AXAXAXAXAXAXAXAXo o : > 6 L I E _ } 5XyXbXnXlX`.k.j h -.e.s.U.!.[..XXXOX+X@XOXoX[.!.h.r.y.S.wXlXdX7X} ` ` ` ` _ _ E L 4 , = s j q.e.d.g.I.Y.W.!.Q.!.W.U.n.i.0.-.h AXAXAXAXAXAXAXAXAXAXAXAXAX",
"P P I L 6 6 4 4 4 6 5 5 6 > , : : , z C u.y.u.q.m j f f d AXAXAXAXAXAXAXAXAXAXAXAXAXo X > 6 L I T E ` <X6XaXvXmXMX`.z.j h q.t.n.E.~.|.oXXX+X$X#X$XOX.X~.Y.f.s.F.wXgXdXrX2X| ` _ R E T I 6 > % u d 9.e.d.f.I.U.E.E.W.W.Y.I.s.t.0.-.h f AXAXAXAXAXAXAXAXAXAXAXAXAX",
"6 6 6 6 6 6 4 > > > 4 4 > > , : : : % i p a p p u u # # # AXAXAXAXAXAXAXAXAXAXAXAXAXo X > 6 K I T R ` <X6XaXnXNXMX0Xz.j h 0.i.n.U.!.[.XX+X$X#X#X#X@XXX|.!.I.n.).wXdXxXxXaX9X<X_ T I L 6 z u s d j 9.e.d.g.I.Y.E.E.E.U.I.s.t.0.-.h f f AXAXAXAXAXAXAXAXAXAXAXAXAX",
"> > 4 6 6 6 > > , , , , , , , : X X X X : : : : X o o     AXAXAXAXAXAXAXAXAXAXAXAXAXo X , 4 5 I P E ` <X7XaXnXNXMX0Xz.j h q.t.s.I.E.^.XX@X#X%X%X%X$X+XoX^.E.U.).`.qXfXvXnXsX1XR L 4 2 < u s f h -.q.e.d.g.I.U.Y.Y.U.m.f.t.0.9.h h f f AXAXAXAXAXAXAXAXAXAXAXAXAX",
"AXAXAX> > > , , : : X X X X X X X X o o o o o o o o AXAXAXAXAXAXAXAXAXAXAXAXAXAXAXAXo X , 2 6 L P E ` } 5XyXvXmXMX`.z.j h -.0.i.m.E.~..XXX@X$X%X#X$X+XoX[.!.Y.n.N.v.`.iXbXsX2XE 6 , : % = s f -.q.e.i.s.g.m.I.I.I.g.s.t.w.-.h f f AXAXAXAXAXAXAXAXAXAXAXAXAXAXAX",
"AXAXAXAX: : : : : X X o o o o o o o o o           AXAXAXAXAXAXAXAXAXAXAXAXAXAXAXAXAXo X , > 6 L I E _ } 1XtXcXmXbX`.z.j f h q.t.g.Y.!.[..XXX@X#X#X$X+XXX|.~.W.h.B.e.v.0XgXpX,XP 2 , % = s d f -.0.t.d.s.f.f.g.f.s.i.y.0.-.h f f AXAXAXAXAXAXAXAXAXAXAXAXAXAXAXAX",
"AXAXAXAXAXAXX X X X o o o o o o o o           AXAXAXAXAXAXAXAXAXAXAXAXAXAXAXAXAXAXAXo X , > 6 L I E _ | 2XtXxXnXlX`.z.j f h q.e.d.m.Y.!.[.oX+X$X#X$X+XXX.X|.~.Y.f.i.M.`.iXrX| I < u s d d d f -.0.y.t.t.t.i.d.i.t.0.-.h f f f f AXAXAXAXAXAXAXAXAXAXAXAXAXAXAXAX",
"AXAXAXAXAXAXAXAXo o o o o o               AXAXAXAXAXAXAXAXAXAXAXAXAXAXAXAXAXAXAXAXAXo o : > 4 5 I E _ { 2X6XsXvXgX`.j.f g h -.0.t.s.I.E.~.|.XX+X@X@X@X@XXXoX|.!.I.n.N.`.9X1X) 6 % u d f f f f h q.w.e.e.e.w.w.0.9.h f f f f f AXAXAXAXAXAXAXAXAXAXAXAXAXAXAXAXAX",
"AXAXAXAXAXAXAXAXAXAXAXAXAXAXAXAXAXAXAXAXAXAXAXAXAXAXAXAXAXAXAXAXAXAXAXAXAXAXAXAXAXAX  o o : > 6 L P R ` } 7XdXbXgX`.l.j f f h -.0.t.n.E.~.|.oXXX+X@X$X#X$X@XXX[.E.I.N._._.| T 4 % u d f f f f h -.9.q.q.9.-.h h f f f f f AXAXAXAXAXAXAXAXAXAXAXAXAXAXAXAXAXAXAX",
"AXAXAXAXAXAXAXAXAXAXAXAXAXAXAXAXAXAXAXAXAXAXAXAXAXAXAXAXAXAXAXAXAXAXAXAXAXAXAXAXAXAXAXo X : > 4 5 I E _ | 1XuXsXcXhXwX`.Z.j.j h -.e.s.Y.~.|.XX@X$X$X%X%X%X$X@XoX~.Y.T.'.G.} | | ] D k g g f f f h h h h h h f f f f f f f AXAXAXAXAXAXAXAXAXAXAXAXAXAXAXAXAXAXAX",
"AXAXAXAXAXAXAXAXAXAXAXAXAXAXAXAXAXAXAXAXAXAXAXAXAXAXAXAXAXAXAXAXAXAXAXAXAXAXAXAXAXAXAXAXAX, , > 6 L P E ` } 7XyXbXmXNXMXwXV.j f h 9.t.I.Q.|.XX$X%X%X%X%X%X%X$XXX[.W.T.Z.] } 4XuX9XH.z.k j f f f f f f f f f f f f f f f f AXAXAXAXAXAXAXAXAXAXAXAXAXAXAXAXAXAXAX",
"AXAXAXAXAXAXAXAXAXAXAXAXAXAXAXAXAXAXAXAXAXAXAXAXAXAXAXAXAXAXAXAXAXAXAXAXAXAXAXAXAXAXAXAXAXX : > 4 5 I T R ` 2X6XaXnXCXnXwXV.j g f j 0.d.U.!.|.XX@X#X#X#X#X$X+X.XQ.U.N./ ! _ { 2X4X8X0X`.Z.j.f d d g g g g g g g g g AXAXAXAXAXAXAXAXAXAXAXAXAXAXAXAXAXAXAXAXAXAX",
"AXAXAXAXAXAXAXAXAXAXAXAXAXAXAXAXAXAXAXAXAXAXAXAXAXAXAXAXAXAXAXAXAXAXAXAXAXAXAXAXAXAXAXAXAXo X , > 6 c I T _ | 1XtXxXnXbX0Xx.j g g f -.w.d.I.W.[..XXX+X+XOXXX|.Q.U.f.a.F U P E _ | 1XrX9X_.Z.A A j.k.k.z.z.z.k.j.j.k.AXAXAXAXAXAXAXAXAXAXAXAXAXAXAXAXAXAXAXAXAXAX",
"AXAXAXAXAXAXAXAXAXAXAXAXAXAXAXAXAXAXAXAXAXAXAXAXAXAXAXAXAXAXAXAXAXAXAXAXAXAXAXAXAXAXAXAXAXo X : > 4 6 L P E ` ,X7XaXcXgX`.l.f d g f h -.0.t.f.I.E.!.Q.Q.!.W.U.g.d.u.m x c 5 I E R _ ` { } G._.3X9XiXhXhXhXhXiXqX9X3X} ` AXAXAXAXAXAXAXAXAXAXAXAXAXAXAXAXAXAXAXAX",
"AXAXAXAXAXAXAXAXAXAXAXAXAXAXAXAXAXAXAXAXAXAXAXAXAXAXAXAXAXAXAXAXAXAXAXAXAXAXAXAXAXAXAXAXAXAXX : , > 4 5 I E _ { 2XrXaXfX9XF.l.j.k f f h h 9.0.r.d.f.g.h.f.s.i.e.q.h k u < 4 L T E E T E ) ` | 2X5X6XtXuXuXuXtXrX4X} _ E P 5 AXAXAXAXAXAXAXAXAXAXAXAXAXAXAXAXAXAX",
"AXAXAXAXAXAXAXAXAXAXAXAXAXAXAXAXAXAXAXAXAXAXAXAXAXAXAXAXAXAXAXAXAXAXAXAXAXAXAXAXAXAXAXAXAXAXAXAX: , > 6 I P E _ | 2X6XuXyXuX9XH.z.j f f f h -.q.w.y.i.i.t.e.0.9.h f s u , 4 L E R E P I L 5 5 L I I P T E E R R E T I L 6 6 4 4 AXAXAXAXAXAXAXAXAXAXAXAXAXAXAXAX",
"AXAXAXAXAXAXAXAXAXAXAXAXAXAXAXAXAXAXAXAXAXAXAXAXAXAXAXAXAXAXAXAXAXAXAXAXAXAXAXAXAXAXAXAXAXAXAXAXX : , 4 5 I T E _ { } 2X1X4X1X_.H.V.~ ~ V.Z.Z.F.'.`.`.`.`.F.Z.D Z x z z 6 5 I T T I L 6 4 > > 4 6 L T _ { } 2X1X1X1X2X<X| ` R E I AXAXAXAXAXAXAXAXAXAXAXAXAXAXAX",
"AXAXAXAXAXAXAXAXAXAXAXAXAXAXAXAXAXAXAXAXAXAXAXAXAXAXAXAXAXAXAXAXAXAXAXAXAXAXAXAXAXAXAXAXAXAXAXAXo X : > 4 6 L I P T E E R _ _  .| G._._.<X1X7XyXdXcXbXbXsXuX5X} ! I L L I I I L 5 6 4 4 > 4 6 5 P R | 1XtXaXcXbXvXnXnXbXsXtX1X{ E L 6 AXAXAXAXAXAXAXAXAXAXAXAXAX",
"AXAXAXAXAXAXAXAXAXAXAXAXAXAXAXAXAXAXAXAXAXAXAXAXAXAXAXAXAXAXAXAXAXAXAXAXAXAXAXAXAXAXAXAXAXAXAXAXAXAXX : , > > 4 6 6 6 6 I T E R R R R R _ ' [ } 2X5X6XrX6X4X<X` E I K J 5 5 6 4 > > > > 4 5 I R { 2X5X7X6XtXtXtXtXtXuXtX6X2X} ` E P L 6 > AXAXAXAXAXAXAXAXAXAXAX",
"AXAXAXAXAXAXAXAXAXAXAXAXAXAXAXAXAXAXAXAXAXAXAXAXAXAXAXAXAXAXAXAXAXAXAXAXAXAXAXAXAXAXAXAXAXAXAXAXAXAXAXo o o X X : : : > 6 L I I 5 6 6 5 I P E _ ` } 2X1X5X1X2X} ` R T I 5 6 > , : : : > 6 I E ` } 2X2X<X} | | | } <X2X2X2X<X} | { ` E I 6 4 4 AXAXAXAXAXAXAXAXAX",
"AXAXAXAXAXAXAXAXAXAXAXAXAXAXAXAXAXAXAXAXAXAXAXAXAXAXAXAXAXAXAXAXAXAXAXAXAXAXAXAXAXAXAXAXAXAXAXAXAXAXAXo o o o o o : , > > > > > > 2 6 L P _ | 1XrXaXxXbXvXvXvXbXsXuX1X[ T 5 4 , : , > 4 6 I P T E E P I I P R ` <X5XtXaXaXsXaXaXuX6X1X} ` E P L 6 AXAXAXAXAXAXAX",
"AXAXAXAXAXAXAXAXAXAXAXAXAXAXAXAXAXAXAXAXAXAXAXAXAXAXAXAXAXAXAXAXAXAXAXAXAXAXAXAXAXAXAXAXAXAXAXAXAXAXAXAX      o o X : , : X X : > 6 I E ` <X6XaXcXnXmXNXBXBXNXmXnXsXtX} R I 6 > , , > > 6 5 5 5 6 4 4 6 6 I E ` } 2X6XtXaXsXsXsXyXtX7X<X{ R P 5 6 4 AXAXAXAXAXAX",
"AXAXAXAXAXAXAXAXAXAXAXAXAXAXAXAXAXAXAXAXAXAXAXAXAXAXAXAXAXAXAXAXAXAXAXAXAXAXAXAXAXAXAXAXAXAXAXAXAXAXAXAXAXAXo o o o o o X : , > 6 I R } 5XtXaXsXbXvXnXnXnXnXbXcXaX6X2X` E I 6 > , , , > > > > > > > 6 I E R _ _ _ _ _ _ | 2X1X1X2X,X{ _ E I 5 6 4 > AXAXAXAXAXAX",
"AXAXAXAXAXAXAXAXAXAXAXAXAXAXAXAXAXAXAXAXAXAXAXAXAXAXAXAXAXAXAXAXAXAXAXAXAXAXAXAXAXAXAXAXAXAXAXAXAXAXAXAXAXAXo o o o X : > 4 5 I W R { 2X6XtXtXtXuXyXaXaXsXsXsXaXtX4X} _ W 5 4 , : : : : : X X : , > 6 I T T P I I P T R ` <X5X7X6X7X1X2X| ` E P I L L AXAXAXAXAX",
"AXAXAXAXAXAXAXAXAXAXAXAXAXAXAXAXAXAXAXAXAXAXAXAXAXAXAXAXAXAXAXAXAXAXAXAXAXAXAXAXAXAXAXAXAXAXAXAXAXAXAXAXAXAX  o o : > 6 L P E R ' { } <X2X2X<X} <X2X1X6XtXaXaXaXtX7X<X_ P 5 > : X o X o o o o X , > 4 6 6 6 4 > 6 I E ` <X7XtXyXaXsXsXaXyX6X2X{ _ T I I L AXAXAX",
"AXAXAXAXAXAXAXAXAXAXAXAXAXAXAXAXAXAXAXAXAXAXAXAXAXAXAXAXAXAXAXAXAXAXAXAXAXAXAXAXAXAXAXAXAXAXAXAXAXAXAXAXAXAX: : , > 6 5 I T E _ ` ` { ` ` ` { | <X7XyXsXbXnXnXnXvXsXuX1X` E L > : X o o o o o X , > > > > 2 6 5 I E _ { } } <X2X1X5X7X7X7X2X| _ E E T T T AXAXAX",
"AXAXAXAXAXAXAXAXAXAXAXAXAXAXAXAXAXAXAXAXAXAXAXAXAXAXAXAXAXAXAXAXAXAXAXAXAXAXAXAXAXAXAXAXAXAXAXAXAXAXAXAXAXAX> > 4 4 6 5 L P T E E R R E E _ { <X6XaXnXNXBXBXBXBXNXmXbXuX2X` T 6 > 7 o o o o X X : , , : , > 5 P E R _ _ R E E E _ ` { } } } ` R E E E E E AXAXAX",
"AXAXAXAXAXAXAXAXAXAXAXAXAXAXAXAXAXAXAXAXAXAXAXAXAXAXAXAXAXAXAXAXAXAXAXAXAXAXAXAXAXAXAXAXAXAXAXAXAXAXAXAXAXAX2 4 4 4 4 6 6 5 L 5 5 5 L P R { 1XtXsXvXmXNXNXNXmXmXnXbXaX7X} _ P 6 > X o o o o o o o o X : > 4 6 L I L 5 5 6 6 5 W ` <X5XtXuXuX6X1X} _ T I 5 AXAXAX",
"AXAXAXAXAXAXAXAXAXAXAXAXAXAXAXAXAXAXAXAXAXAXAXAXAXAXAXAXAXAXAXAXAXAXAXAXAXAXAXAXAXAXAXAXAXAXAXAXAXAXAXAXAXAX> > > > > > > 4 4 > > 2 5 E { 2XtXsXbXvXvXvXnXnXnXnXbXgXyX6X<X` E L 4 , X o o o o o o o o : > > 4 4 4 > , , > 6 I R } 7XtXaXaXaXuX6X2X_ P 5 6 AXAXAX",
"AXAXAXAXAXAXAXAXAXAXAXAXAXAXAXAXAXAXAXAXAXAXAXAXAXAXAXAXAXAXAXAXAXAXAXAXAXAXAXAXAXAXAXAXAXAXAXAXAXAXAXAXAXAX, , , : : : : , > > 4 5 E | 5XtXyXaXaXyXtXuXaXbXnXmXmXmXnXcXyX5X| R P L AXAX    o o     o X : , , : : X : > L R { <X1X5X7X5X1X2X} | ` E P L 5 6 6 6 ",
"AXAXAXAXAXAXAXAXAXAXAXAXAXAXAXAXAXAXAXAXAXAXAXAXAXAXAXAXAXAXAXAXAXAXAXAXAXAXAXAXAXAXAXAXAXAXAXAXAXAXAXAXAXAXX X X o o o X : > 6 L T _ } 1X6X6X6XtXtXtXaXcXnXmXNXNXmXvXsXtX1X{ E P AXAXAXAXAX        o o X X o o o X , 4 I R ` [ ` ` ` _ _ R E E P I 5 6 6 6 6 6 ",
"AXAXAXAXAXAXAXAXAXAXAXAXAXAXAXAXAXAXAXAXAXAXAXAXAXAXAXAXAXAXAXAXAXAXAXAXAXAXAXAXAXAXAXAXAXAXAXAXAXAXAXAXAXAXo o o     o : > 6 L T R _ ` { | } <X5XuXcXnXmXNXNXmXnXcXyX7X} ` T I 6 6 AXAXAXAXAXAX        o o     o , 4 6 5 5 5 6 6 4 6 6 L I I I L 6 > > > > > 4 ",
"AXAXAXAXAXAXAXAXAXAXAXAXAXAXAXAXAXAXAXAXAXAXAXAXAXAXAXAXAXAXAXAXAXAXAXAXAXAXAXAXAXAXAXAXAXAXAXAXAXAXAXAXAXAX      o o X , 4 5 I P E E E E _ { 2X7XuXsXcXcXsXaXaXuXtX5X} _ E I 6 6 4 AXAXAXAXAXAXAX            o o : > > > , : ; X : > 5 P E ` { ` E I 6 > > > , ",
"AXAXAXAXAXAXAXAXAXAXAXAXAXAXAXAXAXAXAXAXAXAXAXAXAXAXAXAXAXAXAXAXAXAXAXAXAXAXAXAXAXAXAXAXAXAXAXAXAXAXAXAXAXAXAX  o o X , > 4 6 5 5 L L I I E | 1X6X6X6X6X7X5X1X5X5X5X2X} ` E I L 6 6 AXAXAXAXAXAXAXAXAX    o o o o X : : X o o o X > 5 E { 2X6XuXtX1X` E L 4 , : ",
"AXAXAXAXAXAXAXAXAXAXAXAXAXAXAXAXAXAXAXAXAXAXAXAXAXAXAXAXAXAXAXAXAXAXAXAXAXAXAXAXAXAXAXAXAXAXAXAXAXAXAXAXAXAXAXAXAXo X : , > > 2 2 4 6 L P E ` | } } } <X5XtXaXsXcXbXsXyX6X2X{ _ E T AXAXAXAXAXAXAXAXAXAXAXo o o o o o o o o o : > 5 E } 7XyXcXbXbXaX5X| E 5 > , ",
"AXAXAXAXAXAXAXAXAXAXAXAXAXAXAXAXAXAXAXAXAXAXAXAXAXAXAXAXAXAXAXAXAXAXAXAXAXAXAXAXAXAXAXAXAXAXAXAXAXAXAXAXAXAXAXAXAXAXo o X : , , , > 6 I T E E R _ _ ` } 6XsXMXmXNXNXmXbXsXtX2X{ _ _ AXAXAXAXAXAXAXAXAXAXAXAX            o o X , 6 I _ 2XtXaXcXbXcXaX6X} _ I 4 > ",
"AXAXAXAXAXAXAXAXAXAXAXAXAXAXAXAXAXAXAXAXAXAXAXAXAXAXAXAXAXAXAXAXAXAXAXAXAXAXAXAXAXAXAXAXAXAXAXAXAXAXAXAXAXAXAXAXAXAXo o o o X , > 4 6 I P T P T E { 2X6XaXcXvXnXvXbXsXtX1X} ` _ E E AXAXAXAXAXAXAXAXAXAXAXAX                o : > 5 T ' } 2X5X5X1X<X[ R I 6 > , ",
"AXAXAXAXAXAXAXAXAXAXAXAXAXAXAXAXAXAXAXAXAXAXAXAXAXAXAXAXAXAXAXAXAXAXAXAXAXAXAXAXAXAXAXAXAXAXAXAXAXAXAXAXAXAXAXAXAXAX    o o X , > 6 5 L I I I P R } 5XtXuXuXtXtX6X1X;X` E T I I I L AXAXAXAXAXAXAXAXAXAXAXAXX X : , , > , X X : > 4 6 I T E R R E T I 5 4 , : 7 ",
"AXAXAXAXAXAXAXAXAXAXAXAXAXAXAXAXAXAXAXAXAXAXAXAXAXAXAXAXAXAXAXAXAXAXAXAXAXAXAXAXAXAXAXAXAXAXAXAXAXAXAXAXAXAXAXAXAXAX    o o X , > 6 6 6 6 L P E ` } 2X1X<X| ` R E P L 6 > > > > > > AXAXAXAXAXAXAXAXAXAXAXAX6 6 L P E E P 5 4 > > , > > 4 4 4 4 > > , : X X X X ",
"AXAXAXAXAXAXAXAXAXAXAXAXAXAXAXAXAXAXAXAXAXAXAXAXAXAXAXAXAXAXAXAXAXAXAXAXAXAXAXAXAXAXAXAXAXAXAXAXAXAXAXAXAXAXAXAXAXAXAXo o X : , > > 4 6 5 I T R _ ` ` ` _ E E E R R T L 4 , : : : : AXAXAXAXAXAXAXAXAXAXAX` _ _ ' ` { ` _ E P L 6 > , : : X X : : : : : : 7 % % ",
"AXAXAXAXAXAXAXAXAXAXAXAXAXAXAXAXAXAXAXAXAXAXAXAXAXAXAXAXAXAXAXAXAXAXAXAXAXAXAXAXAXAXAXAXAXAXAXAXAXAXAXAXAXAXAXAXAXAXAXAXAX, , , , , > 6 L P E R R E P I P E _ } 5X6X5X| E L 4 : X o AXAXAXAXAXAXI I T R ` } <X2X2X<X} | { ` _ E I 5 4 , : : , > 6 6 5 5 6 6 4 4 ",
"AXAXAXAXAXAXAXAXAXAXAXAXAXAXAXAXAXAXAXAXAXAXAXAXAXAXAXAXAXAXAXAXAXAXAXAXAXAXAXAXAXAXAXAXAXAXAXAXAXAXAXAXAXAXAXAXAXAXAXAXAX: : : : , > 5 I P P P I L 5 I E { 1XtXcXvXlXtX2X{ E 6 AXAXAXAXAXAXI T R _ ` | } 2X1X5X1X2X| ` ` _ _ E I 5 6 4 6 5 W ) [ } <X<X} [ ' _ ",
"AXAXAXAXAXAXAXAXAXAXAXAXAXAXAXAXAXAXAXAXAXAXAXAXAXAXAXAXAXAXAXAXAXAXAXAXAXAXAXAXAXAXAXAXAXAXAXAXAXAXAXAXAXAXAXAXAXAXAXAXAXo X X : > 4 L I I L 6 6 4 6 I ` 5XaXbXmXNXnXsXuX6XAXAXAXAXAXAXAXV I E ` } <X<X<X<X2X<X} { _ E E E T I 5 6 6 J I E ] _.8XiXgXlXfXqXqX9X",
"AXAXAXAXAXAXAXAXAXAXAXAXAXAXAXAXAXAXAXAXAXAXAXAXAXAXAXAXAXAXAXAXAXAXAXAXAXAXAXAXAXAXAXAXAXAXAXAXAXAXAXAXAXAXAXAXAXAXAXAXAXo X : , > 6 5 I L 6 > , > 6 P { 7XaXbXnXnXbXyX6X4XAXAXAXAX!.T.b.B L P E _ ` _ _ ) R E P I 5 6 6 6 6 4 > > 6 I T ! ~ l.Z.).}.=X=XkXkXkX",
"AXAXAXAXAXAXAXAXAXAXAXAXAXAXAXAXAXAXAXAXAXAXAXAXAXAXAXAXAXAXAXAXAXAXAXAXAXAXAXAXAXAXAXAXAXAXAXAXAXAXAXAXAXAXAXAXAXAXAXAXAXo o X , > 4 6 6 6 > : , 4 L E | 7XyXaXsXaXtX1X} [ ] AXAX(.U.n.b.B 5 5 L I I I L 5 6 4 > , : X X : : : : , 4 L W Y Z m 0.s.Y.^.XX@X%X%X",
"AXAXAXAXAXAXAXAXAXAXAXAXAXAXAXAXAXAXAXAXAXAXAXAXAXAXAXAXAXAXAXAXAXAXAXAXAXAXAXAXAXAXAXAXAXAXAXAXAXAXAXAXAXAXAXAXAXAXAXAXAXo o o X , > > > > > > 4 K T _ } 5X6X6X5X<X{ ) E Y G N.g.s.t.u.m z > > 2 > > > , : : ; X o o o o o o o o X , 4 5 c a k -.e.g.E.[.OX#X%X",
"AXAXAXAXAXAXAXAXAXAXAXAXAXAXAXAXAXAXAXAXAXAXAXAXAXAXAXAXAXAXAXAXAXAXAXAXAXAXAXAXAXAXAXAXAXAXAXAXAXAXAXAXAXAXAXAXAXAXAXAXAXo o o o X X : , > > 4 5 I E _ { } } | ` R T I L B S a.i.r.w.j s * , : : , : X o @ # # # # .         o o o : 2 6 z a d h 9.e.s.Y.|.+X@X",
"AXAXAXAXAXAXAXAXAXAXAXAXAXAXAXAXAXAXAXAXAXAXAXAXAXAXAXAXAXAXAXAXAXAXAXAXAXAXAXAXAXAXAXAXAXAXAXAXAXAXAXAXAXAXAXAXAXAXAXAXAX: : X o o o X : > 4 5 I P E E E T P I I L 5 5 6 z C m 0.w.AXAXAXAXAXAXAXAXAXAXAXAXd d d d AXAXAXAXAXAXAXAXAXAXAXAXAXAXAXf h 9.s.W.[.|.",
"AXAXAXAXAXAXAXAXAXAXAXAXAXAXAXAXAXAXAXAXAXAXAXAXAXAXAXAXAXAXAXAXAXAXAXAXAXAXAXAXAXAXAXAXAXAXAXAXAXAXAXAXAXAXAXAXAXAXAXL 6 > > : X o o X : > 6 L I I I I 5 4 > , , , , , , < p k AXAXAXAXAXAXAXAXAXAXAXAXAXAXAXAXAXAXAXAXAXAXAXAXAXAXAXAXAXAXAXAXAXAXAXh t.n.U.Y.",
"AXAXAXAXAXAXAXAXAXAXAXAXAXAXAXAXAXAXAXAXAXAXAXAXAXAXAXAXAXAXAXAXAXAXAXAXAXAXAXAXAXAXAXAXAXAXAXAXAXAXAXAXAXAXAXAXAXAXT P L 6 4 > : X o X : > 6 5 L L 6 6 > , : X X X X X X @ AXAXAXAXAXAXAXAXAXAXAXAXAXAXAXAXAXAXAXAXAXAXAXAXAXAXAXAXAXAXAXAXAXAXAXAXAXAXAXt.t.i.",
"AXAXAXAXAXAXAXAXAXAXAXAXAXAXAXAXAXAXAXAXAXAXAXAXAXAXAXAXAXAXAXAXAXAXAXAXAXAXAXAXAXAXAXAXAXAXAXAXAXAXAXAXAXAXAXAX_ ` ` _ E I 5 4 , X o o X : > > 4 4 > > 4 4 6 5 I I L 6 > > AXAXAXAXAXAXAXAXAXAXAXAXAXAXAXAXAXAXAXAXAXAXAXAXAXAXAXAXAXAXAXAXAXAXAXAXAXAXAXAXAXAX",
"AXAXAXAXAXAXAXAXAXAXAXAXAXAXAXAXAXAXAXAXAXAXAXAXAXAXAXAXAXAXAXAXAXAXAXAXAXAXAXAXAXAXAXAXAXAXAXAXAXAXAXAXAXAX_ ` ` } ,X} ` E I 6 > : X X X X : , > 2 6 5 I T R ` } <X} _ T P AXAXAXAXAXAXAXAXAXAXAXAXAXAXAXAXAXAXAXAXAXAXAXAXAXAXAXAXAXAXAXAXAXAXAXAXAXAXAXAXAXAX",
"AXAXAXAXAXAXAXAXAXAXAXAXAXAXAXAXAXAXAXAXAXAXAXAXAXAXAXAXAXAXAXAXAXAXAXAXAXAXAXAXAXAXAXAXAXAXAXAXAXAXAXAX_ ` { } } 2X2X2X| _ T L 6 > , : , , > 6 5 I E _ | <X5XtXdXxXdXtX5X1XAXAXAXAXAXAXAXAXAXAXAXAXAXAXAXAXAXAXAXAXAXAXAXAXAXAXAXAXAXAXAXAXAXAXAXAXAXAXAXAXAXAX",
"AXAXAXAXAXAXAXAXAXAXAXAXAXAXAXAXAXAXAXAXAXAXAXAXAXAXAXAXAXAXAXAXAXAXAXAXAXAXAXAXAXAXAXAXAXAXAXAXAXAXAX` _ _ ` { | } } } ` ) T I 5 6 > > > 4 5 I E ` } 1X6XuXaXgXlXlXlXlXlXkXAXAXAXAXAXAXAXAXAXAXAXAXAXAXAXAXAXAXAXAXAXAXAXAXAXAXAXAXAXAXAXAXAXAXAXAXAXAXAXAXAXAX",
"AXAXAXAXAXAXAXAXAXAXAXAXAXAXAXAXAXAXAXAXAXAXAXAXAXAXAXAXAXAXAXAXAXAXAXAXAXAXAXAXAXAXAXAXAX6 L T ` } } { _ R E E E E R R E P I L 5 6 4 > 4 6 I R { 2X7XtXdXxXgXwX`.).{. X*X&XAXAXAXAXAXAXAXAXAXAXAXAXAXAXAXAXAXAXAXAXAXAXAXAXAXAXAXAXAXAXAXAXAXAXAXAXAXAXAXAXAXAX",
"AXAXAXAXAXAXAXAXAXAXAXAXAXAXAXAXAXAXAXAXAXAXAXAXAXAXAXAXAXAXAXAXAXAXAXAXAXAXAXAXAXAXAXAXS C N B ! _ ' _ R E I 5 6 6 5 L 5 6 6 4 2 > > , > 4 L E _ | 2X5XrXuXqX`.S.s.R.!..XOX+XAXAXAXAXAXAXAXAXAXAXAXAXAXAXAXAXAXAXAXAXAXAXAXAXAXAXAXAXAXAXAXAXAXAXAXAXAXAXAXAXAX",
"AXAXAXAXAXAXAXAXAXAXAXAXAXAXAXAXAXAXAXAXAXAXAXAXAXAXAXAXAXAXAXAXAXAXAXAXAXAXAXAXAXAXg.f.i.w.m m N I I P P I 6 > > , , , , , , : 7 X X o X : > 6 L P E _ ` | | ^ k.u.r.g.Y.~.oX@X#XAXAXAXAXAXAXAXAXAXAXAXAXAXAXAXAXAXAXAXAXAXAXAXAXAXAXAXAXAXAXAXAXAXAXAXAXAXAXAX",
"AXAXAXAXAXAXAXAXAXAXAXAXAXAXAXAXAXAXAXAXAXAXAXAXAXAXAXAXAXAXAXAXAXAXAXAXAXAXAXAXg.s.i.y.w.q.h d u , > 4 6 4 > : X o o o o o o o o o o o o o X , > 4 6 5 I W T F k j 9.0.i.I.Q..XOX+XAXAXAXAXAXAXAXAXAXAXAXAXAXAXAXAXAXAXAXAXAXAXAXAXAXAXAXAXAXAXAXAXAXAXAXAXAXAX",
"AXAXAXAXAXAXAXAXAXAXAXAXAXAXAXAXAXAXAXAXAXAXAXAXAXAXAXAXAXAXAXAXAXAXAXAXAXAXg.g.s.i.e.9.-.h d s # o o ; , , : X o o o                     o o o X : , > 4 4 c x k f h h 9.i.I.!.~.[.AXAXAXAXAXAXAXAXAXAXAXAXAXAXAXAXAXAXAXAXAXAXAXAXAXAXAXAXAXAXAXAXAXAXAXAXAXAX",
"AXAXAXAXAXAXAXAXAXAXAXAXAXAXAXAXAXAXAXAXAXAXAXAXAXAXAXAXAXAXAXAXAXAXAXAXAXAXe.e.e.e.AXAXAXAXAXAXAXAXAXAXAXAXAXAXAXAXAXAXAXAXAXAXAXAXAXAXAXAXAXAXAXAXAXAXu s s d d AXAXAXAXAXs.n.n.n.AXAXAXAXAXAXAXAXAXAXAXAXAXAXAXAXAXAXAXAXAXAXAXAXAXAXAXAXAXAXAXAXAXAXAXAXAXAX",
"AXAXAXAXAXAXAXAXAXAXAXAXAXAXAXAXAXAXAXAXAXAXAXAXAXAXAXAXAXAXAXAXAXAXAXAXAXAX9.9.9.9.AXAXAXAXAXAXAXAXAXAXAXAXAXAXAXAXAXAXAXAXAXAXAXAXAXAXAXAXAXAXAXAXAXAXAXf f f AXAXAXAXAXAXt.t.t.t.AXAXAXAXAXAXAXAXAXAXAXAXAXAXAXAXAXAXAXAXAXAXAXAXAXAXAXAXAXAXAXAXAXAXAXAXAXAX"
};
