/* XPM */
static const char *bos2a1[] = {
/* columns rows colors chars-per-pixel */
"128 128 240 2 ",
"   c #080808",
".  c #151515",
"X  c #1C1C1C",
"o  c #191716",
"O  c #0D0F11",
"+  c #2D1B0C",
"@  c #24180C",
"#  c #321E0D",
"$  c #3C1B0C",
"%  c #261D16",
"&  c #351B16",
"*  c #15280D",
"=  c #1B2718",
"-  c #1B3812",
";  c #17320E",
":  c #36210E",
">  c #2C241B",
",  c #27231A",
"<  c #352313",
"1  c #3A2513",
"2  c #3D2A15",
"3  c #38291B",
"4  c #2A341F",
"5  c #1D1E20",
"6  c #1F2122",
"7  c #242424",
"8  c #2C2925",
"9  c #2C2C2C",
"0  c #282726",
"q  c #332B23",
"w  c #382B25",
"e  c #293824",
"r  c #39322A",
"t  c #2F3031",
"y  c #343434",
"u  c #3C3C3C",
"i  c #373737",
"p  c #2E2F30",
"a  c #5A0505",
"s  c #4C130E",
"d  c #670505",
"f  c #780404",
"g  c #771818",
"h  c #6E1615",
"j  c #422C16",
"k  c #422D19",
"l  c #4D2B15",
"z  c #45321B",
"x  c #4B351C",
"c  c #4E391D",
"v  c #483114",
"b  c #533B1E",
"n  c #573618",
"m  c #542A0D",
"M  c #682B06",
"N  c #742C01",
"B  c #762F03",
"V  c #6A340C",
"C  c #7B3302",
"Z  c #783707",
"A  c #653813",
"S  c #743D17",
"D  c #473727",
"F  c #553D21",
"G  c #5A3E21",
"H  c #553B29",
"J  c #453C38",
"K  c #562D2D",
"L  c #6A3430",
"P  c #1E4215",
"I  c #234B18",
"U  c #28551D",
"Y  c #2E4929",
"T  c #336C27",
"R  c #38762B",
"E  c #326A27",
"W  c #774717",
"Q  c #714213",
"!  c #5D4122",
"~  c #5A452B",
"^  c #49433A",
"/  c #574737",
"(  c #554B32",
")  c #644425",
"_  c #694626",
"`  c #6A4827",
"'  c #6D4A29",
"]  c #694528",
"[  c #734D2B",
"{  c #774D29",
"}  c #7B522E",
"|  c #79522A",
" . c #785436",
".. c #6A5037",
"X. c #6C582F",
"o. c #3C3F41",
"O. c #3E4142",
"+. c #434344",
"@. c #4B4C4C",
"#. c #484846",
"$. c #554B47",
"%. c #59524C",
"&. c #535454",
"*. c #5B5B5B",
"=. c #585757",
"-. c #4D5051",
";. c #665947",
":. c #645B57",
">. c #73534C",
",. c #736753",
"<. c #636464",
"1. c #6B6B6B",
"2. c #6A6866",
"3. c #766A68",
"4. c #737373",
"5. c #7C7C7C",
"6. c #787777",
"7. c #71706F",
"8. c #5E5F61",
"9. c #890101",
"0. c #980303",
"q. c #8D1918",
"w. c #AC0101",
"e. c #A30202",
"r. c #B60000",
"t. c #B81616",
"y. c #823B04",
"u. c #813F12",
"i. c #913131",
"p. c #B03131",
"a. c #C60101",
"s. c #D70101",
"d. c #CD1111",
"f. c #E80101",
"g. c #FD0000",
"h. c #F30000",
"j. c #E81616",
"k. c #CF2D2D",
"l. c #8D4B0B",
"z. c #874408",
"x. c #95540E",
"c. c #865619",
"v. c #9B5C13",
"b. c #945713",
"n. c #8B4C10",
"m. c #9B6317",
"M. c #A46917",
"N. c #AB741D",
"B. c #B27B1C",
"V. c #825531",
"C. c #8B5B35",
"Z. c #875936",
"A. c #8C5A2D",
"S. c #9B653C",
"D. c #97623A",
"F. c #92702F",
"G. c #AB7A23",
"H. c #B17F22",
"J. c #A2693F",
"K. c #A3722D",
"L. c #A25F12",
"P. c #8A5050",
"I. c #AC5252",
"U. c #90714D",
"Y. c #A76D42",
"T. c #B57649",
"R. c #AE734E",
"E. c #847C7A",
"W. c #916D6D",
"Q. c #B67371",
"!. c #CC6861",
"~. c #3E8432",
"^. c #418B35",
"/. c #47963A",
"(. c #4AA13E",
"). c #4DA641",
"_. c #56B84B",
"`. c #51AB45",
"'. c #5CC451",
"]. c #64D65B",
"[. c #B78726",
"{. c #BC922C",
"}. c #B48F35",
"|. c #BEA33B",
" X c #C2982D",
".X c #C49C31",
"XX c #CBA738",
"oX c #D4B43C",
"OX c #AD9353",
"+X c #928679",
"@X c #A9916F",
"#X c #AB9953",
"$X c #CC8759",
"%X c #D6B942",
"&X c #CAAF48",
"*X c #D99767",
"=X c #DDC54A",
"-X c #DDC953",
";X c #E3CC4C",
":X c #E9D857",
">X c #7E7F81",
",X c #807F80",
"<X c #7E8282",
"1X c #838383",
"2X c #8B8B8B",
"3X c #898685",
"4X c #968988",
"5X c #939393",
"6X c #9B9B9B",
"7X c #959899",
"8X c #90918F",
"9X c #A69998",
"0X c #A8928D",
"qX c #B5A897",
"wX c #9DA3A3",
"eX c #A3A3A3",
"rX c #ACACAC",
"tX c #A6A9A9",
"yX c #B3B3B3",
"uX c #BBBBBB",
"iX c #B8B7B7",
"pX c #B2AFAD",
"aX c #9C9EA2",
"sX c #C5B9B4",
"dX c #C99F8F",
"fX c #CFC4A8",
"gX c #BCBEC1",
"hX c #BFC3C4",
"jX c #C3C3C4",
"kX c #CCCCCC",
"lX c #CAC8C4",
"zX c #D3D3D3",
"xX c #DBDBDB",
"cX c #D5D7D9",
"vX c #CFD1D4",
"bX c #E4E4E4",
"nX c #EBEBEB",
"mX c #F1F1F1",
"MX c None",
"NX c black",
/* pixels */
"MXMXMXMXMXMXMXMXMXMXMXMXMXMXMXMXMXMXMXMXMXMXMXMXMXMXMXMXMXMXMXMXMXMXMXMXMXMXMXMXMXMXh.h.g.g.g.h.h.h.MXMX7X5X7X6XeXeXeXrXpXyXuXuXjXjXjXjXjXuXuXuXyXyXrXeX6X7X7X5X5X5X5XMXMXMXg.g.g.g.g.g.g.g.h.h.h.MXMXMXMXMXMXMXMXMXMXMXMXMXMXMXMXMXMXMXMXMXMXMXMXMXMXMXMXMXMXMX",
"MXMXMXMXMXMXMXMXMXMXMXMXMXMXMXMXMXMXMXMXMXMXMXMXMXMXMXMXMXMXMXMXMXMXMXMXMXMXMXMXMXs.s.s.f.f.f.f.f.f.MXMX0X9XwX6X6X6X6XeXeXrXyXyXyXyXyXyXyXyXrXrXeXeX6X6X7X5X7X7X7X6X6X0XMXMXg.h.h.f.f.f.f.s.s.s.s.MXMXMXMXMXMXMXMXMXMXMXMXMXMXMXMXMXMXMXMXMXMXMXMXMXMXMXMXMXMXMX",
"MXMXMXMXMXMXMXMXMXMXMXMXMXMXMXMXMXMXMXMXMXMXMXMXMXMXMXMXMXMXMXMXMXMXMXMXMXMXMXa.a.r.w.w.r.a.s.s.s.s.s.k.Q.pXyXwX7X5X5X5X7X6XeXrXrXeX6X6X6X6X6X5X2X2X2X2X2X8X7X6XwXtX9X!.j.g.f.s.s.a.r.r.w.w.w.w.w.r.r.MXMXMXMXMXMXMXMXMXMXMXMXMXMXMXMXMXMXMXMXMXMXMXMXMXMXMXMXMX",
"MXMXMXMXMXMXMXMXMXMXMXMXMXMXMXMXMXMXMXMXMXMXMXMXMXMXMXMXMXMXMXMXMXMXMXMXMXMXMXp.p.p.I.p.q.0.e.r.a.a.a.k.Q.9XtX6X7X7X6X6XeXrXyXyXyXyXrXrXrXrXeX6X7X7X7X6X6X6X7X5X4XQ.!.k.j.f.s.a.r.e.0.q.i.i.i.i.i.i.q.q.MXMXMXMXMXMXMXMXMXMXMXMXMXMXMXMXMXMXMXMXMXMXMXMXMXMXMXMX",
"MXMXMXMXMXMXMXMXMXMXMXMXMXMXMXMXMXMXMXMXMXMXMXMXMXMXMXMXMXMXMXMXMXMXMXMXMXMXMX4X4X9XpX0XP.g f 9.e.r.r.t.I.4X7X7X6XeXyXuXlXkXzXzXzXzXkXkXkXkXjXyXyXrXrXyXuXpX6XE.I.k.j.f.s.a.r.e.0.9.q.P.4X9X9X4X3X3.>.i.0.0.MXMXMXMXMXMXMXMXMXMXMXMXMXMXMXMXMXMXMXMXMXMXMXMXMXMX",
"MXMXMXMXMXMXMXMXMXMXMXMXMXMXMXMXMXMXMXMXMXMXMXMXMXMXMXMXMXMXMXMXMXMXMXMXMXMX8XaXtXiXjXpXP.h d f 9.q.p.I.Q.9XtXtXrXuXlXkXzXcXbXbXbXbXbXbXxXcXkXlXuXyXyXuXuXiXeX2XW.I.p.t.w.e.9.9.q.P.W.0XrXyXpXtX7X1X3.P.i.P.W.MXMXMXMXMXMXMXMXMXMXMXMXMXMXMXMXMXMXMXMXMXMXMXMXMX",
"MXMXMXMXMXMXMXMXMXMXMXMXMXMXMXMXMXMX1.1.1.1.4.4.4.4.6.5.5.5.6.1.<.*.*.*.1.5.2XeXpXuXlXpXW.g d d f i.W.9XrXuXuXuXjXkXzXcXxXbXbXnXnXnXnXnXbXxXzXkXjXyXrXyXuXuXpXeX8XE.3.i.q.9.f h P.0XsXjXuXuXuXrX6X2XE.E.E.3X8X7X2X3X5.1.*.*.*.*.<.<.<.MXMXMXMXMXMXMXMXMXMXMXMXMX",
"MXMXMXMXMXMXMXMXMXMXMXMXMXMX<.4.1X2X2X2X8X5X7X7X5X2X2X2X3X5.6.4.1.<.:.<.1.5.2XeXyXuXyXeX4XP.L h f P.4XtXyXuXjXjXkXkXkXzXbXnXnXnXmXmXmXnXbXbXxXcXkXlXuXuXuXuXuXyXtX7XE.>.g g L P.E.tXuXuXuXuXuXyX6X3X5.1X2X8X5X2X3X5.4.1.<.1.1.4.4.4.6.5.6.<.*.MXMXMXMXMXMXMXMXMX",
"MXMXMXMXMXMXMXMXMXMXMXMXMX<.1.6.2X6XeXyXuXjXjXuXiXyXrXeX7X2X5.6.4.1.<.<.1.6.3X6XrXrXeX6X6X8XW.L g P.0XpXyXuXuXlXkXlXjXkXxXnXnXnXnXnXbXbXxXcXzXzXzXkXlXjXuXuXjXjXiXeX4X>.g g P.2X7X6XaXtXrXyXuXyX6X5.6.1X2X2X2X3X5.4.4.4.6.1X2X8X2X2X2X2X1X4.<.*.MXMXMXMXMXMXMXMX",
"MXMXMXMXMXMXMXMXMXMXMX<.1.4.5.2X6XrXjXzXcXxXxXcXzXlXuXyXeX6X2X5.4.1.<.8.<.<.4.1X5X6X6X6X7X5XE.3.>.W.9XyXuXuXjXlXkXlXjXkXcXbXnXbXxXkXjXuXuXuXuXuXuXjXlXkXkXkXlXuXpX6X3X,.L L :.6.<X1X2X7X6XeXeXeX5X1X5.1X2X1X5.4.4.6.5.2X5XeXrXyXyXyXrXrXeX2X5.1.<.*.MXMXMXMXMXMX",
"MXMXMXMXMXMXMXMXMXMX<.<.1.5.2X6XyXlXcXbXnXnXnXnXbXzXkXuXyXeX7X1X4.<.<.*.*.*.<.1.5.3X5X7X2X2X3X1X3X5XeXrXyXuXuXjXjXlXkXkXzXcXxXcXkXyXeX6XeXeXeXeXrXyXuXlXkXkXuXyXeX6X2X6.<.=.*.*.<.1.6.1X2X5X5X5X2X2X3X1X5.6.1.<.1.5.2X6XrXuXkXzXzXzXkXkXuXrX7X1X1.*.&.MXMXMXMXMX",
"MXMXMXMXMXMXMXMXMXMX1.1.4.1X5XrXlXcXbXnXmXmXnXnXbXxXkXuXyXeX7X3X4.<.*.*.*.<.<.1.1.5.2X5X2X>X1X2X7X7X7X6XeXrXrXrXyXjXkXzXzXkXkXlXuXeX6X7X6X6X6X6X6X6XeXrXrXrXeX6XeXeXeX8X5.2.*.&.*.<.4.6.5.5.5.1X2X2X2X1X4.1.<.<.4.1X7XrXgXzXxXbXnXbXbXcXkXuXrX7X5.1.*.@.+.MXMXMX",
"MXMXMXMXMXMXMXMXMXMX<.1.6.3X6XyXkXxXnXnXnXnXnXnXbXcXkXuXyXeX7X1X4.<.*.*.<.<.<.<.<.1.1X2X1X5.1X7XeX7X2X2X5X6X6XeXrXuXkXkXlXgXuXyXrXeX6X7X7X7X7X7X7X7X6X6XeXeX6X6XeXyXyXrX5X5.*.#.@.*.1.4.4.6.4.6.3X5X2X5.1.*.*.<.4.3X6XyXlXcXbXnXnXnXnXbXzXlXyX6X2X4.*.#.+.MXMXMX",
"MXMXMXMXMXMXMXMX+.#.&.<.6.2X6XyXkXcXbXnXnXbXbXcXzXkXlXuXyXeX5X1X4.<.*.*.*.<.<.*.&.*.1.6.6.5.3X6XrX6X2X1X2X7X6XeXrXuXjXuXyXrXrXrXrXrXeXeX6X5X5X7X6X6XeXrXyXyXrXrXyXgXjXuXeX2X<.+.#.*.<.1.1.1.1.4.1X5X2X6.*.&.&.*.4.2X6XyXjXzXxXbXbXbXxXzXkXuXrX6X2X5.<.#.u MXMXMX",
"MXMXMXMXMXMXMXMXO.+.&.<.4.2X6XyXlXzXcXxXxXcXzXkXkXlXuXyXrX6X2X5.4.<.*.*.*.<.*.&.&.*.<.1.4.5.2XeXrXeX6X7X7X6XeXrXrXyXyXrXeX6XeXeXeXeX6X6X6X6XeXrXyXuXuXyXyXrXeX6XeXyXuXuXrX2X<.+.+.&.<.<.<.<.<.1.5.2X3X1.*.&.&.*.4.2X6XrXuXlXkXzXzXzXkXlXuXyXeX6X2X5.*.+.u MXMXMX",
"MXMXMXMXMXMXMXMXu +.@.*.4.3X6XrXuXlXkXkXkXlXlXjXjXuXyXrXeX6X2X5.1.<.*.*.*.<.*.&.@.&.<.1.6.1X2X6XeXyXuXuXrXeXrXrXrXeX6X7X2X2X7XeXeX5X2X5XeXyXlXzXcXzXkXyX7X3X5.1X3X7XaXtXeX5X<.#.#.&.*.*.&.&.&.*.4.3X1X1.&.#.@.*.4.2X6XeXrXyXuXuXuXuXuXyXrXeX6X2X5.1.&.+.y MXMXMX",
"MXMXMXMXMXMXMXMXu u #.&.1.5.5XeXyXuXuXuXuXuXuXuXyXyXrX6X6X5X3X5.1.*.&.&.*.<.<.&.@.&.*.1.6.1X2X2X5XrXlXkXjXuXyXyXeX7X2X1X3X2X2X8X2X3X1X6XiXkXzXzXkXyX7X5.*.@.@.*.1.5.2X6XeX5X1.@.#.&.*.&.@.&.*.<.4.5.6.*.#.+.@.*.4.3X5X6X6XeXeXeXeXeXeXeX6X2X3X5.1.*.@.u y MXMXMX",
"MXMXMXMXMXMXMXMXy u +.#.*.4.3X7XeXrXrXrXyXyXyXyXrXrX6X7X5X2X5.4.<.*.@.@.*.1.<.&.#.@.&.<.6.3X1X6.6.7XuXkXzXkXjXrX6X3X5.5.3X2X3X5.6.5.2XrXzXbXzXuX6X1.+.9 . . X y @.1.3X7X6X2X1.@.#.&.*.&.@.&.<.6.5.5.1.&.+.+.&.*.1.5.3X2X2X2X2X2X2X2X2X2X1X6.1.<.&.@.+.y y MXMXMX",
"MXMXMXMXMXMXMXMXy y u +.&.1.5.2X7X6XeXeXrXrXrXrXeXeX6X5X2X5.4.<.*.&.#.@.<.6.4.*.@.#.#.&.6.2X5.*.&.4.eXuXzXzXjX6X3X5.6.5.1X2X5.1.4.2XrXlXcXcXuX7X1.u o       O 7 +.<.5.2X2X6.&.+.+.@.&.+.+.&.1.1X5.1.*.#.u +.#.&.<.1.6.5.5.5.5.5.6.4.4.1.<.<.*.&.#.+.u y y y u MX",
"MXMXMXMXMXMXMXMX9 y y +.@.*.1.5.3X2X7X6X6X6X6X6X6X6X5X2X5.4.<.&.@.#.@.*.4.1X5.<.&.+.u #.1.2X6.+.9 #.5.eXjXvXuX5X5.6.6.5.<X5.4.1.5.eXkXzXzXuX7X1.+.7         O X u <.5.5.1.*.+.y u +.+.u y @.6.2X5.<.&.+.u u +.@.&.<.<.1.1.1.1.<.<.*.&.&.&.@.@.+.u u y y y y u u ",
"MXMXMXMXMXMX7 7 7 7 9 u +.&.*.<.4.5.5.1X1X1X5.1X1X1X5.6.1.<.&.+.u #.*.4.3X5X2X1.&.u y o.1.3X1.y o 9 @.6.eXjXyX2X5.5.5.5.5.6.1.1.1XrXlXjXrX5X1.+.7 O     O . X 9 #.1.5.1.&.+.u u u +.+.u y &.5.7X3X<.&.+.u u +.+.@.&.&.*.*.*.*.&.&.@.#.#.+.+.+.u y y 9 9 y y u +.",
"MXMXMXMXMX7 7 7 X X 9 y u +.#.&.*.<.<.<.<.<.<.<.<.<.<.<.*.&.#.u u &.6.5X6X6X2X1.&.u 9 y *.5.1.y . . 7 @.3XrXrX5X1X3X2X2X5.6.4.6.3XeXyXrX2X1.#.7 .     O X 9 u #.<.6.5.<.@.+.+.+.+.+.+.u u &.3X6X2X1.&.+.u u u +.+.+.+.+.#.#.#.#.+.+.+.+.O.u u y y y y y y u +.+.",
"MXMXMXMXMX9 9 7 7 7 7 9 y u u +.#.#.#.@.@.@.@.&.&.&.&.&.#.+.u u #.1.6XyXyX6X3X<.#.y 7 9 &.6.<.y . . o u 1.7X6X5X2X7X6X6X5X2X1X5.1X7XeX6X1X<.u .     O o 9 #.<.5.1X6.1.4.4.1.<.&.&.#.+.i y &.5.7X5X1X1.@.y 9 y y u u u u u u u u u y y y y y y y y u +.@.@.+.u u ",
"MXMXMXMXMX9 9 9 9 9 9 9 9 y y y y y y y u u +.+.+.+.+.+.u u +.&.1.2XuXkXuX6X5.*.+.9 7 9 &.4.<.+.7 o X y *.1X5X7X6XeXrXyXrXeX5X5.5.3X2X3X4.*.y O   . 7 u &.4.5XeX6X5.4.1X6X7X1X1.*.#.u y y +.1.2X7X7X3X<.+.u y y y y y y y y y y y y 9 9 y y u u +.@.*.<.*.#.y y ",
"MXMXMXMXMX9 9 y u +.+.u u y 9 9 9 9 9 9 9 y y y y y y y y u @.4.7XyXkXkXrX2X1.@.u 9 7 y &.4.1.&.u 9 7 y *.5.5XeXyXuXlXlXlXyX6X5.1.4.4.1.*.+.7 O . y &.6.7XrXyXyXrX5X2XeXyXyXeX3X1.@.u 9 7 y &.6.6XyXyX6X5.<.@.u u y y y y y y y y y y y y +.&.<.1.4.4.1.*.+.9 7 ",
"MXMXMXMXMX7 7 y u #.@.@.#.+.+.u u u u y y y y y y y y u +.&.4.6XuXlXkXuX6X4.&.u y 7 7 y @.<.1.1.<.-.+.#.<.3X6XyXjXkXzXzXkXjXtX2X5.5.5.1.*.#.i 9 u *.5.6XyXuXyXeXeXeXrXyXlXuXrX2X1.@.y 7 X 9 +.<.5XuXkXjXrX7X5.1.<.*.*.&.&.&.@.@.@.@.#.#.&.*.1.6.6.6.1.*.@.y 7 o ",
"MXMXMXMXMXX X 7 y +.#.&.*.<.1.1.1.1.<.*.&.&.#.O.u u +.&.4.5XrXjXkXlXuXeX5.*.+.y 9 7 7 9 u &.1.3X2X1X1.4.3X6XrXuXkXzXzXkXjXuXyXyXyXrXeX2X6.<.<.1.6.2X6XrXyXrX5X1X2XrXuXlXjXyX6X5.<.+.9 7 X 7 y @.5.rXlXkXzXkXgXyXrXeX6X6X5X2X3X5.5.5.5.5.5.5.6.4.<.*.@.+.y 7 X o ",
"MXMXMXMXMXMXX 7 9 y u #.=.<.1.5.1X3X3X1X1X5.5.4.1.4.5.2XeXjXzXzXzXjXeX2X<.+.y 9 9 7 7 9 y +.<.2X6X2X6.5.5XrXuXkXkXkXlXyX6X5XeXyXjXuXyX6X1X4.6.5.3X2X7X7X5X2X1X5.2XrXuXuXuXeX2X1.&.u 9 7 X X 7 u *.3XeXyXjXkXkXkXlXuXyXrXeX7X2X3X5.6.6.6.4.1.<.&.#.u y 9 9 7 X o ",
"MXMXMXMXMXMXMXMX7 9 9 y u #.=.<.4.1X2X6XrXyXiXuXuXjXlXkXzXxXxXzXkXyX7X6.&.y 7 7 7 7 7 7 9 y &.1X7X5.*.<.2XyXkXkXkXuXrX2X<.&.4.6XyXuXyX6X1X4.1.4.4.6.4.1.1.1.1X5X6XeXeXtXeX5X4.&.+.y 7 6 X X 7 9 +.*.4.1X2X6XeXrXrXeX6X5X3X5.7.<.&.#.+.+.+.u y 9 7 7 7 7 7 7 MXMX",
"MXMXMXMXMXMXMXMX% , > 8 q y u #.&.<.4.1X5XeXyXuXlXkXzXzXzXkXlXuXeX8X4.*.u 0 X X 7 7 X X X 7 #.5.5X4.@.*.2XuXkXzXlXeX5.*.+.u <.5XrXrXrX6X1X4.1.<.<.<.<.1.1.5.2X7X6X6X7X2X5.1.&.u p 0 7 X o o X 7 9 u #.&.*.1.4.6.5.6.7.<.*.&.@.+.J i r r r r q > > > , 7 MXMXMXMX",
"MXMXMXMXMXMXMXMX+ # < < 3 8 9 9 y u +.@.*.1.1X5XeXrXyXyXrXeX7X3X6.<.@.u 9 7 o o X X X X o 7 +.6.2X1.#.&.2XjXzXzXuX3X&.u y +.1.5XeXeX6X2X5.4.1.<.*.<.<.6.2X5X2X2X2X2X1X1.@.u p 7 7 X X o o o X X 7 9 9 y y u J +.+.+.u u y y 9 r D H D D z x F c c x z MXMXMXMXMX",
"MXMXMXMXMXMXMXMX# : < 1 2 k D w q q 8 9 i +.-.*.<.1.6.5.6.4.<.*.@.u y 7 X o o o X 7 7 7 7 7 +.1.5.1.&.<.7XjXzXkXyX5.+.y +.*.5.7X6X2X5.4.1.1.1.1.4.4.6.5.3X2XE.6.1.<.*.+.9 7 X X o o o X = , , > > > q q w r D D D D D J ^ D D D / ....~ b G ) ) ) ! ! MXMXMXMXMX",
"MXMXMXMXMXMXMXMX< 1 2 j c ! ) G x 3 > , 7 7 0 9 9 y i u +.+.O.y 9 7 % o . . o 7 9 y u u y y +.<.4.1.<.6.wXjXkXlXrX5.&.@.<.5.2X5X2X5.1.<.<.1.6.3X2X3X5.5.5.4.<.*.#.u y 9 7 7 X X X X 7 7 7 8 3 z z x c c c G ! ) ! ! ~ .. . .' [ P.U.,...) ] [ [ ' ] ] MXMXMXMXMX",
"MXMXMXMXMXMXx z 2 2 z c ! [ } ] b z c D D 3 > % o o X 7 7 0 7 6 o . . . . o 7 u #.*.<.*.&.+.@.*.1.5.2X6XyXjXkXlXuX6X5.5.2X5X2X1X5.4.4.5.2X7X6X7X2XE.4.1.*.&.+.u y y y u u u y 9 y u u y 9 r D b ! ) ] ] ] [ V.Z.} } Z.Y.R.Y.C.C.R.Q.U. .) ` { } { [ [ MXMXMXMXMX",
"MXMXMXMXMXx x z z z b ) { Z.Z.{ ! ! ' } ' F k > % o o o X % % X o . . . o 7 y &.1.5.1X5.4.<.*.*.1.3XeXuXuXjXlXkXlXyXeX6X6X7X3X6.4.5.2X6XyXuXrX6X3X4.<.&.+.u y y y +.#.@.&.@.#.+.#.&.&.+.y r D ) [ } V.V.V.C.J.Y.S.D.Y.$X*X$XY.Y.Q.!.R.Z.) ` } } } [ [ MXMXMXMXMX",
"MXMXMXMXMXx x x x G [ C.D.C.Z.V.} } Z.C.} ! c x z k < # 3 z z 3 % % o o 7 9 +.<.5.3X2X2X2X3X6.*.*.5.eXyXjXlXkXkXkXlXuXrX7X3X5.4.5.7XrXuXuXyX6X3X4.<.&.u y y +.&.*.<.*.&.+.+.&.<.<.1.8.+.y w H ` V.C.D.D.D.J.T.T.Y.Y.T.$X*X$XT.R.!.*XT.Z.` ' } } [ ` ) MXMXMXMXMX",
"MXMXMXMXMXx c c G ) V.S.S.C.V.C.D.S.S.D.Z.' ) ` ' ) x k c ) ) c 1 % % % 7 y +.*.6.3X2X7XeXeX2X<.&.1.5XrXuXkXkXzXkXlXuXeX2X6.6.5.2XeXiXyXeX5X5.<.*.&.#.O.u +.*.4.6.1.*.&.@.&.1.5.5.7.*.+.0 > D ] V.D.S.D.D.J.T.T.Y.Y.T.*X*X$XT.T.$X$XT.Z.' [ } [ ) ! ! MXMXMXMXMX",
"MXMXMXMXMXx c G ` } Z.C.Z.} } D.T.T.Y.C.C.C.C.Z.V.[ ) G ) [ [ n < % % 7 0 p u &.<.6.2X6XrXrX7X7.*.<.5.7XyXlXkXkXlXyXeX2X6.1.1X6XeX6X5X1X4.<.-.+.u u +.*.4.1X3X5.1.#.+.*.5.2X7X5X5.<.#.t , > k G [ C.D.C.Z.D.Y.T.J.D.Y.$X*X$XY.Y.T.T.Y.V.' ` ' ] ! b c MXMXMXMXMX",
"MXMXMXMXMXz x ! [ } V.} { ' [ D.T.T.J.Z.C.S.Y.D.Z.} [ ` ' [ ) l # + % 7 0 9 y u -.<.1X7XrXyXeX3X1.<.1.5.6XuXlXlXuX6X1X4.1.4.3X6X6X3X1.*.#.+.u u +.#.*.1.3X2X5.1.*.#.&.6.eXyXrX7X5.*.^ 8 @ @ < x ) V.Z.} } Z.J.Y.D.V.D.T.$XT.S.D.D.D.Z.{ ] ] ] ) G c MXMXMXMXMXMX",
"MXMXMXMXMX2 z b ` [ [ ` ) ) [ C.Y.Y.D.V.C.J.Y.D.V.} } } ' G x 1 # + MXMX7 7 9 y +.*.6.2XeXyXrXeX2X4.*.<.3XeXyXyXrX3X<.*.1.5.1X1X6.*.#.u y u +.&.<.6.<X5.<.&.+.u &.4.5XrXuXuXeX2X4.&.^ 8 % @ + j G { } [ ` } D.D.Z.{ V.S.Y.S.Z.} } } [ ) ) ) ] ] MXMXMXMXMXMXMXMX",
"MXMXMXMXMX2 2 c ) ` ) ! ! ) [ Z.S.S.C.} C.J.Y.C.{ [ } V.] x 1 # # MXMXMXMX7 7 9 u @.<.5.7XrXrXrX6X5.=.&.1.2X6XeX6X4.&.&.<.6.1.*.@.u y 9 9 y +.&.*.1.1.*.+.u u #.1.7XyXuXuXrX5X6.<.@.i 0 @ @ + 1 c ] [ ] ) ' V.Z.{ ) ' V.C.V.[ ] ] ] ) ) ! ! ) ) MXMXMXMXMXMXMXMX",
"MXMXMXMXMX< 1 z G ! G b b ) [ Z.C.C.Z.V.C.S.S.Z.' ` { } G j # + MXMXMXMXMXMXMXy u +.&.1.1X7X6XeX7X5.*.@.*.1.5.2X3X<.#.+.&.*.&.+.y 9 9 9 y u u +.u u y 9 9 y *.5.6XrXuXyXeX2X6.<.@.u 9 , @ @ + # v G ) ) ) ` [ [ ) b G ' } ` G b ! ] ] ) ! G b c MXMXMXMXMXMXMXMX",
"MXMXMXMXMX< 1 j c b c x b ) [ } } } V.V.Z.C.Z.} [ ' [ ` c 1 + MXMXMXMXMXMXMXMX9 9 y +.&.<.6.1X2X3X4.*.&.@.&.*.1.<.&.u y u +.+.+.#.&.*.<.2.1.<.*.&.+.y 9 9 +.4.6XyXyXrX6X2X4.<.@.+.y 8 , @ @ + # j c G G G ! ) ] ! c b ) ] ! c x b G G G b c x MXMXMXMXMXMXMXMXMX",
"MXMXMXMXMX< 1 2 z x z z c ! ] ] ) ` } V.} [ [ } V.} ` b k : + MXMXMXMXMXMXMXMXX 7 9 y +.#.&.*.1.1.1.*.&.#.+.+.@.#.u 9 7 7 9 +.*.4.2X6XeXeX6X5X3X6.<.&.+.+.&.1XeXyXrX6X3X1.*.#.u y y 9 > + + + # 2 x x z z c G ! b c b ! ! G x z z z z z z z MXMXMXMXMXMXMXMXMXMX",
"MXMXMXMXMX< 1 2 j z k 2 x G ) ! G ! ' { ' ! G ' } [ G z 2 : MXMXMXMXMXMXMXMXMXMXX 7 9 y u u +.&.*.*.*.&.#.+.u +.u y 9 9 y u @.<.4.5.3X3X1X5.4.1.*.&.#.u u #.4.5X7X3X6.<.&.+.u y p p 8 < # + + # 1 k z k 2 z c b x k z c b x j 2 2 2 2 2 2 MXMXMXMXMXMXMXMXMXMXMX",
"MXMXMXMXMX< < 1 2 2 2 1 j b ! b c b ! ) G x z G ` ) x 1 # MXMXMXMXMXMXMXMXMXMXMXMXMX7 9 9 y u u +.#.&.&.#.+.u u u y y u @.*.1.4.6.4.1.1.<.*.@.+.+.u u y 9 u &.1.1.*.@.+.u y 9 9 0 MXMX+ + + + # 1 2 k 2 1 2 z x j 1 2 z x z 2 2 z z z D D D MXMXMXMXMXMXMXMXMXMX",
"MXMXMXMXMXMXMX: < < < < 2 z x z j k c b x 2 1 z b c 2 # $ a MXMXMXMXMXMXMXMXMXMXMXMXX 7 7 7 7 9 9 y y y y y y y u +.#.&.1.5.5X6XeXrXeXeX7X2X5.1.*.*.&.#.+.u +.#.+.u y 9 7 7 7 MXMXMXMXMX+ + + + : 1 1 < # 1 j k 2 1 1 z c H / $.%.:.:.2.2.1.7.MXMXMXMXMXMXMXMXMX",
"MXMXMXMXMXMXMXMXD 3 3 < 1 2 2 2 1 1 k z j : # 1 2 2 < $ s a a MXMXMXMXMXMXMXMXMXMXMXy y y y y y y y 9 9 9 9 y u +.@.&.<.5.5XeXuXlXkXkXkXuXrX6X3X5.4.1.*.&.+.u y y y y 9 7 7 MXMXMXMXMX> > > 3 3 D H H D D D D z 3 < 3 z ~ ;.1.5.<X1X3X3X+XE.3.3.MXMXMXMXMXMXMXMX",
"MXMXMXMXMXMX3X6.2.%.D < # : < < < < 1 2 1 # # # < s s d d d d MXMXMXMXMXMXMXMXMX*.1.6.5.3X1X5.6.1.*.@.+.+.+.#.&.*.&.@.*.1.5.5X6XeXrXrXeX6X5X3X5.4.1.<.*.&.#.u u +.@.&.@.+.+.@.&.+.7 X 0 r ^ =.2.+X4X5X4XE.2.$.J w 8 w J %.4.6XtXaX2XE.U.U.S.F.F.MXMXMXMXMXMXMXMX",
"MXMXMXMXMX5.5.1X1X6.:.D k w 3 3 3 < < < # + # 3 w l h 9.f d d a MXMXMXMXMXMXMX@.*.4.5XeXyXyXyXeX6X1X1.*.@.#.@.*.*.@.+.#.*.1.4.5.1X1X1X5.6.1.1.1.<.*.&.&.@.+.u u +.&.*.&.#.@.&.&.+.y 9 y +.=.4.3XeXyXuXpX6X5.*.u p 9 u &.6.6XuXuXeX+XU.K.G.B.[.[.MXMXMXMXMXMXMXMX",
"MXMXMXMXMX1.1.6.1X3X1X6.3.=.#.J r q < # + % 8 u @...q.9.9.f d l +.MXMXMXMX7 y +.&.<.5.5XeXrXyXrXeX7X1X1.#.y 9 y u u u +.#.&.*.*.<.<.2.<.*.*.*.&.&.&.@.+.+.u 9 7 9 y y y p y +.@.@.#.#.@.&.*.<.4.1X8X5X3X5.<.#.u y y &.2XyXhXgXpX@XOX}.&X%XXX.X XMXMXMXMXMXMXMXMX",
"MXMXMXMXMX*.<.1.5.1X3X3X6.<.@.u y 8 > > w J @.%.>.i.q.0.9.f a K J +.MXMX7 7 9 y +.@.*.1.5.3X2X2X2X1X4.*.+.9 7 9 y u +.&.*.<.1.4.6.5.1X5.5.6.1.<.*.*.&.#.u y 9 7 X X 7 > r ~ ( ;.,.1.6.6.6.4.1.1.1.1.1.<.&.+.u y u &.5.yXzXlXqX@XOX[. XoX%XXX{.[.MXMXMXMXMXMXMXMX",
"MXMXMX@.&.*.<.1.1.1.<.*.@.+.y y 9 0 8 y &.<X4XI.p.t.w.w.0.f a j r i u i 9 7 7 7 9 y y u u +.#.@.@.#.+.u y 9 y +.&.*.1.6.1X5X6XrXuXuXjXjXuXyXeX7X3X4.<.&.+.u y 9 7 5 , b c.K.G.}.#X0XtXrXrXeX5X1X1.*.-.#.u y 7 p =.3XtXgXlXqXOX}.{.{.[.[.N.M.v.x.MXMXMXMXMXMXMXMX",
"MXMXMX@.&.<.6.5.1X5.1.&.+.u y p p i #.*.<XwXqXI.t.r.r.w.0.f a & 8 9 9 9 7 X o X 7 7 7 7 7 7 7 7 7 7 7 0 9 y +.&.<.4.5.3X2X7XeXyXuXjXjXjXuXuXrXeX5X3X6.<.&.+.u y 7 5 > G m.B. XXX&XfXfXfXqXqXeX6X<X<.&.+.u p 7 u 4.rXiXqX@XR.K.M.N.B.G.F.V.W A A MXMXMXMXMXMXMXMX",
"MXMXMX#.*.6.5XeXrXeX2X1.*.#.+.u u &.6.7XtXrX0XI.t.r.r.e.9.d s & 7 7 7 X o . . o X X X o o . . . o o X 7 9 y #.*.1.6.5.5.5.5.3X2X5X5X2X2X2X2X2X2X2X2X1X4.*.@.u 9 7 7 8 n c.N. XoX-X:X-X&X}.OXqXpX6X5.<.&.#.u u &.2XuXpXU.c.u.l.l.l.l.V.>.:.^ q % MXMXMXMXMXMXMXMX",
"MXMXy +.*.1XeXuXkXjXeX1X1.*.&.@.&.1.7XiXsX0XI.k.d.r.w.0.f a s & 8 9 p p 9 7 X o o o o X 7 7 0 9 9 7 7 7 9 y u #.&.<.1.1.1.<.1.4.6.4.4.1.1.1.1.4.4.4.1.*.@.u 9 7 9 o.%.3.@XOX}.[.{.XXoXoXXX&X*X@X@XU.>.$.+.&.1.1XaXrX0XU.' { Z.U.Z. ...%.-.o.7 MXMXMXMXMXMXMXMXMX",
"7 7 9 u *.3XrXlXcXzXyX2X6.1.<.<.2.<XtXsXdXk.d.s.s.a.w.9.d a s w i +.@.@.+.y 9 7 X X 7 9 y +.#.#.#.u y 9 7 7 9 y u #.*.*.*.*.<.<.1.1.1.1.<.<.<.<.*.@.+.u y 9 7 7 u <.3XrXsXqXU.n.l.M.{.oX=X=X&X|.G.b.W H +.2.7XrXeX2X6.2.<.4.3X3XE.3.=.+.u y MXMXMXMXMXMXMXMXMXMX",
"9 9 y u -.4.2XrXuXuX6X5.4.1.1.1.2.5.wXyXQ.k.s.s.s.a.0.f h l K $.=.<.<.<.&.u y 9 9 y u #.&.*.*.*.&.+.u 9 7 7 9 u &.<.5.1X3X2X5X7X6X6X6X5X2X1X5.4.<.-.+.+.+.+.u y +.*.5.6XyXiXqX@XY.b.b.G..XXXXX XB.v.c...=.5.eXrX2X1.*.<.1.6.5.6.1.=.+.y 9 7 MXMXMXMXMXMXMXMXMXMX",
"y u u u +.=.1.1X5X5X5.1.<.1.4.1.8.2.1X4XQ.k.s.s.a.r.9.f K $.<.4.5.>X5.1.&.+.y u u @.<.1.4.4.1.<.*.@.u y 7 7 y &.1.3X6XrXyXuXjXkXkXkXjXuXyXrX7X3X4.<.&.*.1.1.<.*.*.*.1.5.5XrXjXlX0XC.Z z.v.N.[.{.B.M.A.U.4.1X5X2X1.&.@.*.<.<.*.&.+.u 9 7 X MXMXMXMXMXMXMXMXMXMXMX",
"u +.+.+.+.@.&.<.1.1.<.&.*.1.6.1.*.:.P.I.p.d.s.a.r.0.g K ;.4.3X7X6X7X1X1.&.+.u +.&.1.5.2X2X3X5.4.<.&.#.u 9 9 y @.<.5.2XeXrXuXgXlXkXkXlXuXyXeX2X4.1.4.5.2X6XeXeX6X7X5X2X1X5.3X6XrX9X+XU.A.z.l.b.m.v.x.A.U.3X1X7.<.&.#.#.&.&.&.#.u y 7 7 X MXMXMXMXMXMXMXMXMXMXMXMX",
"+.+.+.#.@.&.&.*.*.*.*.&.*.1.1.<.&.L q.w.r.a.a.r.0.q.L %.7.5XeXrXrX6X1X<.@.+.+.*.1.3X6XeXeX6X2X5.1.*.&.+.u y y +.&.<.5.2X6XeXrXyXyXuXuXrX6X2X6.<.1.1X6XrXjXkXzXzXkXjXrX5X6.1.7.5.8XwX5XU.S B C z.z.z.V.W.3X7.@.u u +.#.+.+.u y y 7 X o MXMXMXMXMXMXMXMXMXMXMXMXMX",
"y u +.#.&.<.1.6.5.5.5.6.1.<.*.&.@.L g 0.r.r.r.e.9.g L <.<XaXrXyXeX8X1.&.#.+.&.1.3X6XrXyXrX6X5X1X4.<.&.+.u u u u +.&.1.5.3X5X6X6XeXeXeX5X5.1.1.6.1X5XeXuXzXbXnXnXbXcXlXrX2X6.1.<.7.5.5.:./ G V Z W ..;.2.<.-.y 7 9 u u y 9 9 7 7 X MXMXMXMXMXMXMXMXMXMXMXMXMXMXMX",
"9 y u +.&.1.5.2X2X2X2X1X1.&.+.O.+.H g 0.e.e.0.9.f h >.5.7XrXyXrX7X5.*.#.#.&.1.3XeXyXuXuXyXeX5X3X6.<.&.#.+.u u u u #.&.<.4.5.3X2X5X2X2X1X6.4.5.2X7X5X6XrXjXzXcXxXxXzXkXyX6X2X7.*.*.*.=.-.#.H V V ] ;.*.-.+.y 7 X 7 9 9 7 7 X X o MXMXMXMXMXMXMXMXMXMXMXMXMXMXMXMX",
"MXMXy y +.*.6.5.1X5.4.<.&.u p p u K h 9.0.9.f d a L W.9XyXgXuX6X1X<.@.+.@.<.1XeXuXkXkXjXyXeX5X3X6.<.&.#.+.+.u y y u +.-.<.4.5.5.5.1.1.1X6XyXyXrX6X2X5.1X2X6XrXyXuXuXyXrXeX5X5.<.=.@.+.O.u H V B L $.-.o.9 7 X X X 7 X o . . MXMXMXMXMXMXMXMXMXMXMXMXMXMXMXMXMXMX",
"MXMXMX0 y +.=.*.*.*.-.+.y 0 , 7 9 w s d d d a s s >.4XiXlXjXrX2X2.-.+.+.=.6.7XuXzXcXzXlXyX6X2X1X4.<.&.#.+.+.u y 9 8 9 u @.*.<.1.<.&.*.5.yXkXlXrX7X5.<.*.<.1.6.5.3X2X2X5X2X3X6.<.&.u y y y D l m F J u 9 7 o o o 7 7 7 X . MXMXMXMXMXMXMXMXMXMXMXMXMXMXMXMXMXMXMX",
"MXMXMXX 7 9 p p 9 9 0 7 = = = = 0 8 q & & & w J :.E.rXlXjXyX7X1.@.u y +.<.2XrXlXcXcXzXjXrX7X3X6.1.*.@.+.+.u y 9 7 7 7 9 u +.@.&.@.+.@.4.eXuXrX5X5.<.&.#.+.+.+.#.@.&.*.<.<.<.*.&.+.y 9 0 9 0 q q q 8 0 X o . . X y +.@.MXMXMXMXMXMXMXMXMXMXMXMXMXMXMXMXMXMXMXMXMX",
"MXMXMXe e e Y Y Y Y Y Y Y - * = = = = = = = p -.6.6XgXzXjX9X5.&.i 9 y +.1.6XuXzXxXcXkXuXeX2X6.1.*.@.u y p 9 0 7 6 X o X 9 y i u u y u &.6.2X5.4.1.6.5.4.<.&.+.y 9 y y u +.+.+.+.u 9 7 X X X 6 6 X X o X 7 0 y +.*.1.6.MXMXMXMXMXMXMXMXMXMXMXMXMXMXMXMXMXMXMXMXMX",
"MXMXMXE T R ~.~.~.^././.~.U P - - ; * * = = y *.2XpXkXzXuX2X<.+.9 9 y -.5.rXkXcXcXzXjXrX5X5.<.*.#.u 9 7 X o o X X o . o 7 7 0 9 7 7 9 y u +.+.@.1.6XuXyX6X5.&.u 9 9 9 9 9 9 y y 9 7 X o . . o X o . o 7 y @.<.5.2X5X7XMXMXMXMXMXMXMXMXMXMXMXMXMXMXMXMXMXMXMXMXMX",
"MXMXMX~.^.(.`.).(.)._.'._.^.E U I - ; * = 9 +.1.6XuXkXkXtX5.=./ c D ^ *.8XjXcXxXzXlXyX6X1X1.*.#.u 9 5 % < 1 j j : $ $ # % X o o 7 y u u y 9 y u *.5XyXrX5X5.<.&.&.*.*.+.9 7 7 7 7 X o . . o 9 y 9 9 9 y u &.4.3X5X7X6X6XMXMXMXMXMXMXMXMXMXMXMXMXMXMXMXMXMXMXMXMX",
"MXMXMX^./._.'._.).`.'.].]._./.R U I - - e Y *.,XeXuXjXiX7X1.;.` W { ;.1.6XkXxXzXkXyXeX2X4.*.#.y 9 X o # m Z Z B N N M m # . O . 7 #.<.*.+.u y u @.4.3X5.2.<.1.5.2X6X5X1.u 7 X X X X o . . 0 +.&.&.@.+.u u @.<.5.1X2X5X7X7X6XMXMXMXMXMXMXMXMXMXMXMXMXMXMXMXMXMXMX",
"MXMXMX~./.`._._.).)._.].].'.`./.R U P - e #.<.3XeXyXyXeX+X>.{ c.v.A.;.2.7XgXkXlXyXeX2X6.*.+.p 6 X % j m Q l.l.z.y.C N M s . MXMXy *.1.<.&.#.u u u #.@.+.u #.1.3X7X6X2X<.u 7 7 7 7 7 7 9 y +.*.4.5.6.1.&.+.+.&.<.6.3X5X6X6XeXMXMXMXMXMXMXMXMXMXMXMXMXMXMXMXMXMXMX",
"MXMXMXT R /.`.)././.)._._.'._.).~.E I - e @.1.3X6XeXaX8XU.A.l.M.N.F.;.<.3XrXuXrX6X2X5.<.+.9 X o % m Z l.x.x.x.z.y.C N N MXMXMXMXMX1.1.<.*.&.#.+.u y 9 7 7 i *.1X3X5.1.&.u 9 9 y y 9 y u @.<.5.2X6X6X2X1.#.u o.@.<.1X5X6XeXeXMXMXMXMXMXMXMXMXMXMXMXMXMXMXMXMXMXMX",
"MXMXMXU E ~././.^.^./.(.`._._.`.^.T I - e #.<.5.7X7X2XE.U.A.v.B.[.F.;.=.6.6XeX7X1X4.<.#.9 X + j A c.m.M.v.l.z.y.C C MXMXMXMXMXMXMXMXMX@.+.u +.#.&.&.&.+.y y +.&.&.&.#.u y y u +.+.u +.@.<.6.2X6XrXyXeX5.&.+.y u &.4.3X6XeX6X2XMXMXMXMXMXMXMXMXMXMXMXMXMXMXMXMXMX",
"MXMXMXP U T ~.^.~.~.~.^./.`._.).^.T I - e Y &.7.1X3X6.2.>.A.M.[.{.F...#.8.5.1X6.2.*.#.i > + m W m.N.N.M.x.z.C B N MXMXMXMXMXMXMXMXMXMXMX7 9 u @.*.1.1.*.+.y y y y y y y u u +.#.+.+.+.&.1.5.5XeXyXuXrX3X<.+.y 9 +.*.6.2X6X7X2X3XMXMXMXMXMXMXMXMXMXMXMXMXMXMXMXMX",
"MXMXMXMXMXU E T R R R R ~././.^.R E I - 4 y +.*.1.<.=.$...c.M.B.[.F.~ 9 o.&.*.&.#.u 9 q v Q c.N.[.[.N.v.z.C N N MXMXMXMXMXMXMXMXMXMXMXMXMXMXy u +.&.&.@.o.u u +.u y y u +.+.u y y y u @.<.5.2XeXyXuXrX2X<.+.p 0 y +.*.5.5X7X5X2XMXMXMXMXMXMXMXMXMXMXMXMXMXMXMXMX",
"MXMXMXMXMXI I U U E T T T R R T U U P - = 9 y +.#.#.O.J ! c.v.M.M.c.v > 8 y i y 9 7 X > n b.N.[.[.N.v.l.Z N N MXMXMXMXMXMXMXMXMXMXMXMXMXMXMXMX9 y +.+.+.i u +.#.+.i y i O.J D r w 9 y +.*.4.2X6XrXyXeX>X*.^ r q q y #.1.1X2X2X2XMXMXMXMXMXMXMXMXMXMXMXMXMXMXMXMX",
"MXMXMXMXMX- - P I U U U U U U U I I - - = 7 9 9 y y y i F Q l.x.v.l.B m $ % 5 5 X X o > A b.M.v.x.l.y.C C MXMXMXMXMXMXMXMXMXMXMXMXMXMXMXMXMXMXMXMXMXMXy 9 p u +.O.i p 9 9 r ! W n w 9 O.*.1.5.2X6XeX8X1.@.H A A j 8 y =.4.5.5.5.MXMXMXMXMXMXMXMXMXMXMXMXMXMXMXMX",
"MXMXMXMXMXMX; - - P I I I I I I - - ; ; = 9 y i u +.#.%.;.C.S.Y.R.Y.S.C.>.$.+.O.u p 0 q b W n.z.C C N N MXMXMXMXMXMXMXMXMXMXMXMXMXMXMXMXMXMXMXMXMXMXMXMX7 9 D H H D D D D ! c.b.W 3 9 i @.*.1.4.5.1X4.-.i F W l.A j D $.<.1.1.1.MXMXMXMXMXMXMXMXMXMXMXMXMXMXMXMX",
"MXMXMXMXMXMXMXMX- - I I I P - ; * * * * e Y &.<.1.6.5.3X5XqXsXsXlXlXlXsXiXpXeX5X5.<.#.i r r l M N B MXMXMXMXMXMXMXMXMXMXMXMXMXMXMXMXMXMXMXMXMXMXMXMXMXMXMXMXM V V Z W c.m.m.m.b.Q 3 7 9 u +.#.@.=.*.-.y 0 c c.M.b.Q ) / &.*.*.<.MXMXMXMXMXMXMXMXMXMXMXMXMXMXMXMX",
"MXMXMXMXMXMXMXMXMX- I I I - ; * * * , e Y &.1.6.1X2X8X7XeXiXjXkXvXcXcXcXzXkXlXuXrX6X1X1.-.u r l m m MXMXMXMXMXMXMXMXMXMXMXMXMXMXMXMXMXMXMXMXMXMXMXMXMXMXMXMXMXN B C z.x.M.M.M.x.A < . o 7 7 9 9 y y r 3 1 A c.m.x.z.S ~ #.@.&.&.MXMXMXMXMXMXMXMXMXMXMXMXMXMXMXMX",
"MXMXMXMXMXMXMXMXMXMXMXMXMXMXMXMXMXMX#.-.*.1.6.5.5.5.1X3X2X6XeXrXrXyXyXyXyXyXuXuXjXlXgXrX1X*.+.i r w MXMXMXMXMXMXMXMXMXMXMXMXMXMXMXMXMXMXMXMXMXMXMXMXMXMXMXMXMXMXMXN C Z z.l.l.z.m + O O . . o o X 7 > l M C z.z.y.C V D u +.#.@.MXMXMXMXMXMXMXMXMXMXMXMXMXMXMXMX",
"MXMXMXMXMXMXMXMXMXMXMXMXMXMXMXMXMXMX&.&.*.<.1.1.<.*.*.&.<.1.4.4.4.4.4.4.6.5.3X7XeXyXuXuXeX2X1.-.u y MXMXMXMXMXMXMXMXMXMXMXMXMXMXMXMXMXMXMXMXMXMXMXMXMXMXMXMXMXMXMXMXN M m n n n j > 7 y +.@.&.*.=.&.%.;. .} [ _ S N M k r i +.+.MXMXMXMXMXMXMXMXMXMXMXMXMXMXMXMX",
"MXMXMXMXMXMXMXMXMXMXMXMXMXMXMXMXMXMX+.+.#.&.*.@.+.u y 9 y +.+.#.+.+.y y y u #.*.1.3X6XrXyXyX7X1.@.+.MXMXMXMXMXMXMXMXMXMXMXMXMXMXMXMXMXMXMXMXMXMXMXMXMXMXMXMXMXMXMXMXMXq 8 8 8 r i +.=.4.2XeXrXrXeX6X8X3X6.1.8.%.] V M j 8 p i u MXMXMXMXMXMXMXMXMXMXMXMXMXMXMXMX",
"MXMXMXMXMXMXMXMXMXMXMXMXMXMXMXMXMXMXy y u +.+.u y 9 y u #.*.1.1.4.1.*.&.#.+.+.u +.&.<.6.2X6X7X1X6.4.MXMXMXMXMXMXMXMXMXMXMXMXMXMXMXMXMXMXMXMXMXMXMXMXMXMXMXMXMXMXMXMXi i i +.&.2.5.2X6XeXrXyXyXyXrX6X5X3X5.4.7.2.:...H w 7 7 9 y MXMXMXMXMXMXMXMXMXMXMXMXMXMXMXMX",
"MXMXMXMXMXMXMXMXMXMXMXMXMXMXMXMXMXMX7 9 9 y y 9 9 y #.*.6.2X6XrXyXrXeX5X5.1.&.u 9 9 i +.*.1.5.3X2X2XMXMXMXMXMXMXMXMXMXMXMXMXMXMXMXMXMXMXMXMXMXMXMXMXMXMXMXMXMXMXMXu +.#.&.1.3XeXyXjXjXuXrXeXeX6X2X3X5.4.1.1.1.4.7.2.&.y 7 X 7 7 MXMXMXMXMXMXMXMXMXMXMXMXMXMXMXMX",
"MXMXMXMXMXMXMXMXMXMXMXMXMXMXMXMXMXMXX 7 7 7 9 y u @.<.5.7XrXuXkXkXkXlXuXrX7X5.<.@.u 9 9 u @.*.1.4.6.5.MXMXMXMXMXMXMXMXMXMXMXMXMXMXMXMXMXMXMXMXMXMXMXMXMXMXMXMXu +.+.&.1.1X5X6XeXeXeX6X2X3X5.5.6.1.<.*.&.#.#.&.&.*.*.&.u 9 7 X o MXMXMXMXMXMXMXMXMXMXMXMXMXMXMXMX",
"MXMXMXMXMXMXMXMXMXMXMXMXMXMXMXMXMXMXo X X 7 9 y +.*.5.5XrXuXkXcXxXbXbXcXkXuXeX2X4.&.u y 9 y u +.&.<.1.4.MXMXMXMXMXMXMXMXMXMXMXMXMXMXMXMXMXMXMXMXMXMXMXMXMXMXu u +.&.<.5.5X6X6X7X2X1X5.4.4.1.4.1.<.*.@.O.y y y u +.#.+.u y 7 o . MXMXMXMXMXMXMXMXMXMXMXMXMXMXMXMX",
"MXMXMXMXMXMXMXMXMXMXMXMXMXMXMXMXMXMXo X X 7 9 u #.<.5.5XeXyXlXzXbXnXnXbXcXkXuXrX7X5.<.@.u 9 9 9 u +.&.*.MXMXMXMXMXMXMXMXMXMXMXMXMXMXMXMXMXMXMXMXMXMXMXMX9 y u #.&.<.1.1.1.1.6.5.5.1X2X2X7X6X6X6X2X5.1.&.+.y p 9 p y y y 9 0 MXMXMXMXMXMXMXMXMXMXMXMXMXMXMXMXMXMX",
"MXMXMXMXMXMXMXMXMXMXMXMXMXMXMXMXMXMXo o X 7 9 u +.*.1.3X7XeXuXkXxXbXnXnXxXkXjXyXeX7X1X1.&.u 9 7 9 y u +.+.MXMXMXMXMXMXMXMXMXMXMXMXMXMXMXMXMXMXMXMXMXMXMX9 y u +.&.*.*.*.&.*.1.5.2X6XeXyXuXjXjXuXyX6X3X1.*.+.y 9 7 7 7 7 7 7 MXMXMXMXMXMXMXMXMXMXMXMXMXMXMXMXMXMX",
"MXMXMXMXMXMXMXMXMXMXMXMXMXMXMXMXMXMX. . o 7 9 y u @.*.1.1X5XeXiXlXzXxXxXzXlXuXyXrXeX6X2X6.*.#.y 0 7 9 y u #.MXMXMXMXMXMXMXMXMXMXMXMXMXMXMXMXMXMXMXMXMXMX9 9 y y y y u #.*.4.2XeXyXlXkXzXzXzXzXlXuXrX6X3X4.*.+.y 9 7 7 X X X MXMXMXMXMXMXMXMXMXMXMXMXMXMXMXMXMXMX",
"MXMXMXMXMXMXMXMXMXMXMXMXMXMXMXMXMXMXMX. o 7 7 9 y u @.*.1.5.2X6XrXyXjXjXuXuXpXeX6X6X7X2X1X1.*.+.9 7 7 7 y u u MXMXMXMXMXMXMXMXMXMXMXMXMXMXMXMXMXMXMXMX9 y y y 9 9 9 y #.<.5.6XyXlXzXxXxXcXzXkXuXyXeX6X2X5.<.#.y 9 7 X X o MXMXMXMXMXMXMXMXMXMXMXMXMXMXMXMXMXMXMX",
"MXMXMXMXMXMXMXMXMXMXMXMXMXMXMXMXMXMXMXMXMXX X 7 9 y u #.&.<.4.5.2X5X7X6X6X6X6X5X3X1X5.6.1.<.*.#.u 9 7 X 7 7 7 MXMXMXMXMXMXMXMXMXMXMXMXMXMXMXMXMXMX7 9 9 y y u u +.+.@.*.1.1X7XrXuXkXkXkXlXuXyXeX6X7X2X5.1.*.+.9 7 X X MXMXMXMXMXMXMXMXMXMXMXMXMXMXMXMXMXMXMXMXMX",
"MXMXMXMXMXMXMXMXMXMXMXMXMXMXMXMXMXMXMXMXMXMXX X 7 7 9 u +.@.*.<.<.1.4.6.5.5.5.4.1.<.*.*.&.&.@.+.u y 7 7 7 7 7 MXMXMXMXMXMXMXMXMXMXMXMXMXMXMXMXMXMX7 7 7 9 9 y u u +.-.*.<.4.1X5XeXrXyXyXrXeX6X8X2X1X5.1.<.#.y 7 7 X MXMXMXMXMXMXMXMXMXMXMXMXMXMXMXMXMXMXMXMXMXMX",
"MXMXMXMXMXMXMXMXMXMXMXMXMXMXMXMXMXMXMXMXMXMXMXX X X 7 7 y u +.+.#.@.&.&.&.&.&.@.#.+.+.+.u u u y y 9 9 9 y y y MXMXMXMXMXMXMXMXMXMXMXMXMXMXMXMXMXMXX X X X 7 7 9 y u +.#.@.&.<.4.5.2X5X5X5X2X1X5.6.4.1.*.@.u 9 X o MXMXMXMXMXMXMXMXMXMXMXMXMXMXMXMXMXMXMXMXMXMXMX",
"MXMXMXMXMXMXMXMXMXMXMXMXMXMXMXMXMXMXMXMXMXMXMXMX. o o X 7 9 9 y y y u u u u y y y y 9 9 9 9 9 7 7 7 7 7 9 9 y MXMXMXMXMXMXMXMXMXMXMXMXMXMXMXMXMXMX7 7 9 y u u y y y y y u u #.&.<.1.6.5.5.6.1.1.<.*.&.+.u y 7 MXMXMXMXMXMXMXMXMXMXMXMXMXMXMXMXMXMXMXMXMXMXMXMXMX",
"MXMXMXMXMXMXMXMXMXMXMXMXMXMXMXMXMXMXMXMXMXMXMXMX. . o o X X X 7 7 9 9 9 9 9 9 9 9 9 9 9 9 9 9 7 7 7 7 7 7 9 9 MXMXMXMXMXMXMXMXMXMXMXMXMXMXMXMXMXMX9 y +.&.*.&.@.+.y 9 9 9 9 y u +.&.*.*.<.<.*.&.@.#.u y 9 9 MXMXMXMXMXMXMXMXMXMXMXMXMXMXMXMXMXMXMXMXMXMXMXMXMXMX",
"MXMXMXMXMXMXMXMXMXMXMXMXMXMXMXMXMXMXMXMXMXMXMXMXMX. . . . o o X 7 7 X 7 7 7 9 y u #.&.<.1.1.1.*.&.@.+.u u u u MXMXMXMXMXMXMXMXMXMXMXMXMXMXMXMXMXMX9 9 u @.*.<.1.1.<.*.#.i 9 9 9 y i u +.#.#.+.u y 9 9 9 MXMXMXMXMXMXMXMXMXMXMXMXMXMXMXMXMXMXMXMXMXMXMXMXMXMXMXMX",
"MXMXMXMXMXMXMXMXMXMXMXMXMXMXMXMXMXMXMXMXMXMXMXMXMXMX. . . o X 7 9 9 9 y u +.@.&.<.6.2X7XeXrXeX5X1X4.<.*.@.#.+.MXMXMXMXMXMXMXMXMXMXMXMXMXMXMXMXMXMX9 9 y u @.<.5.2X2X2X4.&.+.y 9 9 9 9 y y y 9 7 7 X X MXMXMXMXMXMXMXMXMXMXMXMXMXMXMXMXMXMXMXMXMXMXMXMXMXMXMXMXMX",
"MXMXMXMXMXMXMXMXMXMXMXMXMXMXMXMXMXMXMXMXMXMXMXMXMXMXMXMXX 7 y +.&.<.4.5.2X7X6X6XeXeXrXrXrXrX6X2X5.1.*.@.+.u u MXMXMXMXMXMXMXMXMXMXMXMXMXMXMXMXMXMXy y y 9 u @.<.5.2X7X5X3X6.<.@.u 9 7 7 7 7 7 X X o MXMXMXMXMXMXMXMXMXMXMXMXMXMXMXMXMXMXMXMXMXMXMXMXMXMXMXMXMXMX",
"MXMXMXMXMXMXMXMXMXMXMXMXMXMXMXMXMXMXMXMXMXMXMXMXMXMXMXMXMX9 y @.1.3X6XrXuXlXkXlXjXuXrXeX6X5X1X4.<.&.+.u y y 9 MXMXMXMXMXMXMXMXMXMXMXMXMXMXMXMXMXMXu u y y y u +.*.6.2X6XeXeX2X6.*.+.y 9 7 X X o MXMXMXMXMXMXMXMXMXMXMXMXMXMXMXMXMXMXMXMXMXMXMXMXMXMXMXMXMXMXMXMX",
"MXMXMXMXMXMXMXMXMXMXMXMXMXMXMXMXMXMXMXMXMXMXMXMXMXMXMXMXMX7 9 u &.1.1X7XeXrXrXeX6X7X2X1X5.4.<.&.+.y 9 9 9 MXMXMXMXMXMXMXMXMXMXMXMXMXMXMXMXMXMXMXMX+.+.+.@.#.u y u &.1.3XeXrXrXeX2X1.&.u 9 7 7 MXMXMXMXMXMXMXMXMXMXMXMXMXMXMXMXMXMXMXMXMXMXMXMXMXMXMXMXMXMXMXMXMX",
"MXMXMXMXMXMXMXMXMXMXMXMXMXMXMXMXMXMXMXMXMXMXMXMXMXMXMXMXMXo 7 9 u #.<.4.5.3X1X5.6.4.1.<.*.&.@.@.#.+.y y MXMXMXMXMXMXMXMXMXMXMXMXMXMXMXMXMXMXMXMXMXu +.&.1.1.&.u u u @.1.2XeXrXtX7X5.<.#.y 9 MXMXMXMXMXMXMXMXMXMXMXMXMXMXMXMXMXMXMXMXMXMXMXMXMXMXMXMXMXMXMXMXMXMX",
"MXMXMXMXMXMXMXMXMXMXMXMXMXMXMXMXMXMXMXMXMXMXMXMXMXMXMXMXMXMXMXX 7 p u @.&.*.*.*.*.&.&.#.u u @.4.3X6.<.*.MXMXMXMXMXMXMXMXMXMXMXMXMXMXMXMXMXMXMXMXMX9 u *.5.2X1X1.&.+.u &.1.1X2X3X6.*.@.+.MXMXMXMXMXMXMXMXMXMXMXMXMXMXMXMXMXMXMXMXMXMXMXMXMXMXMXMXMXMXMXMXMXMXMXMX",
"MXMXMXMXMXMXMXMXMXMXMXMXMXMXMXMXMXMXMXMXMXMXMXMXMXMXMXMXMXMXMX7 7 7 9 y u u +.+.+.u u u +.@.1.6XrX6X5.1.MXMXMXMXMXMXMXMXMXMXMXMXMXMXMXMXMXMXMXMXMX9 y &.6.2X5X3X1.#.u u @.&.*.*.&.+.y MXMXMXMXMXMXMXMXMXMXMXMXMXMXMXMXMXMXMXMXMXMXMXMXMXMXMXMXMXMXMXMXMXMXMXMXMX",
"MXMXMXMXMXMXMXMXMXMXMXMXMXMXMXMXMXMXMXMXMXMXMXMXMXMXMXMXMXMXMXy y y 9 7 9 9 9 y y 9 9 u <.2XeXuXuX6X5.1.MXMXMXMXMXMXMXMXMXMXMXMXMXMXMXMXMXMXMXMXMXy u +.&.<.1X2X5.*.u y 9 9 y u y 7 7 MXMXMXMXMXMXMXMXMXMXMXMXMXMXMXMXMXMXMXMXMXMXMXMXMXMXMXMXMXMXMXMXMXMXMXMXMX",
"MXMXMXMXMXMXMXMXMXMXMXMXMXMXMXMXMXMXMXMXMXMXMXMXMXMXMXMXMXMXMX&.&.#.+.u 9 7 7 7 7 9 y &.3XyXlXlXuX7X6.<.MXMXMXMXMXMXMXMXMXMXMXMXMXMXMXMXMXMXMXMXMX9 y y u #.<.6.6.<.#.y X . X 7 X o . MXMXMXMXMXMXMXMXMXMXMXMXMXMXMXMXMXMXMXMXMXMXMXMXMXMXMXMXMXMXMXMXMXMXMXMXMX",
"MXMXMXMXMXMXMXMXMXMXMXMXMXMXMXMXMXMXMXMXMXMXMXMXMXMXMXMXMXMXMX1.1.1.1.*.+.9 o o 7 y &.6.eXkXzXuXeX1X<.&.MXMXMXMXMXMXMXMXMXMXMXMXMXMXMXMXMXMXMXMXMX9 9 9 9 y +.&.*.<.&.u X . . . . MXMXMXMXMXMXMXMXMXMXMXMXMXMXMXMXMXMXMXMXMXMXMXMXMXMXMXMXMXMXMXMXMXMXMXMXMXMXMX",
"MXMXMXMXMXMXMXMXMXMXMXMXMXMXMXMXMXMXMXMXMXMXMXMXMXMXMXMXMXMXMX*.*.1.5.5.<.#.y 7 7 u 1.2XyXkXlXrX5X4.&.#.MXMXMXMXMXMXMXMXMXMXMXMXMXMXMXMXMXMXMXMX&.@.+.u y y y u +.&.&.u 7 o X 7 9 y MXMXMXMXMXMXMXMXMXMXMXMXMXMXMXMXMXMXMXMXMXMXMXMXMXMXMXMXMXMXMXMXMXMXMXMXMXMX",
"MXMXMXMXMXMXMXMXMXMXMXMXMXMXMXMXMXMXMXMXMXMXMXMXMXMXMXMXMXMXMX+.+.*.4.1X5.1.&.u 9 #.6.7XrXyXrX7X5.*.+.u MXMXMXMXMXMXMXMXMXMXMXMXMXMXMXMXMXMXMX*.*.<.<.*.#.u y 9 9 u u y 0 7 9 y u u u MXMXMXMXMXMXMXMXMXMXMXMXMXMXMXMXMXMXMXMXMXMXMXMXMXMXMXMXMXMXMXMXMXMXMXMXMX",
"MXMXMXMXMXMXMXMXMXMXMXMXMXMXMXMXMXMXMXMXMXMXMXMXMXMXMXMXMXMXMXy y +.*.<.1.2.*.+.u &.4.3X5X5X2X5.<.&.+.y MXMXMXMXMXMXMXMXMXMXMXMXMXMXMXMXMX*.&.&.*.<.<.*.@.u y 9 7 9 9 7 7 7 9 y u +.@.&.<.<.8.MXMXMXMXMXMXMXMXMXMXMXMXMXMXMXMXMXMXMXMXMXMXMXMXMXMXMXMXMXMXMXMXMX",
"MXMXMXMXMXMXMXMXMXMXMXMXMXMXMXMXMXMXMXMXMXMXMXMXMXMXMXMXMXMXMX7 7 9 u +.#.@.@.+.+.@.*.<.1.1.<.*.&.+.u y MXMXMXMXMXMXMXMXMXMXMXMXMXMXMXMX*.*.&.@.&.*.<.*.@.+.u y y 9 9 7 7 7 9 y u #.&.*.*.*.*.*.&.MXMXMXMXMXMXMXMXMXMXMXMXMXMXMXMXMXMXMXMXMXMXMXMXMXMXMXMXMXMXMX",
"MXMXMXMXMXMXMXMXMXMXMXMXMXMXMXMXMXMXMXMXMXMXMXMXMXMXMXMXMXMXo X X 7 7 9 9 9 y 9 9 y u u u u u i y y 9 9 MXMXMXMXMXMXMXMXMXMXMXMXMXMXMXMX&.&.@.@.&.*.*.<.*.*.*.*.*.&.@.+.y 9 9 9 y +.#.@.&.&.-.@.+.u u +.+.@.&.&.MXMXMXMXMXMXMXMXMXMXMXMXMXMXMXMXMXMXMXMXMXMXMXMX",
"MXMXMXMXMXMXMXMXMXMXMXMXMXMXMXMXMXMXMXMXMXMXMXMXMXMXMXMXMX7 7 7 7 7 7 7 X X X X X 7 7 9 9 9 9 9 7 7 7 7 MXMXMXMXMXMXMXMXMXMXMXMXMXMXMXMX@.&.&.&.*.<.1.4.6.6.6.6.4.1.<.&.+.u i y i u u u u O.Y u u u +.@.&.*.*.*.*.MXMXMXMXMXMXMXMXMXMXMXMXMXMXMXMXMXMXMXMXMXMXMX",
"MXMXMXMXMXMXMXMXMXMXMXMXMXMXMXMXMXMXMXMXMXMXMXMXMXMXMX7 9 9 y y y y y y 9 7 X X 7 9 y u +.+.+.u y 9 7 X 7 9 MXMXMXMXMXMXMXMXMXMXMXMXu +.@.*.<.7.5.1X2X2X5X2X1X6.1.<.=.-.@.@.@.@.+.Y i y p 9 9 y y u @.<.5.5.4.<.*.#.o.i i MXMXMXMXMXMXMXMXMXMXMXMXMXMXMXMXMXMXMX",
"MXMXMXMXMXMXMXMXMXMXMXMXMXMXMXMXMXMXMXMXMXMXMXMXMXMXy y y u +.#.@.@.@.#.u y 9 9 y u @.&.*.<.*.&.+.y 9 9 y u +.MXMXMXMXMXMXMXMXMXMXD i u #.*.1.5.3X2X2X2X5X2X5.1.:.;.;.;.;.,.,.,.;.#.i p 9 0 7 7 9 u @.1.5.5.1.:.%./ / ( ( ;.MXMXMXMXMXMXMXMXMXMXMXMXMXMXMXMXMXMX",
"MXMXMXMXMXMXMXMXMXMXMXMXMXMXMXMXMXMXMXMXMXMXMXMX4.<.&.#.+.#.@.*.<.<.<.<.*.@.#.+.#.&.<.1.5.5.6.<.&.#.+.+.*.1.1.1.1.MXMXMXMXMXMXv.c.! i i O.@.<.5.5.1.<.<.1.<.*.-./ { A.F.}.}.|.#XU./ i y y 9 7 X 7 9 u @.*.=.@.^ ~ W c.F.}.|.-X:X:X:X:XMXMXMXMXMXMXMXMXMXMXMXMXMX",
"MXMXMXMXMXMXMXMXMXMXMXMXMXMXMXMXMXMXMXMXMXMXMXeX6X5X2X5.4.<.<.:.<.*.*.&.&.&.@.#.+.@.&.*.1.1.1.<.*.<.1.5.5X6X6X2X5.6.MXMXMXMXMXx.c.b r 9 y u @.*.*.&.#.#.@.#.O.u H W v.N.[.XXoX=X|.F...^ J y 9 7 7 7 9 y u u y r n Z l.M.[.XX%X=X;X;X;XMXMXMXMXMXMXMXMXMXMXMXMXMX",
"MXMXMXMXMXMXMXMXMXMXMXMXMXMXMXMXMXMXMXMXMXyXuXjXkXkXlXuXtX2X6.*.#.u y y y u u y 9 9 9 y y u +.&.<.1XeXuXkXkXlXyX6X5.<.&.MXMXMXl.Q n 8 7 7 7 7 9 p y u u i y 9 8 z A l.m.B. X%X;X-X&X#X,.$.o.u u 9 7 5 7 9 9 9 q l M C z.x.M.[. XXX%X%XXX.XMXMXMXMXMXMXMXMXMXMXMX",
"MXMXMXMXMXMXMXMXMXMXMXMXMXMXMXMXMXMXMXMX7.3X7XaXrXiXjXlXuXrX7X6.*.+.y 9 9 y y y 9 9 9 9 y u @.1.3XeXuXkXlXgXyXeX8X6.8.&.MXMXMXC Z m > 5 X o . o X 7 9 9 0 7 6 , 1 M y.l.v.G.XX=X;X;X&XF.^ y y y 9 X X X 7 7 7 q l M N C Z l.b.M.G.[.{.{.{.{.MXMXMXMXMXMXMXMXMXMX",
"MXMXMXMXMXMXMXMXMXMXMXMXMXMXMXMXMXMX#.#.&.*.<.<.<.6.2XeXyXuXyX6X5.<.#.u i u u y y u u +.#.&.4.7XyXuXuXyX6X2X1X5.4.2.:.*.MXMXMXN N MXMXMXMXMXo o X X X X X X X X < m N y.z.v.H..XoX%X|.A.k % % % X X o X X X MXMXMXMXMXN N Z z.l.l.x.m.N.H.[.MXMXMXMXMXMXMXMXMXMX",
"MXMXMXMXMXMXMXMXMXMXMXMXMXMXMXMXMXMX . .U.U.OXU.U.,.,.1.>X7X6X5X1X4.<.&.+.y y 9 y y +.#.&.<.5.wXyXrX7X2X+XOXOX#X#XOXU.U.MXMXMXMXMXMXMXMXMXMXMXMXo o o o o o o X # m N C y.x.m.N.[. X{.F.v @ . o o o o o o MXMXMXMXMXMXMXN C y.y.y.y.x.m.M.M.MXMXMXMXMXMXMXMXMXMX",
"MXMXMXMXMXMXMXMXMXMXMXMXMXMXMXMXMXMX|.|.XXXX&XXX|.F.~ i +.<.4.6.6.4.1.*.#.y 7 7 7 9 u +.&.<.5.8X7X1X2.,.U.}.oX=X-X%XXX|.MXMXMXMXMXMXMXMXMXMXMXMXMXMXMXMXMXMXMXMXMXMXMXMXMXMXz.l.v.N.H.G.MXMXMXMXMXMXMXMXMXMXMXMXMXMXMXMXMXMXMXMXMXMXMXv.v.v.MXMXMXMXMXMXMXMXMXMX",
"MXMXMXMXMXMXMXMXMXMXMXMXMXMXMXMXMXXXoX=X%XoXXX X[.m.W n D J #.&.*.&.@.+.y 7 X o o X 7 9 u @.<.7.4.,. .| m.G..X%X;X;X=XoX.XH.MXMXMXMXMXMXMXMXMXMXMXMXMXMXMXMXMXMXMXMXMXMXMXMXMXMXx.m.M.MXMXMXMXMXMXMXMXMXMXMXMXMXMXMXMXMXMXMXMXMXMXMXMXMXMXMXMXMXMXMXMXMXMXMXMXMX",
"MXMXMXMXMXMXMXMXMXMXMXMXMXMXMXMX.XXX%X;X%XXX{.G.M.x.l.Q n 3 9 y u u y 7 7 X o . . O O . 7 y +.@.%...W z.l.v.G..X%X=X-X%X.X[.B.MXMXMXMXMXMXMXMXMXMXMXMXMXMXMXMXMXMXMXMXMXMXMXMXMXMXv.v.MXMXMXMXMXMXMXMXMXMXMXMXMXMXMXMXMXMXMXMXMXMXMXMXMXMXMXMXMXMXMXMXMXMXMXMXMX",
"MXMXMXMXMXMXMXMXMXMXMXMXMXMXMXMXoXXXXXXX{.H.N.M.v.x.z.C m > X 7 9 9 9 7 7 MXMXMXMXMXMXMXX 7 0 9 r x V y.y.l.v.N.[.{..X.X{.{.{.MXMXMXMXMXMXMXMXMXMXMXMXMXMXMXMXMXMXMXMXMXMXMXMXMXMXMXMXMXMXMXMXMXMXMXMXMXMXMXMXMXMXMXMXMXMXMXMXMXMXMXMXMXMXMXMXMXMXMXMXMXMXMXMXMX",
"MXMXMXMXMXMXMXMXMXMXMXMXMXMXMXMX%XXX XH.M.m.v.v.v.x.y.N m % X 5 7 7 7 7 MXMXMXMXMXMXMXMXMXo X X % j M B y.z.l.x.v.M.N.[.{. X.XMXMXMXMXMXMXMXMXMXMXMXMXMXMXMXMXMXMXMXMXMXMXMXMXMXMXMXMXMXMXMXMXMXMXMXMXMXMXMXMXMXMXMXMXMXMXMXMXMXMXMXMXMXMXMXMXMXMXMXMXMXMXMXMXMX",
"MXMXMXMXMXMXMXMXMXMXMXMXMXMXMXMXXXXX XMXMXMXMXMXMXMXMXMXMXMXMXMXMXMXMXMXMXMXMXMXMXMXMXMXMXMXMXMXMXMXMXMXMXMXMXMXMXMXMXMX X X.XMXMXMXMXMXMXMXMXMXMXMXMXMXMXMXMXMXMXMXMXMXMXMXMXMXMXMXMXMXMXMXMXMXMXMXMXMXMXMXMXMXMXMXMXMXMXMXMXMXMXMXMXMXMXMXMXMXMXMXMXMXMXMXMXMX",
"MXMXMXMXMXMXMXMXMXMXMXMXMXMXMXMX X XMXMXMXMXMXMXMXMXMXMXMXMXMXMXMXMXMXMXMXMXMXMXMXMXMXMXMXMXMXMXMXMXMXMXMXMXMXMXMXMXMXMX X X XMXMXMXMXMXMXMXMXMXMXMXMXMXMXMXMXMXMXMXMXMXMXMXMXMXMXMXMXMXMXMXMXMXMXMXMXMXMXMXMXMXMXMXMXMXMXMXMXMXMXMXMXMXMXMXMXMXMXMXMXMXMXMXMXMX"
};
