/* XPM */
static const char *bos2d8[] = {
/* columns rows colors chars-per-pixel */
"128 128 256 2 ",
"   c #0C0C0C",
".  c #040404",
"X  c #1C1307",
"o  c #141515",
"O  c #1C1C1C",
"+  c #171719",
"@  c #0F1415",
"#  c #241A16",
"$  c #2B1810",
"%  c #1B3A13",
"&  c #172A12",
"*  c #2B230F",
"=  c #26240F",
"-  c #2D2511",
";  c #29251C",
":  c #332B13",
">  c #3B2E16",
",  c #342A1B",
"<  c #3E3218",
"1  c #2C3514",
"2  c #1C1E21",
"3  c #1D2123",
"4  c #242424",
"5  c #2B2B2C",
"6  c #292926",
"7  c #352C26",
"8  c #383328",
"9  c #2D2E31",
"0  c #343433",
"q  c #3C3C3C",
"w  c #383837",
"e  c #2C342D",
"r  c #490404",
"t  c #590303",
"y  c #4D1A11",
"u  c #690202",
"i  c #790202",
"p  c #6E1A16",
"a  c #442D15",
"s  c #43331A",
"d  c #4A361B",
"f  c #4D391D",
"g  c #433217",
"h  c #523C1E",
"j  c #573517",
"k  c #522E0E",
"l  c #732B01",
"z  c #7A3404",
"x  c #69350E",
"c  c #473925",
"v  c #563E21",
"b  c #48322F",
"n  c #70342F",
"m  c #1D4416",
"M  c #234C1A",
"N  c #234518",
"B  c #28561D",
"V  c #35501A",
"C  c #2B5B22",
"Z  c #335B27",
"A  c #344C2E",
"S  c #2E6323",
"D  c #2F6926",
"F  c #346926",
"G  c #3A7C2E",
"H  c #36752B",
"J  c #3A6A32",
"K  c #3A601F",
"L  c #514E18",
"P  c #724F13",
"I  c #72671B",
"U  c #5C4222",
"Y  c #554426",
"T  c #49453A",
"R  c #504C32",
"E  c #634525",
"W  c #6A4A28",
"Q  c #724D2B",
"!  c #764A29",
"~  c #7C522E",
"^  c #755328",
"/  c #6E5531",
"(  c #46792D",
")  c #466F2E",
"_  c #75682E",
"`  c #57631F",
"'  c #3C3D41",
"]  c #3A4242",
"[  c #434343",
"{  c #4C4C4C",
"}  c #474846",
"|  c #554C48",
" . c #59544A",
".. c #535354",
"X. c #5B5B5B",
"o. c #585757",
"O. c #4B524C",
"+. c #635D58",
"@. c #6E544A",
"#. c #526B4D",
"$. c #706757",
"%. c #5E6162",
"&. c #646464",
"*. c #6C6C6C",
"=. c #686866",
"-. c #766B68",
";. c #747474",
":. c #7C7C7C",
">. c #787777",
",. c #70736F",
"<. c #5F5F61",
"1. c #413F41",
"2. c #880202",
"3. c #970303",
"4. c #971717",
"5. c #881616",
"6. c #A30101",
"7. c #AA0303",
"8. c #BB0101",
"9. c #B50404",
"0. c #B01616",
"q. c #833C04",
"w. c #8D2F2F",
"e. c #B03333",
"r. c #C30101",
"t. c #CC0101",
"y. c #C50B0B",
"u. c #D30000",
"i. c #DB0000",
"p. c #CB1616",
"a. c #E40101",
"s. c #EB0101",
"d. c #E90B0B",
"f. c #F60303",
"g. c #EE1616",
"h. c #ED2E2E",
"j. c #D33434",
"k. c #8A4709",
"l. c #94530D",
"z. c #9B5C12",
"x. c #955915",
"c. c #8C5012",
"v. c #9C6318",
"b. c #80651B",
"n. c #A46A18",
"m. c #AC751D",
"M. c #B2791C",
"N. c #8C5C35",
"B. c #845833",
"V. c #915E36",
"C. c #83562C",
"Z. c #9B653C",
"A. c #956339",
"S. c #91722C",
"D. c #AA7A25",
"F. c #B17D21",
"G. c #A2693F",
"H. c #A26D28",
"J. c #A05E13",
"K. c #914E4E",
"L. c #8D7054",
"P. c #A96D42",
"I. c #B67549",
"U. c #A8764B",
"Y. c #8B766E",
"T. c #AE706E",
"R. c #A84949",
"E. c #D15151",
"W. c #C37D4E",
"Q. c #D06F6F",
"!. c #E66262",
"~. c #3C8432",
"^. c #3E8933",
"/. c #3C812F",
"(. c #418B35",
"). c #448835",
"_. c #47973B",
"`. c #44822F",
"'. c #5C9838",
"]. c #4EA542",
"[. c #4FA945",
"{. c #51AC46",
"}. c #56B74B",
"|. c #59BF50",
" X c #7B877A",
".X c #708A6A",
"XX c #568F4F",
"oX c #5CC753",
"OX c #59C04F",
"+X c #64D85C",
"@X c #61CE57",
"#X c #6DEA65",
"$X c #938D35",
"%X c #B58424",
"&X c #B98B28",
"*X c #BC922B",
"=X c #BA9735",
"-X c #A88A33",
";X c #9AA53B",
":X c #C2982E",
">X c #C39C33",
",X c #CAA738",
"<X c #D4B33D",
"1X c #A59249",
"2X c #B4B046",
"3X c #87847A",
"4X c #988876",
"5X c #A78D70",
"6X c #959A45",
"7X c #D5B843",
"8X c #C9AF45",
"9X c #CE8658",
"0X c #DCC64C",
"qX c #E2CA4C",
"wX c #E8D553",
"eX c #F6EE66",
"rX c #F0E25D",
"tX c #7E7F80",
"yX c #7E8282",
"uX c #848484",
"iX c #8C8C8C",
"pX c #888887",
"aX c #958A87",
"sX c #939393",
"dX c #9B9C9C",
"fX c #979897",
"gX c #8F9290",
"hX c #A8938E",
"jX c #B0A590",
"kX c #A4A4A4",
"lX c #ABACAC",
"zX c #A5A7A8",
"xX c #B3B3B3",
"cX c #BBBBBB",
"vX c #B6B8B8",
"bX c #B2ADAD",
"nX c #9EA1A2",
"mX c #D19393",
"MX c #C4AF90",
"NX c #C6B6B5",
"BX c #BEBFC0",
"VX c #BDC1C1",
"CX c #C3C3C3",
"ZX c #CBCBCB",
"AX c #C6C8C8",
"SX c #D3D3D3",
"DX c #DBDBDB",
"FX c #D8D6D5",
"GX c #CBD1D1",
"HX c #E4E4E4",
"JX c #EBEBEB",
"KX c #F0F0F0",
"LX c #C0C0BF",
"PX c None",
"IX c black",
"UX c #827F82",
/* pixels */
"PXPXPXPXPXPXPXPXPXPXPXPXPXPXPXPXPXPXPXPXPXPXPXPXPXPXPXPXPXPXPXPXPXPXr.r.r.r.r.r.r.t.t.u.u.i.i.i.a.a.s.s.f.f.f.f.h.Q.NXGXGXGXZXAXCXCXVXLXLXcXcXvXvXvXvXvXxXxXxXxXxXlXlXzXzXzXzXlXlXhXT.e.9.r.u.i.a.s.s.s.f.PXPXPXPXPXPXPXPXPXPXPXPXPXPXPXPXPXPXPXPXPXPXPXPXPXPXPX",
"PXPXPXPXPXPXPXPXPXPXPXPXPXPXPXPXPXPXPXPXPXPXPXPXPXPXPXPXPXPXPXPXPX3.6.6.6.6.6.6.7.9.9.8.r.r.t.t.u.u.i.a.a.s.f.f.h.E.Q.mXNXNXCXVXvXxXxXxXxXxXxXlXlXzXzXzXzXzXlXzXzXkXkXnXdXfXfXfXsXaXY.K.w.0.0.r.u.i.a.s.s.s.PXPXPXPXPXPXPXPXPXPXPXPXPXPXPXPXPXPXPXPXPXPXPXPXPXPX",
"PXPXPXPXPXPXPXPXPXPXPXPXPXPXPXPXPXPXPXPXPXPXPXPXPXPXPX3.3.3.2.2.i i i i i i i i 2.2.2.3.3.6.6.7.9.8.r.t.u.i.a.a.s.d.g.h.!.mXbXlXzXkXkXkXkXkXdXfXfXfXfXfXfXdXkXkXdXdXfXsXiXpXuX:.>.>.;.;.-.K.w.4.6.8.t.i.a.a.s.s.PXPXPXPXPXPXPXPXPXPXPXPXPXPXPXPXPXPXPXPXPXPXPXPX",
"PXPXPXPXPXPXPXPXPXPXPXPXPXPXPXPXPXPXPXPXPXPXPXPXPX7 y p p p p p p n n n n n n n n n n w.w.w.K.R.R.R.e.7.9.8.r.u.i.s.f.d.h.E.E.T.aXaXsXgXiXgXsXfXdXdXdXdXkXzXlXxXxXlXzXzXzXzXkXkXkXdXdXdXfXaXY.K.w.4.7.9.r.u.a.s.s.s.PXPXPXPXPXPXPXPXPXPXPXPXPXPXPXPXPXPXPXPXPXPX",
"PXPXPXPXPXPXPXPXPXPXPXPXPXPXPXPXPXPXPXPXPXPXPXPX[ [ [ } { | | ..o.X.+.&.=.*.,.,.;.>.>.;.;.;.uXsXfXaXK.w.3.3.7.8.r.u.i.a.s.s.d.j.T.aXiXiXuXiXfXkXzXlXzXlXxXvXCXCXCXcXcXCXZXSXSXDXSXSXZXZXcXlXfXuX-.@.5.3.7.8.t.i.a.s.s.a.PXPXPXPXPXPXPXPXPXPXPXPXPXPXPXPXPXPXPXPX",
"PXPXPXPXPXPXPXPXPXPXPXPXPXPXPX*.;.>.:.uXuXiXiXuXuXuXuXpXiXiXiXiXpXpXuXuXuXuXyX:.;.*.=.&.&.=.;.uXgXgXaXY.K.w.4.6.6.9.r.t.i.a.i.j.T.hXkXzXkXkXzXlXxXxXxXxXxXxXvXvXvXvXvXcXCXZXSXDXDXDXDXDXSXAXvXzXsXY.@.n w.4.7.r.u.i.u.0.w.| PXPXPXPXPXPXPXPXPXPXPXPXPXPXPXPXPXPX",
"PXPXPXPXPXPXPXPXPXPXPXPXPX*.*.;.>.:.uXiXsXfXkXlXvXCXCXCXCXCXCXcXvXlXkXdXfXfXiXuX>.&.X.o.o.o.&.*.:.uXgXfXaXY.K.4.4.3.7.9.9.y.p.E.hXbXcXVXVXCXCXcXcXcXvXxXxXxXxXxXxXxXxXvXCXCXZXSXSXDXDXDXDXSXZXcXlXfXyX-.@.w.3.6.8.t.y.4.n } } PXPXPXPXPXPXPXPXPXPXPXPXPXPXPXPXPX",
"PXPXPXPXPXPXPX{ ..o.&.*.;.>.>.:.uXsXdXzXxXcXCXSXDXHXHXHXHXHXHXDXSXZXCXvXlXkXdXsXuX:.*.&.o...o.o.&.*.:.uXiXpXY.L.K.w.3.3.w.R.T.hXbXNXAXAXCXZXZXSXSXZXcXxXxXxXvXcXcXCXCXCXCXCXCXZXSXSXDXDXSXSXCXcXxXlXkXgXY.w.2.3.9.r.9.4.n [ } { o.&.*.:.uXPXPXPXPXPXPXPXPXPXPXPX",
"PXPXPXPXPXPX{ ..o.X.*.;.:.:.uXiXfXkXxXcXZXSXDXHXJXKXKXKXKXKXJXJXHXHXSXZXCXxXzXdXfXiXuX;.&.o.....o.o.&.;.:.uXiXiXY.K.w.w.K.Y.fXzXvXCXZXZXZXZXSXSXZXCXvXlXzXlXlXxXxXxXxXxXxXxXxXcXCXZXZXCXCXCXcXvXvXxXbXkXaXK.w.4.0.9.9.4.n | { O...X.*.:.uXuX:.PXPXPXPXPXPXPXPXPX",
"PXPXPXPX[ } { o.&.*.:.uXiXsXfXdXzXxXcXCXSXDXHXHXJXJXKXKXJXJXKXJXJXHXDXSXZXcXxXzXkXfXiXuX;.&.o...} { o.&.*.>.uXiXuX;.-.-.Y.pXfXkXlXvXCXZXZXZXCXcXxXxXlXzXkXdXfXsXiXiXuXuXiXsXfXkXxXxXxXlXzXlXxXvXvXxXzXkXdXdXhXT.R.0.7.4.n  ...O.{ o.*.uXiXuX:.*.*.PXPXPXPXPXPXPX",
"PXPXPX} } } ..o.&.;.:.uXiXsXfXkXzXxXcXCXSXDXDXHXHXJXJXJXJXJXJXJXJXHXDXSXZXCXxXlXkXdXsXpX:.;.&...} } } ..X.*.>.uX:.;.,.>.pXdXzXlXxXxXxXvXcXcXcXvXxXvXcXcXvXxXzXdXfXiXuXuXuXiXsXdXzXxXxXxXbXxXvXcXvXzXdXfXfXnXdXaXK.w.p n | o...O.{ o.*.uXgXiX:.>.;.PXPXPXPXPXPXPX",
"PXPXPX} } { ..o.&.*.>.uXuXiXsXfXkXlXxXcXZXGXSXDXDXHXHXHXHXHXHXHXDXSXSXZXCXcXxXlXkXfXsXiX:.>.&.o.} [ [ } { o.*.;.;.*.=.>.sXbXCXCXvXlXzXkXkXkXlXvXCXZXSXSXSXSXZXLXvXlXkXdXfXsXfXdXzXxXcXCXCXZXCXCXxXkXsXuXuXiXiXY.=.o.| | ..o...{ } o.*.uXsXiXiXuXuXPXPXPXPXPXPXPX",
"PXPXPX} } { ..o.X.&.;.:.uXuXiXsXfXkXzXxXvXLXCXZXZXZXSXSXSXSXSXSXZXZXCXCXcXxXxXzXkXfXsXuX:.;.&.o.} [ w w q } o.&.=.&.*.:.fXvXZXZXCXxXzXdXsXsXfXkXxXcXZXZXSXSXSXZXZXZXZXCXxXzXkXkXkXlXvXCXZXSXZXCXxXkXsXuXiXsXfXfXfXgXpX>.&.o.{ } } ..&.:.iXsXsXsXiX:.*.PXPXPXPXPX",
"PXPXPX[ } } { ..o.&.*.;.:.uXuXiXsXfXdXkXzXlXxXxXvXcXCXCXCXCXLXcXvXvXxXxXxXlXzXkXdXfXiXuX:.*.&...} q 0 0 0 q { o.X.X.&.>.sXlXCXCXCXcXlXdXiXuXiXfXkXzXxXvXcXcXcXCXZXDXDXDXSXCXcXlXkXkXlXcXZXZXZXCXxXzXfXsXfXdXkXlXvXcXxXsX*.{ [ [ } ..&.;.Y.iXfXdXsX:.*.&.&.PXPXPX",
"5 0 0 w q [ } { o.X.&.,.>.:.uXiXiXsXfXdXdXkXkXkXzXzXlXlXlXlXlXzXzXzXkXkXkXnXdXfXsXiXuX:.*.&.o.{ [ w 0 5 5 w } ........X.>.iXkXlXxXxXlXdXiXiXiXsXfXdXkXkXkXfXsXfXzXCXSXDXDXDXZXvXkXdXkXlXxXvXvXvXvXxXlXkXkXkXkXkXzXkXfX:.o.[ w 1.} O.o.&.;.iXdXkXdXuX>.*.&.PXPXPX",
"5 5 0 0 w q [ } { o.X.&.*.;.:.:.uXuXuXiXiXiXiXsXsXfXfXfXfXfXfXfXfXsXiXiXiXiXiXuXuX:.>.*.&.o.{ } q 0 5 6 6 0 [ } } } } { X.,.:.iXfXdXdXfXsXiXsXsXsXiXuX:.*.&.o.&.:.fXxXCXSXDXDXAXxXkXdXfXdXkXzXlXxXxXxXxXxXzXkXfXsXuX;.o.q 5 5 w } { ..o.&.uXdXzXkXsX:.;.,.PXPXPX",
"6 6 5 0 0 w w q [ } ..o.X.&.&.&.&.&.&.=.*.*.;.;.>.:.:.:.:.:.:.:.:.>.;.*.*.*.*.*.*.*.&.&.o.{ } q 0 5 4 4 4 5 w [ } } } } ..o.&.&.*.;.:.uXiXfXfXsXpX;...w 6 O O 6 [ &.tXdXcXSXDXSXCXvXkXsXuXuXsXdXkXlXxXxXvXxXbXdXuX&.} 0 O + O 0 } } } { o.>.fXlXzXfXuX:.:.PXPXPX",
"4 4 4 6 5 5 0 0 w q [ } } { { { { } } } } } { { ..o.o.X.X.&.&.&.X.X.o.o.o.o.o.o.o.o...{ } [ w 0 5 4 4 O O 6 0 q } { o.o.&.*.*.*.&.&.*.:.uXiXsXiX:.&.q O   . .   O 0 { *.fXvXZXSXSXZXxXfXuXuXiXdXkXlXxXxXcXCXCXkX:.{ 5 O     + 5 [ } } } ..;.fXlXlXkXsXuX:.PXPXPX",
"O O O O O 4 4 6 9 0 0 0 0 0 w w w 0 0 0 0 0 0 0 0 w q q [ } } } } } } } } } } } [ [ q w 0 0 5 6 4 4 O O O 4 0 q } o.*.:.iXfXdXsXuX;.;.;.:.:.uXuX:.&.[ 4 +           O q *.fXxXZXSXSXcXkXsXiXfXkXzXlXxXxXCXSXZXxX:.[ O   . . + 0 } } } q } *.sXlXxXkXfXuX;.X.{ } ",
"O O O O O O O 4 4 4 4 6 6 6 5 5 5 0 0 [ { X.&.&.&.&.X.o.{ } q w 0 0 0 0 0 0 0 0 0 0 5 5 6 4 4 O O O O O O 4 4 0 } &.:.sXkXxXxXxXkXfXiX:.*.*.:.iXiX:.X.q 6 O o   . .   4 } *.iXlXCXZXvXkXiXiXiXfXdXnXkXzXxXCXCXkX*.0 + . .   4 w { { [ 0 q X.uXkXkXkXsXuX*.o.} [ ",
"O O O O O O O O O O 4 4 4 4 6 5 0 q { &.uXfXzXlXlXkXfXuX>.&...[ 0 5 6 4 4 4 4 6 6 4 4 4 O O O + + + O O O O O 6 [ &.uXfXlXvXCXCXCXvXkXuX*.&.:.fXkXfXuX&...w 4 +       O 5 } &.iXlXcXxXfXiXuXuXiXsXfXdXkXlXxXxXfX*.[ 4 O O 4 0 } ..{ q 5 0 { ;.iXfXfXiXuX*.o.} [ ",
"5 5 6 4 4 4 O O O O O 4 4 5 0 [ o.*.uXfXzXvXCXZXSXSXZXcXlXkXsXuX*.{ 0 4 O O O O O O O O O O O O O 4 4 6 5 6 4 6 q X.:.sXkXlXvXCXZXCXlXiX*.&.:.fXlXlXzXfXuX*.} 0 4 O + + 4 0 { :.dXlXkXiXuXuXiXdXzXxXxXcXCXZXZXcXkXiX;.o.} [ [ } { } w 6 5 [ X.>.uXsXsXiX:.&.o...",
"0 0 0 0 5 5 6 4 4 4 6 0 w } ..&.:.sXkXzXlXlXxXcXZXSXSXSXZXCXCXxXkX:.X.[ 0 5 6 4 4 4 4 4 4 4 6 5 5 0 0 w w 0 4 6 0 ..*.uXsXdXzXxXCXCXlXiX*.*.:.sXzXvXCXCXxXfX:.&.} w 6 4 6 0 } *.iXkXfXiXuXuXfXkXxXCXZXSXDXHXHXHXSXCXxXfX:.*.X...} [ 0 5 0 [ o.;.uXsXfXfXuX;.&.X.",
"4 4 6 0 q [ [ q q } { o.&.;.uXiXfXfXfXiX:.;.;.>.uXiXfXkXxXvXcXCXcXxXzXfXuX*.X...} } } } { { ....{ } } q 0 5 4 4 5 } o.*.:.iXfXzXvXcXlXiX;.&.*.:.sXzXCXSXGXCXzXfX:.*.o.} } } ..*.iXfXfXfXiXiXsXfXkXvXZXDXJXJXJXJXHXDXSXCXxXfXuX&.} w 0 0 q ..*.uXsXfXfXiX:.*.X.o.",
"+ O 6 0 } { ..o.X.&.*.>. XiXiXiXpX:.;.&...} [ [ } ..X.*.:.iXfXkXxXcXCXCXvXkXfXiX:.>.,.*.*.&.&.o...} q 0 5 4 O O 6 w } o.*.>.uXfXkXzXkXiX>.*.&.*.>.iXzXCXZXZXCXcXzXfXuX>.*.&.*.:.sXdXkXdXfXiX:.>.:.sXlXCXSXHXJXJXJXHXDXZXxXdX:.X.[ 0 0 q { X.>.uXiXiXuX>.*.o...{ ",
"PXPXPX0 q } o.&.>.uXiXiXiX3X>.*.o.{ 1.0 0 5 5 6 5 5 9 0 w } ..&.>.iXzXvXCXCXCXcXxXkXfXuX>.&.o.} w 9 4 O O + O O 4 5 w } ..X.*.:.uXiXiXiXuX>.&.o.o.*.uXfXlXcXZXZXCXxXkXfXsXiXsXdXzXlXlXkXfX:.o.[ [ o.>.sXbXZXHXJXJXHXSXxXiX*.o.[ 0 0 q } o.&.*.*.*.&.o...} } [ q ",
"PXPXPX6 5 0 [ o.&.*.*.*.*.X...} q 8 7 ; ; 7 ; ; ; ; ; ; ; 7 8 q } o.*.:.uXiXsXsXpX:.;.&...} w 5 4 O O + + + + O O O 4 5 w } ..X.&.*.>.:.:.>.&.o.{ ..X.*.:.iXfXdXdXdXfXdXdXkXzXbXxXxXxXlXnXuXo.0 6 0 } *.iXxXSXHXHXDXCXfX*.} 0 5 5 0 w } } { ....{ } [ q q w w w ",
"PXPXPXO O 4 6 0 w q q q w 0 5 5 7 , : > < < < > : : > < s 8 7 7 5 5 5 9 0 w w w 0 0 9 6 4 4 O O + + O O O O + + o o o + 4 5 w [ } { o.&.;.;.&.o...{ { ......o.X.&.*.:.uXfXkXzXlXxXxXvXxXlXsX&.q 5 6 0 } ;.dXCXSXDXSXxXiXo.0 4 4 6 5 0 0 w w 0 0 0 0 0 0 0 PXPXPX",
"PXPXPXPXPXO ; ; ; 7 7 7 , ; ; ; , : > g d h f d s s f v U v c 8 8 8 c c < , , , , , , , - ; ; 4 4 4 4 4 4 4 4 O O + + + O O 4 4 6 0 w } { o.X.&.&.*.&.&.&.X.o.o.o.o.o.X.&.;.:.iXfXkXxXxXxXkXuX&.{ q 0 q &.iXxXCXZXCXlXuX..5 ; ; 7 7 8 8 8 8 8 8 7 7 , , , PXPXPX",
"PXPXPXPXPXPXPX- - - : : : : : : : > s d h U U U U U E W Q Q W E E E W W E v v f f f d d s s 8 8 0 0 0 0 0 0 0 0 0 0 5 5 6 6 6 6 5 5 0 w [ } o.&.*.>.:.:.:.>.*.*.&.o.o.......o.*.:.iXdXkXlXzXfXiX:.&.{ { &.iXlXcXCXCXlXiX&.[ 8 8 c d d f f f h f s < : : : PXPXPX",
"PXPXPXPXPXPXPX: : : : > > : : : > s d c v v E Q B.N.B.~ Q ~ N.Z.Z.V.C.Q ~ ~ ~ ~ W U h h h v c b 0 0 w q [ } o.o.X.&.&.&.&.&.&.&.&.&.&.&.&.&.o.....o.&.;.:.uXiXiXsXsXsXiX:.>.*.&.&.&.;.uXsXfXdXdXfXiXuXuXsXzXcXCXZXCXcXzXsX:.$.@.W E U h U U E E h d > : - PXPXPX",
"PXPXPXPXPXPXPX: : : > < > > : > s f v v v Y E B.Z.P.A.B.Q B.P.W.W.P.V.B.N.Z.P.Z.B.W U U E E Y c 8 0 0 w [ { o.&.*.;.:.uXuXiXiXiXiXiXiXsXiXuX>.&.o...o.X.=.>.uXsXdXzXlXlXkXdXiX:.*.&.&.*.>.uXiXfXkXkXkXzXxXcXAXZXZXZXZXBXxXkXaXL.N.~ Q W W Q ~ ~ W v s : : PXPXPX",
"PXPXPXPXPXPXPX- - : > < s < > s d h U U U U W B.G.P.Z.N.B.A.I.9X9XI.Z.N.A.P.I.I.Z.~ Q Q ~ ~ W c 7 6 6 6 5 0 w } { o.&.*.>.:.uXsXfXkXkXkXkXkXkXfXiX>.o.} q } o.&.>.iXfXzXxXvXvXlXdXiX:.&.o.X.*.:.iXfXkXxXvXCXCXZXSXSXSXAXxXkXhXT.P.V.C.~ ~ B.V.A.B.E f < > PXPXPX",
"PXPXPXPXPXPXPX* - : > s s s s s f v E E U E Q N.P.P.P.V.N.Z.I.9X9XI.Z.V.Z.I.W.W.P.N.~ B.N.N.~ Y c 7 5 5 5 5 5 5 0 w [ } { o.<.*.>.uXuXiXiXsXfXfXsX:.X.} w 0 w [ ..&.:.iXkXxXvXcXvXlXfX:.*.&.X.&.*.uXfXzXxXcXCXZXSXSXZXCXxXkXhX5XU.G.V.C.~ N.Z.G.A.Q Y d s PXPXPX",
"PXPXPXPXPXPXPX* - : > s s s < s h U E E E E Q N.P.I.P.A.N.Z.I.9X9XI.Z.N.Z.I.W.I.P.N.B.N.A.Z.N.Q Y c c b q w 0 6 6 4 4 4 4 4 6 9 w [ { o.X.&.*.;.;.*.*.+...[ 0 0 w } o.&.:.iXfXlXvXcXxXzXfXuX&.o.o.&.:.sXkXxXCXZXZXZXCXxXkXfX4X5XU.P.V.C.~ N.G.P.Z.~ U h f PXPXPX",
"PXPXPXPXPXPXPX* - : > s s s s s f v U U U U W B.G.P.G.V.B.V.P.W.W.P.V.B.A.P.W.I.Z.B.~ B.N.N.B.W U Y T | o.o.o...} q 0 6 4 O O 4 6 0 [ ..&.;.tXiXsXsXsXiXuX>.&.X.o.o.o.X.&.*.>.iXdXzXlXlXkXfX:.&.o.o.&.;.uXkXxXcXcXvXxXkXsXpXY.U.U.G.V.C.~ N.G.P.Z.~ U h d PXPXPX",
"PXPXPXPXPXPXPX* - : > < s s > g s f h h h Y E ~ V.Z.A.B.C.N.G.P.P.Z.N.B.V.G.P.P.V.~ Q Q ~ ~ W U h Y | +.*.:.uXuX:.&...[ 0 6 4 4 5 0 } <.>.iXdXlXxXxXxXxXzXkXfXiX:.;.&.o...{ ..&.>.uXsXdXkXdXiX:.*.X.....&.uXdXzXzXkXdXiX:.,.-.L.P.Z.N.~ ~ N.Z.G.V.Q v d s PXPXPX",
"PXPXPXPXPXPXPX* * - : : : : : > > < s s f Y U E W ~ ~ N.A.A.V.N.N.N.V.A.V.N.N.B.B.~ ~ W E v h f f Y  .=.>.uXsXsXpX>.X.{ q 0 6 4 4 5 q { &.;.uXgXfXdXkXdXfXiXuX>.&.o.{ [ 0 0 0 [ ..&.;.:.uXiXiXiX:.&.} [ O.*.uXiXiXuX:.,.&.o.@.@.N.B.~ Q W ~ N.N.B.E f s > PXPXPX",
"PXPXPXPXPXPXPX* * * * * - - : : : : : < f v U v h U W B.A.N.~ W Q ~ A.Z.N.~ E E Q ~ ~ W v s s s d Y  .&.;.:.uXiXuX;.X.{ q 0 4 4 4 6 0 [ ..X.*.>.tXuXiXiXuX:.;.&.o.} [ 0 5 6 6 0 w } { o.&.*.:.:.>.X.[ w [ o.*.*.*.&.X...} T T W Q Q W E E W ~ ~ Q U d > > PXPXPX",
"PXPXPXPXPXPXPXPXPXPX= * * - : : : : : > s f f f d f U W Q Q W U E Q B.N.~ W U U E W W U f s g g d c T | o.<.&.&.&.o.} q 0 4 4 4 4 6 0 } o.&.,.:.uXiXsXfXsXiXuX:.;.&.o.{ [ 0 0 5 5 5 0 w q } ..o.o.{ q w 1.} ..o.O.} [ b 8 c c U E E U U U E Q Q W v s > > PXPXPX",
"PXPXPXPXPXPXPXPXPXPXy - * - - : : : : : > g g s s d h v U U h h h E W Q W U h h U U U h d a a g s c c q q [ } } [ w 9 6 4 4 4 6 0 q } o.*.>.uXsXdXkXzXlXlXzXkXdXfXiXuX>.&.o.{ } q w 0 0 0 0 w q q w 0 0 w q [ q w 0 8 7 > > g f h v v h h U E W E h s > > PXPXPX",
"PXPXPXPXPXPXPXf.s.9.p : - = * * - : : : : : > < s d f f h f d s s f v U h f s s f h h f s g g s s s 8 7 5 5 5 6 4 2 O O O 4 5 w } o.&.>.uXsXkXxXcXCXZXZXZXZXZXCXcXxXzXfXiX:.>.*.&.X...} w 0 0 5 5 6 6 6 5 0 0 9 8 , , : : : < s d f d d d h U U v d > : : PXPXPX",
"PXPXPXPXPXPXf.f.a.9.p a 7 7 8 8 T T |  . . . .R v d d g g g a a a g g g g g a a g g v R R  . .T c 8 7 4 4 2 O O O + o + O 4 5 q } o.&.*.>.:.iXfXkXkXzXlXlXlXlXlXkXdXfXiX:.*.&.X.o...} q 0 5 6 4 4 4 4 4 4 6 6 ; , , : : : : > < s s s s s d h h h s > PXPXPXPXPX",
"PXPXPXPXf.f.f.a.t.7.p b 0 w [ { o.=.;.3XiXiX3X$.R c s d c c c c v c c c c v v v f c Y +.;.Y.;.X.[ 0 6 4 O O O O O + + + O 4 6 0 w [ } } { ..o.&.*.*.;.>.>.>.>.>.;.*.&.X...} q w 0 0 5 6 4 4 4 6 4 4 4 O # = - - - : : : : : : > > a a > s s d d f PXPXPXPXPXPXPX",
"PXPXPXf.f.s.a.u.9.2.y ; 4 4 5 0 q [ { o.&.*.=.+. .|  .+.$.-.Y.3X4X4X4XaXaXaXaXaX3X>.-.=.=.<...q 5 4 O O O O O 4 4 4 O O 4 4 4 6 6 5 0 0 0 0 q } { ..o.o.X.X.X.X.o.o...} } [ w 0 0 5 6 4 4 6 9 0 0 0 6 4 ; - - * * - : : : : > > > > > > s s s s s PXPXPXPXPXPXPX",
"PXPXPXa.a.i.t.8.6.i y # o @ o + O O 2 4 5 0 b } { o.&.;.:.iXfXkXlXxXxXxXcXCXCXLXxXdXiX,.o.[ 0 9 5 6 6 6 6 5 0 0 0 0 6 4 4 4 4 4 4 4 6 6 5 0 q } o.X.&.*.*.*.*.&.&.o.o...{ } } q 0 0 5 6 5 0 [ { { } w 9 5 ; - * * * * * - : : > > > > > > < s s s PXPXPXPXPXPXPX",
"PXPXPXt.t.t.r.8.6.i r # o @ + + O O 4 4 4 6 5 0 0 q [ { ..o.o.o.X.X.X.X.&.*.;.;.;.*.*.&.&.<.&.*.*.*.*.*.*.*.*.*.o.[ 5 4 4 4 6 5 0 w [ } ..&.;.uXfXkXzXxXxXlXzXkXfXiX:.;.&.X...} q w 0 w q { &.;.;.&...b 9 ; # X X X X X X = - : : > > > > > > > > PXPXPXPXPXPXPX",
"PXPXPX9.9.8.8.8.9.2.t $ @ @ O 4 4 6 5 9 5 5 5 5 6 6 5 0 0 0 0 0 5 5 6 6 5 0 w q } { o.&.>.uXsXkXzXlXlXzXkXkXdXsXuX&.{ [ w 0 0 w [ { o.X.*.:.iXkXvXZXSXDXDXSXZXCXxXkXfXuX:.*.&...} [ q q } ..&.;.;.&...b 9 ; O o # # # # # X X = * * * * * * * * * PXPXPXPXPXPXPX",
"PXPXPX6.6.6.9.r.t.r.PXPXPX3 4 6 0 w [ } } [ q w 0 0 9 5 0 0 [ } { } } [ [ [ } } ..X.*.:.gXkXxXCXZXSXDXSXSXZXvXlXkXdXfXuX*...} } { o.o.X.&.;.uXfXzXxXCXZXZXCXvXxXkXfXiXuX:.>.*.X...} q w 0 w [ } } [ 0 5 6 6 6 9 q } [ w ; # X X X X X X X X X X X PXPXPXPXPXPXPX",
"PXPXPX2.2.3.6.r.u.a.f.PXPXy 7 5 w } { o.o.o.o...{ } q 0 0 w [ { o.X.&.*.&.X.o.o.o.&.*.:.sXkXxXCXSXDXJXJXJXHXSXCXcXxXlXkXsXuX;.&.o...{ ..o.<.*.:.uXsXdXkXkXdXfXiXuX:.:.;.*.*.&.o.} [ w 0 0 0 0 w w 0 5 6 4 4 6 0 q } } T 0 8 7 8 0 b }  . . . .| |  .PXPXPXPXPXPX",
"PXPXPXu u i 3.8.u.a.f.s.y.5.y 5 w } o.X.&.*.*.*.*.&.o.} q w w q { &.uXiXiX>.&.X.o.o.&.*.:.iXkXxXCXSXDXHXJXJXHXDXZXxXkXkXzXxXlXiX*.{ b q } } ..o.X.&.*.;.;.*.&.&.X.o.o...{ } } q 0 0 0 5 0 0 w q [ w 0 5 6 4 2 4 4 6 0 q } ..X.&.,.uXdXxXLXcXbXnXiX>.&.o.PXPXPXPX",
"PXPXPXt t u 2.6.r.i.s.s.y.5.y 6 9 ] { o.&.*.;.:.:.:.>.*.X...} 1.} o.;.uXuXiXuX:.*.X.o.X.*.>.uXfXkXxXCXZXSXDXDXSXCXxXkXkXkXlXlXkXsXuX*...q 0 0 w q [ } } } } } [ [ 1.q w w w 0 0 5 5 5 9 0 q } o.o...} [ 0 6 O O O O 4 5 w } { ..o.&.:.gXfXsXuX>.&.o.} q w PXPXPX",
"PXPXPXPXr t i 2.6.r.i.a.y.5.y 7 9 w [ { o.&.;.uXiXsXsXiXuX>.&...} { o.&.>.iXfXsXyX*.X.o.o.X.*.>.uXsXdXzXxXvXCXCXvXlXkXfXsXsXfXkXvXcXkX;.} 6 4 6 5 0 q } } } } } } } [ [ [ [ q w w 0 0 w q } o.&.&.&.o...[ 5 4 + + + + O 4 4 6 6 5 0 [ { ..{ } q 0 6 4 O O PXPXPX",
"PXPXPXPXPXPXu i i 3.8.u.u.y.9.4.p b 0 ] O.%.,.:.iXfXkXzXlXkXiX:.*.o...O.X.>.uXiXiXiXuX;.X.....o.&.*.>.uXiXfXdXkXkXfXsXiX:.>.:.fXxXCXxXiX&.} q q [ o.;.iXsXfXfXsXsXiXiXuXuX:.>.;.*.&.X.o.......o.o...{ } 0 6 O o       o + O 4 6 0 } X.>.uX:.;.&...q 5 4 4 PXPXPX",
"PXPXPXPXPXPXPXt t i 3.9.t.a.s.a.9.p y b n @.$.-.:.uXfXlXvXvXxXkXsX>.&...o.&.*.:.sXdXfXiX>.&.o.......o.&.*.;.:.:.:.:.>.*.&.o.&.:.kXvXvXkXiX>.&.o.X.;.sXxXCXZXSXSXSXSXZXCXvXxXkXdXfXiX:.*.&.o.{ } [ [ q w 5 4 +         o O 4 6 0 } X.uXkXvXvXzXfX:.X.[ 0 5 PXPXPX",
"PXPXPXPXPXPXPXr r t u i 3.9.t.i.i.t.y.y.p.p.e.w.@.&.>.gXnXbXvXcXxXdXuX;.&.&.&.*.:.sXfXnXdXfXiX;.&.o...{ { ..o.o.o.o...{ } } ..*.sXlXcXcXvXlXfX:.*.*.:.iXkXCXDXJXJXHXDXSXZXCXvXxXzXdXiX:.*.&.o.} } [ q w 6 O o       + O 6 0 w } ..*.fXcXSXSXCXlXsX*...[ w PXPXPX",
"PXPXPXPXPXPXPXr r r t t u 2.3.9.r.i.s.f.f.f.a.p.w.w.K.K.T.hXMXNXVXvXkXsXyX*.&.&.,.:.iXdXzXlXzXfXuX:.*.X.o.....{ { } } { { ..X.:.fXxXCXZXSXCXlXiX>.*.*.>.iXxXSXHXHXHXFXSXCXcXxXlXkXfXiX:.*.o.{ } q w w 0 5 4 O + + + O 4 5 w [ } o.;.fXvXZXZXcXzXiX*...[ q PXPXPX",
"PXPXPXPXPXPXPXPXPXPXr r t t u i 2.6.9.r.u.a.s.a.d.d.d.g.g.j.Q.jXxXvXvXbXdXuX;.*.=.*.>.uXfXkXlXxXvXxXdXiX:.;.=.&.X.X.&.*.;.:.iXdXlXLXZXZXZXCXzXiX:.;.;.:.iXzXCXSXSXZXCXcXxXlXkXdXsXuX>.&.o.} q 0 0 5 5 6 5 0 0 5 4 O O 4 6 0 w [ { &.uXdXzXzXdXiX>.o.} w 0 PXPXPX",
"PXPXPXPXPXPXPXPXPXPXPXr r r t t u i 2.2.6.9.r.u.a.s.f.f.f.g.h.E.Q.Q.Q.Q.T.aXuXyX;.*.*.;.:.iXfXlXvXvXxXkXdXfXsXsXsXfXfXdXkXlXxXvXBXCXCXcXxXzXfXtX;.*.*.*.:.fXxXBXcXxXlXzXkXdXsXiX:.*.&...} q w 0 0 5 6 4 5 0 q w 6 O O O 4 6 5 w } o.*.:.uX:.>.*.o.} 0 5 6 PXPXPX",
"PXPXPXPXPXPXPXPXPXPXPXPXPXPXPXPXPXt t t u i 2.3.6.8.t.i.s.s.f.f.d.f.f.g.j.Q.hXsXuX>.,.*.*.;.:.iXfXkXkXzXlXxXcXCXCXCXCXCXCXCXLXcXcXxXlXnXsXpX:.,.&.X.o.o.*.uXfXkXkXdXfXiXiXuX:.;.&.o.{ [ q q [ } } w 0 5 0 q } q 0 6 4 O O O 4 5 w [ { o.o.o.{ } q 0 6 4 4 PXPXPX",
"PXPXPXPXPXPXPXPXPXPXPXPXPXPXPXPXPXPXPXr $ r y t u 2.3.3.7.8.t.i.a.s.f.f.g.h.E.Q.hXhXdXgXyX;.,.*.;.:.uXiXfXzXxXvXlXfX3X.X.X.X.X.X.X.X.X.X.XXXXX#.#.#.} [ { &.:.uXuX:.;.*.*.&.X.o.{ } [ 1.[ } o.&.*.X...} } ..o.X.&.<.o.[ 6 O + O 4 5 9 0 0 0 9 9 6 4 O O O PXPXPX",
"PXPXPXPXPXPXPXPXPXPXPXPXPXPXPXPXPXPXPXPXO O # $ r r t u u i 3.6.8.t.i.a.s.f.f.h.!.mXNXbXdXpX>.&.o...o.=.,.uXsXsX X#.Z M M B C F F G ~.(._._._._._.( J A A O.X.&.&.X.o...{ } [ q q q [ } ..&.:.iXsXuX>.*.&.&.*.:.iXfXsX*.[ 4 O O ; ; 7 8 8 8 8 8 7 ; + o PXPXPXPX",
"PXPXPXPXPXPXPXPXPXPXPXPXPXPXPXPXPXPXPXPXPXPXPX# $ $ $ $ , y u i 2.3.6.8.t.i.a.d.h.h.!.Q.mXbXdX>.o.} A A A ) #.#.#.) F D D H G /.(._.].}.|.oXoXoXOX{._.( J J ) ) T T [ q w 0 0 0 0 w } X.;.iXkXxXxXlXfXiX:.>.;.uXdXxXxXfX,...T v j P b.$X1X1X-X$XS._ PXPXPXPXPXPX",
"PXPXPXPXPXPXPXPXPXPXPXPXPXPXPXPXPXPXPXPXPXPXPXPXO O 2 2 4 # $ y t u i 2.6.9.r.u.a.s.g.!.mXNXlXyXo.T A M M B S F G (._._._._._.].].{.}.oX+X+X#X#X#X+XoX{._.^.H F Z A w 0 9 5 5 5 0 [ o.>.sXzXcXZXSXCXxXdXiX:.>.uXdXvXcXlXfXY.$.C.c.v.&X7XwXwX0X7X<XPXPXPXPXPXPXPX",
"PXPXPXPXPXPXPXPXPXPXPXPXPXPXPXPXPXPXPXPXPXPXPXPXPXPXPXO O 4 6 7 , y t u i 2.3.6.8.t.p.E.mXbXnX>.o.T A Z S F /._.].{.}.OX|.}.}.{.].].{.|.oX+X#X#X#X#X+XoX}.].(.H F C B N e 5 5 0 } o.*.iXkXcXSXDXDXZXxXdXiX:.;.:.fXlXvXvXbXkX4XL.c.z.%X,X0X7X<X,X,XPXPXPXPXPXPXPX",
"PXPXPXPXPXPXPXPXPXPXPXPXPXPXPXPXPXPXPXPXPXPXPXPXPXPXPX+ O O 3 6 6 7 y y t u i 2.6.7.0.e.T.aXyX=.O.A Z F H G ~.(.(._.].{.OX@X+X@X|.}.{.{.}.|.oX+X+X+X+XoX}.]._.~.H D B M 1 5 0 1.o.*.uXkXcXZXDXHXHXSXcXkXsX:.;.:.iXzXxXBXVXxXhXL.B.C.H.=X,X,X:X*X&XPXPXPXPXPXPXPX",
"PXPXPXPXPXPXPXPXPXPXPXPXPXPXPXPXPXPXPXPXPXPXPXPXPXPXPXO O O O O 4 6 9 8 y p u i 2.2.5.w.@.+.#.#.J F H ~.~.G F C B M B F ].@X#X#X+XoX}.]._._._.{.}.}.{.].]._._.(.G H S C e e w { &.:.fXxXSXHXJXJXHXDXZXxXfX:.*.>.iXkXvXCXCXcXzXpX-.$.A.D.%X%X%XF.F.PXPXPXPXPXPXPX",
"PXPXPXPXPXPXPXPXPXPXPXPXPXPXPXPXPXPXPXPXPXPXPXPXPXPXPXj j d , # O 3 6 5 8 b j n n n n @.| { O.J J G ^._._.G C m % & & m S (.[.OX@X@XoX].(.G G G ~.~.G G G G G G H F S Z A [ ..&.>.iXkXcXSXDXHXHXHXDXZXxXfX:.&.*.uXdXxXcXCXCXvXkXgX3XL.H.n.n.n.n.n.PXPXPXPXPXPXPX",
"PXPXPXPXPXPXPXPXPXPXPXPXPXPXPXPXPXPXPXPXPXPXPXPXPXPXPXz.x.P j , ; 2 4 4 5 w [ | +.=.=.+.{ } A J G (._._._.G C m & & & & % m C ~.{.oXoX[.~.H S C B B M B B B S S S S S Z T ..&.;.uXfXkXvXCXSXDXDXDXSXCXxXsX*.o.o.;.iXkXxXCXAXAXVXxXjX5XG.v.z.z.z.z.PXPXPXPXPXPXPX",
"PXPXPXPXPXPXPXPXPXPXPXPXPXPXPXPXPXPXPXPXPXPXPXPXPXPXPXPXPXx.b.^ E f ; O 2 4 5 w [ { O.} A A A F H ~._._._.^.H S B N % % % % M H _.{.[._.H S B M N % % % % N M B C C S Z Z Z #.&.:.iXdXlXcXCXSXSXSXZXCXlXiX*.{ { &.Y.fXlXCXZXSXGXZXcXjX4XL.N.c.k.q.PXPXPXPXPXPXPX",
"PXPXPXPXPXPXPXPXPXPXPXPXPXPXPXPXPXPXPXPXPXPXPXPXPXPXPXPXPXPXM.m.v.^ U , ; O O 2 6 5 9 e % N M C F F H ( ( `.(./.H F B B B B S H (._._.(.H F S C B M M M M M B C S F F S B B Z #.,.uXfXkXxXcXZXZXZXZXCXlXiX&.} } o.;.iXkXvXZXSXSXSXCXlXfXY.@.! z l PXPXPXPXPXPXPX",
"PXPXPXPXPXPXPXPXPXPXPXPXPXPXPXPXPXPXPXPXPXPXPXPXPXPXPXPXPXPXn.n.n.H.H.S.^ s ; + + 2 4 ; % m m M M N < k k L ) `.~.~./.~.~.~.(._._._._._._.(.(.(.(.(.(.(.(.~.~./.G G G H D S J #.,.uXsXnXlXxXCXZXZXZXcXlXiX&.} [ { &.>.sXlXCXZXSXSXCXkXuX=./ x l l PXPXPXPXPXPXPX",
"PXPXPXPXPXPXPXPXPXPXPXPXPXPXPXPXPXPXPXPXPXPXPXPXPXPXPXPXPXPXl.l.z.m.%X&X-X_ Y c 7 # O & % m M M M N > y y k L ` ) ( (._._.].].].].].].{.{.]._.(.(._.{.|.OX|.{.]._.G H D S S J #.*.:.iXfXzXxXcXCXCXCXvXkXuX&.} w [ { &.:.fXxXCXZXZXcXkXuX-.@.W z l PXPXPXPXPXPXPX",
"PXPXPXPXPXPXPXPXPXPXPXPXPXPXPXPXPXPXPXPXPXPXPXPXPXPXPXPXPXPXk.k.l.z.m.%X*X=X=X$X/ 8 O & % m B C F F C V V > y y k L ( (._.].{.{.{.{.}.}.}.{.~.S B H [.+X#X#X+XOX_.F M m M C J #.=.>.uXfXkXlXvXcXcXvXlXfX:.X.[ 0 0 w } &.:.fXzXxXcXvXzXfXiX3XPXPXPXPXPXPXPXPXPXPX",
"PXPXPXPXPXPXPXPXPXPXPXPXPXPXPXPXPXPXPXPXPXPXPXPXPXPXPXPXPXPXPXk.k.l.z.n.F.:X,X=XS._ Y V 1 % m C F H H H F L k l k L K F H ~.^.(.(._._.].{.].(.H F (.}.@X+X+X@X|._.H B M B S J #.&.;.uXsXkXzXxXxXxXzXnXiX>.o.q 9 6 5 0 { &.:.iXdXzXzXkXfXfXsXPXPXPXPXPXPXPXPXPXPX",
"PXPXPXPXPXPXPXPXPXPXPXPXPXPXPXPXPXPXPXPXPXPXPXPXPXPXPXPXPXPXPXPXPXPXk.k.l.n.m.%X&X&X-XI L N m M C F G ~.`.` P P P L V M M B C B S F H G (._._._.].{.}.}.}.}.[._._.(.G H D F J #.%.*.:.iXfXkXkXkXkXfXiX:.&.{ 0 5 6 6 9 q { X.,.uXiXsXsXiXiXiXPXPXPXPXPXPXPXPXPXPX",
"PXPXPXPXPXPXPXPXPXPXPXPXPXPXPXPXPXPXPXPXPXPXPXPXPXPXPXPXPXPXPXPXPXPXz z q.k.z.n.m.M.D.D.S.I ` L B C D G `.( ` ` ` L L L P I I ` V M m M C S D H G ~.~.~.~.~.~.~.G H H D S C Z A O.o.*.:.iXsXfXfXiXuX:.*...q 5 8 Y W / / T [ ..&.>.uXuXiXiXiXPXPXPXPXPXPXPXPXPXPX",
"PXPXPXPXPXPXPXPXPXPXPXPXPXPXPXPXPXPXPXPXPXPXPXPXPXPXPXPXPXPXPXPXPXPXl l z z q.k.k.l.v.m.%X&XS.` V M B S F H G ( ` I P k.z.n.v.I L V 1 N V V V K F F ) ) ( ( ( ( ( ) F K K V V A A } o.*.:.uXuXuX:.;.&.o.1.5 4 < _ -X=XS./ T [ ..&.*.:.uXuXiXPXPXPXPXPXPXPXPXPXPX",
"PXPXPXPXPXPXPXPXPXPXPXPXPXPXPXPXPXPXPXPXPXPXPXPXPXPXPXPXPXPXPXPXPXPXPXPXl l z z q.k.l.z.n.n.b.L 1 % m M B S D F ` P P k.l.l.l.x.b.b.b.b.S.$X$X$X;X;X2X2X2X2X2X2X;X$XS.I P P U v b b { X.*.*.;.*.=.X.O.1.9 2 O c S.2X7X,X-XS._ @. .o.&.,.>.:.PXPXPXPXPXPXPXPXPXPX",
"PXPXPXPXPXPXPXPXPXPXPXPXPXPXPXPXPXPXPXPXPXPXPXPXPXPXPXPXPXPXPXPXPXPXPXPXPXz l l z q.k.k.l.c.P L A N % % m M B C L L P P P q.k.k.z.n.m.F.%X*X:X,X,X<X7X0XqXqX0X7X,X&Xm.z.l.k.z j c w [ ..X.&.&.X...} w 0 7 8 Y _ 6X0XrXwX0X,X-X_ T [ { o.X.&.PXPXPXPXPXPXPXPXPXPX",
"PXPXPXPXPXPXPXPXPXPXPXPXPXPXPXPXPXPXPXPXPXPXPXPXPXPXPXPXPXPXPXPXPXPXkXsXY.C.z l l l z q.q.k.C.$.$.%.} N % % M B S F ) ` L x z q.k.k.l.l.l.z.v.n.m.F.%X&X*X%XF.m.n.z.l.k.q.z x k 8 0 1.{ o.o...} q 9 6 5 Y _ -X8XwXeXeXeXrX0X1X_ c 9 0 q [ [ PXPXPXPXPXPXPXPXPXPX",
"PXPXPXPXPXPXPXPXPXPXPXPXPXPXPXPXPXPXPXPXPXPXPXPXPXPXPXPXPXPXPXPXPXPXkXdX4XL.~ n n n n ! ~ B.L.Y.pX X=.O.A M N N M B S F L L U P k.k.k.l.l.z.n.m.F.%X&X&X&X%Xm.n.z.k.k.k.z.v.b.W c 0 q [ } } [ w 5 3 + ; Y S.,XqXrXeXeXeXrXqX2XS.U c 8 7 5 9 PXPXPXPXPXPXPXPXPXPX",
"PXPXPXPXPXPXPXPXPXPXPXPXPXPXPXPXPXPXPXPXPXPXPXPXPXPXPXPXPXPXPXPXPXPXlXkXfXpX;.-.+.+.+.&.-.Y.pXiXsXsXiX3X,.#.A % % m M B S F ) ` I x.z.n.n.F.&X,X,X<X7X<X,X,X:X&Xn.l.l.n.*X8X2X$XR 0 9 w q w 0 5 4 O + # Y b.=X<X0XwXwXwXqX7X>XD.v.P h 7 4 3 PXPXPXPXPXPXPXPXPXPX",
"PXPXPXPXPXPXPXPXPXPXPXPXPXPXPXPXPXPXPXPXPXPXPXPXPXPXPXPXPXPXPXPXPXPXkXkXdXsXpX:.=.X.o.X.=.,.:.uXiXsXfXfXsXuX,.%.O.A N m m M B K ` ` I I _ '.$X;X;X;X;X;X;X$X'._ I c.l.m.:X7X2X$XR 9 6 5 5 5 4 2 # $ - k x c.n.%X&X*X:X*X&XF.m.n.l.P j , # + PXPXPXPXPXPXPXPXPXPX",
"PXPXPXPXPXPXPXPXPXPXPXPXPXPXPXPXPXPXPXPXPXPXPXPXPXPXPXPXPXPXPXPXPXPXfXfXfXfXsXuX*.o...{ ..o.&.*.:.uXsXfXkXkXkXfX X#.A % N M C Z Z F J ( ( ).)._._._.).`.H F K V L P x.m.%X*X-X_ Y 6 3 4 4 O O + $ a x c.x.x.H.H.H.H.H.x.x.c.c.c.k.x j , ; 2 PXPXPXPXPXPXPXPXPXPX",
"PXPXPXPXPXPXPXPXPXPXPXPXPXPXPXPXPXPXPXPXPXPXPXPXPXPXPXPXPXPXPXdXfXiXiXuXiXsXfXiX:.=.X.o.{ { ..o.<.*.>. XiXgXfXfXiX3X>.,. X X3X X.X.X.X=.#.#.#.#.J Z A A N < g k x P l.n.M.F.H.^ < O + + O # $ y j ~ T.jXMXMXMXMXMXjX5X5X4XL.L.L.@./ T b w w PXPXPXPXPXPXPXPXPXPX",
"PXPXPXPXPXPXPXPXPXPXPXPXPXPXPXPXPXPXPXPXPXPXPXPXPXPXPXPXPXPXkXkXfXiX:.:.:.uXiXiXuX:.;.&.o.{ } } } ..o.&.*.;.>.:.uXgXfXkXzXlXlXkXfXiXuX;.&.o.{ [ w 9 5 4 , y x l z z P c.v.H.S./ c 5 5 5 9 b j n N.5XNXFXHXHXHXDXSXAXvXzXfXiX:.*.&.o.{ } } } PXPXPXPXPXPXPXPXPXPX",
"PXPXPXPXPXPXPXPXPXPXPXPXPXPXPXPXPXPXPXPXPXPXPXPXPXPXPXPXPXPXxXxXkXsX:.*.*.>.:.uXiXsXiX:.&.o.} } [ [ } ..o.o.X.&.*.;.>.:.:.tX:.>.*.&.X...{ [ w 0 5 5 6 PXPXPXPXPXk a c c R / @.$.=.*.;.;.>.Y.4XhXjXNXZXFXDXDXSXAXvXkXsXtX*.X...} [ q w 0 0 0 PXPXPXPXPXPXPXPXPXPX",
"PXPXPXPXPXPXPXPXPXPXPXPXPXPXPXPXPXPXPXPXPXPXPXPXPXPXPXPXPXPXxXxXzXsX:.*.&.&.*.;.uXsXfXiX:.*.X...[ q q q [ [ } } { ..o.o.o.o.o...{ } [ q w 0 5 6 4 4 PXPXPXPXPXPX2 4 6 9 q } ..&.>.tXuXuXpXiXsXfXnXzXlXxXxXxXzXdXsX:.*.o.} q 0 5 5 6 4 4 4 4 PXPXPXPXPXPXPXPXPXPX",
"PXPXPXPXPXPXPXPXPXPXPXPXPXPXPXPXPXPXPXPXPXPXPXPXPXPXPXfXfXdXkXkXkXsX:.*.X.....o.*.:.iXsXfXsX:.=...[ 0 0 5 5 0 0 w w q q q q q q q w 0 0 5 6 4 4 O O PXPXPXPXo + O 4 6 9 w [ } ..o.X.&.X.X.X.o.o.X.&.*.>.:.:.:.;.*.&.o.} q 0 5 6 4 4 4 O O O PXPXPXPXPXPXPXPXPXPX",
"PXPXPXPXPXPXPXPXPXPXPXPXPXPXPXPXPXPXPXPXPXPXPXPXPXPXPXfXfXfXfXsXiXiXuX>.&...[ } ..&.*.:.iXiXuX>.&.o.} w 0 5 6 6 6 6 6 6 6 6 6 6 6 6 6 4 4 4 O O O PXPXPXPXPX+ O O 4 4 5 0 w [ } } { O.O.{ ....o.X.*.>.uXiXiXsXsXiXuX:.*.o.} q 0 5 4 4 O O O PXPXPXPXPXPXPXPXPXPX",
"PXPXPXPXPXPXPXPXPXPXPXPXPXPXPXPXPXPXPXPXPXPXPXPXPXPXPXkXdXsXuX:.>.:.uXuX*.o.[ w q [ { o.*.>.:.:.;.*.o.{ [ 0 5 4 4 ; O O O O O O O O O O O O O PXPXPXPXPXPXO O O O 4 4 6 0 0 q } } O...o.X.&.;.:.iXfXlXvXCXZXSXSXZXCXxXdXuX*.o.} q 0 4 4 O O PXPXPXPXPXPXPXPXPXPX",
"PXPXPXPXPXPXPXPXPXPXPXPXPXPXPXPXPXPXPXPXPXPXPXPXPXPXPXdXfXiX:.*.&.*.>.:.*.o.} q 0 0 0 q } o.X.&.*.&.X...} [ w 0 5 6 4 4 4 4 O O O + + + O PXPXPXPXPXPXPX+ O O O 4 6 5 0 q } ..X.&.;.>.:.uXsXdXlXvXCXSXDXHXHXJXJXHXDXZXxXfXuX*.o.} w 5 4 O O PXPXPXPXPXPXPXPXPXPX",
"PXPXPXPXPXPXPXPXPXPXPXPXPXPXPXPXPXPXPXPXPXPXPXPXPXPXPXiXiXuX;.&.X.&.&.*.&.o.{ } 0 5 6 5 0 w [ } ......} } [ q w 0 0 5 6 4 4 4 O O + o PXPXPXPXPXPXPXo o + + O O 4 5 0 q } o.&.*.:.uXsXfXkXlXvXCXSXDXHXJXJXJXJXJXHXDXSXvXkXiX;.&.{ q 5 4 O O PXPXPXPXPXPXPXPXPXPX",
"PXPXPXPXPXPXPXPXPXPXPXPXPXPXPXPXPXPXPXPXPXPXPXPXPXPXPX*.*.*.*.*.*.&.o.o.o.o.o.{ q 5 4 4 4 4 6 5 0 0 0 0 5 5 6 4 4 4 O O O O O + + PXPXPXPXPXPXPXPXPXo o + + O O 4 4 5 0 q } ..<.*.>.:.uXiXfXkXlXvXCXSXDXDXHXHXHXDXSXCXlXsX:.&.o.} 0 6 4 O O PXPXPXPXPXPXPXPXPXPX",
"PXPXPXPXPXPXPXPXPXPXPXPXPXPXPXPXPXPXPXPXPXPXPXPXPXPXPX{ ..o.&.*.*.X.{ } } ..o...} w 5 4 O O O O O 4 4 4 O O O O + + o o o o o o PXPXPXPXPXPXPXPXPXPX+ + + O O O 4 4 6 0 0 q [ } ..o.X.&.*.>.:.iXfXkXzXxXcXCXCXCXcXxXkXiX>.&...[ w 5 4 4 O PXPXPXPXPXPXPXPXPXPXPX",
"PXPXPXPXPXPXPXPXPXPXPXPXPXPXPXPXPXPXPXPXPXPXPXPXPXPXPXq q } { o.o.{ } [ } { o.o...} [ 0 4 + + + O O O O O O + + o o o o o PXPXPXPXPXPXPXPXPXPX4 4 4 O O O O 4 4 6 0 0 0 0 0 0 w q [ } } { o.o.&.*.;.:.uXuXiXiXiXuX:.;.&.o.} w 0 6 4 4 PXPXPXPXPXPXPXPXPXPXPXPXPX",
"PXPXPXPXPXPXPXPXPXPXPXPXPXPXPXPXPXPXPXPXPXPXPXPXPXPXPX6 5 0 0 q q w 0 0 q } { ....{ } 0 4 O O 4 4 6 4 4 4 O + + o o o o PXPXPXPXPXPXPXPXPXPXPX5 5 6 4 4 4 4 4 4 5 w q [ [ q q w 0 0 0 0 w q } { ..o.X.&.&.&.&.&.X.o...} q 0 6 4 O O O PXPXPXPXPXPXPXPXPXPXPXPXPX",
"PXPXPXPXPXPXPXPXPXPXPXPXPXPXPXPXPXPXPXPXPXPXPXPXPXPXPXO O 4 4 4 6 6 6 5 0 w [ } } } 1.0 6 4 6 0 q q w 0 6 4 O + o PXPXPXPXPXPXPXPXPXPXPXPXPXPX0 0 0 0 0 0 6 4 6 0 w } { o.o.o.} w 0 9 0 0 0 q [ } } { { { { { } } } [ w 0 6 4 O + + PXPXPXPXPXPXPXPXPXPXPXPXPXPX",
"PXPXPXPXPXPXPXPXPXPXPXPXPXPXPXPXPXPXPXPXPXPXPXPXPXo.[ 0 4 4 O O O O O 4 6 0 0 w q w w 0 6 6 5 0 w w 0 6 4 O + + o PXPXPXPXPXPXPXPXPXPXPXPXPXPX0 0 q } { { [ w 0 0 w [ { &.*.;.*.&.o...} b q w w w w q q w w w 0 0 0 0 5 4 4 O O + PXPXPXPXPXPXPXPXPXPXPXPXPXPXPX",
"PXPXPXPXPXPXPXPXPXPXPXPXPXPXPXPXPXPXPXPXX.X.X.&.&.&.o.} q 0 6 4 O O O O 4 4 5 5 5 5 5 6 6 4 6 5 5 6 4 O + o o o o PXPXPXPXPXPXPXPXPXPXPXPXPXPX5 0 [ o.&.&.X...} [ q q { &.>.uXiXiXiXuX;.&.o.{ } } [ [ q q w 0 0 5 6 4 4 O O O PXPXPXPXPXPXPXPXPXPXPXPXPXPXPXPXPX",
"PXPXPXPXPXPXPXPXPXPXPXPXPXPXPXPXPXPX=X$X$.+.&.*.:.:.:.>.*.o.} 0 6 4 O + O O 4 4 4 O O O O O O O O O + o     o PXPXPXPXPXPXPXPXPXPXPXPXPXPXPXPXO 4 0 { &.;.:.:.>.&.o.} { ..X.*.uXsXnXkXkXkXkXdXfXiXuX:.>.*.X...} w 0 4 4 O + + PXPXPXPXPXPXPXPXPXPXPXPXPXPXPXPXPX",
"PXPXPXPXPXPXPXPXPXPXPXPXPXPXPXPXPX*X&XS._ +.X.,.uXsXfXfXiX:.&.{ w 5 4 O + O O O O + + O O O O O O 4 4 4 4 4 PXPXPXPXPXPXPXPXPXPXPXPXPXPXPXPXPX4 4 0 [ o.*.uXfXfXiX:.*.o.....o.*.:.sXkXvXCXZXZXCXcXxXkXfXuX>.&...[ 0 6 4 O + o PXPXPXPXPXPXPXPXPXPXPXPXPXPXPXPXPX",
"PXPXPXPXPXPXPXPXPXPXPXPXPXPX,X*X%Xn.x.^ E T { %.>.iXfXdXdXsX:.&...[ 0 6 4 4 4 O O O O O 4 4 0 q } ..o.X.&.&.PXPXPXPXPXPXPXPXPXPXPXPXPXPXPXPXPXw w 0 0 0 } *.sXkXzXkXfXuX*.o...{ ..X.;.iXdXzXzXzXkXdXsXuX;.&...[ 0 6 4 O PXPXPXPXPXPXPXPXPXPXPXPXPXPXPXPXPXPXPXPX",
"PXPXPXPXPXPXPXPXPXPXPXPXPX%X%XF.n.z.k.x s 8 w { &.>.uXiXsXiXuX*.&...} w 0 5 6 4 4 O O O 4 6 w } o.*.>.:.uXuXPXPXPXPXPXPXPXPXPXPXPXPXPXPXPXPXPXo...} w 0 q o.:.fXzXxXvXzXiX;.X.{ 1.q } X.*.>.:.:.:.>.*.&.o.} q 0 4 O O O PXPXPXPXPXPXPXPXPXPXPXPXPXPXPXPXPXPXPXPX",
"PXPXPXPXPXPXPXPXPXPXPXPXPXl.l.l.l.PXPXPX# ; 6 w } o.&.*.;.>.;.*.*.&.o...} [ 0 5 4 O O O 4 6 0 q { X.*.:.uXuX:.:.>.PXPXPXPXPXPXPXPXPXPXPXPXPXPX;.*.&...} } } o.*.iXxXCXCXlXfX:.&.} w 0 w q [ } } } } } 1.w 0 6 4 2 O O O PXPXPXPXPXPXPXPXPXPXPXPXPXPXPXPXPXPXPXPX",
"PXPXPXPXPXPXPXPXPXPXPXPXPXPXPXq.PXPXPXPX@ + O 6 0 [ } ..o.X.&.*.*.;.>.>.*.&...} 0 6 4 4 4 5 0 w [ ..&.:.uXiXiXiXiX:.PXPXPXPXPXPXPXPXPXPXPXPXPX&.&.&.&.&.o.} q } *.fXxXcXvXlXdX:.&.} w 0 6 6 6 5 5 0 0 0 0 6 4 4 O O O PXPXPXPXPXPXPXPXPXPXPXPXPXPXPXPXPXPXPXPXPX",
"PXPXPXPXPXPXPXPXPXPXPXPXPXPXPXPXPXPXPXPXo + + O 4 5 0 q } { o.&.*.uXfXdXfXiX:.&.{ w 5 6 5 5 0 0 q } X.;.uXfXkXzXdXuX;.&.&.PXPXPXPXPXPXPXPXPXPX} } o.*.>.*...0 0 { ;.sXkXxXcXxXdX:.&.{ q 5 4 4 4 5 0 [ } q 0 4 4 4 PXPXPXPXPXPXPXPXPXPXPXPXPXPXPXPXPXPXPXPXPXPXPX",
"PXPXPXPXPXPXPXPXPXPXPXPXPXPXPXPXPXPXPXPXPXPX+ + O O 4 6 0 [ { &.>.sXlXvXvXlXdXuX&.} 0 5 5 5 0 0 q } X.*.uXfXxXvXxXdXiX:.;.*.=.PXPXPXPXPXPXPXPX0 q { &.;.*.o.q 0 q ..*.uXkXxXxXzXsX:.&.{ w 0 0 w [ ..o.X.{ w 6 4 PXPXPXPXPXPXPXPXPXPXPXPXPXPXPXPXPXPXPXPXPXPXPXPX",
"PXPXPXPXPXPXPXPXPXPXPXPXPXPXPXPXPXPXPXPXPXPXPXPXo + + O 4 0 } o.;.sXzXvXcXvXzXsX*.{ 0 5 6 6 5 0 q } o.&.:.sXkXxXxXkXsXuX;.&.X.o.PXPXPXPXPXPXPX6 0 q ..X.X...} q w w } &.uXkXzXkXdXiX>.X.{ } { o.X.*.*.*.o.[ 5 4 PXPXPXPXPXPXPXPXPXPXPXPXPXPXPXPXPXPXPXPXPXPXPXPX",
"PXPXPXPXPXPXPXPXPXPXPXPXPXPXPXPXPXPXPXPXPXPXPXPXo o + O O 4 0 q { &.:.iXiXuX:.*...w 6 4 4 4 4 5 0 q } { o.*.>.:.:.>.*.&...} [ q PXPXPXPXPXPXPXO O 6 0 } } { } } q 0 0 } *.uXfXfXfXiX:.&.o.o.&.*.;.*.&.o...} PXPXPXPXPXPXPXPXPXPXPXPXPXPXPXPXPXPXPXPXPXPXPXPXPXPX",
"PXPXPXPXPXPXPXPXPXPXPXPXPXPXPXPXPXPXPXPXPXPXPXPXo o + + O O 4 6 w { &.;.:.:.;.&...q 5 4 O O O 4 6 5 0 q } ..X.&.*.*.*.&.o.} q w PXPXPXPXPXPXPXo + O 4 5 0 q } } w 5 6 w ..*.:.uXiXiX:.&.o.X.&.;.*.X.} q w PXPXPXPXPXPXPXPXPXPXPXPXPXPXPXPXPXPXPXPXPXPXPXPXPXPXPX",
"PXPXPXPXPXPXPXPXPXPXPXPXPXPXPXPXPXPXPXPXPXPXPXPXPXPXPXo + O O 4 0 o.>.iXdXkXkXfX:.X.} 0 4 O O O O 4 5 w } o.*.:.iXdXkXdXpX,.&.o.PXPXPXPXPXPXPXPXPXPXO 4 4 5 0 0 6 4 4 6 q { X.*.>.:.*.o.{ { ..o.{ [ 0 4 4 PXPXPXPXPXPXPXPXPXPXPXPXPXPXPXPXPXPXPXPXPXPXPXPXPXPXPX",
"PXPXPXPXPXPXPXPXPXPXPXPXPXPXPXPXPXPXPXPXPXPXPXPXPXPXPXo + + O 4 q  .L.5XjXMXMXjX5XL.@.R 8 4 O O O 4 5 q { +.$.Y.5XjXMXjX5X4XL.L.PXPXPXPXPXPXPXPXPX+ + + O O 4 4 4 4 4 6 0 q } { o.o.{ [ w w q q q 0 4 O PXPXPXPXPXPXPXPXPXPXPXPXPXPXPXPXPXPXPXPXPXPXPXPXPXPXPXPX",
"PXPXPXPXPXPXPXPXPXPXPXPXPXPXPXPXPXPXPXPXPXPXPXPXPXPXPXo + + 2 6 b / S.-X=X8X7X8X>X-XS.^ c 6 2 O O 4 9 1.| / S.D.=X8X8X8X>X-XD.D.PXPXPXPXPXPXPXo o + + + + + + O 4 5 0 w q w w 0 0 5 6 6 4 6 5 0 0 0 PXPXPXPXPXPXPXPXPXPXPXPXPXPXPXPXPXPXPXPXPXPXPXPXPXPXPXPXPXPX",
"PXPXPXPXPXPXPXPXPXPXPXPXPXPXPXPXPXPXPXPXPXPXPXPXPXPXPXPX+ + O 4 8 / S.>X<XqXwXqX<X>X%XS.W 8 2 O O 4 9 q T _ S.=X<XqXwXqX7X,X*X&XPXPXPXPXPXPXPXO O O O O O 4 5 w } o.&.&.&.&.o.{ [ w 5 4 4 4 4 4 5 q o.PXPXPXPXPXPXPXPXPXPXPXPXPXPXPXPXPXPXPXPXPXPXPXPXPXPXPXPXPX",
"PXPXPXPXPXPXPXPXPXPXPXPXPXPXPXPXPXPXPXPXPXPXPXPXPXPXPXPXPXPX@ O 8 / -X8XqXrXeXrX0X,X*X&XPXPXPXPXPXPXPX0 T _ -X8XqXrXeXrXqX,X:X*XPXPXPXPXPXPXPX6 6 4 4 4 0 q ..&.;.uXiXfXfXfXiX:.*.o.} 0 6 4 4 4 5 [ o.&.*.PXPXPXPXPXPXPXPXPXPXPXPXPXPXPXPXPXPXPXPXPXPXPXPXPXPXPX",
"PXPXPXPXPXPXPXPXPXPXPXPXPXPXPXPXPXPXPXPXPXPXPXPXPXPXPXPXPXPXPXPXPX^ H.%X>X7X0X7X=XD.n.v.PXPXPXPXPXPXPXPXPXS.-X=X,X0XwXqX,X&XF.n.PXPXPXPXPX:.&.} q w 0 w } o.*.:.iXfXkXlXxXxXzXfXpX>.<.} w 9 6 4 6 0 } ..X.*.uXiXfXfXsX:.*.X.PXPXPXPXPXPXPXPXPXPXPXPXPXPXPXPXPXPX",
"PXPXPXPXPXPXPXPXPXPXPXPXPXPXPXPXPXPXPXPXPXPXPXPXPXPXPXPXPXPXPXPXPXPXz.z.n.F.%XF.v.l.k.PXPXPXPXPXPXPXPXPXPXPXm.F.&X:X,X>X&Xm.z.z.PXPXPXaXpX:.*.o.} [ [ } ..&.>.uXsXdXkXlXxXxXxXzXfXiX:.*.o.} q 0 5 5 0 w } X.;.:.uXuXuX>.&.X.o.PXPXPXPXPXPXPXPXPXPXPXPXPXPXPXPXPX",
"PXPXPXPXPXPXPXPXPXPXPXPXPXPXPXPXPXPXPXPXPXPXPXPXPXPXPXPXPXPXPXPXPXPXPXPXk.k.k.k.k.PXPXPXPXPXPXPXPXPXPXPXPXPXPXPXPXv.v.v.z.PXPXPXM.F.G.L.>.*.<.{ [ q [ } o.&.>.uXiXsXfXfXdXkXkXkXdXfXfXsXpX>.&.{ 1.0 5 6 9 w } } ....o.o.o.o.X.=.;.>.>.>.>.PXPXPXPXPXPXPXPXPXPXPX",
"PXPXPXPXPXPXPXPXPXPXPXPXPXPXPXPXPXPXPXPXPXPXPXPXPXPXPXPXPXPXPXPXPXPXPXPXPXPXl l PXPXPXPXPXPXPXPXPXPXPXPXPXPXPXPXPXPXq.k.k.PXPXPXm.n.S.N.+.o.{ 1.w w q [ { X.*.>.:.:.uXuXuXiXsXfXdXnXdXhX4X4XL.$.@./ / R T 8 6 4 6 5 0 [ { X.*.>.yX3X3XY.Y.4X1XPXPXPXPXPXPXPXPXPX",
"PXPXPXPXPXPXPXPXPXPXPXPXPXPXPXPXPXPXPXPXPXPXPXPXPXPXPXPXPXPXPXPXPXPXPXPXPXPXPXPXPXPXPXPXPXPXPXPXPXPXPXPXPXPXPXPXPXPXPXPXPXm.m.n.z.c.P E T q w 0 0 0 0 w [ { o.&.&.&.*.*.*.>.tXgXdXdX5XU.Z.H.D.-X=X8X8X2X$XR ; + + 4 5 q { &.>.iXfXhX5X1X-X*X,X7X7XPXPXPXPXPXPXPX",
"PXPXPXPXPXPXPXPXPXPXPXPXPXPXPXPXPXPXPXPXPXPXPXPXPXPXPXPXPXPXPXPXPXPXPXPXPXPXPXPXPXPXPXPXPXPXPXPXPXPXPXPXPXPXPXPXPXPXPXPXPXn.v.l.k.z x j 8 5 5 6 6 6 6 5 0 q } } } { { ..o.X.*.uXsXfX5XG.v.n.m.&X>X<XqXqX8X$X_ Y 8 5 5 q ..&.-.Y.Y.1XU.D.%X:X,X7X0XqXPXPXPXPXPXPX",
"PXPXPXPXPXPXPXPXPXPXPXPXPXPXPXPXPXPXPXPXPXPXPXPXPXPXPXPXPXPXPXPXPXPXPXPXPXPXPXPXPXPXPXPXPXPXPXPXPXPXPXPXPXPXPXPXPXPXPXPXPXk.k.q.z l x a , 4 2 O O O 4 4 4 6 5 0 0 0 0 w q } o.,.uXaXY.Z.x.z.n.m.%X:X,X7X7X7X,X-X_ c 5 q { +.@.~ c.c.z.n.F.*X,X7X0XqXwXwXwXPXPXPX",
"PXPXPXPXPXPXPXPXPXPXPXPXPXPXPXPXPXPXPXPXPXPXPXPXPXPXPXPXPXPXPXPXPXPXPXPXPXPXPXPXPXPXPXPXPXPXPXPXPXPXPXPXPXPXPXPXPXPXPXPXPXz z z z l k - # O O O + + O O O O O O O O 4 4 5 0 } o.=.-.$.~ k.k.k.l.v.m.&X:X,X7X7X=X_ c 4 9 q [ Y x z q.k.l.v.m.%X*X,X,X<X7X<X,X>X>X",
"PXPXPXPXPXPXPXPXPXPXPXPXPXPXPXPXPXPXPXPXPXPXPXPXPXPXPXPXPXPXPXPXPXPXPXPXPXPXPXPXPXPXPXPXPXPXPXPXPXPXPXPXPXPXPXPXPXPXPXPXPXl l l PXPXPXPXO O + + + o o o o o o o o o + O 4 5 0 [ O. ./ x z z z q.l.z.n.%X:X,X,X=X_ 8 2 2 6 7 s k x z z q.k.z.n.m.%X*X:X:X:X:X:X:X",
"PXPXPXPXPXPXPXPXPXPXPXPXPXPXPXPXPXPXPXPXPXPXPXPXPXPXPXPXPXPXPXPXPXPXPXPXPXPXPXPXPXPXPXPXPXPXPXPXPXPXPXPXPXPXPXPXPXPXPXPXPXPXPXPXPXPXPXPXPXPXPXPXPXPXPXPXPXPXPXPXPXPXPXPXPXPXPXPXPXPXPXPXPXPXPXPXPXPXPXPX&X*X&X%XS.PXPXPXPXPXPXPXPXPXPXPXPXPXPXPXPXPXPXPX&X&X%X%X",
"PXPXPXPXPXPXPXPXPXPXPXPXPXPXPXPXPXPXPXPXPXPXPXPXPXPXPXPXPXPXPXPXPXPXPXPXPXPXPXPXPXPXPXPXPXPXPXPXPXPXPXPXPXPXPXPXPXPXPXPXPXPXPXPXPXPXPXPXPXPXPXPXPXPXPXPXPXPXPXPXPXPXPXPXPXPXPXPXPXPXPXPXPXPXPXPXPXPXPXPXPXm.m.m.PXPXPXPXPXPXPXPXPXPXPXPXPXPXPXPXPXPXPXPXPXm.m.m."
};
