/* XPM */
static const char *bos2a5[] = {
/* columns rows colors chars-per-pixel */
"128 128 244 2 ",
"   c #0C0C0C",
".  c #141414",
"X  c #1C1C1C",
"o  c #181816",
"O  c #10190B",
"+  c #360A0B",
"@  c #291B0C",
"#  c #351D0D",
"$  c #261B17",
"%  c #371919",
"&  c #290D0E",
"*  c #13290C",
"=  c #172614",
"-  c #1C3C13",
";  c #1A3414",
":  c #142E0E",
">  c #2C230C",
",  c #29221A",
"<  c #342313",
"1  c #3D2A16",
"2  c #392718",
"3  c #333211",
"4  c #1D1F21",
"5  c #1E2222",
"6  c #242424",
"7  c #2B2C2C",
"8  c #292826",
"9  c #362A27",
"0  c #38342A",
"q  c #2D3132",
"w  c #343434",
"e  c #3C3C3C",
"r  c #393836",
"t  c #2A3529",
"y  c #470707",
"u  c #570504",
"i  c #471717",
"p  c #581715",
"a  c #491A0B",
"s  c #660303",
"d  c #780404",
"f  c #671918",
"g  c #761717",
"h  c #69190F",
"j  c #562609",
"k  c #422E1B",
"l  c #472A15",
"z  c #45321B",
"x  c #4B341C",
"c  c #4D371B",
"v  c #54391C",
"b  c #4F280F",
"n  c #672A05",
"m  c #742C01",
"M  c #782E01",
"N  c #6A360C",
"B  c #7B3302",
"V  c #773808",
"C  c #6D3616",
"Z  c #463726",
"A  c #563C22",
"S  c #463937",
"D  c #502E2D",
"F  c #692828",
"G  c #6E3730",
"H  c #1E4215",
"J  c #244C1A",
"K  c #214618",
"L  c #28551D",
"P  c #374718",
"I  c #305827",
"U  c #2E6222",
"Y  c #326A26",
"T  c #326926",
"R  c #38772C",
"E  c #3D7E30",
"W  c #734816",
"Q  c #5A4225",
"!  c #4A4339",
"~  c #574838",
"^  c #505532",
"/  c #674626",
"(  c #754D2A",
")  c #7B522D",
"_  c #705036",
"`  c #716633",
"'  c #4C5A2B",
"]  c #393941",
"[  c #3D4343",
"{  c #434343",
"}  c #4B4B4B",
"|  c #484847",
" . c #544A48",
".. c #4D5252",
"X. c #545454",
"o. c #5B5C5C",
"O. c #585756",
"+. c #50504E",
"@. c #655848",
"#. c #645A57",
"$. c #725249",
"%. c #4F664A",
"&. c #716554",
"*. c #565863",
"=. c #5D6363",
"-. c #646464",
";. c #6B6C6C",
":. c #686866",
">. c #6E7171",
",. c #737374",
"<. c #7C7C7C",
"1. c #787976",
"2. c #746F6B",
"3. c #403E40",
"4. c #8B0101",
"5. c #840404",
"6. c #980302",
"7. c #851515",
"8. c #991717",
"9. c #AC0000",
"0. c #A50505",
"q. c #BC0101",
"w. c #B50505",
"e. c #A91616",
"r. c #B61616",
"t. c #833C04",
"y. c #813F08",
"u. c #8D3131",
"i. c #B22F2F",
"p. c #C30101",
"a. c #CB0101",
"s. c #C70C0C",
"d. c #D50101",
"f. c #DB0101",
"g. c #DA0D0D",
"h. c #CE1717",
"j. c #E30000",
"k. c #EB0000",
"l. c #E70A0A",
"z. c #F30101",
"x. c #FC0000",
"c. c #F40A0A",
"v. c #E01D1D",
"b. c #CE2F2F",
"n. c #E72727",
"m. c #864207",
"M. c #8D4B0B",
"N. c #894509",
"B. c #914E0A",
"V. c #96550E",
"C. c #854A15",
"Z. c #895218",
"A. c #9A5B13",
"S. c #965612",
"D. c #9C6316",
"F. c #946B1B",
"G. c #A56C19",
"H. c #A46816",
"J. c #AE7A1F",
"K. c #AA741C",
"L. c #B17A1D",
"P. c #865833",
"I. c #905A28",
"U. c #99633B",
"Y. c #926F2E",
"T. c #B17D21",
"R. c #A7772A",
"E. c #A25E14",
"W. c #8B534D",
"Q. c #8D7150",
"!. c #AF7145",
"~. c #847B78",
"^. c #92756E",
"/. c #AB6F6B",
"(. c #AA5151",
"). c #C37659",
"_. c #3E8431",
"`. c #428B35",
"'. c #47973B",
"]. c #7C8533",
"[. c #4DA542",
"{. c #51AD46",
"}. c #56B74B",
"|. c #4B9F40",
" X c #5DC853",
".X c #5CC853",
"XX c #63D65B",
"oX c #60CE56",
"OX c #6FEE67",
"+X c #67E05F",
"@X c #B88826",
"#X c #BE922B",
"$X c #AF9034",
"%X c #968C35",
"&X c #C39A2F",
"*X c #C1962C",
"=X c #C49D31",
"-X c #CAA738",
";X c #D3B33E",
":X c #D0AF3B",
">X c #8E8351",
",X c #8F8574",
"<X c #AE9D52",
"1X c #D7BB43",
"2X c #C7B048",
"3X c #CB8253",
"4X c #DBC54B",
"5X c #E8D654",
"6X c #E3CC4B",
"7X c #EEE05A",
"8X c #2B2B9E",
"9X c #737492",
"0X c #2020CD",
"qX c #7D8383",
"wX c #838384",
"eX c #8B8B8B",
"rX c #888987",
"tX c #939393",
"yX c #9B9B9B",
"uX c #999796",
"iX c #90908F",
"pX c #A99B93",
"aX c #ACA299",
"sX c #9DA2A2",
"dX c #A3A4A4",
"fX c #ABABAB",
"gX c #A7A8A7",
"hX c #B3B3B4",
"jX c #BCBCBC",
"kX c #B8B8B6",
"lX c #B2AFAC",
"zX c #9D9FA1",
"xX c #C4C4C4",
"cX c #CCCCCC",
"vX c #C4C9C9",
"bX c #D4D4D4",
"nX c #DBDBDB",
"mX c #CFD0D0",
"MX c #E3E3E3",
"NX c #ECECEC",
"BX c #F0F0F0",
"VX c #BDBCBA",
"CX c None",
"ZX c black",
/* pixels */
"CXCXCXCXCXCXCXCXCXCXCXCXCXCXCXCXCXCXCXCXCXCXCXCXCXCXCXCXCXj.f.p.9.6.4.d F #.:.>.1.<.wXeXeXtXtXeXrXeXtXtXtXtXtXtXtXtXtXtXtXtXeXwX<.1.;.-.o.O...| D f d 4.9.a.j.x.x.CXCXCXCXCXCXCXCXCXCXCXCXCXCXCXCXCXCXCXCXCXCXCXCXCXCXCXCXCXCXCXCXCXCXCXCXCXCXCXCXCXCXCXCXCXCXCX",
"CXCXCXCXCXCXCXCXCXCXCXCXCXCXCXCXCXCXCXCXCXCXCXCXCXCXCXCXd.a.p.9.6.5.7.F $.:.,.1.<.wXeXtXyXyXyXyXyXyXyXdXdXdXgXgXgXgXdXdXdXdXyXtXrXwX1.;.-.-.o.X. .F f 7.6.q.f.z.x.CXCXCXCXCXCXCXCXCXCXCXCXCXCXCXCXCXCXCXCXCXCXCXCXCXCXCXCXCXCXCXCXCXCXCXCXCXCXCXCXCXCXCXCXCXCXCX",
"CXCXCXCXCXCXCXCXCXCXCXCXCXCXCXCXCXCXCXCXCXCXCXCXx.x.z.f.p.9.4.d s f $.&.2.<.wXrXeXtXyXgXfXhXkXkXhXhXkXkXjXxXxXxXxXxXxXxXxXxXkXhXgXtXrX<.1.,.;.-.#.X.~ F g 6.q.j.z.x.x.CXCXCXCXCXCXCXCXCXCXCXCXCXCXCXCXCXCXCXCXCXCXCXCXCXCXCXCXCXCXCXCXCXCXCXCXCXCXCXCXCXCXCXCXCX",
"CXCXCXCXCXCXCXCXCXCXCXCXCXCXCXCXCXCXCXCXCXCXCXx.x.k.d.q.0.7.F F F  .:.1.qXwXeXtXyXdXgXhXjXxXcXcXcXcXcXcXbXbXnXbXbXbXbXbXbXbXcXjXhXdXtXrXwX1.1.>.:.=.X.S F g 6.p.f.z.c.h.CXCXCXCXCXCXCXCXCXCXCXCXCXCXCXCXCXCXCXCXCXCXCXCXCXCXCXCXCXCXCXCXCXCXCXCXCXCXCXCXCXCXCXCX",
"CXCXCXCXCXCXCXCXCXCXCXCXCXCXCXCXCXCXCXCXCXx.x.x.z.d.9.5.g G O.#.:.2.<.wXwXrXeXtXyXgXhXkXxXcXbXbXnXnXnXnXMXMXMXMXMXMXMXMXnXnXcXxXhXgXyXeXrXwX1.,.;.-.O.| S D g 0.a.j.l.i.$.:.;.,.,.,.;.;.-.-.CXCXCXCXCXCXCXCXCXCXCXCXCXCXCXCXCXCXCXCXCXCXCXCXCXCXCXCXCXCXCXCXCXCX",
"CXCXCXCXCXCXCXCXCXCXCXCXCXCXCXCXCXCXCXCXCXx.x.k.f.w.7.F D +.o.:.>.1.wXrXeXiXtXdXgXhXjXxXcXbXnXnXMXMXMXMXNXNXNXNXNXNXNXMXMXnXbXcXjXhXgXyXtXrXwX1.;.-.o...{ S f 6.q.f.g.i.^.qXeXtXtXtXtXrXwXwXwXCXCXCXCXCXCXCXCXCXCXCXCXCXCXCXCXCXCXCXCXCXCXCXCXCXCXCXCXCXCXCXCXCX",
"CXCXCXCXCXCXCXCXCXCXCXCXCXCXCXCXCXCXCXCXCXx.z.f.q.8.F  .} O.o.-.;.1.wXeXtXtXyXgXhXjXxXcXbXnXnXMXMXMXMXNXNXNXNXNXNXNXNXMXMXnXbXcXxXjXhXgXyXtXwX1.,.;.-.X.| S f 5.9.a.g.b./.yXfXhXjXkXhXfXgXyXeXwX1.;.-.CXCXCXCXCXCXCXCXCXCXCXCXCXCXCXCXCXCXCXCXCXCXCXCXCXCXCXCXCX",
"CXCXCXCXCXCXCXCXCXCXCXCXCXCX{ [ { G r.c.x.x.k.a.9.7.G X.O.o.-.;.,.1.wXeXtXtXzXfXjXxXcXbXbXnXnXMXMXMXNXNXNXBXNXNXNXNXNXNXMXnXbXbXcXxXjXhXgXyXeXwX1.2.-.o.} S f 5.0.p.g.v.b.).pXlXjXjXkXhXgXyXtXwX<.,.;.;.-.-.o.CXCXCXCXCXCXCXCXCXCXCXCXCXCXCXCXCXCXCXCXCXCXCXCXCX",
"CXCXCXCXCXCXCXCXCXCXCXCXCX| | | } G r.c.x.z.j.q.4.g G X.=.-.;.,.1.<.wXrXtXtXdXhXjXcXcXbXnXnXnXnXMXMXNXNXNXNXNXNXNXNXNXNXMXnXnXbXcXxXjXhXgXyXeXwX1.,.;.o...S F g 6.q.f.j.k.v.(.uXsXgXgXgXyXtXiXwX<.1.;.;.-.o.o.O.O.CXCXCXCXCXCXCXCXCXCXCXCXCXCXCXCXCXCXCXCXCXCXCX",
"CXCXCXCXCXCXCXCXCXCXCXX.O.o.o.o.o.$.i.c.x.z.d.6.p D S +.o.-.;.,.1.<.wXrXiXyXgXhXjXcXbXnXnXnXnXnXMXMXNXNXNXBXBXBXNXNXNXNXMXnXnXbXcXxXhXgXyXtXwX<.1.;.-.O.X.| S D g e.d.k.k.h.u.2.,.<.wXwXwX,X<.1.;.-.=.O.O.O.o.O.O.O.CXCXCXCXCXCXCXCXCXCXCXCXCXCXCXCXCXCXCXCXCXCX",
"CXCXCXCXCXCXCXCXCXCX-.-.;.1.qX<.>.W.b.c.x.z.a.7.9 7 r { O.-.;.,.1.<.wXrXtXyXgXhXjXcXbXnXnXnXnXnXnXMXMXNXNXNXNXNXNXNXMXMXMXnXnXbXcXkXgXyXtXrX<.1.,.;.-.O.O.} [ S F e.d.k.k.h.u.#.=.>.1.wXwXwXwX<.1.;.-.o.O.O.O.O.X.X.X.CXCXCXCXCXCXCXCXCXCXCXCXCXCXCXCXCXCXCXCXCX",
"CXCXCXCXCXCXCXCXO.-.1.rXuXdXgXsXiX/.b.c.x.k.p.g % 5 q e | O.-.;.1.<.wXeXtXdXgXhXkXxXcXbXnXnXnXnXMXMXMXMXMXMXMXMXMXMXMXnXnXnXbXcXjXhXgXyXeXwX1.,.;.-.-.o.O.X.| { F e.d.k.k.h.(.~.qXtXyXgXhXhXhXfXgXyXiXwX,.-.O.| { { { { { CXCXCXCXCXCXCXCXCXCXCXCXCXCXCXCXCXCXCX",
"CXCXCXCXCXCXCXo.-.1.tXfXjXxXxXhXsX/.b.c.x.k.p.g % 5 7 r { X.o.;.,.1.wXrXtXyXgXgXfXhXjXxXcXbXbXnXnXnXnXnXnXnXnXnXnXnXnXbXbXbXcXxXhXgXyXtXrX<.1.;.;.-.-.-.o.X.} { F e.d.k.k.v.(.~.eXeXiXyXgXlXlXaXaXuXrX~.2.:.o.O.+.| { { { { CXCXCXCXCXCXCXCXCXCXCXCXCXCXCXCXCXCX",
"CXCXCXCXCXCX| -.wXyXhXcXbXbXcXkXsX/.b.l.z.k.a.7.% 5 7 w { X.o.-.;.1.1.<.rXtXyXdXgXgXfXhXkXjXxXcXcXcXcXcXcXcXbXbXbXbXbXcXcXxXjXkXhXgXuXeXwX<.,.;.-.;.;.-.o.X.| S F e.d.k.j.h.(.2.:.@.~ _ $.&.&.&.$._ ~ ~ ~ @.;.,.>.-.o.X.| | CXCXCXCXCXCXCXCXCXCXCXCXCXCXCXCXCXCX",
"CXCXCXCXCX| X.;.tXhXcXbXnXbXxXhXyX^.i.g.k.k.a.7.% 6 8 7 e } O.-.;.;.,.1.<.wXeXtXyXyXdXgXfXhXkXjXxXxXxXcXcXcXcXcXmXcXcXxXxXkXhXfXgXyXtXrXwX1.,.;.-.-.-.-.O.X.[ e F e.f.j.f.r.u.@.| Z k c Q ( ( ( / v v v / _ &.2.2.&.#. .! ! CXCXCXCXCXCXCXCXCXCXCXCXCXCXCXCXCXCX",
"CXCXCXCXCXO.-.1.yXhXvXbXcXxXhXsXiX^.i.s.f.j.a.7.% 5 6 8 r { X.O.-.:.;.;.,.1.qXwXeXtXyXdXfXhXhXkXkXjXjXxXxXcXcXcXcXcXcXxXjXhXfXgXyXtXeXwX<.1.,.;.-.-.o.O.O.} [ r F r.f.f.a.0.g Z Z z c Q ( P.U.U.P.( ( ) P.P._ _ _ _ / A Z Z CXCXCXCXCXCXCXCXCXCXCXCXCXCXCXCXCXCX",
"CXCXCXCX| o.;.<.tXgXhXjXkXfXdXiXqXW.i.w.d.j.a.7.% 5 5 8 w e | X.O.o.-.;.;.,.1.wXrXeXtXyXdXgXgXfXfXhXkXjXxXxXxXxXxXxXxXjXhXfXgXdXyXtXrXwX1.,.;.;.-.o.O.X.} | [ e F r.f.f.q.6.h l z A / / ( P.!.!.!.P.P.P.U.U.P.) ( / / / Q A z CXCXCXCXCXCXCXCXCXCXCXCXCXCXCXCXCX",
"CXCXCXr { O.;.1.wXtXyXdXyXtXrX<.;.$.u.w.a.f.a.7.% 5 5 8 7 r { | } O.o.-.;.;.1.<.wXwXrXeXtXyXyXyXdXgXhXkXjXjXxXxXjXjXkXhXhXgXgXdXyXtXwX<.1.,.;.;.-.O.X.} } } [ S F r.f.d.9.4.h x A ( ( ( ( P.!.).!.!.U.P.P.U.!.U.) / / ) P.( Z 1 CXCXCXCXCXCXCXCXCXCXCXCXCXCXCXCX",
"CXCXCXe { O.-.,.1.<.wXrXrXwX1.;.o. .7.0.p.d.p.g % 5 5 8 7 r e { | +.O.o.-.;.;.1.<.wXwXwXrXrXeXtXyXgXfXhXhXhXhXhXhXhXhXfXfXgXgXdXyXeX<.1.1.,.,.>.;.o.X.| { [ [ e F e.d.a.9.5.p x Q ) P.( ( P.!.).3X).!.U.) P.!.!.P.( / ) ) ( / A z 1 CXCXCXCXCXCXCXCXCXCXCXCXCXCX",
"CXCXCX{ { X.O.-.;.,.1.1.1.,.;.=.X.S g 6.q.a.q.7.% $ 6 8 q r e { | X.O.-.-.;.,.1.1.<.<.<.9XwXwXeXtXyXgXgXgXgXgXgXgXgXgXgXgXgXgXdXtXrX<.1.<.wX<.1.,.-.O.} { e e S g e.a.q.6.d p x Q ) P.) ( ) U.!.3X3X!.U.( ) U.U.P.) ( ( ( ( ( ( v 1 < CXCXCXCXCXCXCXCXCXCXCXCXCX",
"CXCXCXe { | X.O.o.-.-.-.-.o.O.X.| S f 4.9.q.q.0.5.f k 7 q r [ ..-.;.1.wXeXtXeXwX1.1.1.1.1.<.wXrXtXtXyXyXyXyXdXdXdXdXdXdXdXdXyXtXrXwX<.rXyXdXdXyXtXrX<.:...{ G 8.e.q.q.9.4.d j v / ( ) ) ) P.P.U.!.3X).U.) ( ) ) P.P.( / A / ( ( A z 1 CXCXCXCXCXCXCXCXCXCXCXCXCX",
"CXCXCXe { { } X.O.O.O.O.O.X.} } { S p d 4.6.9.q.q.0.f D Z S S O.;.1.wXeXyXgXdXtXwX1.,.,.1.<.wXwXrXeXtXtXtXtXyXyXyXyXyXyXyXtXeXwXwXwXrXuXgXlXgXyXtXtXwX,.#.G e.g.f.p.9.4.d s C A / / ( ( P.P.) ) U.!.!.U.P.( / / ( ) ( A z A / / A x z CXCXCXCXCXCXCXCXCXCXCXCXCX",
"7 w e { { } X.O.O.O.O.O.O.} | { e r k i p d 4.0.9.9.0.8.8.8.7.F { [ | ..;.wXyXdXdXtX1.;.,.1.1.<.wXwXwXrXeXtXtXtXtXtXtXeXrXwXwXwXwXtXsXyXtXwX;.O.....+.G i.h.g.j.d.9.4.d s u C / / A Q ( ) ) / / ) U.U.U.P.( v z v v v z 1 l l l l k 1 1 < CXCXCXCXCXCXCXCXCXCXCX",
"7 w r e { } X.X.X.X.X.X.} | { e r w 7 8 % p s d 4.6.9.q.p.p.0.g i $ $ % S o.1.yXgXyX1.;.-.;.;.,.,.1.1.<.wXwXwXwXwXrXrXwXwX<.<.<.rXyXgXtX;.+.S % % % i 7.p.j.f.a.9.4.d s u a v / Q v v / ( ( Q Q / ( ( ( ( / Q ~ ~ ~ ~ ~ ~ ~ ~ ~ ~ ~ ~ ~ ! ~ CXCXCXCXCXCXCXCXCXCX",
"8 8 7 r e e [ { { { { { e r w 7 8 8 8 7 9 Z D p s d 5.4.6.6.6.4.d d s u i 9 } 1.tXrX,.-.o.o.o.-.-.;.,.,.1.1.1.1.1.<.wXwX<.1.<.<.wXeXeX>.{ 8 i d 5.6.6.w.p.p.9.6.5.s u y a l v / Q c c Q / / v c x v v x A ~ &.~.,XrXtXaXgXlXkXkXkXlXaXeX,X~.wXwXCXCXCXCXCXCXCXCX",
"X 6 8 8 7 w r r e r r w 7 8 8 8 7 w r e e e w i y u u s s d d 5.4.4.d s y $ w -.wX1.-.X.X.X.X.O.O.o.-.;.;.;.;.;.;.,.1.1.1.,.,.1.1.wX1.o.7 & u 4.9.q.q.q.9.6.5.d s u y # 1 z v A v v c v A v x x Z Z Z Z S @.1.iXtXuXdXlXkXvXmXbXcXjXfXyXrX<.1.>.:.CXCXCXCXCXCXCX",
". o X 8 8 w r r r w 7 8 8 8 7 r { | X.O.} e q , @ @ % % i u u s s s u u + $ w O.;.-.} { { { | | X.O.o.-.-.-.-.-.-.;.;.:.-.-.-.-.;.1.1.o.7 & y d 4.4.4.4.d d s u y + $ $ < 1 z c v v v x z k k z S  .X.o.#.-.;.>.;.;.;.>.1.<.wXwX<.,.-.o.O.O.O.X...} CXCXCXCXCXCX",
"o X 8 w e { } X.O.X.| { { { { } O.o.o.O.} r 8 , $ $ , 8 % % y y y i i i % 9 e | X.} e r e e { { | } O.O.O.o.o.o.o.o.O.O.O.X.X.X.O.-.-.O.e 9 D F g g f f p p y y + $ X $ < 1 k z c v v z 1 2 9 S ! | ..X.O.@.$.W.u.u.G  .| ..O.O.} { e r r D G G G G G CXCXCXCXCX",
"6 8 r | O.-.,.<.wXwX<.1.;.-.-.-.-.-.O.| r 9 < > < < , 6 6 6 8 8 9 9 9 w e 3.{ e r r w w r e e { { | } X.X.X.O.O.O.O.} } | { { | | } X.X.O.O.#.#.@. .S S S 9 8 6 $ X X $ < 2 1 k x v c z 1 9 S ! S e w q 9 F 8.s.g.s.e.F S [ } | { e w 7 9 g e.s.w.w.w.CXCXCXCXCX",
"8 8 r { O.-.,.<.wXwX<.1.>.-.o.O.O.} ! r 9 < > > < < , , 6 6 6 6 6 8 7 8 7 w q 8 8 8 7 7 7 7 w r e { | | | | } } +.} | { { ] { { { e e { | } ....} [ r w q 7 6 5 X X o o $ $ < 2 k x x Z 9 0 r e r w q q 9 g w.k.z.k.s.u.X.=.;.;.;.o...[ S 7.a.j.j.f.j.z.CXCXCXCX",
"6 8 7 r { } O.o.-.-.-.o.O.} { e e 0 9 2 < # @ @ > , $ X 4 6 6 6 6 6 6 6 6 6 8 8 7 r e e e r w w r e { { { { { | } { { { e e e e e r r w r e e { [ e r w 8 8 8 8 6 X . . . o $ < 1 k k 0 r r 7 7 7 r e [  .u.h.z.x.j.h.(.~.tXdXgXdXtX<.:.@.u.s.f.f.j.k.x.x.CXCXCX",
"6 6 8 9 0 S S ! ! ! ~ ~ ! S S 0 0 0 2 < # # # # < , $ X 8 7 r e { } X.O.o.-.;.,.1.wXrXrXwX1.-.X.{ e e e e { { { { { ! e e e r w r { } o.;.1.9XwXwX<.1.,.;.-.o.X.{ w 8 X X o $ < < 2 2 0 r w 8 8 w { X.=.2.(.v.x.x.j.b./.dXkXvXcXxXhXyXwX2.$.u.e.s.j.z.x.x.CXCXCX",
"CXCXCX< 2 1 k k k k z c x z k x c c k 2 < # # # < < , 8 7 e | o.;.1.rXtXyXgXhXjXcXbXnXnXbXxXgXwX-.X.{ e e e e e e e e e e e r r { -.<.yXhXxXcXbXcXcXxXjXhXgXtXwX;.} e 8 6 X CXCXCX< 2 9 7 7 8 7 3.O.>.qXiX/.n.x.z.j.b./.lXvXbXnXmXxXfXtX1.-.X.G e.f.z.x.x.CXCXCX",
"CXCXCX< < 1 z k 1 1 z c c k k z A c z 1 < # @ @ < , 8 7 r { } o.;.1.wXtXyXgXhXjXcXbXnXnXMXMXbXkXyX1.O.{ r q 7 w r r r w 7 r { o.1.yXjXcXbXnXnXbXbXcXcXjXhXdXeX<.-.X.e w 8 6 CXCXCX9 9 8 8 8 w e X.;.wXtXuX).n.x.k.d.b./.fXjXxXxXjXfXyXwX1.=.o.$.e.a.k.z.x.CXCXCX",
"CXCXCX> < 1 z k 1 1 z c c z k z Z Z x z 1 < @ @ > , 8 7 e { } X.O.-.,.wXrXtXyXgXhXjXxXcXnXMXMXnXvXyX;.| w 8 8 8 7 7 7 8 8 7 } 1.dXxXMXMXnXbXcXxXxXxXkXfXyXrX1.;.o.} e w 8 8 CXCXCX7 7 8 8 7 e } -.1.rXtXuX/.n.z.j.p.i./.uXgXfXgXyXtXwX1.;.=.O.G 8.w.f.z.x.CXCXCX",
"CXCXCX@ > < 1 1 1 1 z c c z k 1 k k x A x 1 > @ @ $ , 8 w e { { | O.-.;.,.1.wXtXdXfXhXxXcXbXnXnXbXgX,.} w 6 X X 6 6 6 X X 6 | 1.yXkXcXbXcXxXxXjXhXhXgXyXeXwX,.-.O.{ e w 8 8 CXCXCX6 6 8 8 r { O.-.,.1.qX~.(.v.k.f.q.8.W.1.rXeXeXrX<.,.-.O...| D g 6.a.k.x.CXCXCX",
"CXCXCX@ # # < 2 1 k z z z z k 1 < 1 x A v k < @ @ $ $ , 8 w e e { | X.o.-.;.1.wXtXyXgXhXjXxXxXjXhXtX;.O.{ { e { { { { e r e +.;.wXtXyXgXgXgXfXfXgXdXyXeXwX,.-.O.| e w 8 8 6 CXCXCXX X 8 7 e } O.-.-.:.:.-.W.h.j.a.9.7.G o.:.>.,.;.-.O.} { e r D f 4.q.j.x.CXCXCX",
"CXCXCXCXCX@ > < 1 k 1 < 1 z z 1 > < 1 x x z 1 < @ @ $ $ , 7 r e { | X.O.-.;.,.<.wXtXyXgXfXhXyX1.-.o.-.;.<.eXyXgXfXgXgXyXiXwX,.-.o.o.-.;.1.wXtXyXyXtXrX<.;.-.X.{ e w 8 8 X X CXCXCXX X 8 w e | X.O.O.o.X.X.u.h.f.p.6.g D S { } } | { e r 7 7 8 % s 4.q.d.k.CXCXCX",
"CXCXCXCXCX0 Z ! ~ @.@.@.@.@.&.@.! Z 0 1 1 1 1 < @ @ @ @ $ 6 7 r e { } O.o.-.;.,.1.<.wXrXeXwX,.X.{ X.;.rXzXhXxXcXbXbXcXxXhXdXrX;.O.| { { X.-.,.wXwXwX1.;.o.+.{ e w 8 6 X X X CXCXCXX X 7 w e { { | } |  .G 8.r.p.9.d u % 8 7 q w w 7 8 8 6 X X % u 5.9.a.j.CXCXCX",
"CXCXCXCXCX-.:.,.rXuXfXkXjXjXlXdXrX;.! < @ > < < > @ @ @ o X 6 7 e e { | X.O.o.-.-.;.;.;.O.| { | O.,.eXyXdXgXgXgXgXgXgXdXsXuXeX9X;.O.{ e r e } -.-.-.o.O.} { e w 8 6 X X CXCXCXCXCXX X 8 7 w r r r e D 8.s.s.w.0.5.s y % $ 5 5 6 6 6 6 6 6 X X $ y d 0.a.j.CXCXCX",
"CXCXCXCXCX;.,.1.rXtXdXhXkXhXfXdXuX9X#.! S S S Z 0 9 , $ X X X 8 7 r e { { } X.O.O.O.X.| e w e X.:.<.iXtX9X9X9XrXrXrXrX^./././.~.,.=.} e 7 8 r { } } } { e r w 8 6 X X . CXCXCXCXCXX X 6 8 7 7 7 D F 7.w.a.p.6.d s y % 8 8 8 8 8 8 8 7 8 8 6 X $ y s 6.p.j.CXCXCX",
"CXCXCX-.-.o.o.O.O.o.-.;.;.;.;.,.1.<.<.<.,.;.-.O.| S w 7 6 X X 6 8 7 w e e { | | | { e r 7 w { o.,.1.1.9X8X0X8X9X,.,.,.W.b.v.i.$.=.=.O.{ w 8 7 w e e e r 7 8 6 X X . . . CXCXCXCXCXX X 6 8 6 6 9 g w.a.p.9.4.s u i 9 r S { | } } | { ] e w 7 8 $ y s 4.q.f.CXCXCX",
"CXCXCXO.O.+.} @.&.Q.>X>X>X>XQ.>X>X>X>X,X,X1.>.=.} { r 8 6 X X X X 6 8 7 w r e e e w 8 8 8 w { X.o.O.O...8X8X8X*.O.o.O.G r.a.e.G } ..} { e w 7 8 8 7 7 8 8 X X X . . . CXCXCXCXCXCXo X X 5 9 p g 0.a.a.9.d s p k S } o.;.1.qXwXwX<.,.-.O.} [ w 9 y u 5.9.a.d.CXCX",
"CXCXCX} | { ! ` $X2X4X4X4X1X2X-X#X#X@XR.Y.Q.;.O.| e q 8 X . . o X X X X 6 8 8 8 8 8 X 6 8 w e e e e e e ] ] ] ] e [ S D 7.6.g D e r e e { e w 6 X 6 8 6 X X . . . CXCXCXCXCXCXCXCX. . X 6 p 6.a.a.9.6.d u i S | O.;.wXyXgXkXjXjXhXdXtX<.;.O.{ 9 i u d 6.q.a.d.f.",
"CXCXCX{ ! ~ ( Y.#X;X6X6X6X1X:X-X*X@XL.G.F.P.$.#.-.X.e 8 X X . . . . . . . X X X X X X X 8 8 7 7 7 7 7 7 7 7 7 7 7 q 7 9 p p i 9 8 7 7 7 r w 8 6 X X X X X X .   CXCXCXCXCXCXCXCXCX. & i g 6.q.a.q.4.d u % 9 | o.>.wXyXlXxXbXnXnXcXjXgXtX1.-.} S i u s 5.6.q.p.a.",
"CXCXCXr S / S.G.@X&X-X:X:X-X#X@XT.K.H.A.V.M.C.W.2.-.{ 8 6 X X . . . . . . . X X 5 6 8 8 8 8 8 8 8 7 7 7 7 7 w r e e e e e r r w 7 7 7 7 7 7 7 8 8 6 X X X X 6 CXCXCXCXCXCXCXCXCXCX. % d p.d.p.9.4.s y % 8 e X.:.1.eXdXhXxXbXnXnXbXxXhXtX<.:.O.S i y u s d 6.q.p.",
"CXCXCX8 Z C M.A.H.H.G.G.G.H.D.A.V.V.B.B.N.N.N.Z.P._ ! w 7 8 6 X X X 6 8 8 7 w r e e { { e e r w w e { | X.O.-.;.1.<.wXwX9X1.>.:.-.o.O.O.} | | { e r 7 8 6 8 e X.O.| { CXCXCXCXCXCX. % d q.a.9.4.s y % , 7 e +.-.,.wXtXdXfXjXxXcXxXhXyXwX;.o.X.S 9 % y u s 4.9.9.",
"CXCXCX6 2 N V m.N.C.C.Z.Z.Z.I.I.Z.Z.Z.C.C.m.m.m.m.C A r q 8 6 X X 8 w e | X.O.-.:.;.;.;.-.O.} { { X.-.,.<.rXtXgXhXjXxXxXjXhXgXyXtXrXwX<.1.;.-.-.O.| e r 7 r | o.O.} { { CXCXCXCXCX. & s 9.9.4.s y $ X 8 q e } O.-.,.<.rXtXdXgXfXgXyXrX,.-.O.| ] w 8 % y u d 4.6.",
"CXCXCXCXCXn B C / _ &.^.,XpXaXaXpX,X^.Q.) W B t.B n l 8 5 X X X 8 w { O.;.1.rXyXgXfXhXgXtX<.,.;.;.1.wXtXyXgXhXxXcXnXnXbXcXxXkXhXgXdXyXtXrXwX1.,.;.o.X.{ e { -.1.,.o.X.} CXCXCXCXCX. & u 4.4.d u + $ 5 6 q e | O.-.;.1.<.rXtXtXuXtXeX<.;.O.X.| [ r w 8 $ + u s d ",
"CXCXCXCXCXn n v ! o.<.yXhXxXmXcXxXhXyX<.&./ N n n j % X . . . X 8 r } -.,.wXtXfXjXcXcXxXgXeX<.1.,.<.eXyXyXgXhXjXxXcXcXxXjXhXfXgXgXyXtXtXrXwX1.,.;.=.O.| { } ;.wX<.-.O.} CXCXCXCXCX. & u d d s y + $ X 8 7 e { } O.-.;.,.1.<.wXwXwX<.,.-.O.} { { e r 7 6 $ + u u ",
"CXCXCXCXCX# < 9 { o.>.wXyXgXhXhXfXyXrX>.o.~ Z Z 2 2 $ X . . . X 8 w e | O.-.1.rXyXgXfXgXtX<.;.o.O.=.;.,.1.wXrXeXtXtXtXtXtXeXrXwXwX,X1.1.;.:.-.o.O.} { e e | -.1.1.-.} { e r CXCXCXCXCXu s s u y + $ X 6 8 w e { } O.o.-.-.-.-.:.;.;.-.O.} | { { e r 7 5 $ + y u ",
"CXCXCXCXCXCXX 7 e | O.-.2.<.wXwXwX1.;.O.| ] r 7 8 6 X X . . . X 8 8 q r { } O.-.,.1.wX<.,.o.X.{ e { | } X.O.O.o.o.o.o.o.o.o.o.O.O.O.O.X.} } | { { e r w 7 e } o.O.} { e r w r CXCXCXCXu u u u y + $ X 5 8 8 w e | O.O.O.O.o.o.-.-.-.=.O.} { { { e r 8 X o & y y ",
"CXCXCXCXCXCXCXCX7 w r e { | +.+.} | { e w 7 8 6 4 X o . .   . X 6 8 8 7 w e { | } X.} | { e r 7 8 8 7 7 7 q w w w w r r r r r w w w w w w w w r w 7 8 6 6 8 7 r r 7 8 8 8 7 w r CXCXCXCXy y y y + $ X X X 6 8 r | O.-.-.-.;.;.,.1.1.;.o.X.| { e r q 8 X . . CXCX",
"CXCXCXCXCXCXCXCX8 8 6 6 8 8 8 7 7 7 8 8 8 6 X X . . . . . . X 6 7 w w r r r r r r w 7 8 8 8 8 6 6 8 8 8 8 7 w r e e { { | } } } | { { e e r r w 7 8 6 X X X X X X X X X = 8 7 w r CXCXCX+ + + + & o X X X 8 w { O.;.1.wXwXeXtXyXyXyXeX1.;.o.X.| e w 8 X . CXCXCX",
"CXCXCXCXCXCXCXCXCXCXX . . . X X X X X X X o . .     . . X 4 8 r { | } } | e r w 7 8 6 X X X X 6 8 7 r e ] { X.o.;.,.1.wXeXtXtXtXrX9X1.;.o.X.{ e w 8 6 X X X X X X X X X . X 8 7 w CXCXCX. . . . . . . X 6 7 e ..;.wXtXdXfXkXxXxXxXjXfXyXwX1.-.O.{ r 8 X . CXCXCX",
"CXCXCXCXCXCXCXCXCXCXCX. . . . . o o . . . .         . X 6 7 e X.-.,.<.<.1.,.-.o.X.| { r 7 6 6 6 8 7 e { O.-.,.<.eXyXgXhXxXxXxXjXhXgXtXwX1.-.X.{ r 8 8 7 e { { { e w 8 X X X 8 r e { CX6 = = = O . . . X 6 7 e | o.,.wXiXyXdXgXfXgXyXtXwX,.-.O.} 3.w 8 X O CXCXCX",
"CXCXCXCXCXCXCXCXCXCXCXCXCXCXCXCXCXCX              . X 8 7 w { -.<.tXdXgXfXgXgXyXtXwX1.-.| r 8 8 8 8 r { o.1.wXtXdXhXxXbXnXnXnXbXxXhXgXtXwX;.O.{ w 8 8 { -.1.1.1.-.} r 8 X 6 w e | } { t ; : : : = . . X 6 8 w e { } O.-.:.;.,.>.;.-.o.O.+.| e r w 7 6 = * CXCXCX",
"CXCXCXCXCXCXCXCXCXCXCXCXCXCXCXCXCXCXCXCXCXCX  . . X X 5 6 7 e ..-.1.eXyXfXhXjXjXkXfXyXrX,.O.{ w 8 8 7 e | o.,.wXtXgXhXxXcXcXcXjXhXgXtXwX,.o.| r 7 7 e -.rXyXtXwX;.| w 6 X X 8 r | O.O.^ K H - - ; = = = ; t t t t t w I I ^ %.%.%.%.%.%.I I I t t t ; : * CXCXCX",
"CXCXCXCXCXCXCXCXCXCXCXCXCXCXCXCXCXCXCXCXCXCXCX8 8 8 , $ $ , 8 w { X.-.1.eXgXhXxXcXxXjXfXtX<.-.{ w 8 8 8 w e } -.,.wXeXyXdXgXdXyXeXwX1.-.O.{ r 8 7 e O.<.gXfXyX1.O.e 8 X . . X 8 { -.:.%.I J J H - ; ; - K K J J K H - K K L U T R _.E R Y U L L J K K - - CXCXCX",
"CXCXCXCXCXCXCXCXCXCXCXCXCXCXCXCXCXCXCXCXCXCX} } [ S z b b b l 2 8 q [ X.-.1.rXdXkXxXcXxXhXyX<.o.{ w 8 6 6 8 r { X.o.-.;.,.1.,.;.;.=.O.| e w 8 8 r O.,.eXyXyXwX-.} q 4 . . . . 6 e X.=.%.R U L J H - H L Y R _.`._.R Y L K J L Y E _._.E R Y U Y R E R Y Y CXCXCX",
"CXCXCXCXCXCXCXCXCXCXCXCXCXCXCXCXCXCXCXCXCXX.X.+. .~ C m M B n b 2 8 8 7 e { o.1.tXfXjXxXjXfXtX1.O.{ w 8 X X 6 7 r e { { | | | | { { e w 8 6 6 8 { -.wXrXwX1.o.{ r 8 , $ $ o o X 7 3.} %.E R U J K K L Y `.[. X.X.X}.[.E U L U Y E `._.R R R R `.[.{.{.'.'.CXCXCX",
"CXCXCXCXCXCXCXCXCXCXCXCXCXCXCXCXCXCXCXCXCXo.O.~ G C V t.m.N.M.C.W c , X 4 7 e X.;.wXtXgXhXhXgXeX,.O.e 8 6 X X 6 8 8 7 w w w w w 7 8 8 6 X 6 8 e } -.,.;.o.} e 7 2 x N N N b @ o 4 7 r I R Y L K J J L R '.}.XXOXOX+XXX{.'.R Y U R R R Y Y E '.{. X.X X{.[.CXCXCX",
"CXCXCXCXCXCXCXCXCXCXCXCXCXCXCXCXCXCXCXCXCX:.#._ V B t.M.V.A.H.H.D.W c < < 2 9 r { O.;.<.tXdXdXtXwX-.| w 8 X X X X X 6 6 6 6 6 6 X X X X X 6 w e | X.X.| e q 8 2 c V N.B.M.V b @ $ 4 t I U U J H K J U E '.}.XXOXOXOXOXXX{.`.R U Y Y Y U R `.{. XXXXXoX}.{.CXCXCX",
"CXCXCXCXCXCXCXCXCXCXCXCXCXCXCXCXCXCXCX} o.;.2._ C.m.M.S.D.G.K.K.K.D.Z.W V N v 2 8 w { O.;.<.rXeXrX,.O.e 7 X . . . . . X o . . . . . . X X 8 w e e e w 8 4 , x W C.V.V.V.V.M.V j a $ , K L J H - K L Y E '.{.XXOXOXOXOXXX}.'.R U U U U Y R |. XXX+XXXoX}.{.CXCXCX",
"CXCXCXCXCXCXCXCXCXCXCXCXCXCXCXCXCXCX} X.o.;.2.P.C.M.V.H.K.T.@X@XJ.K.G.H.A.B.W b 2 , 7 r | O.;.<.<.,.O.{ 7 X . . . . . . . . . . . . . X 6 8 7 7 8 6 X , < c W D.G.H.H.D.A.V.t.m b $ = ; J J H H J U R _.'.{. XXXOXOX+XoX{.'.R U L U U Y _.{.XX+X+XXX X}.[.CXCXCX",
"CXCXCXCXCXCXCXCXCXCXCXCXCXCXCXCXCXCXX.O.-.>.2.` C.B.D.K.@X#X#X@XT.J.K.K.H.A.V.N.N b 2 8 q { } o.-.o.X.{ 7 X . . . . CXCX. . . X X X X X 6 8 8 6 X . o z W F.@X#X@XT.K.G.A.V.t.m b $ = ; K K K J U Y R `.'.{.}. XXXXX.X}.[._.U J K K L U E {.XX+XXX.X}.[.'.CXCXCX",
"CXCXCXCXCXCXCXCXCXCXCXCXCXCXCXCXCXCXO.O.-.,.2.W.Z.V.H.T.@X*X&X#X@X@XT.J.G.A.V.B.N.N b 1 9 q e { | | { e 8 X X . . CXCXCX. . . . X X X X 6 6 X o X < c W R.#X&X&X*X@XJ.G.D.V.m.B j $ X = - - 3 3 P U Y _.`.'.{.}.}. X}.{.'.E U J H H K U E [..XXX.X}.[.`._.CXCXCX",
"CXCXCXCXCXCXCXCXCXCXCXCXCXCXCXCXCXCXO.O.-.1.~.Q.I.A.G.T.@X#X&X&X*X#X@XJ.G.D.S.M.N.m.V N x 8 7 q w r w 7 8 X X X X CXCXCX. . . . . X X X X X o . 2 W F.@X#X&X&X&X#X@XJ.G.D.V.B.t.j @ o = ; > a p l 3 L U R `.'.[.{.{.{.{.'._.U J - - K U E [. X.X}.[.`.R Y CXCXCX",
"CXCXCXCXCXCXCXCXCXCXCXCXCXCXCXCXCXX.O.-.>.9X,XQ.F.H.G.T.@X#X&X=X&X*X#X@XJ.G.D.S.B.N.t.V l $ X 5 8 8 8 6 X X X X CXCXCXCXCX. . . . . o o o o $ # j Z.K.@X@X#X#X#X@X@XJ.G.D.S.B.m.N b # > = z W I.W P H J U R _.`.'.[.{.[.'._.U J - - K U _.'.{.{.[.`.R U L CXCXCX",
"CXCXCXCXCXCXCXCXCXCXCXCXCXCXCXCX| X.o.;.<.eXiXQ.F.D.G.T.@X#X&X&X&X&X&X#X@XT.K.H.A.M.B n a $ . X X X X X . . . CXCXCXCXCXCXCXCX. . . . . . o # j B M.A.G.K.T.T.T.T.T.J.G.D.S.M.m.B m j # , ^ $X2X%XP ; H L U Y R `.'.[.[.'._.U J K K L R _.'.'.'.`.R U J K CXCXCX",
"CXCXCXCXCXCXCXCXCXCXCXCXCXCXCXCX{ +.-.,.wXtXiXQ.I.A.H.J.@X#X&X&X&X&X&X*X#X@XK.H.A.M.B n j a # $ X o . . . . CXCXCXCXCXCXCXCXCX. . . . . . $ a n B m.B.A.H.G.K.J.T.T.J.G.D.S.M.m.t.B n # $ ^ <X4X%XP : ; K L U R _.'.'.'.'._.Y L L L U R E `.`.`.R U L H - CXCXCX",
"CXCXCXCXCXCXCXCXCXCXCXCXCXCXCXCX{ } -.<.iXyXuXQ.Z.B.H.J.@X*X&X=X&X=X=X&X#X@XK.H.A.M.B m m n j < X o . . CXCXCXCXCXCXCXCXCXCXCX. . . . . o $ a n B t.m.M.S.A.G.K.J.J.K.G.D.S.M.m.t.B n # $ Q %X-X%X' - - K J L U R _.`.`.`.E Y U U U U Y R R E R U J H - : CXCXCX",
"CXCXCXCXCXCXCXCXCXCXCXCXCXCXCXCXe } -.wXtXdXpXQ.Z.B.H.J.@X*X&X&X&X-X-X-X-X#X@XG.A.N.B m m m n k 8 5 X CXCXCXCXCXCXCXCXCXCXCXCXCX. . . o X , l n M B B t.N.V.A.H.G.G.H.H.A.S.B.m.t.B n # $ Z Y.#X=X%X].' K - H J L Y R R R Y U L L L U Y Y Y U L J H ; : : CXCXCX",
"CXCXCXCXCXCXCXCXCXCXCXCXCXCXCXCXe | ;.wXyXgXaXQ.Z.B.H.J.@X*X&X=X=X-X;X1X:X=X@XK.A.N.B m m N v k 7 7 CXCXCXCXCXCXCXCXCXCXCXCXCXCXCX. . o 4 8 l n n m m B t.N.B.S.A.A.A.A.A.V.M.m.t.B n a $ 1 ( R.-X4X2X` - : : ; H J L L L L J J J J L L L L J K - : : * * CXCXCX",
"CXCXCXCXCXCXCXCXCXCXCXCXCXCXCXCX[ } ;.rXyXfXaX^.Z.B.H.J.@X#X=X-X:X;X1X;X-X#XT.G.A.N.B N C ~ S 0 8 8 CXCXCXCXCXCXCXCXCXCXCXCXCXCXCXCXCX. X X , 2 b n m M B B m.M.M.M.M.M.M.M.N.m.t.B n l , 7 ! ` $X-X$X` ; O * : ; - H H H H - - - - H H H H - - ; : * O O CXCXCX",
"CXCXCXCXCXCXCXCXCXCXCXCXCXCXCXe { X.;.rXdXhXlX/.Z.N.A.K.@X&X-X;X4X4X4X1X-X@XK.H.S.N.B N / +.| w 8 4 CXCXCXCXCXCXCXCXCXCXCXCXCXCXCXCXCXCX. . X 6 2 b n n m m B m.N.m.m.m.m.m.m.t.B M n v S e [  .&.Y.Y.` P 3 * * * : : : : : : : : : : : : : : : * * O O O CXCXCX",
"CXCXCXCXCXCXCXCXCXCXCXCXCX8 8 w { O.,.eXgXjXlX/.C.t.M.H.@X-X1X4X5X5X5X6X-X@XG.A.M.t.M N A  .{ q 8 6 CXCXCXCXCXCXCXCXCXCXCXCXCXCXCXCXCXCX. . o X $ $ < b n m t.m.N.m.m.m.m.t.B B m m N _ -.=.} { ! ~ ` Y.%X` P * O * * * * * * * * * * * * * * * O O O CXCXCXCXCX",
"CXCXCXCXCXCXCXCXCXCXCXCXCX8 8 w { O.1.tXfXxXVX,X) C N.A.T.-X4X5X5X7X7X5X:X@XG.V.N.V C G ~ | e q 8 CXCXCXCXCXCXCXCXCXCXCXCXCXCXCXCXCXCXCX. . . X X X X 2 b N V B t.t.t.t.t.B M m N C ( &.2.:.| r 7 7 ! Y.-X%X/ z 3 3 3 3 3 3 3 3 3 3 > > > > > > O O CXCXCXCXCXCX",
"CXCXCXCXCXCXCXCXCXCXCXCXCX8 8 w { O.1.tXfXxXjXuX2.$.W B.K.-X4X5X5X5X7X5X:X@XG.V.M.( $.#.+.{ e CXCXCXCXCXCXCXCXCXCXCXCXCXCXCXCXCXCXCXCXCXCXCX. . o X 6 q S A C m M m m m m m m m C $.&.:.#.X.e 8 6 , 6 CXCXCXF.F.F.F.F.Z.C.C.C.C.W V N n n n n j CXCXCXCXCXCXCXCX",
"CXCXCXCXCXCXCXCXCXCXCXCXCX8 8 w { O.1.tXgXjXjXsX<.&.( M.H.#X:X4X6X5X6X1X-XT.H.B.y.( #.=...e r CXCXCXCXCXCXCXCXCXCXCXCXCXCXCXCXCXCXCXCXCXCXCXCX. o X 8 q [  .~ ( ( ) ) ) P.P.) ( $.#.=.X.{ r 8 6 X X X CXCXCXCX@X@XT.L.G.E.E.E.A.V.N.t.B M M M CXCXCXCXCXCXCXCXCX",
"CXCXCXCXCXCXCXCXCXCXCXCXCX6 8 w e O.;.rXdXhXhXzX,X&.) M.A.K.#X-X1X1X:X&X@XH.V.t.V G @.X.{ r 7 CXCXCXCXCXCXCXCXCXCXCXCXCXCXCXCXCXCXCXCXCXCXCXCXCXCX6 8 w { X.-.2.~.~.~.,XrXrX~.2.-.X.{ w 8 6 6 6 6 6 6 CXCXCXCXCXCXCXCXCXCXCXCXCXCXCXCXCXCXCXCXCXCXCXCXCXCXCXCXCX",
"CXCXCXCXCXCXCXCXCXCXCXCXCXX 6 7 e } -.wXyXfXhXdXrX2.&.) Z.A.H.T.@X@XJ.G.A.M.m.W / ~  .| e 7 8 CXCXCXCXCXCXCXCXCXCXCXCXCXCXCXCXCXCXCXCXCXCXCXCXCXCXX 4 8 w { ..o.-.:.;.>.,.>.:.o.} e 7 8 6 8 w r q 8 8 CXCXCXCXCXCXCXCXCXCXCXCXCXCXCXCXCXCXCXCXCXCXCXCXCXCXCXCXCX",
"CXCXCXCXCXCXCXCXCXCXCXCXCXX X 8 r { o.1.eXgXfXdXeX<.2.#._ W M.S.A.A.S.M.y.V C $.-.o.X.{ w 8 6 CXCXCXCXCXCXCXCXCXCXCXCXCXCXCXCXCXCXCXCXCXCXCXCXCXCXX $ 8 8 w e e { { { } } } { e 7 8 6 8 7 r { { e 7 8 CXCXCXCXCXCXCXCXCXCXCXCXCXCXCXCXCXCXCXCXCXCXCXCXCXCXCXCXCX",
"CXCXCXCXCXCXCXCXCXCXCXCXCX. X 6 7 e X.-.<.tXyXyXeX9X>.o. .Q A / _ W.Q.Q.Q.W.&.&.-.o.} e 7 6 X CXCXCXCXCXCXCXCXCXCXCXCXCXCXCXCXCXCXCXCXCXCXCXCXCXw r e | O.-.;.;.>.,.,.1.1.;.-.O.{ e r r e e e e w 8 8 CXCXCXCXCXCXCXCXCXCXCXCXCXCXCXCXCXCXCXCXCXCXCXCXCXCXCXCXCX",
"CXCXCXCXCXCXCXCXCXCXCXCXCX. . X 8 r { O.;.1.wXwX<.1.-.O.} | | O.:.<.tXyXuXeX,X,.-.O.} e 7 6 X CXCXCXCXCXCXCXCXCXCXCXCXCXCXCXCXCXCXCXCXCXCXCXCXw e | o.,.wXtXtXtXtXyXyXyXtXeX<.>.-.X.| { { e 7 8 8 8 6 CXCXCXCXCXCXCXCXCXCXCXCXCXCXCXCXCXCXCXCXCXCXCXCXCXCXCXCXCX",
"CXCXCXCXCXCXCXCXCXCXCXCXCX. . X 6 7 e { X.o.-.-.o.O.O.O.-.>.9XiXzXfXhXlXgXuXeX<.;.-.O.| e CXCXCXCXCXCXCXCXCXCXCXCXCXCXCXCXCXCXCXCXCXCXCXCXCXCX{ | o.;.,.1.,.;.-.o.-.-.-.;.-.O.X.| { e e w 8 6 X X 6 CXCXCXCXCXCXCXCXCXCXCXCXCXCXCXCXCXCXCXCXCXCXCXCXCXCXCXCXCXCX",
"CXCXCXCXCXCXCXCXCXCXCXCXCX. . X 4 8 w e e { { | | } O.-.1.tXdXhXkXkXhXgXyXtXrXwX1.;.o.O.CXCXCXCXCXCXCXCXCXCXCXCXCXCXCXCXCXCXCXCXCXCXCXCXCXCX| X.o.;.1.1.1.;.o.X.} | | | | { { e e e e r 7 8 6 4 X CXCXCXCXCXCXCXCXCXCXCXCXCXCXCXCXCXCXCXCXCXCXCXCXCXCXCXCXCXCXCX",
"CXCXCXCXCXCXCXCXCXCXCXCXCXCXCXX X 6 8 w w r e { O.-.1.wXiXyXyXuXiXrXwX<.1.1.1.1.1.;.-.o.CXCXCXCXCXCXCXCXCXCXCXCXCXCXCXCXCXCXCXCXCXCXCXCXCX8 { o.,.wXtXdXgXgXgXdXyXtXwX,.-.O.O.O.O.O.X.| { e w 7 7 CXCXCXCXCXCXCXCXCXCXCXCXCXCXCXCXCXCXCXCXCXCXCXCXCXCXCXCXCXCXCX",
"CXCXCXCXCXCXCXCXCXCXCXCXCXCXCXCXX X 6 8 7 w e X.;.1.wXrXrXwX1.,.-.-.-.;.,.<.wXwXwX<.1.;.-.CXCXCXCXCXCXCXCXCXCXCXCXCXCXCXCXCXCXCXCXCXCXCXX 8 e O.,.wXtXdXfXhXjXjXkXfXdXtX<.1.1.1.,.;.-.O.| { e w w CXCXCXCXCXCXCXCXCXCXCXCXCXCXCXCXCXCXCXCXCXCXCXCXCXCXCXCXCXCXCX",
"CXCXCXCXCXCXCXCXCXCXCXCXCXCXCXCX. . . X 8 e } -.1.<.1.;.o.X.} | } O.;.<.tXgXhXkXhXgXtXwX;.X.{ CXCXCXCXCXCXCXCXCXCXCXCXCXCXCXCXCXCXCXCXCX6 8 e | O.-.-.;.,.1.1.<.<.<.wXrXtXyXyXyXrX,.=.} { r 8 6 6 CXCXCXCXCXCXCXCXCXCXCXCXCXCXCXCXCXCXCXCXCXCXCXCXCXCXCXCXCXCXCX",
"CXCXCXCXCXCXCXCXCXCXCXCXCXCXCXCX. . . . 6 r | o.;.-.O.| { e e { O.;.wXyXhXcXbXbXcXhXdXwX-.X.{ { CXCXCXCXCXCXCXCXCXCXCXCXCXCXCXCXCXCXCXCX6 8 w { } O.-.;.;.,.,.,.;.-.o.;.1.wXrXwX1.o.| e w 8 6 X CXCXCXCXCXCXCXCXCXCXCXCXCXCXCXCXCXCXCXCXCXCXCXCXCXCXCXCXCXCXCXCX",
"CXCXCXCXCXCXCXCXCXCXCXCXCXCXCXCX. . . X 6 7 r e { e r 7 w e } -.1.tXgXkXxXcXbXcXxXgXtX1.-.X.} } } CXCXCXCXCXCXCXCXCXCXCXCXCXCXCXCXCXCXCXX 6 7 { O.,.wXtXyXdXdXyXwXo.{ e e { { | e w 8 6 6 X CXCXCXCXCXCXCXCXCXCXCXCXCXCXCXCXCXCXCXCXCXCXCXCXCXCXCXCXCXCXCXCXCXCX",
"CXCXCXCXCXCXCXCXCXCXCXCXCXCXCXCX. . . X X 6 8 8 8 7 7 r { O.-.1.wXeXyXdXgXfXhXfXgXdXtXwX1.;.-.O.O.X.CXCXCXCXCXCXCXCXCXCXCXCXCXCXCXCXCXCX8 7 { O.-.,.1.wXwXrXtXtXwX;.X.{ e w 7 8 6 X . . . . CXCXCXCXCXCXCXCXCXCXCXCXCXCXCXCXCXCXCXCXCXCXCXCXCXCXCXCXCXCXCXCXCXCX",
"CXCXCXCXCXCXCXCXCXCXCXCXCXCXCXCXCXCX. . . . . X X 8 e X.-.,.1.1.,.,.;.,.1.<.wXeXtXyXdXdXyXeX<.;.-.O.} | CXCXCXCXCXCXCXCXCXCXCXCXCXCXCXCXr [ O.,.,.-.X.{ { { O.-.,.1.1.;.O.| w 6 X . . . . . CXCXCXCXCXCXCXCXCXCXCXCXCXCXCXCXCXCXCXCXCXCXCXCXCXCXCXCXCXCXCXCXCXCX",
"CXCXCXCXCXCXCXCXCXCXCXCXCXCXCXCXCXCXCX. . . . . X 7 { O.-.-.-.o.O.O.O.-.,.wXeXyXdXfXkXkXhXgXtX1.-.X.{ { CXCXCXCXCXCXCXCXCXCXCXCXCXCXCXCXe e | X.} { w 7 8 7 r e | X.o.=.o.O.{ r 7 8 6 X . CXCXCXCXCXCXCXCXCXCXCXCXCXCXCXCXCXCXCXCXCXCXCXCXCXCXCXCXCXCXCXCXCXCXCX",
"CXCXCXCXCXCXCXCXCXCXCXCXCXCXCXCXCXCXCXCXCX. . X 8 w { | | { e e e | O.;.<.tXdXfXhXxXcXcXxXhXyX<.-.} { e CXCXCXCXCXCXCXCXCXCXCXCXCXCXCXCXr w 7 8 6 8 8 7 w w w 7 8 8 7 e X.O.O.O.| e r w CXCXCXCXCXCXCXCXCXCXCXCXCXCXCXCXCXCXCXCXCXCXCXCXCXCXCXCXCXCXCXCXCXCXCXCX",
"CXCXCXCXCXCXCXCXCXCXCXCXCXCXCXCXCXCXCXCXCXCX. X 8 8 7 7 7 7 w { X.-.,.<.wXwXrXtXtXyXgXgXgXgXyXwX,.o.} { CXCXCXCXCXCXCXCXCXCXCXCXCXCXCXCX8 8 X X 6 r | X.O.-.-.-.X.w 6 8 e | O.O.X.{ r CXCXCXCXCXCXCXCXCXCXCXCXCXCXCXCXCXCXCXCXCXCXCXCXCXCXCXCXCXCXCXCXCXCXCXCXCX",
"CXCXCXCXCXCXCXCXCXCXCXCXCXCXCXCXCXCXCXCXCXCXCX6 6 X X . X 8 r } -.1.<.<.1.;.;.>.1.<.wXeXtXyXyXtXrX1.-.O.CXCXCXCXCXCXCXCXCXCXCXCXCXCXCXCXX X X 4 w | -.;.1.qXtXtX<.X.w 8 8 w { X.} { e CXCXCXCXCXCXCXCXCXCXCXCXCXCXCXCXCXCXCXCXCXCXCXCXCXCXCXCXCXCXCXCXCXCXCXCXCX",
"CXCXCXCXCXCXCXCXCXCXCXCXCXCXCXCXCXCXCXCXCXCXCXCXX . . . X 7 { O.-.-.O.X.} } O.;.wXtXyXgXhXjXxXjXhXyXwX;.O.e CXCXCXCXCXCXCXCXCXCXCXCXCXCX. X 8 r [ { | | | O.;.<.<.;.O.e 8 8 r { | | | CXCXCXCXCXCXCXCXCXCXCXCXCXCXCXCXCXCXCXCXCXCXCXCXCXCXCXCXCXCXCXCXCXCXCXCXCX",
"CXCXCXCXCXCXCXCXCXCXCXCXCXCXCXCXCXCXCXCXCXCXCXCX. . . . 8 r { } X.| e r e | o.1.tXgXhXjXxXcXcXxXkXdXwX;.} e w CXCXCXCXCXCXCXCXCXCXCXCXCX. X 7 { { e 7 8 8 w { O.;.1.1.O.7 6 8 r { } O.CXCXCXCXCXCXCXCXCXCXCXCXCXCXCXCXCXCXCXCXCXCXCXCXCXCXCXCXCXCXCXCXCXCXCXCXCX",
"CXCXCXCXCXCXCXCXCXCXCXCXCXCXCXCXCXCXCXCXCXCXCXCXCXCX. X 8 w r r r r e { o.1.wXeXtXyXdXdXdXdXyXyXeX1.o.| e 7 8 CXCXCXCXCXCXCXCXCXCXCXCXCX. X 8 r r 7 8 7 r r w w | ;.1.o.e 8 8 7 r { | CXCXCXCXCXCXCXCXCXCXCXCXCXCXCXCXCXCXCXCXCXCXCXCXCXCXCXCXCXCXCXCXCXCXCXCXCX",
"CXCXCXCXCXCXCXCXCXCXCXCXCXCXCXCXCXCXCXCXCXCXCXCXCXCXX X 6 8 8 6 6 7 { O.,.wXrXrXwXwXwXwXwXwXwXwX1.-.| e 7 8 8 CXCXCXCXCXCXCXCXCXCXCXCXCXX X 6 8 8 7 w ] } } r 8 w X.-.O.} e 7 8 7 e { CXCXCXCXCXCXCXCXCXCXCXCXCXCXCXCXCXCXCXCXCXCXCXCXCXCXCXCXCXCXCXCXCXCXCXCXCX",
"CXCXCXCXCXCXCXCXCXCXCXCXCXCXCXCXCXCXCXCXCXCXCXCXCXCXX X X X X X X r X.-.;.;.-.-.-.-.;.,.<.rXtXyXtX1.o.{ r 7 8 CXCXCXCXCXCXCXCXCXCXCXCXCXCXCXX X 8 w { o.,.;.| 7 8 r { } O.} e 8 7 r e CXCXCXCXCXCXCXCXCXCXCXCXCXCXCXCXCXCXCXCXCXCXCXCXCXCXCXCXCXCXCXCXCXCXCXCXCX",
"CXCXCXCXCXCXCXCXCXCXCXCXCXCXCXCXCXCXCXCXCXCXCXCXCXCXCXX . . . . 4 r } o.O.X.} X.O.-.;.1.eXyXgXhXgXtX1.o.{ e w CXCXCXCXCXCXCXCXCXCXCXCXCXCXCXCXX 8 e O.;.wX<.O.w 8 8 7 { O.X.e 8 8 r e CXCXCXCXCXCXCXCXCXCXCXCXCXCXCXCXCXCXCXCXCXCXCXCXCXCXCXCXCXCXCXCXCXCXCXCXCX",
"CXCXCXCXCXCXCXCXCXCXCXCXCXCXCXCXCXCXCXCXCXCXCXCXCXCXCXCX. . . X 8 q e { { { { O.-.1.rXyXgXhXjXjXhXgXeX,.O.{ e CXCXCXCXCXCXCXCXCXCXCXCXCXCXCXCXX 8 { =.1.wX<.O.r 8 X 6 r | | r 8 7 e { CXCXCXCXCXCXCXCXCXCXCXCXCXCXCXCXCXCXCXCXCXCXCXCXCXCXCXCXCXCXCXCXCXCXCXCXCX",
"CXCXCXCXCXCXCXCXCXCXCXCXCXCXCXCXCXCXCXCXCXCXCXCXCXCXCXCXCX. X X 6 8 7 r e | O.;.1.wXwXeXtXyXdXdXyXrX1.-.} e e CXCXCXCXCXCXCXCXCXCXCXCXCXCXCXCXX 8 { o.;.1.,.O.e 8 X X 7 e ] w 8 7 e e CXCXCXCXCXCXCXCXCXCXCXCXCXCXCXCXCXCXCXCXCXCXCXCXCXCXCXCXCXCXCXCXCXCXCXCXCX",
"CXCXCXCXCXCXCXCXCXCXCXCXCXCXCXCXCXCXCXCXCXCXCXCXCXCXCXCXCXX X X X 6 8 r | o.;.<.wX1.:.-.-.;.,.1.,.-.| e r w w CXCXCXCXCXCXCXCXCXCXCXCXCXCXCXCXX 8 e } O.o.O.} e 7 X X 8 w r 7 8 7 r e CXCXCXCXCXCXCXCXCXCXCXCXCXCXCXCXCXCXCXCXCXCXCXCXCXCXCXCXCXCXCXCXCXCXCXCXCX",
"CXCXCXCXCXCXCXCXCXCXCXCXCXCXCXCXCXCXCXCXCXCXCXCXCXCXCXCXCXX X X X 6 8 e X.-.,.1.;.o.| { X.-.1.wXwX,.O.{ e e e CXCXCXCXCXCXCXCXCXCXCXCXCXCXCXCXX 6 7 r e e e e r 8 X . X 8 8 8 6 8 8 7 CXCXCXCXCXCXCXCXCXCXCXCXCXCXCXCXCXCXCXCXCXCXCXCXCXCXCXCXCXCXCXCXCXCXCXCXCX",
"CXCXCXCXCXCXCXCXCXCXCXCXCXCXCXCXCXCXCXCXCXCXCXCXCXCXCXCXCXX X X X 6 w e X.-.-.O.} e w r X.,.eXgXfXtX;.O.} { { CXCXCXCXCXCXCXCXCXCXCXCXCXCXCX6 X X X 6 6 8 7 r e r 8 6 6 6 6 4 X 6 8 8 CXCXCXCXCXCXCXCXCXCXCXCXCXCXCXCXCXCXCXCXCXCXCXCXCXCXCXCXCXCXCXCXCXCXCXCXCX",
"CXCXCXCXCXCXCXCXCXCXCXCXCXCXCXCXCXCXCXCXCXCXCXCXCXCXCXCXCXCXX X X 8 w e | } } { r 7 8 e -.eXgXhXhXtX;.O.{ e e CXCXCXCXCXCXCXCXCXCXCXCXCXCXe e e r 8 8 w | o.;.1.>.o.| r 8 6 8 8 w e { O.;.CXCXCXCXCXCXCXCXCXCXCXCXCXCXCXCXCXCXCXCXCXCXCXCXCXCXCXCXCXCXCXCXCXCXCX",
"CXCXCXCXCXCXCXCXCXCXCXCXCXCXCXCXCXCXCXCXCXCXCXCXCXCXCXCXCXCXCXX X 6 7 r r r w 8 8 8 8 { 1.dXhXhXgXwX-.} e w 7 CXCXCXCXCXCXCXCXCXCXCXCXCXe { } O.} r 7 { ;.rXyXgXdXrX;.} w 7 w e | O.-.;.1.1.CXCXCXCXCXCXCXCXCXCXCXCXCXCXCXCXCXCXCXCXCXCXCXCXCXCXCXCXCXCXCXCXCXCX",
"CXCXCXCXCXCXCXCXCXCXCXCXCXCXCXCXCXCXCXCXCXCXCXCXCXCXCXCXCXCXCX. . X 6 8 8 8 8 6 4 8 w } 1.yXgXtXwX;.O.{ r 7 8 CXCXCXCXCXCXCXCXCXCXCX,.o.} | O.;.o.e 7 { -.9XeXtXtXrX1.O.r w e X.-.1.wX<.1.^.>X=XCXCXCXCXCXCXCXCXCXCXCXCXCXCXCXCXCXCXCXCXCXCXCXCXCXCXCXCXCXCXCXCX",
"CXCXCXCXCXCXCXCXCXCXCXCXCXCXCXCXCXCXCXCXCXCXCXCXCXCXCXCXCXCXCX. . . X 6 8 8 8 X X 8 r } ,.rXrX1.-.X.{ e w 8 8 CXCXCXCXCXCXCXCXCXCX,X1.;.O.+.o.;.o.e 8 r X.:.>.,.1.<.,.O.e r { O.;.wXrX1.;.&.%X#X&XCXCXCXCXCXCXCXCXCXCXCXCXCXCXCXCXCXCXCXCXCXCXCXCXCXCXCXCXCXCXCX",
"CXCXCXCXCXCXCXCXCXCXCXCXCXCXCXCXCXCXCXCXCXCXCXCXCXCXCXCXCX6 X o . X 8 7 w r w 8 6 8 w { X.o.o.O.| ] r 7 8 CXCXCXCXCXCXCXCXCXCX1X2X,X~.;.O.| } X.{ q 6 7 ] | +.X.o.-.=.} w w I X.o.;.:.o.} ~ I.K.#X:X4XCXCXCXCXCXCXCXCXCXCXCXCXCXCXCXCXCXCXCXCXCXCXCXCXCXCXCXCXCX",
"CXCXCXCXCXCXCXCXCXCXCXCXCXCXCXCXCXCXCXCXCXCXCXCXCXCXCXCXr w w w r e { { | | { e r e } O.-.;.;.-.O.{ 7 8 CXCXCXCXCXCXCXCXCXCXCX:X2X<X1.-.} e r r q 6 , 9 ! ~ @.@.&.&.@.! q 7 r { | | { e w Z W A.T.=X:XCXCXCXCXCXCXCXCXCXCXCXCXCXCXCXCXCXCXCXCXCXCXCXCXCXCXCXCXCX",
"CXCXCXCXCXCXCXCXCXCXCXCXCXCXCXCXCXCXCXCXCXCXCXCXCXCXCX| | X.O.;.1.1.;.-.-.o.O.O.O.,.eXgXkXjXkXgXrXo.r 6 CXCXCXCXCXCXCXCXCXCXCX@X$XQ.:...w X X X X o , Q Y.$X2X2X2X$XY./ 9 8 7 r r w 7 8 6 1 N M.H.@X#XCXCXCXCXCXCXCXCXCXCXCXCXCXCXCXCXCXCXCXCXCXCXCXCXCXCXCXCXCX",
"CXCXCXCXCXCXCXCXCXCXCXCXCXCXCXCXCXCXCXCXCXCXCXCXCXCX} } O.;.wXtXgXyXeX<.;.-.-.-.;.wXgXxXbXnXbXkXtX;.e 8 CXCXCXCXCXCXCXCXCXCXCXH.F.P.#.| 8 . . . . . , Q F.*X;X6X;X@XD./ 2 5 6 8 8 6 X X X < N N.A.D.H.CXCXCXCXCXCXCXCXCXCXCXCXCXCXCXCXCXCXCXCXCXCXCXCXCXCXCXCXCX",
"CXCXCXCXCXCXCXCXCXCXCXCXCXCXCXCXCXCXCXCXCXCXCXCX;.-.X.X.-.wXyXhXkXhXyXwX>.=.O.o.-.<.yXhXjXjXhXyXwX-.{ r CXCXCXCXCXCXCXCXCXCXCXM.M.Z.CXCXCXCX. X X o , x Z.K.#X=X#XH.N.v , X 4 X X X . . CXCXCXCXM.M.M.CXCXCXCXCXCXCXCXCXCXCXCXCXCXCXCXCXCXCXCXCXCXCXCXCXCXCXCXCX",
"CXCXCXCXCXCXCXCXCXCXCXCXCXCXCXCXCXCXCXCXCXCXCX;.-.O.} } -.wXyXfXhXgXtX<.-.X.} O.-.1.eXyXyXtXrX1.-.} e q CXCXCXCXCXCXCXCXCXCXCXm.t.CXCXCXCXCXCXX X X $ x W D.G.K.G.V.V b , X o X . . . CXCXCXCXCXCXm.m.CXCXCXCXCXCXCXCXCXCXCXCXCXCXCXCXCXCXCXCXCXCXCXCXCXCXCXCXCX",
"CXCXCXCXCXCXCXCXCXCXCXCXCXCXCXCXCXCXCXCXCX9X1.-.} { e { O.1.rXtXtXeX<.;.} e e } -.,.<.<.1.:.o.X.| e q 7 CXCXCXCXCXCXCXCXCXCXCXCXCXCXCXCXCXCXCXCXCXCXCXCXCXCXM.M.M.CXCXCXCXCXCXCXCXCXCXCXCXCXCXCXCXCXCXCXCXCXCXCXCXCXCXCXCXCXCXCXCXCXCXCXCXCXCXCXCXCXCXCXCXCXCXCX",
"CXCXCXCXCXCXCXCXCXCXCXCXCXCXCXCXCXCXCXCX:.:.o.| r q w e O.;.<.wX<.1.-.O.e 7 7 { O.-.;.;.o.X.@.&.>XY.` ( CXCXCXCXCXCXCXCXCXCXCXCXCXCXCXCXCXCXCXCXCXCXCXCXCXCXCXCXCXCXCXCXCXCXCXCXCXCXCXCXCXCXCXCXCXCXCXCXCXCXCXCXCXCXCXCXCXCXCXCXCXCXCXCXCXCXCXCXCXCXCXCXCXCXCXCX",
"CXCXCXCXCXCXCXCXCXCXCXCXCXCXCXCX&X$XQ.-.O.} ] 7 6 6 8 e } -.;.;.;.o.} ] 7 6 6 w { } X.X.} } &.<X4X1X-X#XCXCXCXCXCXCXCXCXCXCXCXCXCXCXCXCXCXCXCXCXCXCXCXCXCXCXCXCXCXCXCXCXCXCXCXCXCXCXCXCXCXCXCXCXCXCXCXCXCXCXCXCXCXCXCXCXCXCXCXCXCXCXCXCXCXCXCXCXCXCXCXCXCXCXCXCX",
"CXCXCXCXCXCXCXCXCXCXCXCXCXCX1X&X@XY.`  .{ r 7 6 X X 8 w e } X.X.| { r 8 X . X 8 w r e e r e @.<X6X5X6X1X-X@XCXCXCXCXCXCXCXCXCXCXCXCXCXCXCXCXCXCXCXCXCXCXCXCXCXCXCXCXCXCXCXCXCXCXCXCXCXCXCXCXCXCXCXCXCXCXCXCXCXCXCXCXCXCXCXCXCXCXCXCXCXCXCXCXCXCXCXCXCXCXCXCXCXCX",
"CXCXCXCXCXCXCXCXCXCXCXCXCX1X:X#XG.Z.Q r q 8 6 X . . X 8 7 r r w 7 8 6 X .   . X X 6 6 6 6 7 ^ %X2X6X6X1X=X@XJ.CXCXCXCXCXCXCXCXCXCXCXCXCXCXCXCXCXCXCXCXCXCXCXCXCXCXCXCXCXCXCXCXCXCXCXCXCXCXCXCXCXCXCXCXCXCXCXCXCXCXCXCXCXCXCXCXCXCXCXCXCXCXCXCXCXCXCXCXCXCXCXCXCX",
"CXCXCXCXCXCXCXCXCXCXCXCXCX&X#XJ.A.W x 8 4 X . .   . . X X X X X o . .         . . . . . . X x I.T.#X=X=X*X#X#XCXCXCXCXCXCXCXCXCXCXCXCXCXCXCXCXCXCXCXCXCXCXCXCXCXCXCXCXCXCXCXCXCXCXCXCXCXCXCXCXCXCXCXCXCXCXCXCXCXCXCXCXCXCXCXCXCXCXCXCXCXCXCXCXCXCXCXCXCXCXCXCXCX",
"CXCXCXCXCXCXCXCXCXCXCXCXCXK.G.D.B.V l $ o . .       . . . . .                             . < W A.G.K.@X#X&X=XCXCXCXCXCXCXCXCXCXCXCXCXCXCXCXCXCXCXCXCXCXCXCXCXCXCXCXCXCXCXCXCXCXCXCXCXCXCXCXCXCXCXCXCXCXCXCXCXCXCXCXCXCXCXCXCXCXCXCXCXCXCXCXCXCXCXCXCXCXCXCXCXCX",
"CXCXCXCXCXCXCXCXCXCXCXCXCXV.V.B.CXCXCXCXCXCXCXCXCXCXCXCXCXCXCXCXCXCXCXCXCXCXCXCXCXCXCXCXCXCXCXCXCXCXCXCX*X&X=XCXCXCXCXCXCXCXCXCXCXCXCXCXCXCXCXCXCXCXCXCXCXCXCXCXCXCXCXCXCXCXCXCXCXCXCXCXCXCXCXCXCXCXCXCXCXCXCXCXCXCXCXCXCXCXCXCXCXCXCXCXCXCXCXCXCXCXCXCXCXCXCXCX",
"CXCXCXCXCXCXCXCXCXCXCXCXCXm.m.m.CXCXCXCXCXCXCXCXCXCXCXCXCXCXCXCXCXCXCXCXCXCXCXCXCXCXCXCXCXCXCXCXCXCXCXCX&X&X&XCXCXCXCXCXCXCXCXCXCXCXCXCXCXCXCXCXCXCXCXCXCXCXCXCXCXCXCXCXCXCXCXCXCXCXCXCXCXCXCXCXCXCXCXCXCXCXCXCXCXCXCXCXCXCXCXCXCXCXCXCXCXCXCXCXCXCXCXCXCXCXCXCX"
};
