/* XPM */
static const char *bos2h7[] = {
/* columns rows colors chars-per-pixel */
"128 128 256 2 ",
"   c #0E0D0D",
".  c #0C1A07",
"X  c #141414",
"o  c #1C1C1C",
"O  c #181916",
"+  c #14120E",
"@  c #261B0C",
"#  c #271C15",
"$  c #371818",
"%  c #360A07",
"&  c #14280C",
"*  c #1A3812",
"=  c #182B12",
"-  c #292317",
";  c #332413",
":  c #392917",
">  c #2F2A10",
",  c #1C1E21",
"<  c #1E2122",
"1  c #232323",
"2  c #2B2B2B",
"3  c #282825",
"4  c #352926",
"5  c #383129",
"6  c #343434",
"7  c #3B3B3C",
"8  c #393835",
"9  c #2C312F",
"0  c #480505",
"q  c #570605",
"w  c #491616",
"e  c #581515",
"r  c #4E1709",
"t  c #670606",
"y  c #730202",
"u  c #7C0202",
"i  c #760D0D",
"p  c #681817",
"a  c #771816",
"s  c #6D140A",
"d  c #432B17",
"f  c #4B341D",
"g  c #47341B",
"h  c #56371C",
"j  c #512A0E",
"k  c #6B2C07",
"l  c #742C01",
"z  c #762903",
"x  c #7C3402",
"c  c #773708",
"v  c #653916",
"b  c #6E310E",
"n  c #482525",
"m  c #483928",
"M  c #573C22",
"N  c #473A38",
"B  c #563838",
"V  c #552727",
"C  c #6B2F29",
"Z  c #1E4316",
"A  c #234919",
"S  c #28551D",
"D  c #354B17",
"F  c #2A5C21",
"G  c #344F2B",
"H  c #2E6324",
"J  c #336C27",
"K  c #37762C",
"L  c #387C30",
"P  c #2C621F",
"I  c #4F511A",
"U  c #754C16",
"Y  c #5B4325",
"T  c #4A4438",
"R  c #544738",
"E  c #524932",
"W  c #674627",
"Q  c #734D2B",
"!  c #764927",
"~  c #7A522D",
"^  c #7B5533",
"/  c #675536",
"(  c #4B6F2B",
")  c #716D2A",
"_  c #3E3F41",
"`  c #3B4141",
"'  c #434444",
"]  c #4B4B4C",
"[  c #484747",
"{  c #564A47",
"}  c #57534C",
"|  c #545454",
" . c #5B5B5C",
".. c #585757",
"X. c #4E5050",
"o. c #665B58",
"O. c #6D5049",
"+. c #6E6354",
"@. c #5E6161",
"#. c #636363",
"$. c #6B6B6B",
"%. c #686767",
"&. c #766A67",
"*. c #737373",
"=. c #7B7C7C",
"-. c #777777",
";. c #71716F",
":. c #586655",
">. c #840101",
",. c #8B0000",
"<. c #870D0D",
"1. c #940101",
"2. c #9C0100",
"3. c #950B0B",
"4. c #921514",
"5. c #A30101",
"6. c #AC0000",
"7. c #A60A0A",
"8. c #B30101",
"9. c #BB0000",
"0. c #B60B0B",
"q. c #B11616",
"w. c #823C04",
"e. c #833806",
"r. c #863019",
"t. c #902D2C",
"y. c #AB2F2F",
"u. c #841E24",
"i. c #C40000",
"p. c #CB0000",
"a. c #C60C0C",
"s. c #D30000",
"d. c #DB0000",
"f. c #D50B0B",
"g. c #D51515",
"h. c #E40000",
"j. c #E90404",
"k. c #EB0E0E",
"l. c #D42A2A",
"z. c #8D4A0A",
"x. c #884408",
"c. c #95540D",
"v. c #9A5A12",
"b. c #975714",
"n. c #8E4B12",
"m. c #9B6618",
"M. c #916E1E",
"N. c #A46918",
"B. c #AB751D",
"V. c #B27C1C",
"C. c #875934",
"Z. c #8C592C",
"A. c #97643A",
"S. c #90712C",
"D. c #A87823",
"F. c #B17D22",
"G. c #A76C37",
"H. c #A7552C",
"J. c #8C5351",
"K. c #AF5252",
"L. c #926C50",
"P. c #A76D42",
"I. c #B47547",
"U. c #8B7570",
"Y. c #AE6D6A",
"T. c #C86B6C",
"R. c #CC6358",
"E. c #B35B3F",
"W. c #3D8433",
"Q. c #3A802C",
"!. c #428A35",
"~. c #4A9C3D",
"^. c #459439",
"/. c #5B9C3B",
"(. c #6C8F35",
"). c #4DA13E",
"_. c #75A43C",
"`. c #4EA643",
"'. c #52AC45",
"]. c #57B84B",
"[. c #4FB84C",
"{. c #73B647",
"}. c #788F73",
"|. c #56964C",
" X c #5DC753",
".X c #5AC04F",
"XX c #64D75B",
"oX c #66CA54",
"OX c #6EED66",
"+X c #68E05F",
"@X c #B88927",
"#X c #BD922C",
"$X c #AE8F30",
"%X c #A19935",
"&X c #C3992E",
"*X c #C59C31",
"=X c #C8893F",
"-X c #CAA637",
";X c #D2B13C",
":X c #8E8676",
">X c #A49B4F",
",X c #D7BA43",
"<X c #C8B244",
"1X c #D2A142",
"2X c #ACCC51",
"3X c #DDC449",
"4X c #D3D153",
"5X c #EAD956",
"6X c #E3CD4D",
"7X c #F2E75E",
"8X c #EFE25B",
"9X c #F4EB62",
"0X c #FBF869",
"qX c #FFFE74",
"wX c #E1E866",
"eX c #DEE35E",
"rX c #7D8081",
"tX c #838484",
"yX c #8B8B8B",
"uX c #868888",
"iX c #949494",
"pX c #9B9C9B",
"aX c #979897",
"sX c #938F8D",
"dX c #AB958F",
"fX c #9EA1A1",
"gX c #A3A3A3",
"hX c #ACACAC",
"jX c #A6A8A8",
"kX c #B5A9A8",
"lX c #B4B3B3",
"zX c #BCBCBC",
"xX c #B8B7B6",
"cX c #ADB3AF",
"vX c #A3A29C",
"bX c #D28B8B",
"nX c #C6B8B7",
"mX c #E9A4A4",
"MX c #C2C0BE",
"NX c #BDC0C1",
"BX c #C3C3C3",
"VX c #CCCCCC",
"CX c #C9C7C6",
"ZX c #D4D4D4",
"AX c #DBDBDB",
"SX c #D7D7D7",
"DX c #D1CFCF",
"FX c #E4E4E4",
"GX c #EBEBEB",
"HX c #E4E9E9",
"JX c #EEF2F2",
"KX c #E4DFDE",
"LX c #BFBFC0",
"PX c None",
"IX c black",
"UX c #7F7F80",
/* pixels */
"PXPXPXPXPXPXPXPXPXPXPXPXPXPXPXPXPXPXPXPXPXPXPXj.j.j.j.j.j.j.h.h.h.h.h.d.d.d.d.d.s.s.s.s.d.a.t.O.@.;.=.tXuXyXiXaXpXjXxXBXVXDXZXZXPXPXPXPXPXPXPXPXPXPXPXPXPXPXPXPXPXPXPXPXPXPXPXPXPXPXPXPXPXPXPXPXPXPXPXPXPXPXPXPXPXPXPXPXPXPXPXPXPXPXPXPXPXPXPXPXPXPXPXPXPXPXPXPX",
"PXPXPXPXPXPXPXPXPXPXPXPXPXPXPXPXPXPXPXPXPXPXPXs.d.s.s.s.p.i.i.9.9.9.9.8.8.8.8.6.6.6.6.8.9.0.4.t.J.J.J.K.K.K.Y.sXpXjXlXzXBXVXZXZXSXPXPXPXPXPXPXPXPXPXPXPXPXPXPXPXPXPXPXPXPXPXPXPXPXPXPXPXPXPXPXPXPXPXPXPXPXPXPXPXPXPXPXPXPXPXPXPXPXPXPXPXPXPXPXPXPXPXPXPXPXPXPXPX",
"PXPXPXPXPXPXPXPXPXPXPXPXPXPXPXPXPXPXj.h.d.p.i.8.8.6.6.5.2.3.,.>.>.>.u y y y y y y y y u ,.1.5.7.0.a.f.f.f.f.l.K.sXaXgXhXlXzXBXVXZXAXAXAXKXFXHXHXHXPXPXPXPXPXPXPXPXPXPXPXPXPXPXPXPXPXPXPXPXPXPXPXPXPXPXPXPXPXPXPXPXPXPXPXPXPXPXPXPXPXPXPXPXPXPXPXPXPXPXPXPXPXPXPX",
"PXPXPXPXPXPXPXPXPXPXPXPXPXPXPXPXd.s.p.9.8.5.1.,.>.4.y.K.Y.Y.J.J.J.J.J.J.J.J.J.O.O.O.C p t y u 1.2.6.8.9.9.9.0.y.J.J.K.K.K.Y.T.bXnXVXZXSXAXSXAXAXSXZXVXPXPXPXPXPXPXPXPXPXPXPXPXPXPXPXPXPXPXPXPXPXPXPXPXPXPXPXPXPXPXPXPXPXPXPXPXPXPXPXPXPXPXPXPXPXPXPXPXPXPXPXPXPX",
"PXPXPXPXPXPXPXPXPXPXPXPXj.h.d.s.i.0.7.3.<.i i s s C U.kXLXxXlXlXhXhXhXjXjXgXpXaXiXuX*.O.V q q t t y u u >.>.,.1.1.2.2.5.6.0.0.y.Y.kXxXnXnXnXBXBXBXzXxXlXhXjXjXPXPXPXPXPXPXPXPXPXPXPXPXPXPXPXPXPXPXPXPXPXPXPXPXPXPXPXPXPXPXPXPXPXPXPXPXPXPXPXPXPXPXPXPXPXPXPXPXPX",
"PXPXPXPXPXPXPXPXPXPXj.h.s.i.6.2.3.t.J.J.U.U.U.U.U.U.sXaXfXjXjXhXhXcXcXhXjXgXpXiXuX=.*.o.{ B B B B V V V e t y y u u >.,.,.,.,.3.y.y.E.E.K.Y.sXiXiXuXtX=.-.=.yXpXlXBXVXZXZXSXSXSXSXPXPXPXPXPXPXPXPXPXPXPXPXPXPXPXPXPXPXPXPXPXPXPXPXPXPXPXPXPXPXPXPXPXPXPXPXPXPXPX",
"PXPXPXPXPXPXPXPXj.h.d.i.8.2.<.a C O.U.yXiXaXgXjXjXjXpXiXaXgXjXhXlXlXlXlXhXjXpXiXyX=.-.*.$.%.#. ...| [ N V e e e e t t t t t y >.2.6.8.8.6.y.J.J.+.o. . .#.;.yXjXxXCXZXSXAXAXAXAXAXAXFXPXPXPXPXPXPXPXPXPXPXPXPXPXPXPXPXPXPXPXPXPXPXPXPXPXPXPXPXPXPXPXPXPXPXPXPXPX",
"PXPXPXPXPXPXj.j.d.i.8.2.>.i C O.&.U.yXyXuX=.tXiXgXcXlXxXBXCXVXVXVXCXCXBXBXzXxXlXjXpXiXyXtX=.=.=.-.$. .X.{ { { B B N n 4 w t y u >.>.>.>.>.3.7.q.t.O.o.;.tXaXhXNXZXAXHXGXGXGXGXHXHXHXGXHXZXBXxXlXPXPXPXPXPXPXPXPXPXPXPXPXPXPXPXPXPXPXPXPXPXPXPXPXPXPXPXPXPXPXPXPX",
"PXPXPXPXPXh.h.s.9.5.,.u y p O.-.tXuXyXuX=.=.uXaXlXnXVXZXAXFXFXFXAXSXSXZXZXVXCXBXxXjXgXaXyXyXyXyXuX=.*.$.@. ... . ...] ' N V p p e e t t y ,.2.5.u.O.%.rXaXhXzXVXSXHXGXGXGXGXGXGXHXHXHXFXSXCXBXxXhXPXPXPXPXPXPXPXPXPXPXPXPXPXPXPXPXPXPXPXPXPXPXPXPXPXPXPXPXPXPXPX",
"PXPXPXj.j.d.i.8.2.>.u y PXPXtXuXuX=.-.=.tXyXgXxXCXZXAXFXHXGXGXGXGXHXFXAXSXZXVXBXxXhXgXaXyXyXuXuXuXyXyXtX$. . .%.;.;.$.%.#.o...{ N N n t y y u i C O.*.uXpXlXzXVXZXAXHXGXGXGXHXFXFXAXAXAXSXZXVXBXhXgXpXPXPXPXPXPXPXPXPXPXPXPXPXPXPXPXPXPXPXPXPXPXPXPXPXPXPXPXPXPX",
"PXPXPXh.d.p.8.2.,.u i PXPX*.*.*.*.*.-.=.iXgXxXBXZXAXFXFXHXHXHXHXHXFXAXSXZXVXCXBXxXhXgXaXyX=.-.*.-.tXyXyX=.%.#.%.%.*.=.uXyXyXuXrX;.#.{ V w 0 w w B %.tXiXpXhXxXBXVXZXAXFXFXFXFXAXZXZXZXZXZXZXCXzXhXgXaXPXPXPXPXPXPXPXPXPXPXPXPXPXPXPXPXPXPXPXPXPXPXPXPXPXPXPXPXPX",
"PXPXPXp.i.8.2.,.>.PXPXPX*.$.#. . .%.=.yXpXhXzXCXZXSXSXSXSXSXSXSXSXZXZXVXCXBXBXxXhXgXaXyX=.*.#. . .$.UXtX=.*.%.#. .%.tXaXjXlXlXhXgXsX$.[ 9 1 3 6 X.*.yXaXaXgXjXxXzXBXVXZXZXZXZXVXCXBXBXBXBXzXxXlXjXgXgXPXPXPXPXPXPXPXPXPXPXPXPXPXPXPXPXPXPXPXPXPXPXPXPXPXPXPXPXPX",
"j.h.s.i.8.2.,.u y PXPXPX-.*.%. . .%.=.yXpXjXxXzXBXBXBXBXBXBXBXBXBXBXBXBXzXxXhXjXaXyXuX=.$.#.| ] ]  .%.$.-.=.*.#. .#.=.aXhXzXBXBXzXjXyX@.' 6 6 7 | -.uXyXyXyXyXaXpXjXlXxXxXxXzXxXxXlXhXjXjXgXgXjXlXxXxXlXjXPXPXPXPXPXPXPXPXPXPXPXPXPXPXPXPXPXPXPXPXPXPXPXPXPXPXPX",
"d.d.p.8.5.1.>.y PXPXPXPX*.$.%. .#.%.=.uXaXgXjXhXhXhXhXhXjXjXjXjXjXjXjXjXgXaXiXyX=.-.$.#. .| [ ' ' [ ]  .$.=.=.%. .#.=.iXjXBXZXZXVXxXaX*.| ' 7 ' | %.-.-.$.$.%.$.*.=.yXiXaXaXaXpXpXaXaXyXuXtXtXyXpXhXlXhXhXhXPXPXPXPXPXPXPXPXPXPXPXPXPXPXPXPXPXPXPXPXPXPXPXPXPXPX",
"p.i.9.6.2.1.PXPXPXPXPXPX#.#. . . .%.-.tXyXaXpXpXpXaXaXaXiXyXyXuXtX=.=.*.$.$.%.%. . .| ] [ [ ' 7 7 7 [ | %.=.=.$.#.%.=.iXjXBXZXSXZXBXgX=. .[ 7 8 [ |  . .| [ [ ' [ ]  .#.%.%.*.-.=.=.=.-.*.%.%.%.$.=.iXjXlXxXPXPXPXPXPXPXPXPXPXPXPXPXPXPXPXPXPXPXPXPXPXPXPXPXPXPX",
"8.8.6.5.2.2.PXPXPXPXPX . .| | | | #.$.-.=.tXuXuXtX=.=.-.*.$.%.%. . .| ] [ [ [ [ ' ' 7 7 7 7 7 8 7 ' ]  .$.=.-.%.#.%.=.yXjXBXZXZXVXzXpX=. .' 8 6 ' |  .o. .| [ 7 8 8 7 7 ` [ ] |  .%.$.$.%.#. .| ] | $.yXjXlXxXPXPXPXPXPXPXPXPXPXPXPXPXPXPXPXPXPXPXPXPXPXPXPXPXPX",
"2.2.2.2.2.2.PXPXPX$.%. .| ] [ [ [ | #.%.%.%.%.%.#. . .| | ] [ [ ' ' 7 8 8 8 8 8 8 8 8 8 7 7 7 7 [  .%.-.=.=.*.#.|  .%.tXaXxXBXCXBXlXaX*.| 7 6 6 [ #.-.=.tX=.%.| ' 8 2 3 3 2 6 7 [ | %.*.*.$.#.] 8 6 [ ;.yXgXhXxXxXPXPXPXPXPXPXPXPXPXPXPXPXPXPXPXPXPXPXPXPXPXPXPX",
",.,.1.1.2.2.PXPXPX$.%. .| [ 7 7 7 [ ] | ] ] ] ] ] [ [ [ ' 7 7 7 7 7 7 ' ' [ ] |  . . .#.#.%.%.$.-.uXyXiXyX=.%.| [ ] #.=.aXhXzXzXxXjXyX%.] 7 9 8 ] $.yXaXjXjXaXuX*.@.[ 8 4 $ $ 4 6 ' ..%.-.UX=. .6 O 3 ] *.yXjXxXBXzXPXPXPXPXPXPXPXPXPXPXPXPXPXPXPXPXPXPXPXPXPXPX",
"u >.,.1.2.2.PXPXPX$.%. .] ' 7 6 6 8 7 7 7 7 7 ' ' ' 7 7 7 7 7 [ ] |  .#.%.*.=.tXyXiXaXaXaXaXpXfXgXjXgXaXuX*. .[ 7 '  .*.yXgXhXhXgXiX-. .' 8 6 7 | =.aXhXzXBXBXxXhXaX=.o.B 0 % $ 3 8 [  .-.yXiX*.' 1 1 8 | =.gXzXBXBXzXBXPXPXPXPXPXPXPXPXPXPXPXPXPXPXPXPXPXPXPXPX",
"y y u ,.2.5.PXPXPX$.%. .| ] 7 6 3 2 6 8 8 8 7 7 7 8 6 6 7 ] #.*.uXaXpXjXjXjXhXhXhXhXhXhXhXhXjXfXaXyXtX*.%.| [ 6 3 6 [  .*.uXiXyXuX-.#.[ 7 6 6 7  .=.aXhXzXVXZXZXZXVXxXsXO.r % % % $ N | $.uXaXiXtX$.| 8 8  .iXxXBXzXBXCXZXZXPXPXPXPXPXPXPXPXPXPXPXPXPXPXPXPXPXPX",
"t t y >.1.5.PXPXPXo.#.#. .| ' 2 1 1 2 9 6 6 8 8 8 8 7 ' | *.yXfXlXzXBXBXzXxXxXlXhXjXjXgXgXaXyXtX*.#.| [ 7 8 2 1 o 1 8 [ | %.$.$.#.| [ 7 2 3 2 7 | *.yXgXxXBXVXZXAXFXAXnXU.O.V w 0 0 n N | *.yXpXjXgXUX| '  .yXcXxXzXBXBXBXBXBXPXPXPXPXPXPXPXPXPXPXPXPXPXPXPXPXPX",
"q t t u ,.5.9.0.t.O. .@.#...' 3 o 1 3 3 3 3 3 3 6 '  .*.yXpXhXxXzXxXhXgXiXyXuXtX=.=.-.$.%.#.| [ ' 7 6 3 1 o O X X o 3 8 7 ' [ [ ' 7 6 1 1 1 1 2 '  .*.yXpXhXzXBXZXSXSXSXZXnXdXO.r % % w V { %.rXaXgXaXyXuXyXpXjXxXzXzXlXjXpXpXPXPXPXPXPXPXPXPXPXPXPXPXPXPXPXPXPX",
"q q t y u 1.6.0.u.B |  .@. .[ 6 3 1 1 1 1 1 3 8 [  .=.aXgXjXhXjXpXiXtX*.#. .| | ] [ [ ' 7 8 9 3 - - - - - # # O X X o 1 1 1 3 1 1 1 o O X X O 1 8 [  .-.yXpXjXxXBXCXZXAXGXGXDXdXJ.C e 0 0 n B o.-.yXaXpXfXgXgXjXjXjXaXuX*.%.#.PXPXPXPXPXPXPXPXPXPXPXPXPXPXPXPXPX",
"PXPXPXt y >.1.3.a B ] | .. .| [ 7 6 1 o < 3 8 X.%.UXaXgXgXaXuX=.%.| [ ' 7 6 2 3 1 1 1 1 1 - # # @ @ - ; : m : - O X X X X X X X X X X X     X O 3 7 ] #.=.yXaXgXhXxXBXVXZXAXFXFXZXkXJ.e 0 0 0 V { %.-.tXyXaXpXaXyX=.%.] 7 6 2 PXPXPXPXPXPXPXPXPXPXPXPXPXPXPXPXPX",
"PXPXPXq t y u u p B ' [ ] |  . . .| ] [ [ [ | %.=.uXyXyX=.$. .] 7 6 3 1 - # O O O O O O O # ; ; ; ; ; : g M M m 2 2 1 1 1 1 - o O X X X       X O 3 7 [  .%.=.uXaXpXjXlXzXCXZXFXHXDXkXU.O.V 0 0 w B B { O.&.=.rX-.%.| ' 6 8 ..iXPXPXPXPXPXPXPXPXPXPXPXPXPXPXPXPX",
"PXPXPXq q t t t e n 8 7 _ [ | #.%.$.$.$.%.%.%.*.=.-.$.#.| ' 6 3 1 o O O @ @ @ @ @ - > > > ; : f f g : d f M Y R { [ ' 7 7 7 8 6 2 3 1 1 o O X X X o 1 6 7 [ | %.*.=.tXiXpXhXxXBXVXZXAXZXkXJ.C q 0 0 0 0 0 V { o.#. . .X.[  .tXjXBXPXPXPXPXPXPXPXPXPXPXPXPXPXPXPX",
"PXPXPXPXPXq q q q e w 4 4 6 7 [ | |  . . . . . .| ] [ 7 5 1 # # O @ @ @ @ @ ; ; : g g : ; d W C.C.^ W M h h Y / O.+.o.| | | ..| | | ] [ [ 7 6 3 1 o o o 1 2 6 7 ' [ | #.-.yXaXgXjXxXCXZXCXkXdXJ.C 0 0 0 0 0 w V B | @.$.-.yXgXxXBXPXPXPXPXPXPXPXPXPXPXPXPXPXPXPX",
"PXPXPXPXPXPX0 q q q q w $ 3 2 9 6 8 7 7 ` ' 7 7 6 2 3 1 # # @ @ @ @ @ ; ; ; : d M Y W h g h ~ A.P.G.A.^ W M M ~ A.L.+. .@.%.$.*.-.=.=.-.*.%.#.| [ 8 3 1 o O O o 1 1 2 7 | %.*.=.uXiXgXlXNXVXCXvXJ.C e q 0 0 0 0 w B ..;.uXaXjXlXxXPXPXPXPXPXPXPXPXPXPXPXPXPXPXPX",
"PXPXPXPXPXPXPXPXq q 0 w 4 2 3 1 1 1 1 1 1 1 1 - # - ; : ; # @ @ ; ; : : g : : d M Q C.~ Q W Q ~ C.P.I.P.C.W Y Q ~ ^ O.|  .$.-.tXyXaXpXfXgXpXaXyX=.%.| 7 1 O X X X X O 1 6 ' ]  .#.*.=.yXpXcXxXxXkXdXJ.C q 0 0 0 0 w n { #.=.yXiXaXPXPXPXPXPXPXPXPXPXPXPXPXPXPXPX",
"PXPXPXPXPXPXPXPXPX0 0 w 5 6 9 3 1 1 1 1 # # # @ @ @ ; : : : : : : : g M M f d d M Q ^ C.C.C.Q W Q A.I.I.P.C.Q W W W / O.o.#.%.-.tXyXaXgXjXjXjXjXaXyX-. .[ 8 3 1 O X X X o 3 6 7 [ |  .$.=.iXgXlXzXxXdXJ.q 0 0 0 0 0 0 w B { %.-.tXPXPXPXPXPXPXPXPXPXPXPXPXPXPXPX",
"PXPXPXPXPXPXPXPXPXPXPX4 9 6 8 7 7 7 8 5 4 ; # @ @ @ ; : g m f g : ; g W Q W M M M M W C.P.P.C.W W C.I.I.I.P.A.Q M Y ^ L.L.O.] |  .%.-.tXyXyXiXaXiXiXyXtX*.#.] 8 1 o X X X X O 1 3 8 ' | #.*.uXaXjXlXlXPXPXPXq q q 0 0 0 0 w B o.$.PXPXPXPXPXPXPXPXPXPXPXPXPXPXPX",
"PXPXPXPXPXPXPXPXPXPXPXPX3 2 8 7 7 7 7 8 5 4 ; - # @ # ; : m M M g : g M W Q Q Q W M M ~ A.P.A.^ ~ ^ C.A.I.I.P.C.M W C.A.C.R 8 8 _ [ |  .#.%.%.$.$.$.%.%.#. .[ 7 2 1 O X X   X X O 1 2 7 [ | %.=.yXaXgXjXPXPXPXq q 0 0 0 0 0 V {  .PXPXPXPXPXPXPXPXPXPXPXPXPXPXPX",
"PXPXPXPXPXPXPXPXPXPXPXPX1 1 2 6 8 8 8 8 6 2 4 : ; # @ @ ; g h M M m m g f W C.C.~ W Y Q C.A.G.G.A.^ W ~ P.I.I.A.~ Q ~ C.W m 2 3 2 6 7 ' [ [ [ [ [ ' N 7 7 7 8 6 2 1 o X X       X X o 1 2 7 [  .$.=.yXiXaXaXPXPXPXq q 0 0 0 n N [ PXPXPXPXPXPXPXPXPXPXPXPXPXPXPX",
"PXPXPXPXPXPXPXPXPXPXPXPXPXPX1 1 1 3 3 3 3 3 3 4 : : ; @ > ; d f M M M f f M Q ~ ~ ~ ~ Q W Q A.P.P.C.Q Q A.I.I.P.G.A.^ W M 5 2 9 6 7 7 [ [ ] ] [ [ ' 7 8 2 3 3 3 3 1 PXPXPXPX  X X X X O o 3 8 ' | #.*.tXyXaXPXPXPXq q q 0 0 n N 7 ` PXPXPXPXPXPXPXPXPXPXPXPXPXPX",
"PXPXPXPXPXPXPXPXPXPXPXPXPXPXPXO o o 1 1 1 1 1 4 5 : : ; > @ @ : h M Y h f f h Y Q C.C.Q W W C.G.P.A.^ ~ C.A.G.I.I.P.^ Y m m T [ [ X. .#.%.$.$.$.%.%. .] 7 6 2 2 2 PXPXPXPXPXPXPXX X X X X o 1 2 7 [  .%.-.=.PXPXPXq q q q r w 5 8 PXPXPXPXPXPXPXPXPXPXPXPXPXPXPX",
"PXPXPXPXPXPXPXPXPXPXPXPXPXPXPXPXPXo o o o o o 1 1 4 : g : > @ @ ; d h M W M f f M Q ~ ~ Q Q ~ C.C.A.A.C.~ W ~ P.I.P.^ Y Y Q C.L.&.-.tXaXgXjXhXlXhXjXpXtX%.| ] [ ' PXPXPXPXPXPXPXPXPXPXPXPXX O o 1 6 7 ] | | | ] [ PXPXq q q w PXPXPXPXPXPXPXPXPXPXPXPXPXPXPXPXPX",
"PXPXPXPXPXPXPXPXPXPXPXPXPXPXPXPXPXO o o < 1 3 2 6 8 T R T 5 - - ; ; d h M M h f M M W Q Q Q Q W Q C.G.A.~ W W A.P.G.~ Y W ~ A.L.U.=.uXaXgXhXlXxXxXcXjXyX=.%. .| ] PXPXPXPXPXPXPXPXPXPXPXPXPXX X O 1 3 6 7 7 _ ' ' PXPXPXq q PXPXPXPXPXPXPXPXPXPXPXPXPXPXPXPXPXPX",
"PXPXPXPXPXPXPXPXPXPXPXPXPXPXPXPXPXO o 1 3 6 7 ' [ X... .} T m : ; ; ; ; d f M W M f f M Q Q W h Y ~ A.A.C.Q Q ^ C.C.Q W W W Q / }  .%.$.-.=.=.tXUX=.-.$.%.#.#.PXPXPXPXPXPXPXPXPXPXPXPXPXPXPXPXPXX X O 1 1 3 3 2 2 PXPXPXPXPXPXPXPXPXPXPXPXPXPXPXPXPXPXPXPXPXPXPX",
"PXPXPXPXPXPXPXPXPXPXPXPXPXPXPXPXPXPXPX1 3 9 8 ` ' { O.t.t.u.a p d : > # # : f M h g g f h M f f M Y W Q Q Q Q W W W W W M h M m N ' [ X.|  . . .| ] [ [ [ [ PXPXPXPXPXPXPXPXPXPXPXPXPXPXPXPXPXPXPXX X O O o o 1 1 PXPXPXPXPXPXPXPXPXPXPXPXPXPXPXPXPXPXPXPXPXPXPX",
"PXPXPXPXPXPXPXPXPXPXPXPXPXPXPXPXPXPXPXPX1 1 3 6 N C 4.0.9.8.2.<.p d ; @ @ # ; : g g g d : : d f m g g m W Q W h d d f M f d : 4 8 ' [ ] ] ] [ [ ' 7 7 7 7 ' [ PXPXPXPXPXPXPXPXPXPXPXPXPXPXPXPXPXPXPXPXX X X O O o PXPXPXPXPXPXPXPXPXPXPXPXPXPXPXPXPXPXPXPXPXPXPX",
"PXPXPXPXPXPXPXPXPXPXPXPXPXPXPXPXPXPXPXPXPXPXw a 4.3.0.9.8.5.1.>.s q r @ @ @ @ @ ; : : : ; ; ; : : ; ; : f M M d : ; d d : ; ; T &.yXiXuX=.*.%.%.$.=.tXyXaXpXhXBXVXBXxXPXPXPXPXPXPXPXPXPXPXPXPXPXPXPXPXPXPXX X X X PXPXPXPXPXPXPXPXPXPXPXPXPXPXPXPXPXPXPXPXPXPXPX",
"PXPXPXPXPXPXPXPXPXPXPXPXPXPXPXPXPXPXPXPXPXPXPXs.s.p.i.9.6.1.>.y t q r : : 4 5 4 : ; ; ; ; ; ; > > @ @ > ; : : ; ; : m R R m T +.iXxXxXgXaXyXuXuXaXjXxXCXZXAXAXZXZXBXzXxXlXPXPXPXPXPXPXPXPXPXPXPXPXPXPXPXPXPXX X X PXPXPXPXPXPXPXPXPXPXPXPXPXPXPXPXPXPXPXPXPXPXPX",
"PXPXPXPXPXPXPXPXPXPXPXPXPXPXPXPXPXPXPXPXPXPXPXh.d.s.p.8.5.1.u t w $ 5 [ ..%.-.*.} 5 @ @ @ > > @ @ @ @ @ @ @ @ + @ N -.vXhXvXsXsXiXyXtX-.*.-.tXyXaXgXhXBXZXSXAXAXSXVXBXxXjXpXiXPXPXPXPXPXPXPXPXPXPXPXPXPXPXPXPXPXPXPXPXPXPXPXPXPXPXPXPXPXPXPXPXPXPXPXPXPXPXPXPXPX",
"PXPXPXPXPXPXPXPXPXPXPXPXPXPXPXPXPXPXPXPXPXPXPXh.h.d.p.9.5.1.u q $ 1 9 ` | $.=.=.#.T 5 5 m T T R { { { { } } } { } &.pXzXzXjXaXtX$. .| | | #.*.tXyXiXgXlXnXCXVXVXCXzXhXgXiXyXyXaXPXPXPXPXPXPXPXPXPXPXPXPXPXPXPXPXPXPXPXPXPXPXPXPXPXPXPXPXPXPXPXPXPXPXPXPXPXPXPXPX",
"PXPXPXPXPXPXPXPXPXPXPXPXPXPXPXPXPXPXPXPXPXPXPXh.h.d.p.9.6.2.u q % O o 1 2 7 [ X.| |  .#.;.=.uXsXpXgXhXlXMXCXBXzXlXjXpXyX=.#.] ' 8 8 7 [ ]  .#.$.-.uXiXpXjXjXhXjXpXyXtX=.=.=.uXaXhXhXjXaX}.|.!.!.^.~.`.'.'.].].].].].'.PXPXPXPXPXPXPXPXPXPXPXPXPXPXPXPXPXPXPXPXPX",
"PXPXPXPXPXPXPXPXPXPXPXPXPXPXPXPXPXPXPXPXPXPXPXs.s.s.s.p.i.6.1.u t 0 $ # 1 3 9 6 7 ' ] |  .%.;.=.tXyXiXpXjXjXjXgXaXyX*. .] 7 6 2 2 6 7 ]  . . . .#.%.%.$.*.*.%.%.#.#.#.*.yXpXpXsX}.}.}.}.|.|.).).`.'.'.`.`.]..X XoXoX X X XPXPXPXPXPXPXPXPXPXPXPXPXPXPXPXPXPXPXPX",
"PXPXPXPXPXPXPXPXPXPXPXPXPXPXPXPXPXPXPXPXPXPXPX9.9.i.s.d.s.i.8.5.2.>.s w 4 3 4 4 4 2 2 9 6 7 ` [ ] | |  . .#.#.#. .| ] [ ' 7 8 7 7 [ | #.%.%.@. .| ] [ [ [ ' 7 7 7 ] %.tXhXBXlX}.( J W.^.`.].].].].].'.~.^.).]. XXX+X+X+XXXXX X XXX+XOXOXPXPXPXPXPXPXPXPXPXPXPXPX",
"PXPXPXPXPXPXPXPXPXPXPXPXPXPXPXPXPXPXPXPXPXPXPX1.2.5.9.p.s.s.s.p.i.8.5.3.<.<.<.a V N 7 ` ` ` ] ..@.%.%.*.-.=.=.=.U.=.=.=.*.%.#. .| | |  . .%.%.$.*.$.$.$.$.*.-.=.yXaXjXxXBXBXjX}.( Q.^.`.].]..X].].`.W.J H H K !.`. XXX+X+XXXXX XoXXXOXOXOXOXPXPXPXPXPXPXPXPXPXPX",
"PXPXPXPXPXPXPXPXPXPXPXPXPXPXPXPXPXPXPXPXPXPXPXPX>.,.5.8.i.s.d.d.s.p.p.p.i.p.p.9.4.C O.{ { O.o.-.tXyXiXaXfXjXhXlXxXxXxXxXlXjXpXyX=.%. .| |  .%.-.=.rXtXtXuXyXaXjXlXBXCXBXlXpX:X|.!.^.).].].].].'.~.W.J A * * Z S K ~.].XX+X+XXX X.XoXXXOXOXOXOXOXPXPXPXPXPXPXPXPX",
"PXPXPXPXPXPXPXPXPXPXPXPXPXPXPXPXPXPXPXPXPXPXPXPXPXPX1.2.5.9.p.s.s.s.d.d.d.d.d.d.f.a.q.q.q.y.K.sXfXcXcXzXNXCXZXAXFXFXFXAXAXAXZXCXlXaX=. .[ [ |  . .#.#. . . .#.%.*.=.tX}.$.:.( ( !.!.~.`.'.`.~.^.!.L H A * & * Z S K ^.].XXXXXX].].].]. XXX+XOXOXOXOXPXPXPXPXPXPX",
"PXPXPXPXPXPXPXPXPXPXPXPXPXPXPXPXPXPXPXPXPXPXPXPXPXPXPX,.1.2.6.8.9.i.p.s.s.d.d.d.h.h.j.h.h.f.l.T.T.bXbXbXbXbXmXmXmXDXKXJXJXJXHXZXNXjXyX*.$.$.-.=.rX=.*.$.#. .| ] [ ] [ ' G A S P K L !.!.!.!.!.W.K J F A * = = * Z S J ^.]. X.X].'.`.~.`.'..XoXXX+X+X+XPXPXPXPXPX",
"PXPXPXPXPXPXPXPXPXPXPXPXPXPXPXPXPXPXPXPXPXPXPXPXPXPXPXPXPXu u >.,.1.5.6.9.i.p.s.d.d.h.h.h.h.k.k.k.k.k.k.g.g.g.l.l.R.mXKXGXFXVXxXpXyXyXiXgXxXCXZXVXBXlXjXaXuX*. .] 7 2 1 * A A S S F H J J K K K J H S A Z * * * * Z S J !.).`.'.`.^.W.W.!.~.`.]. XoXXXXX+XPXPXPX",
"PXPXPXPXPXPXPXPXPXPXPXPXPXPXPXPXPXPXPXPXPXPXPXPXPXPXPXPX&.V 0 0 0 q t >.1.5.6.6.9.i.p.p.p.s.s.d.d.h.h.j.j.h.h.h.h.k.R.T.bXT.T.R.K.K.K.K.T.T.bXbXbXT.Y.dXkXjXaX=.@.T 3 = * * Z Z Z A A S S H H H H H F S A A A A A S H K !.~.`.`.`.^.!.!.!.^.~.'.].].`.~.~.`.PXPX",
"PXPXPXPXPXPXPXPXPXPXPXPXPXPXPXPXPXPXPXPXPXPXPXPXPXPXBXhXuX] o     + % q y y u u ,.1.2.5.6.8.8.9.i.i.p.s.d.d.h.h.j.j.j.k.k.k.k.j.j.d.f.f.f.a.0.0.7.7.y.Y.kXzXlXaX-.:.G Z Z A Z * * * * A A A S S S F S S S S S H H J J W.^.~.~.~.~.~.~.~.~.).`.].].`.L H K ~.]. X",
"PXPXPXPXPXPXPXPXPXPXPXPXPXPXPXPXPXPXPXPXPXPXPXPXCXBXxXjXyX%.` 3 X     % % % % % 0 w e i ,.1.2.2.2.5.6.6.8.8.8.9.i.i.i.p.p.p.p.p.p.p.p.i.9.8.6.5.2.1.4.K.dXzXxXgXtX:.G S S F F F S S A * * > ; ; ; ; d d d : A S A Z A F H J J K L W.W.!.~.`.'.]. X X].'.'.]..X.X",
"PXPXPXPXPXPXPXPXPXPXPXPXPXPXPXPXPXPXPXPXPXPXPXVXCXzXhXaXuX$...7 1 X             X o # w q y y y y y i i u u >.,.1.2.2.5.5.6.6.6.6.6.6.5.2.2.2.1.,.,.4.J.dXhXjXiX}.:.G S P J K L L K H S * ; % 0 0 q q q q r : D A * > D D D H ( ( J J J L !.~.`.[..X XXX X].].'.",
"PXPXPXPXPXPXPXPXPXPXPXPXPXPXPXPXPXPXPXPXPXPXPXBXBXlXaXtX$. .[ 8 3 o O O X X     X X O # @ % $ $ $ $ $ $ n n e t u >.,.,.,.,.,.,.,.,.,.>.>.u u u y y i J.U.iXrX%.X.G S A S H L !.~.`.~.^.K F > g k l s q q r k U U U U n.M.M.$X%X%X( D Z Z S F H H J L W.W.L K K ",
"PXPXPXPXPXPXPXPXPXPXPXPXPXPXPXPXPXPXPXPXPXPXPXzXxXgXuX%.| _ 6 3 1 1 1 < o o o O O O O O X X X O O o o < < 1 4 w q q t t t t t t s s p p p a C C p p C O.&.$. .' 6 9 * Z A S J !.~.'.].].`.W.K ( I U c k s s z x e.n.n.b.N.B.F.@X@X) I I I I I I ( ( ) (.(.(.(.(.",
"PXPXPXPXPXPXPXPXPXPXPXPXPXPXPXPXPXPXPXPXPXPXPXlXjXiX*.X.7 2 1 o 1 1 1 1 1 3 3 3 2 2 3 1 o O O X X X X X X X O # # # # # # # 4 4 4 N N { o.&.&.&.&.o.{ { X.[ 7 6 3 = * * * A S J W.^.'.].].].'.~.^.( I U x z s t s a a r.r.t.n.v.N.m.m.D.D.$X$X$X-X<X4XeXwXwXwXwX",
"PXPXPXPXPXPXPXPXPXPXPXPXPXPXPXPXPXPXPXPXPXPXPXaXiX=...7 5 d f h Y Y m 5 2 9 6 7 7 7 7 8 2 3 1 1 o o O X X X X X O O O O O o < < 3 2 6 ` [ X.....| ] ' 7 7 8 6 2 2 - = & & * A S J L ^.'.].]..X].[.'./.(.) U U c s s t t i a r.r.n.H.H.G.G.=X=X*X3X5X0XqXqXqXqXqX",
"PXPXPXPXPXPXPXPXPXPXPXPXPXPXPXPXPXPXPXPXPXPXPX=.-.#.[ 5 f U b.N.B.D.Z.E 8 8 7 ' [ ] ] [ [ ' ' ' 7 8 6 3 1 O X X X X X X X X X O O o o o o o < 1 1 1 3 1 3 3 9 6 9 3 = & & & & * S H L !.~.'.]. XXXXXXX X]._.%Xm.n.z t t s s a u.t.t.y.K.K.K.K.PXPXPXPXPXPXPXPXPX",
"PXPXPXPXPXPXPXPXPXPXPXPXPXPXPXPXPXPXPXPXPXPXPX$.%.o./ ~ M.D.#X*X*X*X$XS.S./ R [ ] |  . .@.%.$.-.=.=.*.%.| [ 8 3 o X X X X X X X X X X X         X X O O O o 1 3 2 1 o O . . . & * A S H K !.~.'. XXXXXXXXXoX{._.S.M.b.b.n.r.r.a i a u.t.y.y.K.K.K.K.R.R.PXPXPXPX",
"PXPXPXPXPXPXPXPXPXPXPXPXPXPXPXPXPXPXPXPXPXPXPX....+.S.F.&X;X3X3X3X3X,X;X#XS./ [ ]  .%.$.-.uXaXjXhXxXlXjXiX=.#.[ 6 1 o X X X X X X X X             X X X X O o 1 3 1 1 < o O . . & & = * A H K !.~.'.]. X X X].].{.%X$X$X$XM.n.b a a r.r.t.t.t.y.K.K.R.T.T.PXPXPX",
"PXPXPXPXPXPXPXPXPXPXPXPXPXPXPXPXPXPXPXPXPXPXPX] ] O.S.#X;X6X7X9X9X9X5X3X-X%X/ ' [ ..%.=.yXaXjXxXBXZXZXZXBXlXaX-.| 7 2 1 O X X X X X X       X X X X O O O o 1 3 2 6 8 8 8 6 2 o . . . & & * A S H J W.^.).'..X XoX{.{._.(.(.S.D.D.F.F.H.r.a a u.t.t.y.PXPXPXPXPX",
"PXPXPXPXPXPXPXPXPXPXPXPXPXPXPXPXPXPXPXPXPXPXPX6 7 / S.#X3X8X0XqXqXqX9X5X,X%X) / { ..%.=.aXjXxXBXVXAXHXGXHXSXzXaX*...' 6 1 o X X O O o 1 1 o X X X O O O O o 1 3 6 7 [ ] X.X.] G 6 3 O . . . & & * Z A S J !.`.].].].].'.`.)._.%X%X<X%X%XM.r.r.r.H.H.=XPXPXPXPXPX",
"PXPXPXPXPXPXPXPXPXPXPXPXPXPXPXPXPXPXPXPXPXPXPX< 2 E S.<X6X9XqXqXqXqX0X7X6X;X$XS.^ }  .-.aXhXxXBXVXAXGXGXGXHXVXhXyX*. .' 6 1 o o 1 2 8 7 7 6 o X X X X X O o 1 1 6 7 ]  .#.%.*.=.=.#.8 O . . . . . & & * Z S J W.~.`.'.'.'.'.].oXoXoXoX{.%X$X@X&X-X,X5X0XqXPXPXPX",
"PXPXPXPXPXPXPXPXPXPXPXPXPXPXPXPXPXPXPXPXPXPXPXPX3 / %X3X5X9XqXqXqXqX0X9X5X,X-X@XS.R X.$.yXjXlXzXCXSXGXJXGXHXZXxXaX=.#.[ 8 1 o 1 8 [ | ..| _ 1 X       X X O o 1 2 7 [ |  .%.-.uXiXyX*.#...X.] G 3 . . . & * A S H J L W.!.^.~.'.[.[.].].{.%X>X2X2X2X2X2X2XPXPXPX",
"PXPXPXPXPXPXPXPXPXPXPXPXPXPXPXPXPXPXPXPXPXPXPXPXPXPX6X5X7X0XqXqXqX0X0X7X5X3X;X$XS.E [  .UXaXjXlXBXZXHXGXGXKXVXxXaX=.#.[ 8 1 1 6 [ @.%.$.#.] 2 O + O O X X X O 1 1 2 8 ' ]  .%.=.uXaXhXxXxXhXgXfXPXPXPX. . . & & = * * A S S J L !.^.~.`.'.].].].'.'.).~.~.PXPXPX",
"PXPXPXPXPXPXPXPXPXPXPXPXPXPXPXPXPXPXPXPXPXPXPXPXPXPX5X5X9X0XqX0X9X9X7X8X5X3X;X#XM.U W O.;.uXpXhXBXZXAXHXFXZXBXhXaX=. .[ 8 2 2 '  .*.=.-.;.+.W v v v h ; O     X o < 3 6 7 [ | #.*.yXjXxXBXBXzXBXPXPXPXPXPXPXPXPXPXPX& = * * A S H H J K W.W.W.W.W.W.W.PXPXPXPXPX",
"PXPXPXPXPXPXPXPXPXPXPXPXPXPXPXPXPXPXPXPXPXPXPXPXPXPX5X5X7X0X0X0X9X5X5X5X5X3X-X@XN.c.x.Q +.-.yXjXzXVXSXSXZXCXxXjXyX*.| 7 6 6 7 | ;.tXtX=.*.L.Z.b.v.v.b.U g - - - - - - 1 2 8 ` ]  .*.yXpXcXzXBXBXPXPXPXPXPXPXPXPXPXPXPXPX& & * * A A S S S H H H H H PXPXPXPXPXPX",
"PXPXPXPXPXPXPXPXPXPXPXPXPXPXPXPXPXPXPXPXPXPXPXPXPXPX5X5X7X0X0X0X7X5X5X5X5X,X*XF.v.x.c v { %.tXfXxXCXZXZXBXxXjXiX=.#.[ 6 2 8 [ #.=.iXyXrX;.+.Z.c.v.N.B.D.S.S.M.M.U g # O , 3 9 7 [ | $.tXaXhXxXjXyX*.PXPXPXPXPXPXPXPXPXPXPXPXPXPXPXPXPXPXPXPXPXPXPXPXPXPXPXPXPXPX",
"PXPXPXPXPXPXPXPXPXPXPXPXPXPXPXPXPXPXPXPXPXPXPXPXPXPX5X5X7X0X0X0X7X5X5X5X6X;X@XN.c.x k h R  .-.aXhXzXBXBXxXgXyX=.%.| 7 3 2 7 | ;.yXaXiX=.&.O.U z.c.N.V.@X&X*X&X@XD.U f ; - - 1 3 6 ' | %.=.iXpXiX=.%.%.PXPXPXPXPXPXPXPXPXPXPXPXPXPXPXPXPXPXPXPXPXPXPXPXPXPXPXPXPX",
"PXPXPXPXPXPXPXPXPXPXPXPXPXPXPXPXPXPXPXPXPXPXPXPXPXPX5X5X7X0X0X0X7X5X6X6X,X*XF.v.x.x k h N | $.yXgXhXxXhXfXyX-.#.] 7 3 1 9 [ %.=.aXpXyX*.o./ U x.z.v.N.F.#X&X*X&X#X@XM.U f - O o 1 6 7 ]  .*.=.-.%. . .PXPXPXPXPXPXPXPXPXPXPXPXPXPXPXPXPXPXPXPXPXPXPXPXPXPXPXPXPX",
"PXPXPXPXPXPXPXPXPXPXPXPXPXPXPXPXPXPXPXPXPXPXPXPXPXPX7X9X9X0X0X0X7X5X6X,X-X@XB.v.x.x k h N ] $.tXiXpXpXaXuX$. .[ 8 3 1 1 8 | $.tXiXiXU.+.W v c w.x.z.b.N.B.@X#X&X*X&X#XM.Y -   X O 1 3 6 ' ]  . .| ] ] PXPXPXPXPXPXPXPXPXPXPXPXPXPXPXPXPXPXPXPXPXPXPXPXPXPXPXPXPX",
"PXPXPXPXPXPXPXPXPXPXPXPXPXPXPXPXPXPXPXPXPXPXPXPXPXPX0X0X0X0X0X0X7X5X3X;X&X@XN.b.x.x k h T X.#.=.uXyXuX=.%.| ' 2 1 o o 1 7  .;.=.rX=.+.! b l l l x w.x.z.v.N.F.#X&X*X&XD.W > X X X X O o 1 6 7 7 7 7 7 PXPXPXPXPXPXPXPXPXPXPXPXPXPXPXPXPXPXPXPXPXPXPXPXPXPXPXPXPX",
"PXPXPXPXPXPXPXPXPXPXPXPXPXPXPXPXPXPXPXPXPXPXPXPXPXPX9X9X9X9X7X8X5X3X;X*X@XB.v.z.w.x k M R | #.*.-.=.*.%.| ' 6 1 O O o 3 7 | $.$.#.o./ v l z l l x w.x.z.b.v.N.B.F.@X@X@XM.U h ; O     X X O 1 1 3 2 2 PXPXPXPXPXPXPXPXPXPXPXPXPXPXPXPXPXPXPXPXPXPXPXPXPXPXPXPXPX",
"PXPXPXPXPXPXPXPXPXPXPXPXPXPXPXPXPXPXPXPXPXPXPXPXPXPX5X5X5X5X5X6X3X;X-X@XB.m.c.x.e.x b M { | @.$.%.%.#.| ' 6 1 O X o 3 m T }  .| ] N m v l l l l x w.x.z.c.v.v.v.v.N.B.B.F.D.Z.Y 3 < o o O X X O o 1 1 PXPXPXPXPXPXPXPXPXPXPXPXPXPXPXPXPXPXPXPXPXPXPXPXPXPXPXPXPX",
"PXPXPXPXPXPXPXPXPXPXPXPXPXPXPXPXPXPXPXPXPXPXPXPX,X3X6X5X5X6X3X,X;X-X@XB.N.b.z.x.e.x b v { |  . . .| [ 7 6 1 o X X : W S.S./ [ 7 6 2 d j l l l l l l x w.x.z.z.z.z.z.z.n.Z.O.+.o...| ] [ 8 3 o O o o o PXPXPXPXPXPXPXPXPXPXPXPXPXPXPXPXPXPXPXPXPXPXPXPXPXPXPXPXPX",
"PXPXPXPXPXPXPXPXPXPXPXPXPXPXPXPXPXPXPXPXPXPXPX;X;X,X3X6X6X3X;X-X*X#XF.N.v.z.x.w.c b v Y { | | X.[ ' 8 2 1 o o - m Q $X#X$X/ 8 2 1 1 : j l l l l l l l x x w.U U U n.Z.^ +.;.=.uXyXyXuX-.#.[ 6 1 1 o o PXPXPXPXPXPXPXPXPXPXPXPXPXPXPXPXPXPXPXPXPXPXPXPXPXPXPXPXPX",
"PXPXPXPXPXPXPXPXPXPXPXPXPXPXPXPXPXPXPXPXPXPXPX*X-X-X;X,X,X;X-X&X@XF.B.N.v.x.w.c v B { ] ] [ [ 7 7 6 3 1 O X 5 ) %X-X-X#XS.Y 2 < PXPXPXPXPXPXl l l l l l l b W O.o.+.&.U.sXgXcXzXBXzXxXjXyX%.[ 8 3 1 1 PXPXPXPXPXPXPXPXPXPXPXPXPXPXPXPXPXPXPXPXPXPXPXPXPXPXPXPXPX",
"PXPXPXPXPXPXPXPXPXPXPXPXPXPXPXPXPXPXPXPXPXPXPX&X&X*X*X-X*X#X@X@XB.N.N.v.z.x.x l v R [ ] [ ' 7 8 2 1 o - ; f ~ $X-X;X&XD.Z.M 3 < PXPXPXPXPXPXh h h h v v v W O.o.$.*.=.uXaXgXjXlXxXlXjXaX=.#.[ 8 3 1 o PXPXPXPXPXPXPXPXPXPXPXPXPXPXPXPXPXPXPXPXPXPXPXPXPXPXPXPXPX",
"PXPXPXPXPXPXPXPXPXPXPXPXPXPXPXPXPXPXPXPXPXPXPX&X&X#X@X@XF.F.V.B.N.v.c.z.x.x l k h R [ ' 7 7 8 6 3 , O - Y M.@X#X#X@XN.z.v g 3 1 PXPXPXPXPXPXN N ' [ ] } .. .#.%.$.*.-.-.=.=.tXtXtX=.*.%.| ' 6 1 1 o O PXPXPXPXPXPXPXPXPXPXPXPXPXPXPXPXPXPXPXPXPXPXPXPXPXPXPXPXPX",
"PXPXPXPXPXPXPXPXPXPXPXPXPXPXPXPXPXPXPXPXPXPXPXF.F.B.N.N.N.N.N.m.b.z.x.w.x b h M m N N 7 8 6 2 1 < X X - U N.@X@XV.N.c.x.c h PXPXPXPXPXPXuX=.;.%.$.%.#.#.#.#.#.#.#. . . .| | | | ] [ ' 7 6 1 1 O O X X PXPXPXPXPXPXPXPXPXPXPXPXPXPXPXPXPXPXPXPXPXPXPXPXPXPXPXPXPX",
"PXPXPXPXPXPXPXPXPXPXPXPXPXPXPXPXPXPXPXPXPXPXPXv.v.v.v.v.v.v.b.c.z.x.w.x k j m 6 6 8 8 8 6 2 1 < o O # : U m.B.N.v.c.x.U c PXPXPXPXPXPXyXyXiXaXaXaXyXyXtX=.-.$.%.#. .| ] [ _ 7 8 6 2 1 o O X X X X X X PXPXPXPXPXPXPXPXPXPXPXPXPXPXPXPXPXPXPXPXPXPXPXPXPXPXPXPXPX",
"PXPXPXPXPXPXPXPXPXPXPXPXPXPXPXPXPXPXPXPXPXPXPXz.z.z.z.z.z.z.z.x.w.x x l k j : 1 1 3 3 3 3 3 1 1 - g v U z.c.c.c.z.U j d ; PXPXPXPXPXPXaXpXjXxXzXLXLXzXxXlXhXjXpXaXyX=.$.#. .] [ 7 8 2 1 o X X X X X X PXPXPXPXPXPXPXPXPXPXPXPXPXPXPXPXPXPXPXPXPXPXPXPXPXPXPXPXPX",
"PXPXPXPXPXPXPXPXPXPXPXPXPXPXPXPXPXPXPXPXPXPXPXw.w.w.w.w.w.w.x x l l c Z.C.O.o.| | | | | | | X.] { ^ A.A.Z.n.U U U h : - , PXPXPXPXPX=.yXaXgXlXxXzXLXzXzXxXxXlXjXgXaXyX=.*.%. .] [ 7 6 3 1 O X X X X PXPXPXPXPXPXPXPXPXPXPXPXPXPXPXPXPXPXPXPXPXPXPXPXPXPXPXPXPXPX",
"PXPXPXPXPXPXPXPXPXPXPXPXPXPXPXPXPXPXPXPXPXPXPXl l l l l l l l l z c A.dXnXCXCXBXBXLXzXxXlXjXgXaXiXsXsX:X&.o.{ R N N 5 2 3 PXPXPX|  .#.$.=.tXyXyXyXyXuXuXuXuXuXtXUX=.*.$.%. .| [ _ 8 9 3 1 O X X PXPXPXPXPXPXPXPXPXPXPXPXPXPXPXPXPXPXPXPXPXPXPXPXPXPXPXPXPXPXPXPX",
"PXPXPXPXPXPXPXPXPXPXPXPXPXPXPXPXPXPXPXPXPXPXsXL.L.L.L.L.L.L.L.L.L.Y.dXCXHXJXGXGXHXKXSXZXVXBXzXlXjXpXiXrX$...[ 7 6 9 2 2 3 PXPXPX| | |  .#.%.%.%.#. . .| | | | | | | | | ] [ ' 7 8 9 3 1 1 O X X PXPXPXPXPXPXPXPXPXPXPXPXPXPXPXPXPXPXPXPXPXPXPXPXPXPXPXPXPXPXPXPX",
"PXPXPXPXPXPXPXPXPXPXPXPXPXPXPXPXPXPXPXPXjXjXhXhXlXxXnXCXCXVXDXDXSXAXKXFXHXFXAXSXZXCXBXzXxXhXjXgXaXyX=.%.| 7 6 3 1 1 1 1 1 PXPXPX| | |  . . . .| ] [ ' 7 6 2 2 2 2 2 6 6 6 6 2 2 3 1 1 1 o O X X PXPXPXPXPXPXPXPXPXPXPXPXPXPXPXPXPXPXPXPXPXPXPXPXPXPXPXPXPXPXPXPX",
"PXPXPXPXPXPXPXPXPXPXPXPXPXPXPXPXPXPXPXPXgXjXjXhXxXzXBXVXDXZXZXZXAXAXAXSXZXDXBXzXlXjXaXiXuX=.=.*.%. .X.' 6 1 o o O O o PXPXPXPXPXuXuXyXyXiXyXyXtX-.%. .[ 7 6 3 1 1 1 1 1 1 1 1 1 1 1 < o o O PXPXPXPXPXPXPXPXPXPXPXPXPXPXPXPXPXPXPXPXPXPXPXPXPXPXPXPXPXPXPXPXPXPX",
"PXPXPXPXPXPXPXPXPXPXPXPXPXPXPXPXPXPXPXPXgXgXjXjXhXxXxXnXBXBXBXBXCXVXVXVXVXBXxXjXpXyXU.*.%. . .| [ 7 2 1 o X X X X X PXPXPXPXPXPXjXhXlXxXxXxXxXlXgXiXtX*. .] 7 6 3 1 1 o o O O O O O O O O PXPXPXPXPXPXPXPXPXPXPXPXPXPXPXPXPXPXPXPXPXPXPXPXPXPXPXPXPXPXPXPXPXPXPX",
"PXPXPXPXPXPXPXPXPXPXPXPXPXPXPXPXPXPXPXPXxXxXxXzXBXBXBXCXCXVXZXZXSXSXSXSXZXVXBXxXjXpXiXuX=.*.%. .] 7 2 1 o O X X X X PXPXPXPX=.uXyXiXaXjXhXxXzXzXxXjXpXaXuX=.%. .[ 7 2 1 o X X X X X X X X PXPXPXPXPXPXPXPXPXPXPXPXPXPXPXPXPXPXPXPXPXPXPXPXPXPXPXPXPXPXPXPXPXPXPX",
"PXPXPXPXPXPXPXPXPXPXPXPXPXPXPXPXPXPXPXPXlXxXxXzXBXBXBXCXVXZXSXAXAXAXAXAXSXVXBXxXhXgXaXyXuX=.$. .] 7 2 1 o O O X X X PXPXPXaXyXyXtX=.tXyXiXaXpXgXpXaXaXiXyXtX-.%. .[ 7 3 1 O X X X X X X X PXPXPXPXPXPXPXPXPXPXPXPXPXPXPXPXPXPXPXPXPXPXPXPXPXPXPXPXPXPXPXPXPXPXPX",
"PXPXPXPXPXPXPXPXPXPXPXPXPXPXPXPXPXPXpXpXpXpXfXjXhXlXxXBXCXVXZXZXZXZXZXDXCXBXxXjXaXyXuXtX=.*.%.| [ 8 3 1 O X X X PXPXPXPXPXxXlXgXiXtX-.*.$.%.%.#.#.%.%.%.%.#. .| ] [ 7 6 1 o O X X X PXPXPXPXPXPXPXPXPXPXPXPXPXPXPXPXPXPXPXPXPXPXPXPXPXPXPXPXPXPXPXPXPXPXPXPXPXPX",
"PXPXPXPXPXPXPXPXPXPXPXPXPXPXPXPXPXhXjXjXpXaXyXyXyXyXaXgXjXxXzXBXzXzXxXxXlXjXpXiXuX=.-.*.$.%. .[ 7 6 3 1 O X X PXPXPXPXPXPXhXjXgXaXyXyXuXtX=.$.%. .| ] [ [ ' 7 7 7 8 6 2 1 o O X X X PXPXPXPXPXPXPXPXPXPXPXPXPXPXPXPXPXPXPXPXPXPXPXPXPXPXPXPXPXPXPXPXPXPXPXPXPXPX",
"PXPXPXPXPXPXPXPXPXPXPXPXPXPXPXPXPXzXzXxXjXaXyX=.$.%.$.-.=.yXaXaXaXaXaXiXyXuX=.-.$.%.#. . .| [ ' 8 2 1 < O X X PXPXPXPXPXPXtXuXyXiXaXgXjXjXgXaXyX-. .[ 7 6 3 1 1 1 1 1 1 1 o O X X X PXPXPXPXPXPXPXPXPXPXPXPXPXPXPXPXPXPXPXPXPXPXPXPXPXPXPXPXPXPXPXPXPXPXPXPXPXPX",
"PXPXPXPXPXPXPXPXPXPXPXPXPXPXPXPXxXzXNXzXzXxXjXaXrX$. .| |  .#.%.%.%.#.#. . . .| | ] [ [ [ ' 7 8 2 1 o O X X PXPXPXPXPXPXPX| |  .%.*.=.uXyXaXaXaXuX*. .[ 8 1 o O X O O O O X X X X PXPXPXPXPXPXPXPXPXPXPXPXPXPXPXPXPXPXPXPXPXPXPXPXPXPXPXPXPXPXPXPXPXPXPXPXPXPXPX",
"PXPXPXPXPXPXPXPXPXPXPXPXPXPXPXlXxXxXxXBXCXVXCXxXgXyX$.| [ [ ' 7 7 7 7 7 7 7 7 7 7 8 8 8 8 6 2 3 1 O X X PXPXPXPXPXPXPXPXPX[ ' [ [ [ | | #.*.tXyXuX=.%.| 7 3 o X X X X X X X X PXPXPXPXPXPXPXPXPXPXPXPXPXPXPXPXPXPXPXPXPXPXPXPXPXPXPXPXPXPXPXPXPXPXPXPXPXPXPXPXPX",
"PXPXPXPXPXPXPXPXPXPXPXPXPXPXPXhXhXhXlXxXBXVXDXVXCXxXjXiX=.%.| ' 6 3 1 1 3 3 3 2 2 2 3 3 1 1 o O X X X X PXPXPXPXPXPXPX-.*.*.%. .] ' 7 7 ' [ |  . . .| [ 7 2 1 X X X X X X PXPXPXPXPXPXPXPXPXPXPXPXPXPXPXPXPXPXPXPXPXPXPXPXPXPXPXPXPXPXPXPXPXPXPXPXPXPXPXPXPXPXPX",
"PXPXPXPXPXPXPXPXPXPXPXPXPXPXPXjXhXhXlXxXzXBXCXZXZXVXBXxXjXiX=.%.| ' 7 6 2 3 1 1 1 1 1 o O O X X X X X X PXPXPXPXPXPXtXtXyXaXaXyX$. .[ 7 6 6 8 7 7 7 7 7 6 3 1 X X X X X PXPXPXPXPXPXPXPXPXPXPXPXPXPXPXPXPXPXPXPXPXPXPXPXPXPXPXPXPXPXPXPXPXPXPXPXPXPXPXPXPXPXPXPX",
"PXPXPXPXPXPXPXPXPXPXPXPXPXPXPXjXlXxXBXBXzXxXxXxXzXzXzXzXzXxXxXjXaXuX*. .[ 8 1 o O X X X X X X X X X PXPXPXPXPXPXPXPXaXaXgXlXxXlXpXuX%.[ 6 3 3 3 3 2 2 2 3 1 o X X X PXPXPXPXPXPXPXPXPXPXPXPXPXPXPXPXPXPXPXPXPXPXPXPXPXPXPXPXPXPXPXPXPXPXPXPXPXPXPXPXPXPXPXPXPXPX",
"PXPXPXPXPXPXPXPXPXPXPXPXPXPXPXgXjXxXCXVXCXBXxXlXjXjXjXjXhXlXxXxXlXjXaXuX$.| 7 1 O X X X X X X X X PXPXPXPXPXPXPXPXPXuXyXaXjXhXjXaXuX%.] 8 3 1 1 < o o 1 1 1 O X X PXPXPXPXPXPXPXPXPXPXPXPXPXPXPXPXPXPXPXPXPXPXPXPXPXPXPXPXPXPXPXPXPXPXPXPXPXPXPXPXPXPXPXPXPXPXPX",
"PXPXPXPXPXPXPXPXPXPXPXPXPXPXPXiXpXhXBXVXZXVXBXlXgXaXyXuXyXiXaXgXhXlXlXjXaX-.| 8 1 O X X X X X PXPXPXPXPXPXPXPXPXPXPX . .%.=.uXtX-.%.| [ 7 9 3 1 o O X O O O O X X PXPXPXPXPXPXPXPXPXPXPXPXPXPXPXPXPXPXPXPXPXPXPXPXPXPXPXPXPXPXPXPXPXPXPXPXPXPXPXPXPXPXPXPXPXPXPX",
"PXPXPXPXPXPXPXPXPXPXPXPXPXPXPX=.tXyXgXhXzXBXCXBXxXjXiXtX=.=.uXyXiXaXpXpXaX=.#.[ 6 1 X X X X X PXPXPXPXPXPXPXPXPXPXPX8 7 ' ] | | [ ' 7 8 9 3 1 < O X X X X X X X PXPXPXPXPXPXPXPXPXPXPXPXPXPXPXPXPXPXPXPXPXPXPXPXPXPXPXPXPXPXPXPXPXPXPXPXPXPXPXPXPXPXPXPXPXPXPXPX",
"PXPXPXPXPXPXPXPXPXPXPXPXPXPXPX#.%.$.=.yXpXlXBXCXCXzXgXyX=.=.-.-.*.-.=.tXtX-.%.| 7 3 o X X X PXPXPXPXPXPXPXPXPXPXPXPX1 1 1 3 2 3 3 1 1 3 3 3 3 1 1 o O o o o o PXPXPXPXPXPXPXPXPXPXPXPXPXPXPXPXPXPXPXPXPXPXPXPXPXPXPXPXPXPXPXPXPXPXPXPXPXPXPXPXPXPXPXPXPXPXPXPXPX",
"PXPXPXPXPXPXPXPXPXPXPXPXPXPXPX[ ] |  .$.=.yXgXlXzXzXxXjXaXtX$.%. . . . .#.#.#. .[ 8 3 1 PXPXPXPXPXPXPXPXPXPXPXPXPXPXPXPXPXO O O O o 1 3 6 8 7 ' ' _ ' [ ] ] PXPXPXPXPXPXPXPXPXPXPXPXPXPXPXPXPXPXPXPXPXPXPXPXPXPXPXPXPXPXPXPXPXPXPXPXPXPXPXPXPXPXPXPXPXPXPXPXPXPX",
"PXPXPXPXPXPXPXPXPXPXPXPXPXPXPX[ ] |  .#.%.*.=.yXpXjXlXlXjXyX=.%. .] [ ' ' [ | | [ 8 2 3 PXPXPXPXPXPXPXPXPXPXPXPXPXPXPXPXPX< o 1 1 2 8 ' ]  .#.%.$.$.*.-.=.uXyXPXPXPXPXPXPXPXPXPXPXPXPXPXPXPXPXPXPXPXPXPXPXPXPXPXPXPXPXPXPXPXPXPXPXPXPXPXPXPXPXPXPXPXPXPXPXPXPXPX",
"PXPXPXPXPXPXPXPXPXPXPXPXPXPXPX .#.%.*.*.%. . .%.*.tXiXgXjXpXiX=.#.[ 7 6 2 2 8 8 6 3 1 1 PXPXPXPXPXPXPXPXPXPXPXPXPXPXPX' 7 8 8 7 [ | #.*.=.yXaXaXgXgXgXjXjXhXxXBXCXBXxXxXPXPXPXPXPXPXPXPXPXPXPXPXPXPXPXPXPXPXPXPXPXPXPXPXPXPXPXPXPXPXPXPXPXPXPXPXPXPXPXPXPXPXPXPX",
"PXPXPXPXPXPXPXPXPXPXPXPXPXPXPX#.%.-.uXtX*. .| ] |  .%.=.uXyXyXUX%.] 7 3 1 o 1 1 1 o o o PXPXPXPXPXPXPXPXPXPXPXPXPX..[ ' ' ' [ ]  .$.=.yXaXpXjXhXlXlXxXlXlXxXzXBXBXBXBXnXLXPXPXPXPXPXPXPXPXPXPXPXPXPXPXPXPXPXPXPXPXPXPXPXPXPXPXPXPXPXPXPXPXPXPXPXPXPXPXPXPXPXPXPX",
"PXPXPXPXPXPXPXPXPXPXPXPXPXPXPX| #.-.yXyXtX$. .] 7 7 ' [  .%.-.*.%.| ' 2 o X X X X X X X PXPXPXPXPXPXPXPXV.F.G.L.&. .] 7 7 7 [ | %.-.tXyXaXpXgXjXjXjXjXjXjXhXlXxXzXBXBXCXBXLXxXjXpXiXPXPXPXPXPXPXPXPXPXPXPXPXPXPXPXPXPXPXPXPXPXPXPXPXPXPXPXPXPXPXPXPXPXPXPXPXPXPX",
"PXPXPXPXPXPXPXPXPXPXPXPXPXPX[ [ | #.*.=.tXtX*.| 7 6 6 8 7 ]  . .| [ 7 3 o X X X X X PXPXPXPXPXPXPXPXPXB.N.m.Z./ } [ 7 8 6 6 7 ' | #.%.*.=.tXyXiXaXaXaXpXgXjXjXhXlXxXzXzXNXzXkXdX>X>X>X<XPXPXPXPXPXPXPXPXPXPXPXPXPXPXPXPXPXPXPXPXPXPXPXPXPXPXPXPXPXPXPXPXPXPXPXPX",
"PXPXPXPXPXPXPXPXPXPXPXPXPXPXPX7 ' [ | #.=.uX=. .' 6 3 3 2 8 7 ' 7 8 2 1 O X X X X PXPXPXPXPXPXPXPXV.B.N.v.z.c M 8 9 2 1 1 1 1 2 7 [ [ ] |  .%.*.-.=.=.uXyXiXaXpXgXgXgXgXjXgXdX>X@X@X-X,X,XPXPXPXPXPXPXPXPXPXPXPXPXPXPXPXPXPXPXPXPXPXPXPXPXPXPXPXPXPXPXPXPXPXPXPX",
"PXPXPXPXPXPXPXPXPXPXPXPXPXPXPXPXPX7 7 [  .$.%. .[ 8 3 1 1 3 2 2 2 3 1 o X X X X X PXPXPXPXPXPXPXPXv.c.c.x.x k d 4 1 < O O O O < 1 2 6 6 8 7 ' [ [ ] |  . .%.$.*.-.-.-.-.L.L.A.D.F.@X-X,X3X6X5XPXPXPXPXPXPXPXPXPXPXPXPXPXPXPXPXPXPXPXPXPXPXPXPXPXPXPXPXPXPXPXPXPX",
"PXPXPXPXPXPXPXPXPXPXPXPXPXPXPXPXPX1 3 6 [ | | ] ' 8 1 o o 1 1 1 1 1 o X X X X X PXPXPXPXPXPXPXPXPXw.w.w.x x k d - o O X X X X X O o o o o 1 1 1 3 2 2 6 8 7 ' [ [ ] [ R v c x.c.N.F.#X-X,X3X6X6XPXPXPXPXPXPXPXPXPXPXPXPXPXPXPXPXPXPXPXPXPXPXPXPXPXPXPXPXPXPXPXPX",
"PXPXPXPXPXPXPXPXPXPXPXPXPXPXPXPXPXO o 1 8 ' [ [ 7 6 1 o O o 1 1 o o O X X X PXPXPXPXPXPXPXPXPXPXPXl l x w.w.b d - O X X X X X X X X X X X X X O O O O O o o o < < < 1 ; j k x w.z.v.B.@X#X*X-X-X-X*X&XPXPXPXPXPXPXPXPXPXPXPXPXPXPXPXPXPXPXPXPXPXPXPXPXPXPXPXPXPX",
"PXPXPXPXPXPXPXPXPXPXPXPXPXPXPXPXPXo o 1 8 [ ] |  .| ] [ ' 7 8 2 1 O X X X X PXPXPXPXPXPXPXPXPXPXPXx x x w.x.c d # O X X X X X X X X X X X X X X X X X X X X X         @ r k x x w.z.m.B.@X@X#X#X#X#X@XPXPXPXPXPXPXPXPXPXPXPXPXPXPXPXPXPXPXPXPXPXPXPXPXPXPXPXPXPX",
"PXPXPXPXPXPXPXPXPXPXPXPXPXPXPX3 1 1 1 2 ' | %.=.uXyXiXyX=.$. .' 2 o X X X X O o o PXPXPXPXPXPXPXPXx.x.x.x.PXPXPXPXPXPXPXPXPXPXPXPXPXPXPXPXPXPXPXPXPXPXPXPXPXPXPXPXPXPXPXPXPXPXPXPXPXPXPXPXPXPXPXF.F.F.PXPXPXPXPXPXPXPXPXPXPXPXPXPXPXPXPXPXPXPXPXPXPXPXPXPXPXPXPX",
"PXPXPXPXPXPXPXPXPXPXPXPXPX-.| _ 8 6 8 ' | %.=.iXpXjXhXhXgXyX-. .` 3 o O O o 1 2 ' %.yXaXaXsX=.%.} PXPXPXPXPXPXPXPXPXPXPXPXPXPXPXPXPXPXPXPXPXPXPXPXPXPXPXPXPXPXPXPXPXPXPXPXPXPXPXPXPXPXPXPXPXPXPXPXPXPXPXPXPXPXPXPXPXPXPXPXPXPXPXPXPXPXPXPXPXPXPXPXPXPXPXPXPXPXPX",
"PXPXPXPXPXPXPXPXPXPXPXPXuX=.%.| [ ' [ | %.=.yXaXjXhXxXxXhXpXyX-. .[ 8 3 1 1 2 7 | %.=.uXyXtX*.#. . .PXPXPXPXPXPXPXPXPXPXPXPXPXPXPXPXPXPXPXPXPXPXPXPXPXPXPXPXPXPXPXPXPXPXPXPXPXPXPXPXPXPXPXPXPXPXPXPXPXPXPXPXPXPXPXPXPXPXPXPXPXPXPXPXPXPXPXPXPXPXPXPXPXPXPXPXPXPX",
"PXPXPXPXPXPXPXPXPXV.D.L.U.*.@.[ ' ' [ | %.=.yXiXaXpXgXjXjXgXaXiXuX-.@.[ 8 2 2 2 6 _ ] | .. . ... .#.;.-.-.-.-.PXPXPXPXPXPXPXPXPXPXPXPXPXPXPXPXPXPXPXPXPXPXPXPXPXPXPXPXPXPXPXPXPXPXPXPXPXPXPXPXPXPXPXPXPXPXPXPXPXPXPXPXPXPXPXPXPXPXPXPXPXPXPXPXPXPXPXPXPXPXPXPXPX",
"PXPXPXPXPXPXPXPXB.B.N.A.+. .] _ 7 7 ' ] #.*.=.=.tXtXuXyXyXiXaXaXpXaX:X+.R E m m E E E T 8 8 ' | #.;.=.:XU.U.U.>XPXPXPXPXPXPXPXPXPXPXPXPXPXPXPXPXPXPXPXPXPXPXPXPXPXPXPXPXPXPXPXPXPXPXPXPXPXPXPXPXPXPXPXPXPXPXPXPXPXPXPXPXPXPXPXPXPXPXPXPXPXPXPXPXPXPXPXPXPXPXPXPX",
"PXPXPXPXPXPXF.B.N.v.n.W R 7 7 8 6 8 7 ' |  .%.%.%.%.%.$.*.-.=.yXpXvX:XL.Z.M.S.$X#X<X>X) T 2 7 | $.tXaXdX>XG.$X#X<X,XPXPXPXPXPXPXPXPXPXPXPXPXPXPXPXPXPXPXPXPXPXPXPXPXPXPXPXPXPXPXPXPXPXPXPXPXPXPXPXPXPXPXPXPXPXPXPXPXPXPXPXPXPXPXPXPXPXPXPXPXPXPXPXPXPXPXPXPXPXPX",
"PXPXPXPXPXPXN.m.c.x.c h 5 2 2 3 3 3 2 8 7 [ [ [ [ [ [ ] | | #.*.yXiX:XA.N.N.@X&X;X6X3X>X) / } @.$.U.:X>XI.F.@X-X,X3X6XPXPXPXPXPXPXPXPXPXPXPXPXPXPXPXPXPXPXPXPXPXPXPXPXPXPXPXPXPXPXPXPXPXPXPXPXPXPXPXPXPXPXPXPXPXPXPXPXPXPXPXPXPXPXPXPXPXPXPXPXPXPXPXPXPXPXPXPXPX",
"PXPXPXPXPXPXz.x.w.x k j : 1 < o o o 1 1 2 6 6 2 2 3 3 2 6 7 [  .;.=.L.A.v.N.B.@X&X;X,X,X<X>X>X&.o./ Z.b.m.B.@X*X<X3X6X5X5XPXPXPXPXPXPXPXPXPXPXPXPXPXPXPXPXPXPXPXPXPXPXPXPXPXPXPXPXPXPXPXPXPXPXPXPXPXPXPXPXPXPXPXPXPXPXPXPXPXPXPXPXPXPXPXPXPXPXPXPXPXPXPXPXPXPXPX",
"PXPXPXPXPXPXx x x x c j - O O X X O O O o o o o O O O o < 1 2 7 ] ../ ! x.z.c.m.B.@X*X;X,X<X>X} T M c w.z.v.N.@X#X-X;X,X,X;X-XPXPXPXPXPXPXPXPXPXPXPXPXPXPXPXPXPXPXPXPXPXPXPXPXPXPXPXPXPXPXPXPXPXPXPXPXPXPXPXPXPXPXPXPXPXPXPXPXPXPXPXPXPXPXPXPXPXPXPXPXPXPXPXPXPX",
"PXPXPXPXPXPXl l x w.c j # X X X X X X X X X X X X X X X X O o 3 6 7 m v l x w.z.v.N.@X*X;X-XS.E 5 d k x e.x.c.m.V.@X#X&X*X&X&X&XPXPXPXPXPXPXPXPXPXPXPXPXPXPXPXPXPXPXPXPXPXPXPXPXPXPXPXPXPXPXPXPXPXPXPXPXPXPXPXPXPXPXPXPXPXPXPXPXPXPXPXPXPXPXPXPXPXPXPXPXPXPXPXPX",
"PXPXPXPXPXPXw.w.w.PXPXPXPXPXPXPXPXPXPXPXPXPXPXPXPXPXPXPXPXPXPXPXPXPXPXPXPXPXPXPXPXPXPX@X#X@XS.PXPXPXPXPXPXPXPXPXPXPXPXPX@X@X@X@XPXPXPXPXPXPXPXPXPXPXPXPXPXPXPXPXPXPXPXPXPXPXPXPXPXPXPXPXPXPXPXPXPXPXPXPXPXPXPXPXPXPXPXPXPXPXPXPXPXPXPXPXPXPXPXPXPXPXPXPXPXPXPXPX",
"PXPXPXPXPXPXx.x.x.PXPXPXPXPXPXPXPXPXPXPXPXPXPXPXPXPXPXPXPXPXPXPXPXPXPXPXPXPXPXPXPXPXPXPXV.V.V.PXPXPXPXPXPXPXPXPXPXPXPXPXPXV.V.V.PXPXPXPXPXPXPXPXPXPXPXPXPXPXPXPXPXPXPXPXPXPXPXPXPXPXPXPXPXPXPXPXPXPXPXPXPXPXPXPXPXPXPXPXPXPXPXPXPXPXPXPXPXPXPXPXPXPXPXPXPXPXPXPX"
};
