/* XPM */
static const char *bos2e3[] = {
/* columns rows colors chars-per-pixel */
"128 128 256 2 ",
"   c #0D0D0D",
".  c #030809",
"X  c #0E1C09",
"o  c #0C1509",
"O  c #1B170B",
"+  c #141414",
"@  c #1C1C1C",
"#  c #1A1814",
"$  c #0F1113",
"%  c #231B0D",
"&  c #291C0D",
"*  c #241D15",
"=  c #3A1414",
"-  c #330E0A",
";  c #14280C",
":  c #1C3913",
">  c #183210",
",  c #2B220E",
"<  c #292219",
"1  c #342513",
"2  c #3A2918",
"3  c #2B2F15",
"4  c #1E2123",
"5  c #242424",
"6  c #2B2B2B",
"7  c #292825",
"8  c #342A27",
"9  c #383328",
"0  c #333434",
"q  c #3B3B3B",
"w  c #383837",
"e  c #2D322E",
"r  c #1D1E20",
"t  c #440000",
"y  c #4B0302",
"u  c #570403",
"i  c #4E1918",
"p  c #690505",
"a  c #770303",
"s  c #691919",
"d  c #771919",
"f  c #6B170F",
"g  c #432D1A",
"h  c #452914",
"j  c #4C351D",
"k  c #46321A",
"l  c #56391D",
"z  c #4E290D",
"x  c #7A3806",
"c  c #6A2F08",
"v  c #473829",
"b  c #583D24",
"n  c #453A37",
"m  c #512B2B",
"M  c #692525",
"N  c #773232",
"B  c #1E4415",
"V  c #244C1A",
"C  c #27561D",
"Z  c #314117",
"A  c #32502B",
"S  c #2D6423",
"D  c #336828",
"F  c #37762B",
"G  c #3C6F34",
"H  c #564A16",
"J  c #784816",
"K  c #714915",
"L  c #5C4224",
"P  c #564738",
"I  c #4C4A36",
"U  c #684627",
"Y  c #744D2B",
"T  c #7B522D",
"R  c #6E5235",
"E  c #4A752B",
"W  c #73712F",
"Q  c #3E3F40",
"!  c #3E4141",
"~  c #434444",
"^  c #4B4B4B",
"/  c #474848",
"(  c #544B48",
")  c #535454",
"_  c #5C5C5C",
"`  c #575756",
"'  c #51534E",
"]  c #655D56",
"[  c #705148",
"{  c #4F654B",
"}  c #6E6457",
"|  c #636363",
" . c #6C6C6C",
".. c #696867",
"X. c #747474",
"o. c #7B7B7B",
"O. c #797976",
"+. c #746F6C",
"@. c #5C5F61",
"#. c #840000",
"$. c #8C0101",
"%. c #880A07",
"&. c #930101",
"*. c #9C0000",
"=. c #970B0B",
"-. c #851919",
";. c #991818",
":. c #A40101",
">. c #AC0000",
",. c #AB0B0B",
"<. c #B40000",
"1. c #BC0101",
"2. c #BA0B0B",
"3. c #AF1717",
"4. c #87390C",
"5. c #8A2525",
"6. c #952C2C",
"7. c #993535",
"8. c #873430",
"9. c #BA2626",
"0. c #A33B3C",
"q. c #AE2525",
"w. c #C40000",
"e. c #CB0000",
"r. c #C40B0B",
"t. c #D40000",
"y. c #DA0303",
"u. c #D01818",
"i. c #E50000",
"p. c #EB0404",
"a. c #F40000",
"s. c #FB0000",
"d. c #F11616",
"f. c #C82A2A",
"g. c #E92E2E",
"h. c #884609",
"j. c #914E0A",
"k. c #95550C",
"l. c #8A4D15",
"z. c #885417",
"x. c #9B5C13",
"c. c #965816",
"v. c #9C6217",
"b. c #9E731F",
"n. c #A46A17",
"m. c #AC751C",
"M. c #B07C1F",
"N. c #865833",
"B. c #8B582D",
"V. c #9A643B",
"C. c #936E2E",
"Z. c #AA7722",
"A. c #B17B24",
"S. c #A46934",
"D. c #A84F36",
"F. c #8F4C4C",
"G. c #AA4646",
"H. c #BA5656",
"J. c #B04F4E",
"K. c #906D4B",
"L. c #A86D42",
"P. c #AC7448",
"I. c #8F726E",
"U. c #A87878",
"Y. c #C65B5B",
"T. c #C96969",
"R. c #C27351",
"E. c #A93D47",
"W. c #3D8432",
"Q. c #3D842D",
"!. c #438B35",
"~. c #47973B",
"^. c #599639",
"/. c #4CA442",
"(. c #52AC45",
"). c #54B449",
"_. c #58BB4D",
"`. c #4DB64B",
"'. c #689E59",
"]. c #5CC753",
"[. c #5CC954",
"{. c #63D65B",
"}. c #7BD55A",
"|. c #6FE964",
" X c #72E05F",
".X c #8E8B35",
"XX c #B78826",
"oX c #BD922C",
"OX c #B58A33",
"+X c #B2A83D",
"@X c #C49C33",
"#X c #C29A2E",
"$X c #CAA637",
"%X c #D3B33D",
"&X c #D2AE3A",
"*X c #AF8C4F",
"=X c #B4B14A",
"-X c #88847B",
";X c #968771",
":X c #AB8C70",
">X c #929D64",
",X c #D6BA43",
"<X c #CDB350",
"1X c #D1A660",
"2X c #90E963",
"3X c #A0D456",
"4X c #DBC449",
"5X c #D2CF58",
"6X c #E9D955",
"7X c #E2C94B",
"8X c #F2E45B",
"9X c #D6CE6A",
"0X c #F3F467",
"qX c #CEE465",
"wX c #7D7F81",
"eX c #817F81",
"rX c #7D8283",
"tX c #838383",
"yX c #8C8C8C",
"uX c #868686",
"iX c #939394",
"pX c #9B9B9B",
"aX c #979797",
"sX c #92918D",
"dX c #A79B93",
"fX c #B18F8B",
"gX c #B5AB93",
"hX c #A3A3A3",
"jX c #ACACAC",
"kX c #A8A7A7",
"lX c #B4B4B4",
"zX c #BBBBBB",
"xX c #B6B7B8",
"cX c #B3AFAD",
"vX c #99A89A",
"bX c #C59B9B",
"nX c #C3BAB6",
"mX c #C4B5A9",
"MX c #CDB38F",
"NX c #CAC3B9",
"BX c #D9C599",
"VX c #BDC2C2",
"CX c #C4C4C4",
"ZX c #CBCBCB",
"AX c #CAC8C7",
"SX c #D3D4D4",
"DX c #DBDBDB",
"FX c #D7D9D8",
"GX c #CFD0D1",
"HX c #E3E3E3",
"JX c #ECECEC",
"KX c #E7E9E9",
"LX c #F1F1F3",
"PX c #DEE1DE",
"IX c #BDC7BC",
"UX c None",
/* pixels */
"UXUXUXUXUXUXUXUXUXUXUXUXUXUXUXUXUXUXUXUXUXUXUXUXUXUXUXUXUXUXUXUXUXUXUXUXUXUXUXUXUXUXUXUXUXUXUXUXUXUXUXUXUXUXUXUXUXUXUXUXUXUXUXUXUXUXUXUXUXUXUXUXUXUXUXUXe.w.1.<.>.>.>.>.:.*.*.*.*.*.*.&.$.&.*.UXUXUXUXUXUXUXUXUXUXUXUXUXUXUXUXUXUXUXUXUXUXUXUXUXUXUXUXUXUXUXUXUX",
"UXUXUXUXUXUXUXUXUXUXUXUXUXUXUXUXUXUXUXUXUXUXUXUXUXUXUXUXUXUXUXUXUXUXUXUXUXUXUXUXUXUXUXUXUXUXUXUXUXUXUXUXUXUXUXUXUXUXUXUXUXUXUXUXUXUXUXUXUXUXUXUXUXUXUX<.<.<.:.*.&.&.&.$.$.#.#.#.#.#.#.#.#.$.$.$.UXUXUXUXUXUXUXUXUXUXUXUXUXUXUXUXUXUXUXUXUXUXUXUXUXUXUXUXUXUXUXUX",
"UXUXUXUXUXUXUXUXUXUXUXUXUXUXUXUXUXUXUXUXUXUXUXUXUXUXUXUXUXUXUXUXUXUXUXUXUXUXUXUXUXUXUXUXUXUXUXUXUXUXUXUXUXUXUXUXUXUXUXUXUXUXUXUXUXUXUXUXUXUXt.t.w.1.>.*.&.$.$.#.#.a a a p p p p p p a a a #.#.$.$.&.*.*.&.$.UXUXUXUXUXUXUXUXUXUXUXUXUXUXUXUXUXUXUXUXUXUXUXUXUXUX",
"UXUXUXUXUXUXUXUXUXUXUXUXUXUXUXUXUXUXUXUXUXUXUXUXUXUXUXUXUXUXUXUXUXUXUXUXUXUXUXUXUXUXUXUXUXUXUXUXUXUXUXUXUXUXUXUXUXUXUXUXUXUXUXUXUXUXUXUXw.1.1.<.:.&.#.-.F.G.q.1.1.1.<.<.>.:.:.:.:.>.>.<.<.1.w.w.w.w.w.w.w.e.i.UXUXUXUXUXUXUXUXUXUXUXUXUXUXUXUXUXUXUXUXUXUXUXUXUX",
"UXUXUXUXUXUXUXUXUXUXUXUXUXUXUXUXUXUXUXUXUXUXUXUXUXUXUXUXUXUXUXUXUXUXUXUXUXUXUXUXUXUXUXUXUXUXUXUXUXUXUXUXUXUXUXUXUXUXUXUXUXUXUXUXUXt.e.w.<.,.=.=.%.a a 8.U.T.g.s.s.s.a.a.a.i.i.i.i.i.i.i.p.a.a.a.a.a.s.s.s.s.s.i.>.$.UXUXUXUXUXUXUXUXUXUXUXUXUXUXUXUXUXUXUXUXUXUX",
"UXUXUXUXUXUXUXUXUXUXUXUXUXUXUXUXUXUXUXUXUXUXUXUXUXUXUXUXUXUXUXUXUXUXUXUXUXUXUXUXUXUXUXUXUXUXUXUXUXUXUXUXUXUXUXUXUXUXUXUXUXe.e.w.1.1.>.*.$.8.I.I.U.J.2.u.g.g.d.s.s.a.a.i.y.t.e.e.w.w.e.t.t.t.y.y.y.i.p.a.a.a.a.a.y.t.i.s.UXUXUXUXUXUXUXUXUXUXUXUXUXUXUXUXUXUXUXUX",
"UXUXUXUXUXUXUXUXUXUXUXUXUXUXUXUXUXUXUXUXUXUXUXUXUXUXUXUXUXUXUXUXUXUXUXUXUXUXUXUXUXUXUXUXUXUXUXUXUXUXUXUXUXUXUXUXUXUXUXUX1.1.1.,.3.;.-.5.N F.U.fXbXY.d.s.s.a.i.y.e.2.2.3.3.3.3.q.q.q.9.9.f.f.f.9.9.f.f.u.u.u.y.i.a.s.s.s.s.UXUXUXUXUXUXUXUXUXUXUXUXUXUXUXUXUXUXUX",
"UXUXUXUXUXUXUXUXUXUXUXUXUXUXUXUXUXUXUXUXUXUXUXUXUXUXUXUXUXUXUXUXUXUXUXUXUXUXUXUXUXUXUXUXUXUXUXUXUXUXUXUXUXUXUXUXUXUXUX:.:.*.-.N [ } I.I.U.Y.g.g.g.d.p.i.y.w.1.:.d M [ [ F.I.I.U.fXfXfXbXbXbXbXbXfXfXfXfXU.J.3.1.e.y.p.a.s.s.UXUXUXUXUXUXUXUXUXUXUXUXUXUXUXUXUXUX",
"UXUXUXUXUXUXUXUXUXUXUXUXUXUXUXUXUXUXUXUXUXUXUXUXUXUXUXUXUXUXUXUXUXUXUXUXUXUXUXUXUXUXUXUXUXUXUXUXUXUXUXUXUXUXUXUXUXUXT.G.6.d s N F.F.J.U.Y.g.a.a.p.y.w.>.=.%.-.d m ! )  .rXsXhXlXVXZXSXFXDXDXDXFXGXZXVXlXhXI.F.6.6.3.r.y.p.a.a.UXUXUXUXUXUXUXUXUXUXUXUXUXUXUXUXUX",
"UXUXUXUXUXUXUXUXUXUXUXUXUXUXUXUXUXUXUXUXUXUXUXUXUXUXUXUXUXUXUXUXUXUXUXUXUXUXUXUXUXUXUXUXUXUXUXUXJXJXJXJXJXLXLXJXJXHXGXcXI.( M 3.y.p.d.d.d.p.i.t.1.:.&.p i 8 n ( ~ / _ X.iXjXzXZXFXDXHXKXJXJXKXKXHXPXFXAXjXpXuX+.] [ 5.>.w.y.i.a.a.UXUXUXUXUXUXUXUXUXUXUXUXUXUXUX",
"UXUXUXUXUXUXUXUXUXUXUXUXUXUXUXUXUXUXUXUXUXUXUXUXUXUXUXUXUXUXUXUXUXUXUXUXUXUXUXUXUXUXUXUXUXUXDXHXKXKXJXJXJXJXJXKXHXDXFXGXlXsXI.G.9.y.p.i.t.w.<.=.d M M m ~ / / / / ) ..uXpXxXZXFXPXHXKXJXLXLXLXJXKXHXHXSXzXjXaXrX .) m s =.1.t.i.i.UXUXUXUXUXUXUXUXUXUXUXUXUXUXUX",
"UXUXUXUXUXUXUXUXUXUXUXUXUXUXUXUXUXUXUXUXUXUXUXUXUXUXUXUXUXUXUXUXUXUXUXUXUXUXUXHXHXHXHXHXHXPXFXFXDXDXHXKXJXJXKXHXDXFXFXFXFXSXxXiXI.q.2.<.:.=.a M n ' _ .. ...) ~ ^ _ o.aXjXzXZXFXPXHXKXKXJXJXJXKXHXHXDXFXZXzXhXuX .` ! v s *.1.e.t.UXUXUXUXUXUXUXUXUXUXUXUXUXUXUX",
"UXUXUXUXUXUXUXUXUXUXUXUXUXUXUXUXUXUXUXUXUXUXUXUXUXUXUXUXUXUXUXUXUXUXUXUXUXUXHXDXFXDXDXDXFXSXZXAXAXZXFXHXKXJXKXHXFXFXFXDXHXDXSXxXdXI.8.s i i m ] o.uXyXyXyXo.| ) _ ..tXpXjXzXAXZXFXFXDXHXHXHXDXFXFXSXSXZXZXCXxXpXo.| ) / M $.:.1.w.t.UXUXUXUXUXUXUXUXUXUXUXUXUXUX",
"UXUXUXUXUXUXUXUXUXUXUXUXUXUXUXUXUXUXUXUXUXUXUXUXUXUXUXUXUXUXUXUXUXUXUXUXUXHXHXFXFXFXDXDXFXZXCXzXxXzXAXFXHXHXHXFXFXSXFXFXDXDXFXZXxXsX..0 4 0 ` tXjXxXjXkXaXtX.._ | X.uXpXjXlXzXzXAXZXZXFXFXSXZXZXAXCXCXCXCXzXzXkXuX ._ ( m f %.:.1.e.t.UXUXUXUXUXUXUXUXUXUXUXUXUX",
"UXUXUXUXUXUXUXUXUXUXUXUXUXUXUXUXUXUXUXUXUXUXUXUXUXUXUXUXUXUXUXDXHXHXHXDXDXDXDXFXFXHXHXKXHXFXZXzXlXlXxXCXZXSXGXZXZXZXSXFXFXFXGXAXzXhXtX^ e ^ X.hXAXAXzXhXuX ._ ` | o.yXpXkXjXjXjXlXxXxXzXzXzXzXxXlXlXlXlXlXlXjXaXtX..) ~ w g s %.>.1.w.UXUXUXUXUXUXUXUXUXUXUXUXUX",
"UXUXUXUXUXUXUXUXUXUXUXUXUXUXUXUXUXUXUXUXUXUXUXUXUXUXUXUXUXUXFXDXDXHXDXFXFXDXHXHXHXHXKXKXHXFXZXzXlXjXjXjXlXzXzXCXAXZXFXFXDXDXFXZXCXxXaX| / | yXxXFXSXzXpXo.| ) ^ _ X.uXaXaXaXaXaXaXaXaXpXhXhXpXpXaXpXhXhXhXpXaXyXo.| ^ w 0 0 i a *.>.1.UXUXUXUXUXUXUXUXUXUXUXUXUX",
"UXUXUXUXUXUXUXUXUXUXUXUXUXUXUXUXUXUXUXUXUXUXUXUXUXUXUXUXSXFXFXDXFXFXFXFXFXHXKXKXJXKXHXFXZXCXzXzXlXkXaXaXaXpXjXzXAXSXFXHXKXKXHXHXSXCXkXX.| o.kXAXFXZXlXiXX._ ^ ^ ) | X.tXuXtXtXo.o.o.o.tXtXo.o.o.tXuXyXyXyXyXuXo..._ ^ q q q i p $.:.<.w.w.UXUXUXUXUXUXUXUXUXUXUX",
"UXUXUXUXUXUXUXUXUXUXUXUXUXUXUXUXUXUXUXUXUXUXUXUXUXUXUXHXHXHXHXHXFXSXSXFXHXKXJXJXKXFXCXkXyXuXuXuXuXtXo.X.o.uXpXlXCXZXFXDXHXHXHXFXZXzXkXtXo.aXCXFXFXZXjXuX .` ~ q ~ ^ _  .X.X. . . . . . ...........X.X.o.o.X.X..._ ) ~ ~ ~ ~ n i f =.>.1.w.UXUXUXUXUXUXUXUXUXUXUX",
"UXUXUXUXUXUXUXUXUXUXUXUXUXUXUXUXUXUXUXUXUXUXUXUXJXKXHXFXFXFXFXFXSXZXFXHXKXJXJXHXFXxXyX..~ Q ~ ^ ) ` _ |  .tXaXjXzXAXZXGXFXFXFXZXCXlXhXyXyXlXFXHXDXAXpXtX..` ~ 0 0 w ~ ` _ | | | | | _ _ _ _ ` ` ` _ | | | _ _ ` ^ ^ ~ ~ ^ ^ ~ 0 i %.:.>.<.UXUXUXUXUXUXUXUXUXUXUX",
"UXUXUXUXUXUXUXUXUX[.{.{.[.).)._._.(.~.Q.Q.>XFXLXKXDXFXzXiXo.uXaXjXCXFXHXJXJXPXAXhXX.~ 6 @ @ 5 7 0 q ^ _ X.uXiXhXjXlXxXzXzXCXAXZXCXlXhXaXaXzXFXHXDXCXaXuXo...^ 0 0 0 q ^ ^ ) ^ ^ ^ ~ ~ ~ ^ ^ ^ ^ ~ ^ ^ ^ ) ^ ^ ^ ^ ~ q q ^ ` ^ 0 i a *.:.>.UXUXUXUXUXUXUXUXUXUXUX",
"UXUXUXUXUXUXUXUX{.[.[.].]._._._._.(.~.~.'.vXPXJXFXAXjXyX_ ~ _ tXpXzXFXHXJXHXAXaX..0 #       + @ 6 ~ _  .o.uXyXiXaXpXhXkXjXjXxXCXCXlXkXaXpXzXFXDXFXzXaXuXiXtX| ~ w 0 w q ~ ~ ~ ^ ^ ) _ _ | ....| | _ ) ^ ~ ~ ~ ~ ! q w w ) | ' 0 i a &.*.:.UXUXUXUXUXUXUXUXUXUXUX",
"UXUXUX].{.|.|. X{.{.].).).].].]._./.~.>XIXPXJXPXCXpXX.` ) _ uXjXzXAXFXHXDXCXaX_ 7 #       + # 6 ^ ..o.uXuXuXtXtXuXuXiXaXpXhXjXzXzXlXkXaXaXjXZXFXFXxXiXuXaXaXuX .) q w w w ~ ^ | o.aXjXlXlXlXlXlXjXpXuX..~ 0 w w 0 0 0 q `  .` w i a $.*.*.UXUXUXUXUXUXUXUXUXUXUX",
"UXUX].].]._.[.{.{.].).(.).].].(.~.F G sXHXLXJXPXZXjXuXX.o.yXjXCXAXZXFXHXFXlXtX~ @ + # @ 5 6 w _ o.uXyXuXo.X.X. ... .X.tXuXiXpXjXjXhXiXtXtXpXzXZXAXjXtXo.iXhXkXaXo._ ^ ^ ) ..o.aXjXCXZXAXzXxXlXlXjXjXhXuX| ^ q 0 0 0 0 q _ X.` 0 i p #.&.&.UXUXUXUXUXUXUXUXUXUXUX",
"F ~.].[.~.F /.{.[.(.(.)._.)./.F C : Z '.FXLXKXHXHXFXZXAXCXzXlXlXzXAXSXDXSXxXyX_ q 0 w Q ^ _ X.yXhXhXyXo..._ _ _ ` ` _  .o.uXiXaXiXtXX.....uXkXxXlXiX....o.aXzXCXkXuXo.X.uXhXzXSXSXCXjXaXuXo.X. .X.uXhXhXiXX.) q q ~ ~ / |  .) 7 = p #.$.$.UXUXUXUXUXUXUXUXUXUXUX",
"Q.~._.{.).~.).[._./.~.(./.~.F V : ^ O.jXFXHXDXFXSXZXAXzXxXjXpXiXpXjXzXZXSXZXzXhXiXyXsXiXaXhXjXlXxXkXuX ._ ) ^ ) _ X.tXiXhXjXlXjXaXo.| ) ` ..tXyXiXX.) ^ ..uXxXZXCXxXjXjXxXCXCXzXkXsXo...` ^ ~ ~ ~ _ o.aXjXhXtX . . ..... .../ 5 = p #.#.#.UXUXUXUXUXUXUXUXUXUXUX",
"F !.(.[.{.{.[._.(.~.~.~.!.F C > e '.ZXDXFXSXAXzXjXhXaXyXuXo.X. .X.uXaXlXAXFXHXHXHXHXPXDXFXZXAXzXlXaXo.| ^ ~ ^ _ o.pXxXAXSXFXFXAXjXo._ ^ ~ ^ _ .. ._ ~ ~ ` X.pXzXAXZXZXZXZXCXkXo.| ' ~ w 6 7 5 5 7 0 ^ X.hXlXkXpXaXaXyXtX .` q 5 = p #.a a UXUXUXUXUXUXUXUXUXUXUX",
"D F ~.(._._.).(./.~.~.~.!.F S B A uXZXGXzXjXiXeXX. ...| _ ) ^ / ^ _  .tXaXxXZXFXHXKXHXDXSXAXxXkXaXtX .` q w ` O.pXzXSXDXHXPXFXCXjXuX..) ~ w w / ` ) / ~ ~ ` X.yXhXcXxXjXhXsXX.) w 6 5 < < * # # * < 6 ~ | o.uXyXyXuXo...` ~ e 5 = p a a a UXUXUXUXUXUXUXUXUXUXUX",
"E E E W.W.!.~.~.~.~.~.~.~.Q.F C D '.jXjXaX'.| ' ^ ~ I A w 0 e e w ~ _  .uXhXlXzXVXAXCXzXjXpXiXtXX..._ ^ 6 0 ..aXzXFXHXHXHXFXZXzXhXuX .` ~ 0 7 0 ~ ~ ~ q 0 w ^ | X.tXuXo. ._ ~ 0 5 < < < 1 , & & & * < 5 6 n _ ...._ ` ^ q 6 7 5 = p p p p UXUXUXUXUXUXUXUXUXUXUX",
"+X.XE C C S D F F W.!.~.~.!.F S D | o.X.@.{ G D A A V : : : > : A ` X.iXjXzXlXyXo.rXuXo.X..._ _ _ ` ^ ~ 6 q o.xXFXHXHXHXFXZXCXlXpXtX.._ ~ 0 5 5 6 0 0 7 5 7 0 ~ ^ ^ ^ ~ q 0 7 5 < 2 2 k k k g 2 1 < % # % < 6 0 0 0 0 0 6 7 5 @ = u p u u UXUXUXUXUXUXUXUXUXUXUX",
"7X+X.XW W ^.E C C D F F F F D E H ' ` ( n 9 V V V V V V B B > : A  .iXlXnXbXU.F.N F.F.} ..@.) ' ^ ~ q ~ ^ ..hXZXHXKXHXFXZXzXlXkXaXo...` ~ 6 @ @ @ @ @ @ 5 5 7 6 6 7 5 5 7 8 2 < 2 b U L b b b j g 1 & % % O # # @ < 5 7 7 7 5 @ = u u u y UXUXUXUXUXUXUXUXUXUXUX",
"UXUX4X5X6XqX.XV : V V V V B Z H K L n m u h > : B V C S S C V V { o.jXZXbXG.3.,.r.r.u.G.I.X..._ ^ ~ 0 ^ o.jXZXHXHXFXSXAXxXjXpXaXyXo.| ^ 0 5 # + # @ @ 5 0 0 5 @ @ @ # @ 2 b b j L N.N.Y U U U b k 1 , , , & % O O * 7 6 0 0 7 * = u u y t UXUXUXUXUXUXUXUXUXUXUX",
"UXUXUX8X0X0X=X.XW W W W K H H K h.b v s p y 3 B S F W.W.F D C C { O.hXCXfX5.#.*.<.w.e.9.G.G.0.N ~ w e ^ iXCXDXHXDXZXCXlXkXaXiXuXo...` w 5 @ # 5 0 ^ | ....` w 5 < < 2 k U N.T U Y V.V.Y U Y N.U k 2 1 1 1 , & O O % 7 w w 0 8 = t y y y t UXUXUXUXUXUXUXUXUXUXUX",
"UXUXUXUXUXUXUX6X4X,X$X@XXXv.c.UXUXUXUX%.%.f Z D !./.(./.!.F S S { ..uXhXI.M p a #.&.:.1.r.y.y.;.m w q | hXZXDXHXSXzXjXhXaXyXtXo..._ ~ 6 5 5 7 ~ ..uXjXkXyX .^ 0 v l U T V.L.V.T N.L.L.Y L T V.U g 2 g g 2 1 & O O * 9 q w 6 = u u y t t t UXUXUXUXUXUXUXUXUXUXUX",
"UXUXUXUXUXUXUXUXUXUXUXUXUXUXUXUXUXUXUXUX4.K E ~.)._.).~.W.D C C A ^ | X.+.( m m i u a ;.f.f.9.;.s N +.aXCXFXDXFXAXlXhXyXtXX. .| ) ~ w 0 q _ o.iXhXhXiXo._ ~ q w b U B.L.P.L.V.B.V.P.L.Y L N.V.Y g g j j g 2 , % O * 8 w 0 5 = y y t t t UXUXUXUXUXUXUXUXUXUXUXUX",
"UXUXUXUXUXUXUXUXUXUXUXUXUXUXUXUXUXUXUXb.b.^.(._.]._./.!.F S V : 3 e q ^ ^ ^ ! 0 8 i s 7.J.J.7.6.8.F.dXAXFXDXFXZXzXkXyXo. ._ ) ~ w 0 0 ~ | uXkXjXhXuX| ^ q w ~ ( R N.L.R.P.V.V.V.L.L.V.Y U N.V.U h g L b g 2 1 , % % 7 6 5 @ - t t t t UXUXUXUXUXUXUXUXUXUXUXUXUX",
"UXUXUXUXUXUXUXUXUXUXUXUXUX6.5.f f x.oX+X_._.].].)./.!.F S C : > ; # @ 5 5 7 5 r 8 N G.G.G.7.6.F.U.kXnXGXFXFXZXxXhXyXo...` ~ w 0 7 5 0 _ o.uXuX .^ 0 6 w `  .rX-XK.N.P.*XP.B.V.L.L.L.V.T Y N.N.U 2 k U b g 2 2 1 & O @ 5 @ # - - t UXUXUXUXUXUXUXUXUXUXUXUXUXUXUX",
"UXUXUXUXUXUXUXUXUXUXUXUXUX5.5.5.l..X=X3X{.{.[.).~.!.F S C B > X X o     $ + @ 8 N F.H.G.7.8.F.U.lXAXZXSXFXSXzXkXyXX.| ) ~ 0 7 5 @ @ 7 ^ ..| ) 0 # @ 6 ) tXaXdX;XK.N.L.*XL.N.N.L.P.V.B.N.T N.T b g j U l 2 1 2 2 & O # # # + O - UXUXUXUXUXUXUXUXUXUXUXUXUXUXUXUX",
"UXUXUXUXUXUXUXUXUXUXUXG.0.5.6.A.=X3X X X{.[._./.W.F S V : ; X X o + $     + 8 F.H.H.G.6.5.F.sXlXZXSXSXSXZXCXjXiXo.| ^ ~ 0 7 5 @ + + + 5 7 6 5 @ + 0 | yXjXkX:XK.T Y V.R.V.Y N.P.L.N.T T T Y U b k j L j 1 1 2 2 & O # # + + + UXUXUXUXUXUXUXUXUXUXUXUXUXUXUXUXUX",
"UXUXUXUXUXUXUXUXUXUXE.7.0.S.OX=X3X2X|.{.].(.~.F S V V > ; X o o o   . . * m [ J.H.G.6.d d I.lXSXDXDXSXAXxXkXyXX._ ^ w 6 5 5 @ @ 5 6 w ^ _ ..| ~ 6 ) yXkXhXsXK.B.U U N.P.V.U T L.V.Y U Y Y U b j j j j k 1 1 2 2 8 7 @ + + + UXUXUXUXUXUXUXUXUXUXUXUXUXUXUXUXUXUX",
"UXUXUXUXUXUXUXUXUXY.J.D.S.<X5X2X|.|.{._.~.W.D C : > ; ; X o UXUXUXUXUXUXUXH.H.J.0.6.-.f M I.AXHXHXFXAXcXaXtX..) ~ 0 7 @ @ @ 5 6 q _ X.iXjXxXjXo.)  .kXjXuX+.K.T U l T V.T L Y V.N.U l U U b k k j k g 2 2 1 1 2 w w 5 # + UXUXUXUXUXUXUXUXUXUXUXUXUXUXUXUXUXUXUX",
"UXUXUXUXUXUXUXUXUX9X1X1X<X3X2X|.{.]./.W.S V : > ; X X UXUXUXUXUXUXT.T.T.Y.Y.J.0.6.d d F.fXnXFXFXZXzXkXyXX._ ~ w 6 5 @ @ 5 7 q ) ..o.iXhXkXhXiX| ~ | hXhXo.] R U j j U T U l U N.Y b j U U j 1 2 k 2 1 1 1 1 & < 9 0 5 # UXUXUXUXUXUXUXUXUXUXUXUXUXUXUXUXUXUXUXUX",
"UXUXUXUXUXUXUXUX0X0X0X0XqX2X{.[.).!.F V > ; ; X X o UXUXUXUXUXUXY.Y.Y.H.J.G.7.5.d d F.fXSXPXFXCXjXiXo...^ w 6 5 @ @ @ @ 5 0 ^ | X.o.tXtXo. ._ w 7 ) yXaXX.` P j g g b b l j l U b g g l l g , 1 2 1 , , 1 , & % 7 7 @ # UXUXUXUXUXUXUXUXUXUXUXUXUXUXUXUXUXUXUXUX",
"UXUXUXUXUXUXUX6XqX2X2X2X}._./.W.D C : ; X X UXUXUXUXUXUXUXY.Y.Y.H.H.J.G.0.6.-.p M I.mXFXHXPXZXjXyXX._ ~ 0 7 @ @ # UX5 5 6 0 q ~ ~ ~ ~ q q 0 7 @ @ q X.rX .` v 2 2 2 2 g h 2 h h 1 , , 1 2 , & , , & % & , , % O @ @ @ UXUXUXUXUXUXUXUXUXUXUXUXUXUXUXUXUXUXUXUXUX",
"UXUXUXUXUXUX=X=X3X_.`.(.~.W.D V : > ; o o UXUXUXUXUXUXUXUXH.H.J.J.G.0.7.6.5.N N I.cXHXKXDXZXjXyX .) q 0 7 5 @ + UXUXUX7 7 6 7 5 5 @ @ 5 7 0 q q w ~ _ | _ ( 9 & , 1 & & & & v ( ] ] ] ] ] ] ] ' I 9 % O & & % O # @ UXUXUXUXUXUXUXUXUXUXUXUXUXUXUXUXUXUXUXUXUXUX",
"UXUXUXUXUXUXUX!.E F D S C V : ; X X UXUXUXUXUXUXUXUXUXUXUXUXG.G.0.7.6.5.-.UXUXnXAXDXPXSXzXhXuX..^ w 0 6 UXUXUXUXUXUXUXUXUX@ # # # @ 5 0 ^  .uXyXtX..~ w ~ q < & & , & & O * ` kXAXZXZXZXZXAXNXcXsX] < O % % % O + # UXUXUXUXUXUXUXUXUXUXUXUXUXUXUXUXUXUXUXUXUXUX",
"UXUXUXUXUXUXUXS C : : > > > ; X UXUXUXUXUXUXUXUXUXUXUXUXUXUXUX0.0.7.6.5.UXUXUXLXKXHXSXxXaXo._ ~ 6 5 7 UXUXUXUXUXUXUXUXUXUXUX+ # @ 6 ~ _ o.hXzXzXkXo.~ 6 e 6 7 < % , P  . ...-XgXBXBXBXBXMXMXMX:X:XI.} I * O O # + UXUXUXUXUXUXUXUXUXUXUXUXUXUXUXUXUXUXUXUXUXUXUX",
"UXUXUXUXUXUXUXUXUXX X X X UXUXUXUXUXUXUXUXUXUXUXUXUXUXUXUXUXUXUXUXUXUXUXUXUXUXJXHXGXxXaXX.` q 6 5 @ UXUXUXUXUXUXUXUXUXUXUXUXUX@ 5 ~ | tXhXzXAXzXkXo.^ 6 5 5 6 e < 9 I.nXAXnXgX*XXX@X@XoXXXZ.n.x.v.*XdXO.w # + + UXUXUXUXUXUXUXUXUXUXUXUXUXUXUXUXUXUXUXUXUXUXUXUX",
"UXUXUXUXUXUXUXUXUXUXUXUXUXUXUXUXUXUXUXUXUXUXUXUXUXUXUXUXUXUXUXUXUXUXUXUXUXUXDXDXSXxXaXX.) q 6 5 UXUXUXUXUXUXUXUXUXUXUXUXUXUXUX# @ 0 ^ | o.uXyXuXX._ w 5 @ # @ 0 ..sX:X:X:X1X1X$X$X%X%X%X$XoXM.n.x.S.K.I.+.) 5   UXUXUXUXUXUXUXUXUXUXUXUXUXUXUXUXUXUXUXUXUXUXUXUX",
"UXUXUXUXUXUXUXUXUXUXUXUXUXUXUXUXUXUXUXUXUXUXUXUXUXUXUXUXUXUXUXUXUXUXUXUXUXHXDXSXzXaXX.) 0 6 7 5 UXUXUXUXUXUXUXUXUXUXUXUXUXUXUX+ # @ 5 w ~ ^ ^ ^ ~ 0 5 @ # @ 7 ' iXmX:Xc.n.oX$X,X4X6X8X8X6X%X#XZ.n.j.h.K.dXuX~ 5 UXUXUXUXUXUXUXUXUXUXUXUXUXUXUXUXUXUXUXUXUXUXUXUX",
"UXUXUXUXUXUXUXUXUXUXUXUXUXUXUXUXUXUXUXUXUXUXUXUXUXUXUXUXUXUXUXUXUXUXUXUXUXJXPXAXhXo.) w 6 5 UXUXUXUXUXUXUXUXUXUXUXUXUXUXUXUXUX      + @ 5 5 5 5 @ @ # + + 0 O.dX:XV.b.n.m.XX#X%X7X0X0X0X6X,X#XXXm.k.h.K.dXaX .^ ^ ^ UXUXUXUXUXUXUXUXUXUXUXUXUXUXUXUXUXUXUXUXUXUX",
"UXUXUXUXUXUXUXUXUXUXUXUXUXUXUXUXUXUXUXUXUXUXUXUXUXUXUXUXUXUXUXUXUXUXUXUXUXHXSXjXtX_ q 6 7 UXUXUXUXUXUXUXUXUXUXUXUXUXUXUXUXUXUX      + @ 5 0 ~ ~ ~ q q q ~  .lXNX*Xj.x.M.M.A.oX$X4X6X6X7X,X$X#XoXXXn.j.K.dXkXiXo...` ^ UXUXUXUXUXUXUXUXUXUXUXUXUXUXUXUXUXUXUXUXUX",
"UXUXUXUXUXUXUXUXUXUXUXUXUXUXUXUXUXUXUXUXUXUXUXUXUXUXUXUXUXUXUXUXUXUXUXUXUXAXlXtX_ q 6 5 UXUXUXUXUXUXUXUXUXUXUXUXUXUXUXUXUXUXUXUXUX@ 5 6 ~  .yXpXpXaXyXiXhXlXZXNX*Xx.n.M.M.M.XX#X$X$X$XoXXXoX#X@XoXm.x.P.gXxXjXpXuX..^ 0 UXUXUXUXUXUXUXUXUXUXUXUXUXUXUXUXUXUXUXUX",
"UXUXUXUXUXUXUXUXUXUXUXUXUXUXUXUXUXUXUXUXUXUXUXUXUXUXUXUXUXUXUXUXUXUXUXUXUXjXaX..~ 0 5 UXUXUXUXUXUXUXUXUXUXUXUXUXUXUXUXUXUXUXUXUXUX@ 5 7 ~ ..yXhXjXhXaXhXCXAXgX:XS.x.n.n.n.n.n.n.n.n.n.v.v.m.XXXXXXm.n.P.gXcXhXyXX._ q 6 5 UXUXUXUXUXUXUXUXUXUXUXUXUXUXUXUXUXUXUX",
"UXUXUXUXUXUXUXUXUXUXUXUXUXUXUXUXUXUXUXUXUXUXUXUXUXUXUXUXUXUXUXUXUXUXUXUXUXaXo.^ 0 UXUXUXUXUXUXUXUXUXUXUXUXUXUXUXUXUXUXUXUXUXUXUXUX+ # @ 7 ~ | o.uXtXX.yXCXnXP.l.j.x.x.x.x.x.c.c.l.l.l.l.l.c.v.n.m.n.x.P.dXpXo._ ^ w 7 5 UXUXUXUXUXUXUXUXUXUXUXUXUXUXUXUXUXUXUXUX",
"UXUXUXUXUXUXUXUXUXUXUXUXUXUXUXUXUXUXUXUXUXUXUXUXUXUXUXUXUXUXUXUXUXUXUXUXUXX.| ~ 6 UXUXUXUXUXUXUXUXUXUXUXUXUXUXUXUXUXUXUXUXUXUXUXUX+ + + # 5 w ) @.` ~  .xXmXL.h.j.x.B.R K.K.;X:X:X:X;XK.[ R R z.c.k.j.K.sXtX' 6 5 5 @ # UXUXUXUXUXUXUXUXUXUXUXUXUXUXUXUXUXUXUXUX",
"UXUXUXUXUXUXUXUXUXUXUXUXUXUXUXUXUXUXUXUXUXUXUXUXUXUXUXUXUXUXUXUXUXUXUXUXUX` ^ w 6 UXUXUXUXUXUXUXUXUXUXUXUXUXUXUXUXUXUXUXUXUXUXUXUX+ +     @ 7 w ~ w 6 _ jXmXK.l.l.B.[ ..wXpXxXAXZXZXxXaXo.| ` U J J J K.-XX.0 + + # @ @ @ UXUXUXUXUXUXUXUXUXUXUXUXUXUXUXUXUXUXUX",
"UXUXUXUXUXUXUXUXUXUXUXUXUXUXUXUXUXUXUXUXUXUXUXUXUXUXUXUXUXUXUXUXUXUXUXUXUXw w UXUXUXUXUXUXUXUXUXUXUXUXUXUXUXUXUXUXUXUXUXUXUXUXUXUX+ + + # 5 0 ^ ) ~ w _ kXcXI.[ R [ ..tXkXZXDXHXHXDXZXlXaXrX..` P P P } -X .0 + @ 5 0 q w 6 UXUXUXUXUXUXUXUXUXUXUXUXUXUXUXUXUXUX",
"UXUXUXUXUXUXUXUXUXUXUXUXUXUXUXUXUXUXUXUXUXUXUXUXUXUXUXUXUXUXUXUXUXUXUXUXUX6 6 UXUXUXUXUXUXUXUXUXUXUXUXUXUXUXUXUXUXUXUXUXUXUXUXUXUX+ + + @ w _ X.tXX._ X.hXkXo._ ) _ o.hXCXDXPXSXCXlXhXaXyXtXX._ / ~ ' ..o...0 # @ 7 q ^ ~ q w UXUXUXUXUXUXUXUXUXUXUXUXUXUXUXUXUX",
"UXUXUXUXUXUXUXUXUXUXUXUXUXUXUXUXUXUXUXUXUXUXUXUXUXUXUXUXUXUXUXUXUXUXUXUXUXUXUXUXUXUXUXUXUXUXUXUXUXUXUXUXUXUXUXUXUXUXUXUXUXUXUXUXUX    # 6 ` uXjXAXxXaXiXkXaX..) _  .iXxXZXSXCXpXo._ ^ ^ _  .X._ ^ ^ _  .X._ 6 + # 5 0 q ^ ) ` UXUXUXUXUXUXUXUXUXUXUXUXUXUXUXUXUX",
"UXUXUXUXUXUXUXUXUXUXUXUXUXUXUXUXUXUXUXUXUXUXUXUXUXUXUXUXUXUXUXUXUXUXUXUXUXUXUXUXUXUXUXUXUXUXUXUXUXUXUXUXUXUXUXUXUXUXUXUXUXUXUXUXUX  + @ 0 _ uXxXSXCXaXiXaXuX| ^ _ X.pXzXCXxXiX..( d d m w ` .._ ^ _  . ...^ 7 # @ 5 7 0 q ^ ^ UXUXUXUXUXUXUXUXUXUXUXUXUXUXUXUXUX",
"UXUXUXUXUXUXUXUXUXUXUXUXUXUXUXUXUXUXUXUXUXUXUXUXUXUXUXUXUXUXUXUXUXUXUXUXUXUXUXUXUXUXUXUXUXUXUXUXUXUXUXUXUXUXUXUXUXUXUXUXUXUXUXUXUX+ # 5 0 ) X.hXzXjXuXo.uXo._ ^ _ X.pXxXlXaX .q s 2.2.s 7 / _ ` ^ | o.X.) w 5 @ 5 7 5 5 7 0 0 UXUXUXUXUXUXUXUXUXUXUXUXUXUXUXUXUX",
"UXUXUXUXUXUXUXUXUXUXUXUXUXUXUXUXUXUXUXUXUXUXUXUXUXUXUXUXUXUXUXUXUXUXUXUXUXUXUXUXUXUXUXUXUXUXUXUXUXUXUXUXUXUXUXUXUXUXUXUXUXUXUXUXUX# @ 5 6 ~ _ o.aXiXo.X.tXX.^ q ` X.aXjXhXuX_ 0 = p p = 5 q ^ ^ ^ ..uX .q 5 5 5 0 w 0 7 5 5 5 UXUXUXUXUXUXUXUXUXUXUXUXUXUXUXUXUX",
"UXUXUXUXUXUXUXUXUXUXUXUXUXUXUXUXUXUXUXUXUXUXUXUXUXUXUXUXUXUXUXUXUXUXUXUXUXUXUXUXUXUXUXUXUXUXUXUXUXUXUXUXUXUXUXUXUXUXUXUXUXUXUXUXUX5 @ @ 5 0 ^ | X.X... .o.X./ 0 ^  .yXhXaXo._ 0 5 @ @ 5 7 0 ~ ~ ^  .uX..0 @ r 7 q ~ q 0 5 @ @ UXUXUXUXUXUXUXUXUXUXUXUXUXUXUXUXUX",
"UXUXUXUXUXUXUXUXUXUXUXUXUXUXUXUXUXUXUXUXUXUXUXUXUXUXUXUXUXUXUXUXUXUXUXUXUXUXUXUXUXUXUXUXUXUXUXUXUXUXUXUXUXUXUXUXUXUXUXUXUXUXUX` ^ 0 5 @ 5 6 q ^ ` ` ) | O. .~ 0 ~ _ tXpXaXo._ ~ e 6 6 0 0 0 0 ~ _  .o.| w 5 5 7 0 ~ ^ ^ 0 @ # UXUXUXUXUXUXUXUXUXUXUXUXUXUXUXUXUX",
"UXUXUXUXUXUXUXUXUXUXUXUXUXUXUXUXUXUXUXUXUXUXUXUXUXUXUXUXUXUXUXUXUXUXUXUXUXUXUXUXUXUXUXUXUXUXUXUXUXUXUXUXUXUXUXUXUXUXUXUXUXUXUX| _ ^ w 5 @ 5 0 w ~ ! Q '  .../ 0 w ^ X.yXuXX.| ^ q q q q w 0 0 ) .. ...` ~ 0 7 7 6 0 ~ ^ w 5 UXUXUXUXUXUXUXUXUXUXUXUXUXUXUXUXUXUX",
"UXUXUXUXUXUXUXUXUXUXUXUXUXUXUXUXUXUXUXUXUXUXUXUXUXUXUXUXUXUXUXUXUXUXUXUXUXUXUXUXUXUXUXUXUXUXUXUXUXUXUXUXUXUXUXUXUXUXUXUXUXUXUXo.X. .` 0 @ @ 5 6 0 6 6 q _ _ ~ 0 0 ~ _  .X.X.| ) ^ ^ ~ q 0 6 0 _ o...^ ~ ^ ~ w 6 5 5 0 q q UXUXUXUXUXUXUXUXUXUXUXUXUXUXUXUXUXUXUX",
"UXUXUXUXUXUXUXUXUXUXUXUXUXUXUXUXUXUXUXUXUXUXUXUXUXUXUXUXUXUXUXUXUXUXUXUXUXUXUXUXUXUXUXUXUXUXUXUXUXUXUXUXUXUXUXUXUXUXUXUXUXUXUXiXiXiXo.) 6 5 @ r 5 2 g b ( ' ~ 0 0 0 ~ ` _ | _ ) ^ ~ q 0 6 0 ^ ..X.| ~ ^ | _ ^ n v k 8 7 UXUXUXUXUXUXUXUXUXUXUXUXUXUXUXUXUXUXUXUX",
"UXUXUXUXUXUXUXUXUXUXUXUXUXUXUXUXUXUXUXUXUXUXUXUXUXUXUXUXUXUXUXUXUXUXUXUXUXUXUXUXUXUXUXUXUXUXUXUXUXUXUXUXUXUXUXUXUXUXUXUXUXUXUXkXjXlXhXX.^ 6 @ # # 2 x J P / ! w 0 0 0 q ~ ^ ^ ~ q w 0 5 7 ~ | ..| _ _  .tXo._ ( B.l.k # UXUXUXUXUXUXUXUXUXUXUXUXUXUXUXUXUXUXUXUX",
"UXUXUXUXUXUXUXUXUXUXUXUXUXUXUXUXUXUXUXUXUXUXUXUXUXUXUXUXUXUXUXUXUXUXUXUXUXUXUXUXUXUXUXUXUXUXUXUXUXUXUXUXUXUXUXUXUXUXUXUXUXUXUXzXzXAXxXuX_ q 7 @ @ h h.z.P / ~ ~ 0 6 5 5 7 6 0 0 0 6 7 5 0 _ o.| ^ | tXpXcXhXo.} C.Z.J UXUXUXUXUXUXUXUXUXUXUXUXUXUXUXUXUXUXUXUXUX",
"UXUXUXUXUXUXUXUXUXUXUXUXUXUXUXUXUXUXUXUXUXUXUXUXUXUXUXUXUXUXUXUXUXUXUXUXUXUXUXUXUXUXUXUXUXUXUXUXUXUXUXUXUXUXUXUXUXUXUXUXUXUXUXAXZXZXzXyX..~ 0 5 @ k l.z.P ^ ' ' ~ w 6 5 5 @ @ 5 5 5 5 6 ~ ..X.` ~ ..hXCXGXVXaX;X*X$XUXUXUXUXUXUXUXUXUXUXUXUXUXUXUXUXUXUXUXUXUXUX",
"UXUXUXUXUXUXUXUXUXUXUXUXUXUXUXUXUXUXUXUXUXUXUXUXUXUXUXUXUXUXUXUXUXUXUXUXUXUXUXUXUXUXUXUXUXUXUXUXUXUXUXUXUXUXUXUXUXUXUXUXUXiXkXzXAXzXkXo.` q 0 4 @ k l.z.P / _ ...._ ` ^ w 7 @ @ # @ 7 ~ ) ^ ~ w ~ X.jXZXFXZXjXdX<X7XUXUXUXUXUXUXUXUXUXUXUXUXUXUXUXUXUXUXUXUXUXUX",
"UXUXUXUXUXUXUXUXUXUXUXUXUXUXUXUXUXUXUXUXUXUXUXUXUXUXUXUXUXUXUXUXUXUXUXUXUXUXUXUXUXUXUXUXUXUXUXUXUXUXUXUXUXUXUXUXUXUXUXUXUXaXhXxXzXkXuX| ~ 0 6 7 2 K v.C.( ' ` ..o.uXuXtX..^ 0 5 5 7 0 / / e r 5 ~ X.jXZXFXGXxXgX9X6XUXUXUXUXUXUXUXUXUXUXUXUXUXUXUXUXUXUXUXUXUXUX",
"UXUXUXUXUXUXUXUXUXUXUXUXUXUXUXUXUXUXUXUXUXUXUXUXUXUXUXUXUXUXUXUXUXUXUXUXUXUXUXUXUXUXUXUXUXUXUXUXUXUXUXUXUXUXUXUXUXUXUXUXUXpXhXjXkXuX .^ 0 5 7 j J n.XX*XI.| ~ ^ o.jXzXxXpXo._ ~ ~ ^ ^ 0 5 @ # r 0 | iXxXZXZXlXgX9X6XUXUXUXUXUXUXUXUXUXUXUXUXUXUXUXUXUXUXUXUXUXUX",
"UXUXUXUXUXUXUXUXUXUXUXUXUXUXUXUXUXUXUXUXUXUXUXUXUXUXUXUXUXUXUXUXUXUXUXUXUXUXUXUXUXUXUXUXUXUXUXUXUXUXUXUXUXUXUXUXUXUXUXUXUXsXiXiXuX .) w 6 1 h c j.n.XX*X+.@.Q ~ o.jXxXlXaXX..._ ) ^ n g h H L 9 7 / O.hXCXAXlXgX9X6X0XUXUXUXUXUXUXUXUXUXUXUXUXUXUXUXUXUXUXUXUXUX",
"UXUXUXUXUXUXUXUXUXUXUXUXUXUXUXUXUXUXUXUXUXUXUXUXUXUXUXUXUXUXUXUXUXUXUXUXUXUXUXUXUXUXUXUXUXUXUXUXUXUXUXUXUXUXUXUXUXUXUXUXUXO.O.X...) q e 7 h c x h.c.m.C.} ' A ~ ..uXiXuX .) ` ..` w 2 c k.OX+XW 9 w _ uXxXCXlXgX9X6X0X0XUXUXUXUXUXUXUXUXUXUXUXUXUXUXUXUXUXUXUXUX",
"UXUXUXUXUXUXUXUXUXUXUXUXUXUXUXUXUXUXUXUXUXUXUXUXUXUXUXUXUXUXUXUXUXUXUXUXUXUXUXUXUXUXUXUXUXUXUXUXUXUXUXUXUXUXUXUXUXUXUXUXUXV.} ] ) ~ 0 5 * 1 h h j K k.v.C.R I ~ ` ....| _ ) ^ / I L K v.XX%X4X=XC.R ' X.hXlXjXgX1X4X6X0X0XUXUXUXUXUXUXUXUXUXUXUXUXUXUXUXUXUXUXUX",
"UXUXUXUXUXUXUXUXUXUXUXUXUXUXUXUXUXUXUXUXUXUXUXUXUXUXUXUXUXUXUXUXUXUXUXUXUXUXUXUXUXUXUXUXUXUXUXUXUXUXUXUXUXUXUXUXUXUXUXUXUXx.B.( / w 6 5 5 7 0 w q b K k.n.C.P q ~ ^ ^ ~ ^ ) ~ 9 j J v.A.@X,X6X7X,XC.( @.sXhXhXdX*X@X,X6XUXUXUXUXUXUXUXUXUXUXUXUXUXUXUXUXUXUXUXUX",
"UXUXUXUXUXUXUXUXUXUXUXUXUXUXUXUXUXUXUXUXUXUXUXUXUXUXUXUXUXUXUXUXUXUXUXUXUXUXUXUXUXUXUXUXUXUXUXUXUXUXUXUXUXUXUXUXUXUXUXM.n.j.J P ~ w 0 6 0 )  .X.X.] P U c.z.L 0 0 q q w 0 0 v K J 4.h.x.A.$X4X%XoXT w ^ o.sXiX;XL.Z.$X4XUXUXUXUXUXUXUXUXUXUXUXUXUXUXUXUXUXUXUXUX",
"UXUXUXUXUXUXUXUXUXUXUXUXUXUXUXUXUXUXUXUXUXUXUXUXUXUXUXUXUXUXUXUXUXUXUXUXUXUXUXUXUXUXUXUXUXUXUXUXUXUXUXUXUXUXUXUXUXUXUXn.x.h.c P ~ ~ ^ ' _  .tXaXhXiXX.} N.T v 0 e 0 6 6 8 2 l h.h.c c h.x.XX#XXXn.K g n | X.o.I.B.x.XX$XUXUXUXUXUXUXUXUXUXUXUXUXUXUXUXUXUXUXUXUX",
"UXUXUXUXUXUXUXUXUXUXUXUXUXUXUXUXUXUXUXUXUXUXUXUXUXUXUXUXUXUXUXUXUXUXUXUXUXUXUXUXUXUXUXUXUXUXUXUXUXUXUXUXUXUXUXUXUXUXUXj.h.x c v ~ ) ..uXsXo. .yXxXCXzXhX-X} / 0 6 7 r @ h c x x c 1 1 c j.x.n.x.j.x c l P ) | } T j.n.XXUXUXUXUXUXUXUXUXUXUXUXUXUXUXUXUXUXUXUXUX",
"UXUXUXUXUXUXUXUXUXUXUXUXUXUXUXUXUXUXUXUXUXUXUXUXUXUXUXUXUXUXUXUXUXUXUXUXUXUXUXUXUXUXUXUXUXUXUXUXUXUXUXUXUXUXUXUXUXUXUXY Y U b n ~ _ X.yXaXuXo.uXaXjXzXxXjXpXuXX.| ^ w 7 2 l c z = * < j U Y T N.N.N.N.[ +.wXyXsX:XP.S.x.UXUXUXUXUXUXUXUXUXUXUXUXUXUXUXUXUXUXUXUX",
"UXUXUXUXUXUXUXUXUXUXUXUXUXUXUXUXUXUXUXUXUXUXUXUXUXUXUXUXUXUXUXUXUXUXUXUXUXUXUXUXUXUXUXUXUXUXUXUXUXUXUXUXUXUXUXUXUXUXUX` ` ] ` ^ ^ _ ..o.uXiXaXtX..X.aXlXAXZXAXxXhXuX..~ 0 7 * # # @ 7 0 I ( ] ..+.O.tXaXjXzXZXSXFXnX*Xz.UXUXUXUXUXUXUXUXUXUXUXUXUXUXUXUXUXUXUXUX",
"UXUXUXUXUXUXUXUXUXUXUXUXUXUXUXUXUXUXUXUXUXUXUXUXUXUXUXUXUXUXUXUXUXUXUXUXUXUXUXUXUXUXUXUXUXUXUXUXUXUXUXUXUXUXUXUXUXUXUX~ / ^ ^ ^ ) _ .. .o.yXpXpXaXiXiXiXaXpXkXjXjXaXo._ ~ 0 5 # + @ 5 6 q ^ ` @.|  .o.sXkXlXzXzXCXNXgXfXUXUXUXUXUXUXUXUXUXUXUXUXUXUXUXUXUXUXUXUX",
"UXUXUXUXUXUXUXUXUXUXUXUXUXUXUXUXUXUXUXUXUXUXUXUXUXUXUXUXUXUXUXUXUXUXUXUXUXUXUXUXUXUXUXUXUXUXUXUXUXUXUXUXUXUXUXUXUXUX~ ~ ~ ~ ~ / ` ..X.X.o.uXaXjXzXlXaXuXX.X.o.uXiXyXX._ ~ 0 5 @ # @ 5 0 ~ ` | ....X.tXiXkXjXjXjXjXxXAXSXFXUXUXUXUXUXUXUXUXUXUXUXUXUXUXUXUXUXUXUX",
"UXUXUXUXUXUXUXUXUXUXUXUXUXUXUXUXUXUXUXUXUXUXUXUXUXUXUXUXUXUXUXUXUXUXUXUXUXUXUXUXUXUXUXUXUXUXUXUXUXUXUXUXUXUXUXUXUX` _ ...._ ) ^ ` X.yXaXaXuXwXaXjXzXzXjXpXyXo.X...` ~ 0 7 5 @ # @ 7 w ^ | o.sXpXjXlXzXZXSXFXSXSXZXZXzXcXxXCXUXUXUXUXUXUXUXUXUXUXUXUXUXUXUXUXUXUX",
"UXUXUXUXUXUXUXUXUXUXUXUXUXUXUXUXUXUXUXUXUXUXUXUXUXUXUXUXUXUXUXUXUXUXUXUXUXUXUXUXUXUXUXUXUXUXUXUXUXUXUXUXUXUXUXUX .X.tXaXaXuXX.) '  .uXaXaXtX..X.yXpXjXjXkXaXuX .` q 6 5 @ @ @ # 5 0 ^ @.O.iXjXzXSXDXHXKXJXJXKXHXDXZXkXyXaXkXjXUXUXUXUXUXUXUXUXUXUXUXUXUXUXUXUXUX",
"UXUXUXUXUXUXUXUXUXUXUXUXUXUXUXUXUXUXUXUXUXUXUXUXUXUXUXUXUXUXUXUXUXUXUXUXUXUXUXUXUXUXUXUXUXUXUXUXUXUXUXUXUXUXUXUXhXkXzXSXSXzXaX_ ~ ) | X.o. .| | .. .X.o.uXuXtXX.| ^ q 6 5 @ @ @ 7 q ' ..o.yXkXzXFXHXHXKXKXHXDXFXZXzXaXo.O.o.o.UXUXUXUXUXUXUXUXUXUXUXUXUXUXUXUXUX",
"UXUXUXUXUXUXUXUXUXUXUXUXUXUXUXUXUXUXUXUXUXUXUXUXUXUXUXUXUXUXUXUXUXUXUXUXUXUXUXUXUXUXUXUXUXUXUXUXUXUXUXUXUXUXUXUXhXkXzXFXFXAXaX] ~ q ~ ) _ _ _ .. ..._ ` _ _ | _ ) ~ w 6 5 @ @ @ 7 q ^ | X.tXiXjXAXZXSXSXSXZXCXxXkXaXiXsXiXaXpXUXUXUXUXUXUXUXUXUXUXUXUXUXUXUXUXUX",
"UXUXUXUXUXUXUXUXUXUXUXUXUXUXUXUXUXUXUXUXUXUXUXUXUXUXUXUXUXUXUXUXUXUXUXUXUXUXUXUXUXUXUXUXUXUXUXUXUXUXUXUXUXUXUXUXo.tXaXlXxXjXuX_ ~ 0 0 0 q ~ )  .tXX.) q w 0 0 0 0 e 7 5 @ # # @ 5 w ^ ` |  .o.iXkXjXjXjXjXjXpXiXtXtXaXxXAXZXzXjXpXUXUXUXUXUXUXUXUXUXUXUXUXUXUXUX",
"UXUXUXUXUXUXUXUXUXUXUXUXUXUXUXUXUXUXUXUXUXUXUXUXUXUXUXUXUXUXUXUXUXUXUXUXUXUXUXUXUXUXUXUXUXUXUXUXUXUXUXUXUXUXUXUX` _  .o.tXo. ._ ^ q 0 7 5 6 w ^ _ ` ~ ~ / ~ q 0 7 5 @ @ #   + # @ 7 0 ~ ^ _  .tXsXiXsXyXsXuXo.o.yXhXzXZXGXCXpXX...UXUXUXUXUXUXUXUXUXUXUXUXUXUXUX",
"UXUXUXUXUXUXUXUXUXUXUXUXUXUXUXUXUXUXUXUXUXUXUXUXUXUXUXUXUXUXUXUXUXUXUXUXUXUXUXUXUXUXUXUXUXUXUXUXUXUXUXUXUXUXUXUX0 w ~ ^ ) ) ) ^ ^ ~ w 7 5 r 5 7 0 0 0 ~ ) ` ~ 0 5 @ # +       + # @ 5 0 q ^ _  .X.X.X.X. . ...o.jXZXSXZXxXaXX.^ ~ UXUXUXUXUXUXUXUXUXUXUXUXUXUXUX",
"UXUXUXUXUXUXUXUXUXUXUXUXUXUXUXUXUXUXUXUXUXUXUXUXUXUXUXUXUXUXUXUXUXUXUXUXUXUXUXUXUXUXUXUXUXUXUXUXUXUXUXUXUXUXUXUX5 5 5 6 0 w w w w 0 0 0 6 5 @ @ @ @ 5 7 0 0 0 5 @ # $           + # @ 5 6 w ~ ) ` ` ^ ^ ^ ` ..uXxXZXzXhXo._ ` ] o.jXCXUXUXUXUXUXUXUXUXUXUXUXUXUX",
"UXUXUXUXUXUXUXUXUXUXUXUXUXUXUXUXUXUXUXUXUXUXUXUXUXUXUXUXUXUXUXUXUXUXUXUXUXUXUXUXUXUXUXUXUXUXUXUXUXUXUXUXUXUXUXUX6 6 6 6 0 0 0 0 0 6 6 0 0 7 @ @ # # @ @ 5 5 5 5 @ +               + # @ 5 7 0 0 w w 0 0 w ) X.aXjXlXaXX._ ^ | uXhXxXzXUXUXUXUXUXUXUXUXUXUXUXUXUX",
"UXUXUXUXUXUXUXUXUXUXUXUXUXUXUXUXUXUXUXUXUXUXUXUXUXUXUXUXUXUXUXUXUXUXUXUXUXUXUXUXUXUXUXUXUXUXUXUXUXUXUXUXUXUXUXUX_ _ _ ) ^ ~ q w 0 0 6 6 7 5 5 4 @ @ @ @ UXUXUXUXUXUXUXUX+ + + + + + + # # @ 5 5 7 7 7 0 ^ ..uXaXaXuX| ^ )  .iXlXzXzXxXUXUXUXUXUXUXUXUXUXUXUXUXUX",
"UXUXUXUXUXUXUXUXUXUXUXUXUXUXUXUXUXUXUXUXUXUXUXUXUXUXUXUXUXUXUXUXUXUXUXUXUXUXUXUXUXUXUXUXUXUXUXUXUXUXUXUXUXUXUXUXiXyXuXo.X..._ ` ^ ~ q w 0 0 0 6 5 5 @ @ UXUXUXUXUXUXUXUXUX+ # @ @ @ @ @ @ @ @ @ 5 6 q ` X.uXyXuXX._ ^ ~ ..iXjXzXlXaXiXUXUXUXUXUXUXUXUXUXUXUXUXUX",
"UXUXUXUXUXUXUXUXUXUXUXUXUXUXUXUXUXUXUXUXUXUXUXUXUXUXUXUXUXUXUXUXUXUXUXUXUXUXUXUXUXUXUXUXUXUXUXUXUXUXUXUXUXUXUXUXxXxXjXkXaXyXtXX.| ) ^ ^ ~ ~ q 0 6 7 5 5 UXUXUXUXUXUXUXUXUXUXUX5 5 7 7 5 5 @ 5 5 0 ^ ..uXhXkXyXX.) ~ ~ _ uXlXzXjXyX ._ UXUXUXUXUXUXUXUXUXUXUXUXUX",
"UXUXUXUXUXUXUXUXUXUXUXUXUXUXUXUXUXUXUXUXUXUXUXUXUXUXUXUXUXUXUXUXUXUXUXUXUXUXUXUXUXUXUXUXUXUXUXUXUXUXUXUXUXUXUXuXaXhXhXaXyXo. ._ ^ ~ w 0 0 0 6 6 7 5 5 @ UXUXUXUXUXUXUXUXUXUXUX@ @ 5 7 6 0 0 Q ^ | O.yXaXaXuX .) q w ) X.aXxXhXo.| ^ ~ UXUXUXUXUXUXUXUXUXUXUXUXUX",
"UXUXUXUXUXUXUXUXUXUXUXUXUXUXUXUXUXUXUXUXUXUXUXUXUXUXUXUXUXUXUXUXUXUXUXUXUXUXUXUXUXUXUXUXUXUXUXUXUXUXUXUXUXUXX.X.o.o.o.X...` ~ w 0 7 5 5 5 @ @ @ 5 @ @ @ UXUXUXUXUXUXUXUXUXUXUX+ # @ 5 6 0 ~ ` ..o.uXaXyXX._ ~ 0 e q | uXpXkXtX) ~ ~ q UXUXUXUXUXUXUXUXUXUXUXUXUX",
"UXUXUXUXUXUXUXUXUXUXUXUXUXUXUXUXUXUXUXUXUXUXUXUXUXUXUXUXUXUXUXUXUXUXUXUXUXUXUXUXUXUXUXUXUXUXUXUXUXUXUXUXUXUX) ) ^ ^ ~ q 0 6 5 5 5 5 5 5 5 5 5 @ @ @ # # UXUXUXUXUXUXUXUXUXUXUX    + # @ 7 0 q ^ ) ` ` ^ q e 5 5 0 ^ o.aXaXuX| w q _ ..UXUXUXUXUXUXUXUXUXUXUXUXUX",
"UXUXUXUXUXUXUXUXUXUXUXUXUXUXUXUXUXUXUXUXUXUXUXUXUXUXUXUXUXUXUXUXUXUXUXUXUXUXUXUXUXUXUXUXUXUXUXUXUXUXUXUXUXUX0 6 6 7 5 5 5 5 5 5 5 7 7 5 5 5 5 @ @ # # + UXUXUXUXUXUXUXUXUXUXUX        + @ 5 5 7 6 7 5 @ # # # 5 ~ ..iXjXiX..~ 6 ^ o.aXUXUXUXUXUXUXUXUXUXUXUXUXUX",
"UXUXUXUXUXUXUXUXUXUXUXUXUXUXUXUXUXUXUXUXUXUXUXUXUXUXUXUXUXUXUXUXUXUXUXUXUXUXUXUXUXUXUXUXUXUXUXUXUXUXUXUXUXUX@ @ @ 5 7 0 0 w q ~ q w 0 0 6 5 @ @ # # UXUXUXUXUXUXUXUXUXUXUXUXUXUXUX        # # @ @ @ # +     # 6 _ uXcXxXuX^ 0 0 _ aXAXFXKXUXUXUXUXUXUXUXUXUXUXUX",
"UXUXUXUXUXUXUXUXUXUXUXUXUXUXUXUXUXUXUXUXUXUXUXUXUXUXUXUXUXUXUXUXUXUXUXUXUXUXUXUXUXUXUXUXUXUXUXUXUXUXUXUXUXUX@ 5 0 ~ ) _ _ _ ) ^ ~ 0 6 7 5 @ @ + +   UXUXUXUXUXUXUXUXUXUXUXUXUXUXUXUX        + # @ @ @ #     # 0 | iXlXlXX.w 5 0 ..jXFXHXHXUXUXUXUXUXUXUXUXUXUXUX",
"UXUXUXUXUXUXUXUXUXUXUXUXUXUXUXUXUXUXUXUXUXUXUXUXUXUXUXUXUXUXUXUXUXUXUXUXUXUXUXUXUXUXUXUXUXUXUXUXUXUXUXUXUXUXq ^ _ X.uXuXtX ._ ~ 0 5 @ @ @ @ # +     UXUXUXUXUXUXUXUXUXUXUXUXUXUXUXUXUX      + @ 5 7 6 5 @ # # 6 ` o.pXhX..0 5 w  .xXFXDXDXUXUXUXUXUXUXUXUXUXUXUX",
"UXUXUXUXUXUXUXUXUXUXUXUXUXUXUXUXUXUXUXUXUXUXUXUXUXUXUXUXUXUXUXUXUXUXUXUXUXUXUXUXUXUXUXUXUXUXUXUXUXUXUXUXUXUX .X.uXiXyXtX..) q 7 4 @ @ @ 5 @ # +   UXUXUXUXUXUXUXUXUXUXUXUXUXUXUXUXUXUXUX      + @ 7 w ~ ~ 0 @ 5 q | uXiX| 6 5 w  .jXZXCXzXUXUXUXUXUXUXUXUXUXUXUX",
"UXUXUXUXUXUXUXUXUXUXUXUXUXUXUXUXUXUXUXUXUXUXUXUXUXUXUXUXUXUXUXUXUXUXUXUXUXUXUXUXUXUXUXUXUXUXUXUXUXUXUXUXUXUXiXiXaXiXo.@.~ 6 @ @ # @ 5 5 5 @ + + UXUXUXUXUXUXUXUXUXUXUXUXUXUXUXUXUXUXUXUXUX      # 5 q ) ..` 6 @ 7 ~ X.uX_ 6 5 0 | aXjXhXaXUXUXUXUXUXUXUXUXUXUXUX",
"UXUXUXUXUXUXUXUXUXUXUXUXUXUXUXUXUXUXUXUXUXUXUXUXUXUXUXUXUXUXUXUXUXUXUXUXUXUXUXUXUXUXUXUXUXUXUXUXUXUXUXUXUXUXaXaXuX .) 0 5 @ # @ 5 0 0 7 @ +     UXUXUXUXUXUXUXUXUXUXUXUXUXUXUXUXUXUXUXUXUXUXUX+ + # 5 ~ | | ~ 6 5 6 _  .) 7 5 6 ^ X.uXuXtXUXUXUXUXUXUXUXUXUXUXUX",
"UXUXUXUXUXUXUXUXUXUXUXUXUXUXUXUXUXUXUXUXUXUXUXUXUXUXUXUXUXUXUXUXUXUXUXUXUXUXUXUXUXUXUXUXUXUXUXUXUXUXUXUXUXUXiXuX .^ 0 @ # # @ 7 0 q w 5 +     UXUXUXUXUXUXUXUXUXUXUXUXUXUXUXUXUXUXUXUXUXUXUXUXUX+ + + 6 ^ _ ` ~ 7 7 ~ _ ~ 7 5 5 w _ ..X.X.UXUXUXUXUXUXUXUXUXUXUX",
"UXUXUXUXUXUXUXUXUXUXUXUXUXUXUXUXUXUXUXUXUXUXUXUXUXUXUXUXUXUXUXUXUXUXUXUXUXUXUXUXUXUXUXUXUXUXUXUXUXUXUXUXUXUXo.X.) 0 5 # # @ 6 q q e 5 #     UXUXUXUXUXUXUXUXUXUXUXUXUXUXUXUXUXUXUXUXUXUXUXUXUXUXUX+ + @ 7 ~ _ _ q 6 w ~ q 0 7 5 0 ~ ` | ..UXUXUXUXUXUXUXUXUXUXUX",
"UXUXUXUXUXUXUXUXUXUXUXUXUXUXUXUXUXUXUXUXUXUXUXUXUXUXUXUXUXUXUXUXUXUXUXUXUXUXUXUXUXUXUXUXUXUXUXUXUXUXUXUXUXUX..` q 5 @ # @ 6 0 w 0 r +     UXUXUXUXUXUXUXUXUXUXUXUXUXUXUXUXUXUXUXUXUXUXUXUXUXUXUXUXUX+ # @ 6 ^ _ / w 0 6 0 w 6 5 7 0 ~ ^ ) UXUXUXUXUXUXUXUXUXUXUX",
"UXUXUXUXUXUXUXUXUXUXUXUXUXUXUXUXUXUXUXUXUXUXUXUXUXUXUXUXUXUXUXUXUXUXUXUXUXUXUXUXUXUXUXUXUXUXUXUXUXUXUXUX..| ) ~ 6 @ @ @ 7 w 0 5 @ +   UXUXUXUXUXUXUXUXUXUXUXUXUXUXUXUXUXUXUXUXUXUXUXUXUXUXUXUXUXUXUXUXUX# r 0 ~ ~ ~ 6 5 6 0 6 5 5 6 0 0 0 UXUXUXUXUXUXUXUXUXUXUX",
"UXUXUXUXUXUXUXUXUXUXUXUXUXUXUXUXUXUXUXUXUXUXUXUXUXUXUXUXUXUXUXUXUXUXUXUXUXUXUXUXUXUXUXUXUXUXUXUXUXUXUXUX^ ~ w 7 @ # # @ 5 6 5 @     UXUXUXUXUXUXUXUXUXUXUXUXUXUXUXUXUXUXUXUXUXUXUXUXUXUXUXUXUXUXUXUXUXUX  # 5 6 w w 5 @ 5 7 5 @ @ 5 5 5 5 UXUXUXUXUXUXUXUXUXUXUX",
"UXUXUXUXUXUXUXUXUXUXUXUXUXUXUXUXUXUXUXUXUXUXUXUXUXUXUXUXUXUXUXUXUXUXUXUXUXUXUXUXUXUXUXUXUXUXUXUXUXUXUXUX0 0 7 r @ # # @ @ @ # $   UXUXUXUXUXUXUXUXUXUXUXUXUXUXUXUXUXUXUXUXUXUXUXUXUXUXUXUXUXUXUXUXUXUXUX    # @ 7 7 @ # # @ @ # # @ @ @ @ UXUXUXUXUXUXUXUXUXUXUX",
"UXUXUXUXUXUXUXUXUXUXUXUXUXUXUXUXUXUXUXUXUXUXUXUXUXUXUXUXUXUXUXUXUXUXUXUXUXUXUXUXUXUXUXUXUXUXUXUXUXUX` ) ~ q w 0 7 5 @ @ # # + +   UXUXUXUXUXUXUXUXUXUXUXUXUXUXUXUXUXUXUXUXUXUXUXUXUXUXUXUXUXUXUXUXUXUXUXUX    + @ r @ + + # # + + # # # # UXUXUXUXUXUXUXUXUXUXUX",
"UXUXUXUXUXUXUXUXUXUXUXUXUXUXUXUXUXUXUXUXUXUXUXUXUXUXUXUXUXUXUXUXUXUXUXUXUXUXUXUXUXUXUXUXUXUXUXUXUXUX ..._ ` ^ ~ w 6 5 5 @ @ @ # < UXUXUXUXUXUXUXUXUXUXUXUXUXUXUXUXUXUXUXUXUXUXUXUXUXUXUXUXUXUXUXUXUXUXUXUXUX    + # # + + + + + + + $ $ $ UXUXUXUXUXUXUXUXUXUXUX",
"UXUXUXUXUXUXUXUXUXUXUXUXUXUXUXUXUXUXUXUXUXUXUXUXUXUXUXUXUXUXUXUXUXUXUXUXUXUXUXUXUXUXUXUXUXUXtXiXkXhXiXuXo..._ ) ~ w 0 0 6 6 5 5 I .X,XUXUXUXUXUXUXUXUXUXUXUXUXUXUXUXUXUXUXUXUXUXUXUXUXUXUXUXUXUXUXUXUXUXUXUXUXUX    + +                   UXUXUXUXUXUXUXUXUXUXUX",
"UXUXUXUXUXUXUXUXUXUXUXUXUXUXUXUXUXUXUXUXUXUXUXUXUXUXUXUXUXUXUXUXUXUXUXUXUXUXUXUXUXUXUXUXUX` ..o.uXyXuXo. .@.) ^ ~ w 0 0 6 7 5 5 v C.@X&XUXUXUXUXUXUXUXUXUXUXUXUXUXUXUXUXUXUXUXUXUXUXUXUXUXUXUXUXUXUXUXUXUXUXUXUX$ + @ 5 5 @ # + + # # # # # UXUXUXUXUXUXUXUXUXUX",
"UXUXUXUXUXUXUXUXUXUXUXUXUXUXUXUXUXUXUXUXUXUXUXUXUXUXUXUXUXUXUXUXUXUXUXUXUXUXUXUXUX,X$XW 0 0 ~ ) _ | _ ` ^ q 0 0 0 6 7 5 5 @ @ @ 2 J m.#X,XUXUXUXUXUXUXUXUXUXUXUXUXUXUXUXUXUXUXUXUXUXUXUXUXUXUXUXUXUXUXUXUXUX@ @ 5 7 w ~ ~ ~ 0 6 6 w w w 0 5 @ UXUXUXUXUXUXUXUXUX",
"UXUXUXUXUXUXUXUXUXUXUXUXUXUXUXUXUXUXUXUXUXUXUXUXUXUXUXUXUXUXUXUXUXUXUXUXUXUXUXUX&XoXb.L 7 4 5 6 0 0 0 0 7 5 5 @ @ @ @ @ @ # # # & c j.A.@XUXUXUXUXUXUXUXUXUXUXUXUXUXUXUXUXUXUXUXUXUXUXUXUXUXUXUXUXUXUX . ._ ) ^ ` _ ..X.yXaXyXX.o.uXuXX.| ^ ~ ..UXUXUXUXUXUXUXUX",
"UXUXUXUXUXUXUXUXUXUXUXUXUXUXUXUXUXUXUXUXUXUXUXUXUXUXUXUXUXUXUXUXUXUXUXUXUXUXUX,X$Xm.J h # $ # # @ @ @ @ # # + + + + + + + + + + & z x x.m.UXUXUXUXUXUXUXUXUXUXUXUXUXUXUXUXUXUXUXUXUXUXUXUXUXUXUXUXUX . . .X.o.uXiXaXaXpXzXFXSXzXzXZXCXjXyX.._ o.aXhXUXUXUXUXUXUX",
"UXUXUXUXUXUXUXUXUXUXUXUXUXUXUXUXUXUXUXUXUXUXUXUXUXUXUXUXUXUXUXUXUXUXUXUXUXUXUXA.Z.n.UXUXUXUXUXUXUXUXUXUXUXUXUXUXUXUXUXUXUXUXUXUXUXUXUX4.h.h.UXUXUXUXUXUXUXUXUXUXUXUXUXUXUXUXUXUXUXUXUXUXUXUXo.aXlXaXo.X. .o.iXkXxXxXhXaXkXzXAXZXSXSXCXkXuX_ ^ _ o.hXZXUXUXUXUXUX",
"UXUXUXUXUXUXUXUXUXUXUXUXUXUXUXUXUXUXUXUXUXUXUXUXUXUXUXUXUXUXUXUXUXUXUXUXUXUXUXx.x.UXUXUXUXUXUXUXUXUXUXUXUXUXUXUXUXUXUXUXUXUXUXUXUXUXUXc c UXUXUXUXUXUXUXUXUXUXUXUXUXUXUXUXUXUXUXUXUXUXUXUX-XuXpXkXaXo.O.-X;XgXgXmXcXkXpXuXtXaXxXzXzXjXyX .^ w q ` uXxXNXUXUXUXUX",
"UXUXUXUXUXUXUXUXUXUXUXUXUXUXUXUXUXUXUXUXUXUXUXUXUXUXUXUXUXUXUXUXUXUXUXUXUXUXUXUXUXUXUXUXUXUXUXUXUXUXUXUXUXUXUXUXUXUXUXUXUXUXUXUXUXUXUXUXUXUXUXUXUXUXUXUXUXUXUXUXUXUXUXUXUXUXUXUXUX0X0X8X9XgXkXpXyXX...;X=X5X<X<X*X*XgXjXrX` _ X.uXyXtX..) 0 7 7 w _ -X:X5X8XUXUX",
"UXUXUXUXUXUXUXUXUXUXUXUXUXUXUXUXUXUXUXUXUXUXUXUXUXUXUXUXUXUXUXUXUXUXUXUXUXUXUXUXUXUXUXUXUXUXUXUXUXUXUXUXUXUXUXUXUXUXUXUXUXUXUXUXUXUXUXUXUXUXUXUXUXUXUXUXUXUXUXUXUXUXUXUXUXUXUXUX8X8X6X4X<X1X:XI.+.+.;X=X,X4X$XoXm.Z.:XhXX.q w ^ ` _ _ ^ 0 7 @ @ 4 0 ^ K.<X7XUXUX",
"UXUXUXUXUXUXUXUXUXUXUXUXUXUXUXUXUXUXUXUXUXUXUXUXUXUXUXUXUXUXUXUXUXUXUXUXUXUXUXUXUXUXUXUXUXUXUXUXUXUXUXUXUXUXUXUXUXUXUXUXUXUXUXUXUXUXUXUXUXUXUXUXUXUXUXUXUXUXUXUXUXUXUXUXUXUXUX6X7X%X@XoXZ.v.z.U ' >X<X4X$XoXm.x.j.z.K.O._ 0 7 6 0 0 0 7 5 @ @ + $ $ * H Z.$X7X6X",
"UXUXUXUXUXUXUXUXUXUXUXUXUXUXUXUXUXUXUXUXUXUXUXUXUXUXUXUXUXUXUXUXUXUXUXUXUXUXUXUXUXUXUXUXUXUXUXUXUXUXUXUXUXUXUXUXUXUXUXUXUXUXUXUXUXUXUXUXUXUXUXUXUXUXUXUXUXUXUXUXUXUXUXUXUXUX,X&X@XXXm.v.k.h.x j n W <X&XXXn.j.4.4.x U / w 5 @ @ @ @ @ @ @ @ #       + h z.A.@X%X",
"UXUXUXUXUXUXUXUXUXUXUXUXUXUXUXUXUXUXUXUXUXUXUXUXUXUXUXUXUXUXUXUXUXUXUXUXUXUXUXUXUXUXUXUXUXUXUXUXUXUXUXUXUXUXUXUXUXUXUXUXUXUXUXUXUXUXUXUXUXUXUXUXUXUXUXUXUXUXUXUXUXUXUXUXUX%X$XXXm.n.c.j.h.x c h 8 R OXXXn.j.x c c c h 5 4 @ @ # +     + + + +       + h x x.n.M.",
"UXUXUXUXUXUXUXUXUXUXUXUXUXUXUXUXUXUXUXUXUXUXUXUXUXUXUXUXUXUXUXUXUXUXUXUXUXUXUXUXUXUXUXUXUXUXUXUXUXUXUXUXUXUXUXUXUXUXUXUXUXUXUXUXUXUXUXUXUXUXUXUXUXUXUXUXUXUXUXUXUXUXUXUXUXA.Z.UXUXUXUXUXUXUXUXUXUXT n.n.UXUXUXUXUXUXUXUXUXUXUXUXUXUXUXUXUXUXUXUXUXUXUXUXUXj.j.k.",
"UXUXUXUXUXUXUXUXUXUXUXUXUXUXUXUXUXUXUXUXUXUXUXUXUXUXUXUXUXUXUXUXUXUXUXUXUXUXUXUXUXUXUXUXUXUXUXUXUXUXUXUXUXUXUXUXUXUXUXUXUXUXUXUXUXUXUXUXUXUXUXUXUXUXUXUXUXUXUXUXUXUXUXUXUXx.x.UXUXUXUXUXUXUXUXUXUXUXx.x.UXUXUXUXUXUXUXUXUXUXUXUXUXUXUXUXUXUXUXUXUXUXUXUXUXUXh.h."
};
