/* XPM */
static const char *bos2b3[] = {
/* columns rows colors chars-per-pixel */
"128 128 249 2 ",
"   c #0B0B0D",
".  c #0D0E11",
"X  c #141414",
"o  c #1C1C1C",
"O  c #1A1815",
"+  c #12100E",
"@  c #251B16",
"#  c #371D1D",
"$  c #2F140A",
"%  c #2C230E",
"&  c #26200F",
"*  c #2C2512",
"=  c #2A2419",
"-  c #342A13",
";  c #3A2D15",
":  c #332C1B",
">  c #372917",
",  c #3C321A",
"<  c #3E250E",
"1  c #1D1E21",
"2  c #242424",
"3  c #2B2B2B",
"4  c #272828",
"5  c #352C26",
"6  c #383529",
"7  c #2D2E31",
"8  c #333434",
"9  c #3B3B3B",
"0  c #393736",
"q  c #2E3232",
"w  c #1E2020",
"e  c #4A0504",
"r  c #520202",
"t  c #5B0202",
"y  c #550B0B",
"u  c #461919",
"i  c #571414",
"p  c #660202",
"a  c #780202",
"s  c #661818",
"d  c #751717",
"f  c #452B15",
"g  c #44341A",
"h  c #4B361B",
"j  c #4D391D",
"k  c #423116",
"l  c #533C1E",
"z  c #57341A",
"x  c #4E2A10",
"c  c #732B00",
"v  c #782F00",
"b  c #7B3302",
"n  c #793809",
"m  c #6B320B",
"M  c #433929",
"N  c #553D20",
"B  c #593E21",
"V  c #453C36",
"C  c #4D2C2C",
"Z  c #6D332E",
"A  c #57421D",
"S  c #774916",
"D  c #6F4617",
"F  c #4B452B",
"G  c #5C4222",
"H  c #594729",
"J  c #484439",
"K  c #544A39",
"L  c #5A5536",
"P  c #634424",
"I  c #6D4A29",
"U  c #694727",
"Y  c #734D2B",
"T  c #7B4B29",
"R  c #7B522E",
"E  c #77522B",
"W  c #695A37",
"Q  c #715333",
"!  c #726936",
"~  c #3D3E42",
"^  c #3E4041",
"/  c #434444",
"(  c #4C4C4C",
")  c #484747",
"_  c #5B5448",
"`  c #4D4E51",
"'  c #535454",
"]  c #5C5C5C",
"[  c #595957",
"{  c #524F48",
"}  c #665B49",
"|  c #645D58",
" . c #774C4B",
".. c #686358",
"X. c #797052",
"o. c #5D5D60",
"O. c #5D6061",
"+. c #636363",
"@. c #6B6B6B",
"#. c #676667",
"$. c #736B69",
"%. c #747474",
"&. c #7B7B7B",
"*. c #7A7977",
"=. c #71726F",
"-. c #880202",
";. c #9B0101",
":. c #930202",
">. c #901818",
",. c #A80303",
"<. c #B30000",
"1. c #BB0101",
"2. c #AB1414",
"3. c #833D05",
"4. c #9D2F2F",
"5. c #C30101",
"6. c #CE0101",
"7. c #D40000",
"8. c #DC0101",
"9. c #D50C0C",
"0. c #D01A1A",
"q. c #E40000",
"w. c #ED0000",
"e. c #E40A0A",
"r. c #F10000",
"t. c #E51313",
"y. c #C72525",
"u. c #8D4C0B",
"i. c #874308",
"p. c #914F0C",
"a. c #94530E",
"s. c #9A590D",
"d. c #975A13",
"f. c #8A5013",
"g. c #9D6317",
"h. c #8D621D",
"j. c #A46B1A",
"k. c #A46816",
"l. c #AA751D",
"z. c #B07C1F",
"x. c #825631",
"c. c #8C5C35",
"v. c #855933",
"b. c #925F38",
"n. c #8B5827",
"m. c #996728",
"M. c #9A7528",
"N. c #9B653C",
"B. c #966239",
"V. c #876C31",
"C. c #A97824",
"Z. c #A1683E",
"A. c #A97529",
"S. c #915555",
"D. c #B24F4F",
"F. c #886847",
"G. c #8D7250",
"H. c #AB6E43",
"J. c #A56A40",
"K. c #B67447",
"L. c #AD7044",
"P. c #847D75",
"I. c #91746A",
"U. c #AC6767",
"Y. c #C27A4B",
"T. c #C77A7A",
"R. c #C44848",
"E. c #978639",
"W. c #888239",
"Q. c #B38223",
"!. c #BB8D2A",
"~. c #B88927",
"^. c #B08E32",
"/. c #C3972C",
"(. c #C49C31",
"). c #C18F26",
"_. c #CAA535",
"`. c #C9A638",
"'. c #D3B33D",
"]. c #D1AF3A",
"[. c #978B46",
"{. c #928B52",
"}. c #AD924E",
"|. c #B5A64C",
" X c #928770",
".X c #AC9772",
"XX c #B6A871",
"oX c #CAB546",
"OX c #D6BA43",
"+X c #D5B944",
"@X c #C9B554",
"#X c #C8B56F",
"$X c #C29C4E",
"%X c #DDC549",
"&X c #DCC449",
"*X c #D4CA57",
"=X c #E2CA4B",
"-X c #E7D14E",
";X c #E9D855",
":X c #E8D555",
">X c #F2E65B",
",X c #EFE25B",
"<X c #D8CF70",
"1X c #F4EC63",
"2X c #FBF768",
"3X c #F0EE6E",
"4X c #E3DA69",
"5X c #7E7E80",
"6X c #7F8182",
"7X c #838484",
"8X c #8B8B8C",
"9X c #888887",
"0X c #938D89",
"qX c #949494",
"wX c #9C9C9C",
"eX c #989898",
"rX c #91928E",
"tX c #A49D96",
"yX c #AF9B86",
"uX c #B4AA90",
"iX c #9D9EA1",
"pX c #9DA1A2",
"aX c #A3A4A4",
"sX c #ABACAC",
"dX c #A7A7A8",
"fX c #B4B4B4",
"gX c #BBBBBB",
"hX c #B8B8B8",
"jX c #B3B1AB",
"kX c #C0B68F",
"lX c #C2BDBB",
"zX c #C5BBA7",
"xX c #C88686",
"cX c #CDC7B9",
"vX c #CAC68A",
"bX c #BCBDC1",
"nX c #BEC1C3",
"mX c #C4C4C4",
"MX c #CBCBCB",
"NX c #C9C9C7",
"BX c #D4D4D4",
"VX c #DBDCDC",
"CX c #D8D6D6",
"ZX c #D2CFCA",
"AX c #E4E4E4",
"SX c #EBEBEB",
"DX c #E6EAEA",
"FX c #DEE2E2",
"GX c None",
/* pixels */
"GXGXGXGXGXGXGXGXGXGXGXGXGXGXGXGXGXGXGXGXGXGXGXGXGXGXGXGXGXGXGXGXGXGXGXGXGXGXGXGXGXGXGXGXGXGXGXGXGXGXGXGXGX` ' [ #.%.7XqXpXsXhXnXMXlXT.y.7.7.7.7.7.8.8.8.8.8.q.q.q.q.q.w.w.r.r.w.r.r.r.r.r.w.w.GXGXGXGXGXGXGXGXGXGXGXGXGXGXGXGXGXGXGXGXGXGXGXGXGXGXGXGXGXGXGXGXGX",
"GXGXGXGXGXGXGXGXGXGXGXGXGXGXGXGXGXGXGXGXGXGXGXGXGXGXGXGXGXGXGXGXGXGXGXGXGXGXGXGXGXGXGXGXGXGXGXGXGXGXGXGX^ ^ ) ' O.$.I.U.U.T.T.xXxXT.R.y.1.<.<.<.<.<.<.<.<.<.1.1.1.5.5.6.6.7.7.7.8.q.q.w.w.r.w.GXGXGXGXGXGXGXGXGXGXGXGXGXGXGXGXGXGXGXGXGXGXGXGXGXGXGXGXGXGXGXGXGX",
"GXGXGXGXGXGXGXGXGXGXGXGXGXGXGXGXGXGXGXGXGXGXGXGXGXGXGXGXGXGXGXhXhXmXMXBXVXVXVXVXVXBXmXhXsXwX8X&.@.] ( 9 8 8 0 / '  .4.0.t.t.t.0.0.2.2.;.-.-.a a a a a a a a a -.-.-.:.;.,.,.,.<.1.5.7.8.q.w.8.7.7.8.w.w.GXGXGXGXGXGXGXGXGXGXGXGXGXGXGXGXGXGXGXGXGXGXGXGXGXGXGXGX",
"GXGXGXGXGXGXGXGXGXGXGXGXGXGXGXGXGXGXGXGXGXGXGXGXGXGXGXGXGXMXMXmXmXmXMXBXCXVXVXVXCXMXmXhXsXaXqX9X&.$.Z d d s s s Z >.2.1.5.5.1.<.,.:.-.a p s Z Z  . . .S.S.S.S.S.U.U.U.U.U.U.U.D.D.D.D.D.D.y.0.6.8.q.w.w.q.8.GXGXGXGXGXGXGXGXGXGXGXGXGXGXGXGXGXGXGXGXGXGXGXGXGXGX",
"GXGXGXGXGXGXGXGXGXGXGXGXGXGXGXGXGXGXGXGXGXGXGXGXGXgXmXMXBXCXCXBXBXMXMXMXCXVXVXCXBXMXmXgXhXsXaXwX0XI.4.2.,.,.;.;.:.:.:.-.-.-.a a p p t r i Z $.P.8XeXdXjXgXlXmXNXZXBXCXBXZXMXmXlXfXsXaXeX8XI.D.y.9.e.e.e.8.8.8.q.w.w.GXGXGXGXGXGXGXGXGXGXGXGXGXGXGXGXGXGXGXGXGXGX",
"GXGXGXGXGXGXGXGXGXGXGXGXGXGXGXGXGXGXGXGXGXGXGXhXgXmXMXCXFXAXAXVXVXBXMXMXBXCXCXBXBXBXBXBXMXMXnXfXtXP.S.4.>.-.-.-.-.a a a p y u u u u C C V | 7XwXsXhXmXMXBXVXVXFXDXSXSXDXAXFXVXBXNXnXhXsXiX0XI.S.D.D.D.R.0.q.q.7.6.7.q.r.GXGXGXGXGXGXGXGXGXGXGXGXGXGXGXGXGXGXGXGX",
"GXGXGXGXGXGXGXGXGXGXGXGXGXGXGXGXGXGXGXGXGXGXhXhXhXmXMXVXAXDXAXVXCXBXMXMXMXBXCXCXCXVXVXVXVXVXMXgXsXrX%.[ V s p p t t t r e # 2 4 3 8 / ' #.5XeXsXhXmXMXCXVXVXAXDXSXSXSXSXDXAXVXCXMXNXnXhXsXaXqX8X8X8X8XI.R.0.9.6.5.6.8.q.q.GXGXGXGXGXGXGXGXGXGXGXGXGXGXGXGXGXGXGX",
"GXGXGXGXGXGXGXGXGXGXGXGXGXGXGXGXGXGXGXGXgXhXfXsXsXhXgXmXBXCXBXMXMXmXmXmXMXBXVXVXAXAXAXVXCXMXmXfXaX8X=.[ ) V C C # # # # # @ o 4 8 / [ @.7XqXaXfXhXmXMXMXCXVXAXDXSXSXSXSXDXAXFXVXBXMXmXgXhXsXdXpXqX7X%.$.I.S.D.0.8.7.5.1.<.GXGXGXGXGXGXGXGXGXGXGXGXGXGXGXGXGXGXGX",
"GXGXGXGXGXGXGXGXGXGXGXGXGXGXGXGXGXGXGXmXgXhXfXsXsXsXfXhXhXgXhXhXhXhXhXgXMXBXCXVXVXVXCXMXmXgXhXfXaXqX&.#.' / 9 q 3 4 2 2 2 2 4 8 / ' @.7XqXaXsXhXhXhXmXmXMXCXVXAXAXDXDXAXAXAXVXVXCXBXMXmXhXfXfXsXwX7X@.#.@.=.S.y.8.7.5.1.<.GXGXGXGXGXGXGXGXGXGXGXGXGXGXGXGXGXGXGX",
"GXGXGXGXGXGXGXGXGXGXGXGXGXGXGXGXGXCXMXmXgXhXfXsXsXsXsXsXaXaXaXaXaXaXsXfXmXMXMXMXmXmXgXhXfXfXfXhXhXsXwX9X@.( 9 3 4 2 o o 2 4 8 / ' #.&.qXwXaXsXsXfXhXhXgXmXMXBXCXVXVXVXCXCXCXBXMXMXMXmXmXhXfXsXsXwX8X*.#.o.' Z >.1.7.8.8.6.1.<.GXGXGXGXGXGXGXGXGXGXGXGXGXGXGXGXGX",
"GXGXGXGXGXGXGXGXGXGXGXGXGXGXGXGXGXMXmXmXgXgXgXgXgXhXhXsXaXeXeXqXeXeXwXaXfXhXhXhXfXsXsXsXsXsXhXmXmXgXsXqX%.' 9 3 4 o o o 2 3 9 ( ] %.7X8XqXwXaXsXsXsXsXfXhXhXgXmXmXmXmXmXmXmXgXhXhXhXfXsXsXaXaXwXqX7X*.#.' ) C s >.,.6.8.5.<.,.GXGXGXGXGXGXGXGXGXGXGXGXGXGXGXGXGX",
"GXGXGXGXGXGXGXGXGXGXGXGXGXGXGXGXGXhXgXmXmXMXBXCXBXMXgXsXwXqX8X8X8XqXqXwXaXaXaXaXaXaXaXaXsXsXhXmXMXgXsX8X%.' 9 3 2 O O O 2 3 8 ( ] @.%.&.7XqXeXwXaXwXwXwXwXaXaXsXsXfXfXjXsXsXaXaXeXqX8X8X8X8X8X7X7X*.@.+.' / 9 7 5 d ,.5.<.;.:.GXGXGXGXGXGXGXGXGXGXGXGXGXGXGXGXGX",
"GXGXGXGXGXGXGXGXGXGXGXGXGXGXGXhXhXhXgXMXCXVXFXVXMXfXeX7X*.%.%.7X8X8XqXqXqXeXeXeXeXqXqXqXqXqXeXwXwXqX7X%.] / 8 4 O X X X o 3 8 / ' #.#.@.%.&.7X8XqX8X8X7X&.&.&.&.5X7X7X7X7X7X&.*.%.#.#.+.+.+.#.#.#.#.#.[ ( ~ 8 3 4 i ;.1.5.1.<.<.,.GXGXGXGXGXGXGXGXGXGXGXGXGXGXGX",
"GXGXGXGXGXGXGXGXGXGXGXGXGXGXhXhXhXgXNXCXVXVXCXmXsX7X#.[ ' ' #.&.8X8XqXqX8X8X8X8X8X8X7X&.*.%.%.%.@.#.] ' ( 9 3 2 O X X X O 4 8 / ` [ ] +.#.#.@.%.%.%.%.#.#.#.#.@.%.%.%.*.&.&.*.%.@.#.] ' ( ( ( ' ' [ ' ' ) 9 8 3 5 i a ,.5.7.7.1.,.,.GXGXGXGXGXGXGXGXGXGXGXGXGXGX",
"GXGXGXGXGXGXGXGXGXGXGXGXgXhXfXfXgXMXCXVXVXmXaX7X#.( 9 9 ( [ @.7X8XqX8X8X7X*.*.*.*.%.#.#.O.[ [ ' ' ' ( / 9 8 3 4 o O X O o 3 8 / ( ' ' [ [ [ ' ' ( ( ' ' +.%.8XaXsXhXgXmXmXmXmXhXfXsXeX8X%.#.' ( / / / / / / ^ 0 8 5 u s :.1.5.<.,.;.GXGXGXGXGXGXGXGXGXGXGXGXGXGX",
"GXGXGXGXGXGXGXGXGXGXGXgXhXfXsXsXgXMXBXMXhXeX@.( 8 4 4 8 ( +.*.8XqXqX8X7X%.@.#.#.#.+.] ] ] ] ] [ [ ' ' ( / 9 8 3 2 o O o 2 3 8 9 / / ( ( ( ( / 9 9 9 ( [ @.8XsXmXBXVXAXAXDXDXAXAXVXBXmXfXeX7X#.' / 9 9 9 9 9 9 9 8 7 4 # s ,.<.,.;.;.GXGXGXGXGXGXGXGXGXGXGXGXGXGX",
"GXGXGXGXGXGXGXGXGXmXmXhXfXsXaXsXhXmXgXwX*.[ 9 3 o O 2 9 [ %.8XeXwXqX7X%.@.#.+.] ] ] #.@.%.7X7X7X&.%.@.+.' ( 9 3 2 O o 2 2 4 3 3 8 8 8 8 8 8 9 9 ( ' #.%.8XwXsXgXmXMXMXMXMXMXMXmXmXmXgXfXsXeX8X%.+.( 9 8 3 3 3 3 3 4 2 # s :.,.,.;.;.GXGXGXGXGXGXGXGXGXGXGXGXGXGX",
"GXGXGXGXGXGXGXGXmXmXgXhXfXsXsXsXsXsXeX%.( 3 o O X O 3 ( @.8XwXaXaXqX*.@.+.] ] +.#.%.7XqXeXwXwXqX8X7X&.%.+.' / 8 2 o o 2 4 4 3 3 3 8 8 8 9 / ( ' +.@.&.7XqXqXeXeXeXqXrX8X8X9X7X7X8XqXqXeXwXeXqX7X*.#.' / 9 8 8 3 3 4 2 # i a :.;.;.;.GXGXGXGXGXGXGXGXGXGXGXGXGXGX",
"GXGXGXGXGXGXMXmXgXhXhXhXhXhXsXaXeX8X%.( 3 o X X o 4 9 +.8XaXfXfXaXqX%.#.[ ' +.%.8XaXhXgXgXfXdXeX8X7X&.%.#.' / 8 2 o o 2 4 3 3 8 8 8 9 / ' +.%.*.7X7X7X7X7X&.%.#.] ( / 9 8 8 8 9 / ' +.@.*.7X7X8X7X&.%.#.] ' ( / 8 3 2 @ y a -.:.:.;.GXGXGXGXGXGXGXGXGXGXGXGXGXGX",
"GXGXGXGXGXGXmXhXsXeXeXsXfXfXsXeX7X@.[ / 8 3 3 8 9 ( +.7XaXhXhXfXwX7X@.] ' ] @.8XaXhXMXMXmXfXaXqX8X7X*.%.+.' / 8 2 O O o 2 3 3 8 9 9 ( ' +.@.*.&.&.%.%.#.+.' ) J M 6 5 : = = = : 5 6 J { ] #.=.%.%.%.@.#.[ ' / 9 8 2 o @ e p a -.:.;.GXGXGXGXGXGXGXGXGXGXGXGXGXGX",
"GXGXGXGXGXhXfXaX8X*.&.qXaXaXwXqX*.+.' ( ( ( ' ] #.*.8XaXhXgXhXaXqX%.] ' [ #.7XaXhXmXmXmXhXaXeX8X7X*.%.#.] ( 9 7 2 O O O o 4 3 8 9 / ( ' +.#.%.@.#.[ ( / 9 6 : - ; h j g g g j N j g , 6 J ( ' [ [ [ ' ' ( / 9 3 4 w O @ $ t a -.:.;.GXGXGXGXGXGXGXGXGXGXGXGXGXGX",
"GXGXGXGXsXaXqX7X%.#.%.8XaXaXaXqX7X@.#.#.%.&.8XqXwXaXsXfXhXfXaXqX&.#.' ' ] @.7XaXhXhXhXsXaXeX8X7X%.@.#.[ ( / 8 3 2 O X X O o 2 4 3 8 9 ~ / ( ' ` ( / 0 6 5 : - > h G P G l l P I P h ; > 5 6 9 / / / / ~ 9 8 3 2 w 2 4 5 u r p a -.-.GXGXGXGXGXGXGXGXGXGXGXGXGXGX",
"GXGXGXgXfXeX&.@.+.#.%.qXsXsXsXwXqX7X7X7XqXwXsXfXhXhXfXsXsXwX8X&.#.[ ( ' ] %.9XwXsXsXaXeXqX8X7X%.#.+.' ( / 8 3 4 o O X X X O o 2 2 4 4 3 7 8 0 0 8 7 5 , , k g h P R x.I G P E x.E B g ; ; , 6 6 0 0 8 7 3 4 2 2 2 3 8 0 u y p a a a GXGXGXGXGXGXGXGXGXGXGXGXGXGX",
"GXGXGXmXhXqX@.+.@.&.qXsXhXhXfXaXwXqXqXqXwXaXsXsXsXaXwXqX8X7X%.#.] ( ( ' #.*.8XqXeXqX8X7X&.%.%.#.] ' ( / 9 3 4 2 o O O O o 2 4 3 4 4 2 : : : , , , , g B P P B G R B.N.v.I Y v.B.v.P h h j j g , : : : : * = 4 6 8 0 8 5 u e t p p a GXGXGXGXGXGXGXGXGXGXGXGXGXGX",
"GXGXmXmXhXqX%.@.7XwXsXhXmXgXfXaXeXqX8X8X8X8XqXqX8X7X7X*.%.#.] ' ' ( ( [ @.&.7X7X7X7X*.%.#.#.] [ ' ( / 9 8 4 2 o o o w 2 4 3 8 7 3 4 4 : ; k g g g g B Y c.x.Y Y c.H.L.N.R R B.Z.c.I l B P P N g ; ; ; ; - * 5 0 9 0 5 # u r t t p p GXGXGXGXGXGXGXGXGXGXGXGXGXGX",
"hXhXhXhXfXwX8X8XwXfXhXgXhXfXaXeX8X&.%.@.#.#.#.#.+.+.+.] [ ' ( ( ( ' ] #.%.&.&.*.%.#.+.] ' ' ( ( / 9 8 3 4 2 o o 2 4 3 8 8 8 8 8 3 4 5 , g j l l l l I c.J.N.v.x.N.K.K.J.c.c.Z.H.N.E P I R R I j g g j h ; - 5 6 0 C i r t p p p t t GXGXGXGXGXGXGXGXGXGXGXGXGXGX",
"hXhXhXhXsXaXwXwXsXfXfXsXwXqX7X%.@.#.+.] [ [ ] +.#.#.#.#.] ] [ ] +.#.%.*.&.*.%.#.] ' ' ( ( / 9 9 8 8 3 3 3 3 3 8 0 9 / / / 9 8 3 2 = = , h N P P G P E N.L.H.N.b.J.K.Y.H.N.N.H.K.Z.x.Y R c.c.Y N g j l j ; - > > u u r t t t t t t GXGXGXGXGXGXGXGXGXGXGXGXGXGXGX",
"gXgXhXfXsXaXaXaXaXwXqX8X*.@.O.[ [ [ ] +.#.@.%.&.7X7X7X7X*.%.*.&.7X7X7X7X*.%.#.[ ' ( / / 9 9 8 3 3 3 8 9 9 ~ / ( ' ' ' ( / 9 3 2 O O = , j B P U U U x.Z.K.L.Z.N.H.Y.Y.L.Z.Z.L.K.H.c.R x.b.b.Y N g j l h ; - $ e e r r r r r r GXGXGXGXGXGXGXGXGXGXGXGXGXGXGXGXGX",
"gXhXhXsXsXaXwXqX8X7X%.#.] ] +.#.%.7X8XqXqXeXwXaXaXaXaXwXqX8X8X8X8X7X7X%.#.] ' ( / 9 8 8 9 9 / ( ' [ #.#.#.#.] [ ' ( ( / / 9 8 3 2 o = > h G U Y I I x.N.L.H.N.N.H.Y.Y.L.N.N.H.K.J.v.Y x.b.b.Y N g h j g ; % $ e r r r e e e GXGXGXGXGXGXGXGXGXGXGXGXGXGXGXGXGXGX",
"hXhXfXsXwXqX8X&.%.#.] [ [ #.*.8XaXhXgXgXgXhXhXhXhXfXsXaXwXeXqX8X&.%.@.+.' ( / 9 9 9 9 9 / ' ] #.%.7X7X7X7X*.@.+.' ' ' ' ' ' ' / 9 8 5 , g B I Y I I R N.H.J.b.c.Z.K.Y.H.N.B.J.L.N.x.Y R c.c.Y N g g h g - % $ $ e e e e GXGXGXGXGXGXGXGXGXGXGXGXGXGXGXGXGXGXGXGX",
"fXsXaXeX8X*.#.] [ [ +.%.7XqXaXfXgXmXmXmXhXfXsXaXaXwXeXqX8X7X%.#.] ' ( / / / / ( ' [ +.#.%.*.*.%.%.#.#.+.] ] #.%.&.8XqXeXeXqX8X&.%.+.{ M g l U I U P R B.J.N.c.x.N.K.Y.H.b.b.J.H.N.R I Y c.c.Y N g g g ; - * & $ $ $ GXGXGXGXGXGXGXGXGXGXGXGXGXGXGXGXGXGXGXGXGXGX",
"sXaXqX7X%.+.' ( ' +.%.8XwXsXsXfXhXhXfXaXwXqX8X7X7X&.&.*.*.%.+.' ( 9 9 9 9 9 / ( ' +.@.%.*.*.%.#.[ ' ( / ( ] %.8XsXhXmXmXgXfXaXeX8X&.| F g h P P P G Y c.Z.N.x.R N.K.K.J.c.c.Z.H.N.R P I R x.I l g ; ; ; - * @ O X . GXGXGXGXGXGXGXGXGXGXGXGXGXGXGXGXGXGXGXGXGXGX",
"eXqX7X%.] ' ( ( +.*.8XqXeXeXqX8X8X7X&.%.@.#.+.] [ [ [ ] GXGX' ( / / 9 9 9 / / / / ( ' ' ( / / 9 9 9 / ( #.8XsXmXMXBXmXhXsXeX8X9X7X%.[ M ; h G G G G I c.N.B.R Y b.L.K.N.x.x.N.J.B.E G P Y Y P h ; ; - - * % @ O X X GXGXGXGXGXGXGXGXGXGXGXGXGXGXGXGXGXGXGXGXGXGX",
"8X7X%.+.' ( ' [ @.&.7X7X7X*.%.@.#.#.#.+.[ ' ' ( ( ( ( GXGXGXGX/ / 9 8 9 9 / ( ( ' ' [ ' / 9 8 3 3 8 9 ' &.sXMXVXCXMXgXsXeX8X7X&.*.=._ M ; k l N l l U v.N.c.Y Y c.H.L.B.R R b.N.c.I G G U I B g ; - - * * @ O O X GXGXGXGXGXGXGXGXGXGXGXGXGXGXGXGXGXGXGXGXGXGXGX",
"7X&.#.' ( ' +.#.@.%.@.#.+.] [ ' ' GXGXGXGXGXGXGXGXGXGXGXGXGXGXGXGX3 3 8 9 ) [ %.7X7X&.%.+.( / 8 8 8 9 ' 7XhXCXVXMXhXsXeXqX8X7X&.%.@._ M ; ; h j h j P x.b.v.Y U x.N.Z.v.I I v.B.v.P l l P P l ; - * % & O X X GXGXGXGXGXGXGXGXGXGXGXGXGXGXGXGXGXGXGXGXGXGXGXGXGX",
"%.@.+.' ( ' ] #.#.#.#.O.[ ' ( GXGXGXGXGXGXGXGXGXGXGXGXGXGXGXGXGXGX4 3 8 9 ( #.8XaXsXsXaX8X%.] ( / 9 / ' 7XhXBXMXgXsXaXqX8X7X*.%.%.+.{ 6 - - k g g g B Y x.R P G E b.B.R P P R v.R G j l G G j ; - * % & O X GXGXGXGXGXGXGXGXGXGXGXGXGXGXGXGXGXGXGXGXGXGXGXGXGXGX",
"#.+.[ ' ( ' ' [ GXGXGXGXGXGXGXGXGXGXGXGXGXGXGXGXGXGXGXGXGXGXGXGXGX3 3 8 9 ( @.qXfXmXBXMXfXqX&.#.' ( / ( %.aXmXmXhXaXeX8X7X*.%.@.#.] ) 5 * - ; ; ; ; j P Y U l l U x.v.I l l U E I N g g j j g ; - * % % GXGXGXGXGXGXGXGXGXGXGXGXGXGXGXGXGXGXGXGXGXGXGXGXGXGXGXGX",
"' ' ' ( ( ( ' GXGXGXGXGXGXGXGXGXGXGXGXGXGXGXGXGXGXGXGXGXGXGXGXGXGXGXGX8 9 / ] 7XwXhXMXMXhXaXqX*.#.' / / #.eXhXhXfXaXeX8X5X%.#.#.+.[ J : % % - ; ; ; g B P G j j P Y R P h h P I P j ; ; g g ; - * % % % GXGXGXGXGXGXGXGXGXGXGXGXGXGXGXGXGXGXGXGXGXGXGXGXGXGXGXGX",
"( ( ( ( / GXGXGXGXGXGXGXGXGXGXGXGXGXGXGXGXGXGXGXGXGXGXGXGXGXGXGXGXGXGXGX3 8 / ] *.8XaXaXwXqX7X%.+.' 9 9 ' 7XwXsXsXaXqX7X%.#.+.] [ ' J 6 - * - - - - ; j l l g g l P U l g g l P l g - - ; ; - * * * * * GXGXGXGXGXGXGXGXGXGXGXGXGXGXGXGXGXGXGXGXGXGXGXGXGXGXGXGX",
"GXGXGXGXGXGXGXGXGXGXGXGXGXGXGXGXGXGXGXGXGXGXGXGXGXGXGXGXGXGXGXGXGXGXGXGXO o 3 8 / ' [ ] ' ( ( / 9 8 4 4 9 [ %.8XwXwX8X*.#.] ' ( ( ( ) J 0 5 - * * - ; ; k ; - - k h h k - ; k h h ; - - - - - % * : 5 6 GXGXGXGXGXGXGXGXGXGXGXGXGXGXGXGXGXGXGXGXGXGXGXGXGXGXGXGX",
"GXGXGXGXGXGXGXGXGXGXGXGXGXGXGXGXGXGXGXGXGXGXGXGXGXGXGXGXGXGXGXGXGXGXGXGXO O 2 3 9 ( ] +.' ( / 9 8 3 4 2 3 9 ' %.8X8X7X%.+.' ( / / / ' ] [ J : & & * , K } } ....} } } _ { K _ _ K K F F M 6 > * * 5 8 0 GXGXGXGXGXGXGXGXGXGXGXGXGXGXGXGXGXGXGXGXGXGXGXGXGXGXGXGX",
"GXGXGXGXGXGXGXGXGXGXGXGXGXGXGXGXGXGXGXGXGXGXGXGXGXGXGXGXGXGXGXGXGXGXGXGX3 3 8 ( +.7XaXsXwX7X%.#.' / 9 3 3 8 9 ' %.*.%.#.] ' ( / 9 / ] &.&.| 6 & & * K P.sXmXMXMXlXsXaXeXeXqXrX0X9XP.%.@...' V : % * GXGXGXGXGXGXGXGXGXGXGXGXGXGXGXGXGXGXGXGXGXGXGXGXGXGXGXGXGXGX",
"GXGXGXGXGXGXGXGXGXGXGXGXGXGXGXGXGXGXGXGXGXGXGXGXGXGXGXGXGXGXGXGXGXGXGXGX3 3 9 ( +.7XsXhXsXqX&.@.] ( / 8 3 3 3 / ' +.+.] ' ( / / / ' #.7X9X*.........*.qXsXhXbXlXzXkXuXkXkXuXXX.X.X XG.X.#.] ( J V GXGXGXGXGXGXGXGXGXGXGXGXGXGXGXGXGXGXGXGXGXGXGXGXGXGXGXGXGXGXGX",
"GXGXGXGXGXGXGXGXGXGXGXGXGXGXGXGXGXGXGXGXGXGXGXGXGXGXGXGXGXGXGXGXGXGXGXGX4 3 8 9 ( #.7XqX8X&.@.O.' ( / 9 8 3 3 8 9 ( ( ( ( / / ( ] #.%.&.7XqXaXjXgXcXfXeX X*.*.P.{.}.`.oX+X+XoX`.!.C.m.v.} [ [ ] ] GXGXGXGXGXGXGXGXGXGXGXGXGXGXGXGXGXGXGXGXGXGXGXGXGXGXGXGXGXGXGX",
"GXGXGXGXGXGXGXGXGXGXGXGXGXGXGXGXGXGXGXGXGXGXGXGXGXGXGXGXGXGXGXGXGXGXGXGXGXGX3 3 8 / ' [ ' ( ) / 9 9 9 9 8 8 3 3 8 8 9 / ( [ #.*.8XwXeXqX8X8XqXwXfXbXjX.X{.[.[.}.|.oX&X-X;X;X;X-XOX_.!.M.x.Q } | +.GXGXGXGXGXGXGXGXGXGXGXGXGXGXGXGXGXGXGXGXGXGXGXGXGXGXGXGXGXGXGX",
"GXGXGXGXGXGXGXGXGXGXGXGXGXGXGXGXGXGXGXGXGXGXGXGXGXGXGXGXGXGXGXGXGXGXGXGXGXGXGXo 2 3 8 9 9 9 9 9 9 9 / / 9 9 8 3 3 3 8 / [ %.qXsXmXMXbXsXwX8X7X7XqXtXuX|.`.`.'.&X=X:X,X1X2X2X2X2X>X=X'.~.g.f.I _ [ GXGXGXGXGXGXGXGXGXGXGXGXGXGXGXGXGXGXGXGXGXGXGXGXGXGXGXGXGXGXGX",
"GXGXGXGXGXGXGXGXGXGXGXGXGXGXGXGXGXGXGXGXGXGXGXGXGXGXGXGXGXGXGXGXGXGXGXGXGXGXGX3 8 / [ #.*.7X7X&.%.%.%.#.[ / 8 3 3 3 9 ( #.8XsXMXVXAXBXhXsXsXfXjXyXXX$X+X%X=X-X:X,X1X2X2X2X2X2X1X;X&X_.~.k.f.I K / GXGXGXGXGXGXGXGXGXGXGXGXGXGXGXGXGXGXGXGXGXGXGXGXGXGXGXGXGXGXGX",
"GXGXGXGXGXGXGXGXGXGXGXGXGXGXGXGXGXGXGXGXGXGXGXGXGXGXGXGXGXGXGXGXGXGXGXGXGXGXGX8 9 ' @.7XeXsXsXaXqX8X7X%.] / 8 4 2 3 9 ` @.qXfXmXBXCXMXnXhXgXbXzX#X`._.&X-X:X:X;X,X>X1X1X1X1X>X:X&X].!.z.k.f.P M 8 GXGXGXGXGXGXGXGXGXGXGXGXGXGXGXGXGXGXGXGXGXGXGXGXGXGXGXGXGXGXGX",
"GXGXGXGXGXGXGXGXGXGXGXGXGXGXGXGXGXGXGXGXGXGXGXGXGXGXGXGXGXGXGXGXGXGXGXGXGXGXGX8 8 / [ @.7XeXeX8X&.%.#.[ ( / 8 4 1 2 8 ) +.6XeXiXwXwXsXgXgXdXrX X}.^._.'.&X%X%X%X%X%X=X=X=X=X%X&X'./.Q.k.s.i.z 5 4 GXGXGXGXGXGXGXGXGXGXGXGXGXGXGXGXGXGXGXGXGXGXGXGXGXGXGXGXGXGXGX",
"GXGXGXGXGXGXGXGXGXGXGXGXGXGXGXGXGXGXGXGXGXGXGXGXGXGXGXGXGXGXGXGXGXGXGXGXGXGXGXGX8 9 ( ' #.*.*.%.#.[ ` / ~ 9 9 J L ! X.{.{..X.X.X X XyXlXlXtXI.F.m.C.Q.!./././.(.(._._._._.`.`._./.Q.j.d.p.n x = O GXGXGXGXGXGXGXGXGXGXGXGXGXGXGXGXGXGXGXGXGXGXGXGXGXGXGXGXGXGXGX",
"GXGXGXGXGXGXGXGXGXGXGXGXGXGXGXGXGXGXGXGXGXGXGXGXGXGXGXGXGXGXGXGXGXGXGXGXGXGXGXGXGXGX9 9 ( ' ' ' ' ( / 9 8 7 J W.*X4X3X3X4X*XoX`.^.^.XXzXcXyXZ.d.p.p.a.d.k.k.k.j.l.C.Q.Q.Q.Q.Q.z.l.j.d.s.u.n x @ X GXGXGXGXGXGXGXGXGXGXGXGXGXGXGXGXGXGXGXGXGXGXGXGXGXGXGXGXGXGXGX",
"GXGXGXGXGXGXGXGXGXGXGXGXGXGXGXGXGXGXGXGXGXGXGXGXGXGXGXGXGXGXGXGXGXGXGXGXGXGXGXGXGXGX4 3 8 9 9 9 9 9 8 3 2 1 6 [.4X2X2X2X>X=X'.`.}..XuXcXNXuXG.c.v.R v.F.G.G.G.F.c.f.a.a.a.a.d.d.d.a.p.i.3.n B K [ *.sXGXGXGXGXGXGXGXGXGXGXGXGXGXGXGXGXGXGXGXGXGXGXGXGXGXGXGXGXGX",
"GXGXGXGXGXGXGXGXGXGXGXGXGXGXGXGXGXGXGXGXGXGXGXGXGXGXGXGXGXGXGXGXGXGXGXGXGXGXGXGXGXGXo 2 3 8 8 9 9 9 9 8 3 2 6 W.*X2X2X;X%X].(.}..XsXgXMXMXsX9X&.&.7X8XqXeXeXqX9XG.T n n m n n i.i.i.i.b v n Q P.qXsXgXMXGXGXGXGXGXGXGXGXGXGXGXGXGXGXGXGXGXGXGXGXGXGXGXGXGXGXGXGX",
"GXGXGXGXGXGXGXGXGXGXGXGXGXGXGXGXGXGXGXGXGXGXGXGXGXGXGXGXGXGXGXGXGXGXGXGXGXGXGXGXGXGX8 9 / ' +.=.*.*.%.=.X.{.|.*X;X,X:XOX_.~.C.}.uXlXnXhXfXaXeXwXsXgXmXNXNXNXmXhXtXI.F. .Q P m n b b b v c n Q P.qXsXgXmXMXmXGXGXGXGXGXGXGXGXGXGXGXGXGXGXGXGXGXGXGXGXGXGXGXGXGXGX",
"GXGXGXGXGXGXGXGXGXGXGXGXGXGXGXGXGXGXGXGXGXGXGXGXGXGXGXGXGXGXGXGXGXGXGXGXGXGXGXGXGXGX( ( ] %.7XwXfXfXaXtXuX4X2X>X;X%X]./.Q.C.m.}.zXNXgXpXqXwXsXbXCXAXDXAXVXCXMXgXsXwX8X*.+._ B m c c c c c m I ..*.eXsXgXmXmXMXGXGXGXGXGXGXGXGXGXGXGXGXGXGXGXGXGXGXGXGXGXGXGXGXGX",
"GXGXGXGXGXGXGXGXGXGXGXGXGXGXGXGXGXGXGXGXGXGXGXGXGXGXGXGXGXGXGXGXGXGXGXGXGXGXGXGXGXGX9 ( ] %.qXsXmXnXfXsXkX4X,X-XOX_.~.l.A.G. XtXhXlXdX8X7XaXmXVXDXSXDXVXmXfXqX7X6X7X5X%.#.[ J M x m c m x M V / ' %.qXsXhXmXMXGXGXGXGXGXGXGXGXGXGXGXGXGXGXGXGXGXGXGXGXGXGXGXGXGX",
"GXGXGXGXGXGXGXGXGXGXGXGXGXGXGXGXGXGXGXGXGXGXGXGXGXGXGXGXGXGXGXGXGXGXGXGXGXGXGXGXGXGX8 9 ( #.&.wXhXgXjXuX<X<X=X'.(.~.k.d.m.I.eXaXaXwX8X%.&.aXCXSXSXDXCXhXwXP.S.S. .| +.] [ ( 9 3 5 z z z 5 3 3 3 9 ' %.qXsXnXMXGXGXGXGXGXGXGXGXGXGXGXGXGXGXGXGXGXGXGXGXGXGXGXGXGX",
"GXGXGXGXGXGXGXGXGXGXGXGXGXGXGXGXGXGXGXGXGXGXGXGXGXGXGXGXGXGXGXGXGXGXGXGXGXGXGXGXGXGXo 4 3 / [ &.eXuX<X<X:X%XOX_.!.l.s.u.c. XtXqX%.+.+.@.7XsXCXAXAXCXhX8X$.S.y.0.>.C 8 9 9 0 3 2 3 V J V 8 4 2 2 3 9 [ *.wXhXmXGXGXGXGXGXGXGXGXGXGXGXGXGXGXGXGXGXGXGXGXGXGXGXGXGX",
"GXGXGXGXGXGXGXGXGXGXGXGXGXGXGXGXGXGXGXGXGXGXGXGXGXGXGXGXGXGXGXGXGXGXGXGXGXGXGXGXGXGX4 4 4 3 J X.XX<X*X=X&X].(.Q.j.g.h.b.G.P.9X%.[ ( [ *.eXhXCXAXVXMXsX7X#. .4.2.d u 3 4 3 3 8 9 / ) ( K H G A A A G Q X.0XdXfXGXGXGXGXGXGXGXGXGXGXGXGXGXGXGXGXGXGXGXGXGXGXGXGXGX",
"GXGXGXGXGXGXGXGXGXGXGXGXGXGXGXGXGXGXGXGXGXGXGXGXGXGXGXGXGXGXGXGXGXGXGXGXGXGXGXGXGXGX/ 9 7 4 F [.*X:X=XOX`.!.C.g.a.n.G. X9X&.@.] ( ( #.8XsXmXCXVXMXhXaX8X%.| V 6 5 7 3 3 3 8 ` +.] ` ) W V.C.l.l.g.a.f.v.I.0XeXGXGXGXGXGXGXGXGXGXGXGXGXGXGXGXGXGXGXGXGXGXGXGXGXGX",
"GXGXGXGXGXGXGXGXGXGXGXGXGXGXGXGXGXGXGXGXGXGXGXGXGXGXGXGXGXGXGXGXGXGXGXfXmXMXmXhXaX8X%.#.] ' .. XXX#X#XXX}.G.V.F.G.I. X0XrXrX8X&.#.#.*.qXsXgXmXmXhXsXeX7X@.[ / 8 3 4 3 9 ( [ +.+.' ~ 0 U M.!./.).Q.k.u.n.X.*.&.GXGXGXGXGXGXGXGXGXGXGXGXGXGXGXGXGXGXGXGXGXGXGXGXGX",
"GXGXGXGXGXGXGXGXGXGXGXGXGXGXGXGXGXGXGXGXGXGXGXGXGXGXGXGXGXGXGXGXGXaXaXsXfXhXhXsXaXqX8X7X&.&.7X8XeXwXaXwX8X%.=.P.qXwXqX8XeXdXfXsXqX8X8XqXwXaXsXsXaXqX7X%.+.' / 9 8 8 / [ %.%.#.' ) 0 M Q E._._.(.~.k.u.S W | O.GXGXGXGXGXGXGXGXGXGXGXGXGXGXGXGXGXGXGXGXGXGXGXGXGX",
"GXGXGXGXGXGXGXGXGXGXGXGXGXGXGXGXGXGXGXGXGXGXGXGXGXGXGXGXGXGXGXsXdXaXeXqX8X9X7X&.*.%.%.@.@.@.=.%.&.9XwXsXfXsXaXwXqX8X8XqXaXhXMXmXhXaXqX7X&.7XqXqX8X&.=.] ( / 8 8 ( #.*.&.&.%.] ( K Q M.^.oXOXOX_.!.k.u.D H ) / GXGXGXGXGXGXGXGXGXGXGXGXGXGXGXGXGXGXGXGXGXGXGXGXGX",
"GXGXGXGXGXGXGXGXGXGXGXGXGXGXGXGXGXGXGXGXGXGXGXGXGXGXGXGXGXGXsXaXwX8X&.%.#.] [ +.#.#.%.%.%.%.=.@.%.6XeXsXgXMXMXfXeX8X7X8XeXhXMXMXmXsX8X%.+.#.@.@.#.] ' / 9 9 / ' %.8XqX8X%.O.) 9 L E.`.=X;X;X%X_.~.k.u.m h 6 7 GXGXGXGXGXGXGXGXGXGXGXGXGXGXGXGXGXGXGXGXGXGXGXGXGX",
"GXGXGXGXGXGXGXGXGXGXGXGXGXGXGXGXGXGXGXGXGXGXGXGXGXGXGXGXsXaXaXqX7X@.' ( / ( ' ] @.7XqXaXaXeXqX8X7X8XqXaXhXMXCXMXfXwX7X%.7XaXhXhXsXqX&.+.( / / / 9 9 8 3 8 ' 7XwXwXqX7X%.] ( 8 3 L ^.%X>X2X1X%X/.l.d.u.m f @ O GXGXGXGXGXGXGXGXGXGXGXGXGXGXGXGXGXGXGXGXGXGXGXGXGX",
"GXGXGXGXGXGXGXGXGXGXGXGXGXGXGXGXGXGXGXGXGXGXGXGXGXGXGXGXeXqX8X*.#.' / / ( ' [ ] #.7XeXsXhXhXhXsXaXeXqXqXsXmXBXMXhXaX7X@.%.7XqXeXqX7X@.' / 8 3 3 2 4 8 / +.7XaXfXaX8X%.] ( J F H V.@X,X2X2X;X+X~.k.a.i.m f O GXGXGXGXGXGXGXGXGXGXGXGXGXGXGXGXGXGXGXGXGXGXGXGXGXGX",
"GXGXGXGXGXGXGXGXGXGXGXGXGXGXGXGXGXGXGXGXGXGXGXGXGXGXGXGX&.%.#.' ( / ( ' #.%.%.#.+.@.7XeXfXMXBXMXmXfXwXqXwXfXgXfXaXqX&.=.#.#.#.@.%.@.+.' / 8 3 4 2 3 ' 8XhXgXsXwX8X*.#.` J K ! ^.oX;X2X1X:XOX!.l.a.i.b c GXGXGXGXGXGXGXGXGXGXGXGXGXGXGXGXGXGXGXGXGXGXGXGXGXGXGXGX",
"GXGXGXGXGXGXGXGXGXGXGXGXGXGXGXGXGXGXGXGXGXGXGXGXGXGXGXGX#.#.+.[ ' ' ] %.qXaXaX8X&.%.@.%.qXfXmXBXBXmXaX8X8XqXqX8X7X*.@.] ' ( ( ( ' [ ' / 8 3 4 8 ( %.qXhXMXgXaX8X*.#.' ~ 8 K E.oX-X>X1X;X&X_.z.g.u.3.b GXGXGXGXGXGXGXGXGXGXGXGXGXGXGXGXGXGXGXGXGXGXGXGXGXGXGXGXGX",
"GXGXGXGXGXGXGXGXGXGXGXGXGXGXGXGXGXGXGXGXGXGXGXGXGXGXGXGX#.#.%.%.*.%.%.7XaXmXmXfXeX*.] ' #.8XaXgXMXmXaX7X%.#.#.+.+.] ' / 9 8 8 8 9 / 9 8 3 3 3 ' 8XmXBXMXgXsXqX6X@.[ ( 8 3 K [.*X,X,X:X&X].!.j.a.i.GXGXGXGXGXGXGXGXGXGXGXGXGXGXGXGXGXGXGXGXGXGXGXGXGXGXGXGXGXGXGX",
"GXGXGXGXGXGXGXGXGXGXGXGXGXGXGXGXGXGXGXGXGXGXGXGXGXGXGXGX&.7XqXaXaX8X&.&.8XqXeXqX8X%.' ( ( ] %.8XaXwX8X*.#.' / / / / 9 9 8 3 2 4 4 3 4 2 3 ( @.qXhXMXMXmXsXeX7X%.] ( 9 3 2 F [.*X;X:X%X].!.j.a.3.b GXGXGXGXGXGXGXGXGXGXGXGXGXGXGXGXGXGXGXGXGXGXGXGXGXGXGXGXGXGXGX",
"GXGXGXGXGXGXGXGXGXGXGXGXGXGXGXGXGXGXGXGXGXGXGXGXGXGXGXGX&.8XeXsXsXqX*.@.#.#.%.7X8X&.#.' ( / ( +.%.*.%.#.' / 8 3 3 3 3 3 4 2 o O O O O o 8 #.wXhXmXmXgXsXwX8X%.+.' / 0 6 6 W }.*X:X%X].!.j.p.3.b c GXGXGXGXGXGXGXGXGXGXGXGXGXGXGXGXGXGXGXGXGXGXGXGXGXGXGXGXGXGXGX",
"GXGXGXGXGXGXGXGXGXGXGXGXGXGXGXGXGXGXGXGXGXGXGXGXGXGXGXGX[ ] @.*.*.@.+.[ ' [ *.aXhXfXeX&.] / 9 ( ' [ [ ' ( 9 3 3 2 o o O O O X X . X 1 8 ( %.eXsXhXhXhXaXqX7X#.' ~ 8 6 W E.|.&X:X=X].!.j.u.b v c c GXGXGXGXGXGXGXGXGXGXGXGXGXGXGXGXGXGXGXGXGXGXGXGXGXGXGXGXGXGXGX",
"GXGXGXGXGXGXGXGXGXGXGXGXGXGXGXGXGXGXGXGXGXGXGXGXGXGXGXGX/ ( ' ] #.@.@.#.' ' @.qXsXsXwX8X#./ 8 8 9 / / / / 8 3 4 o O X X     X = , F F J ( #.7XeXaXsXsXwX8X%.] / 8 4 M V.oX-X-X=X].!.j.u.b c c c c GXGXGXGXGXGXGXGXGXGXGXGXGXGXGXGXGXGXGXGXGXGXGXGXGXGXGXGXGXGXGX",
"GXGXGXGXGXGXGXGXGXGXGXGXGXGXGXGXGXGXGXGXGXGXGXGXGXGXGXGX/ ( ' #.%.8XqX8X#.' ' +.@.%.*.%.] / 8 3 3 3 8 9 8 3 4 2 o O X       O F E.|.[.L 9 ` #. XqXwXwXqX X#.( 9 3 4 M V.@X-X&X_.~.j.u.3.b c c GXGXGXGXGXGXGXGXGXGXGXGXGXGXGXGXGXGXGXGXGXGXGXGXGXGXGXGXGXGXGXGXGX",
"GXGXGXGXGXGXGXGXGXGXGXGXGXGXGXGXGXGXGXGXGXGXGXGXGXGXGXGXGX( ' +.%.7X8X7X+.( / / ' #.&.7X%.[ / 9 8 3 3 3 4 2 o o O X .   O 6 W E.oX=XoXE.! } ] #.&.8X8X7X%.] / 8 M L ! ^.oXOX_.Q.j.u.b b v c c GXGXGXGXGXGXGXGXGXGXGXGXGXGXGXGXGXGXGXGXGXGXGXGXGXGXGXGXGXGXGXGXGX",
"GXGXGXGXGXGXGXGXGXGXGXGXGXGXGXGXGXGXGXGXGXGXGXGXGXGXGXGXGXGXGX[ ] #.@.+.' / / / ' @.8XeX8X%.+.' / 9 3 o O X X X X X   + , V.oX%X%XOXOXoX|.G._ ' #.*.&.%.#.` 0 6 W ^.`.]._.!.C.g.p.3.v c c c c GXGXGXGXGXGXGXGXGXGXGXGXGXGXGXGXGXGXGXGXGXGXGXGXGXGXGXGXGXGXGXGXGX",
"GXGXGXGXGXGXGXGXGXGXGXGXGXGXGXGXGXGXGXGXGXGXGXGXGXGXGXGXGXGXGX( ( ' ' ] +.#.#.+.+.#.%.%.#.| ] ] ] ( 9 4 o X       + $ x D C._.]._././.).Q.V.{ ( ] #.@.#.[ / 7 5 W ^.`.(.Q.j.d.p.i.b v c c GXGXGXGXGXGXGXGXGXGXGXGXGXGXGXGXGXGXGXGXGXGXGXGXGXGXGXGXGXGXGXGXGXGXGX",
"GXGXGXGXGXGXGXGXGXGXGXGXGXGXGXGXGXGXGXGXGXGXGXGXGXGXGXGXGXGXGX9 9 / ( ' @.&.&.%.#.[ ( / / / / ' +.' / 3 o X     X @ x m f.g.C.C.C.A.A.m.h.E K ) ' ] ] ' ( / 0 F ! ^.!.z.k.a.u.i.b b v c GXGXGXGXGXGXGXGXGXGXGXGXGXGXGXGXGXGXGXGXGXGXGXGXGXGXGXGXGXGXGXGXGXGXGXGX",
"GXGXGXGXGXGXGXGXGXGXGXGXGXGXGXGXGXGXGXGXGXGXGXGXGXGXGXGXGXGXGXGXGX8 9 / ' [ [ ' ( / 8 3 3 3 3 q 8 7 2 o .   . 1 8 V V N H L W X.X.G.I. XI.F.T P H ) / ~ J L V.E.^.Q.l.k.p.3.b b v c GXGXGXGXGXGXGXGXGXGXGXGXGXGXGXGXGXGXGXGXGXGXGXGXGXGXGXGXGXGXGXGXGXGXGXGXGXGX",
"GXGXGXGXGXGXGXGXGXGXGXGXGXGXGXGXGXGXGXGXGXGXGXGXGXGXGXGXGXGXGXGXGXGX3 8 9 / / 9 9 8 4 2 o O @ = > > , , ; * - 6 ) ( ^ 8 8 9 ) ` ] +.=.&.P.G.v.R W | ] o.+. XXX#X@X$X}.Z.B.n.n.T T GXGXGXGXGXGXGXGXGXGXGXGXGXGXGXGXGXGXGXGXGXGXGXGXGXGXGXGXGXGXGXGXGXGXGXGXGXGXGX",
"GXGXGXGXGXGXGXGXGXGXGXGXGXGXGXGXGXGXGXGXGXGXGXGXGXGXGXGXGXGXGXGXGXGXGXGXGXGXGXGXGXGXGXGXGXGXGXD S h.M.^.^.M.h.Q { / 8 3 3 8 9 9 / / / ( ' | $.P.0XwXdXfXgXcXZXcXcXcXzXjXuXtX0X0X0X0X8X&.@.#.GXGXGXGXGXGXGXGXGXGXGXGXGXGXGXGXGXGXGXGXGXGXGXGXGXGXGXGXGXGXGXGXGXGX",
"GXGXGXGXGXGXGXGXGXGXGXGXGXGXGXGXGXGXGXGXGXGXGXGXGXGXGXGXGXGXGXGXGXGXGXGXGXGXGXGXGXGXGXGXGXGXGXa.s.j.!._._./.Q.V.K 0 3 4 4 8 9 9 / / / / / ' #.%.7XqXeXaXaXsXdXdXdXaXaXwXeXqX8X7X&.%.@.+.[ ' ] GXGXGXGXGXGXGXGXGXGXGXGXGXGXGXGXGXGXGXGXGXGXGXGXGXGXGXGXGXGXGXGXGX",
"GXGXGXGXGXGXGXGXGXGXGXGXGXGXGXGXGXGXGXGXGXGXGXGXGXGXGXGXGXGXGXGXGXGXGXGXGXGXGXGXGXGXGXGXGXGXGXi.u.a.j.Q.!./.^.V.F 3 4 4 3 8 9 ( ' ' ' ' ' ' ' ' ' [ ' ' ' ` ' ' ' [ [ [ [ ' ' ' ( / 9 0 9 / +.7XwXsXfXhXGXGXGXGXGXGXGXGXGXGXGXGXGXGXGXGXGXGXGXGXGXGXGXGXGXGXGXGX",
"GXGXGXGXGXGXGXGXGXGXGXGXGXGXGXGXGXGXGXGXGXGXGXGXGXGXGXGXGXGXGXGXGXGXGXGXGXGXGXGXGXGXGXGXGXGXGXGXGXu.a.s.k.l.l.h.D l M 5 3 8 9 / ( [ ..#.#.#.@.@.%.%.%.*.&.7X7X7X9X7X&.%.#.] [ ' / 9 8 9 ( ] 7XaXsXsXaXaXwXGXGXGXGXGXGXGXGXGXGXGXGXGXGXGXGXGXGXGXGXGXGXGXGXGXGXGX",
"GXGXGXGXGXGXGXGXGXGXGXGXGXGXGXGXGXGXGXGXGXGXGXGXGXGXGXGXGXGXGXGXGXGXGXGXGXGXGXGXGXGXGXGXGXGXGXGXGXGXu.f.f.d.m.j.m.n.Q J 9 8 8 8 / ( [ #.%.7X8XqXeXwXsXhXgXMXCXCXBXmXhXwX7X%.@.+.' / / ' %.8XaXgXgXsXqX8XqXeXwXGXGXGXGXGXGXGXGXGXGXGXGXGXGXGXGXGXGXGXGXGXGXGXGXGX",
"GXGXGXGXGXGXGXGXGXGXGXGXGXGXGXGXGXGXGXGXGXGXGXGXGXGXGXGXGXGXGXGXGXGXGXGXGXGXGXGXGXGXGXGXGXGXGXGXGXGXF.G.I..XyXyX.X.X0X X#./ 4 2 3 9 / ' +.@.*.7X8X8XqXwXaXsXhXhXfXsXeX8X%.#.+.] ' ' ] &.aXmXMXmXhXeX7X7XwXfXhXmXMXGXGXGXGXGXGXGXGXGXGXGXGXGXGXGXGXGXGXGXGXGXGXGX",
"GXGXGXGXGXGXGXGXGXGXGXGXGXGXGXGXGXGXGXGXGXGXGXGXGXGXGXGXGXGXGXGXGXGXGXGXGXGXGXGXGXGXGXGXGXGXGXGXGXGX%.&.qXsXmXmXgXhXfXaX8X] 9 3 4 3 q 9 ( ' ] #.#.@.%.%.*.7X7X7X7X*.%.#.[ ' ' [ +.@.7XaXMXVXMXhXwX8X&.8XsXMXBXMXMXmXGXGXGXGXGXGXGXGXGXGXGXGXGXGXGXGXGXGXGXGXGXGX",
"GXGXGXGXGXGXGXGXGXGXGXGXGXGXGXGXGXGXGXGXGXGXGXGXGXGXGXGXGXGXGXGXGXGXGXGXGXGXGXGXGXGXGXGXGXGXGXGXGXGX[ O.%.qXaXsXdXaXaXwXqX8X%.[ 8 2 o 4 3 8 9 / ( ' ' ] +.#.#.#.+.] ' ( / / ( [ %.wXgXMXBXMXsX8X*.&.8XwXmXVXVXCXMXgXsXaXGXGXGXGXGXGXGXGXGXGXGXGXGXGXGXGXGXGXGXGX",
"GXGXGXGXGXGXGXGXGXGXGXGXGXGXGXGXGXGXGXGXGXGXGXGXGXGXGXGXGXGXGXGXGXGXGXGXGXGXGXGXGXGXGXGXGXGXGXGXGXGX9 / ' #.%.*.*.*.*.*.*.&.*.+./ 3 2 2 2 2 4 3 3 8 9 / ( ( ( ( ( / / / / ( ] %.qXhXMXMXhXaX7X#.+.%.qXsXMXVXVXMXhXaXqX8X8XGXGXGXGXGXGXGXGXGXGXGXGXGXGXGXGXGXGXGX",
"GXGXGXGXGXGXGXGXGXGXGXGXGXGXGXGXGXGXGXGXGXGXGXGXGXGXGXGXGXGXGXGXGXGXGXGXGXGXGXGXGXGXGXGXGXGXGXGXGXGX3 3 8 9 ~ / / ( ( / / / / / / / 8 4 o O O O o 2 4 3 3 8 9 9 9 9 9 / ' #.8XdXhXhXsXwX8X%.] ( [ *.wXhXMXBXmXaX8X&.%.@.#.GXGXGXGXGXGXGXGXGXGXGXGXGXGXGXGXGXGXGX",
"GXGXGXGXGXGXGXGXGXGXGXGXGXGXGXGXGXGXGXGXGXGXGXGXGXGXGXGXGXGXGXGXGXGXGXGXGXGXGXGXGXGXGXGXGXGXGXGXGXGXo 1 2 3 8 / ( ' [ ] ] ] ] [ ' ( 9 3 o X X X X O o 2 3 8 9 / ( ' [ #.*.8XaXsXsXwX8X*.+.' ( ( ] 7XsXgXmXhXaX7X@.#.@.*.8XGXGXGXGXGXGXGXGXGXGXGXGXGXGXGXGXGXGXGX",
"GXGXGXGXGXGXGXGXGXGXGXGXGXGXGXGXGXGXGXGXGXGXGXGXGXGXGXGXGXGXGXGXGXGXGXGXGXGXGXGXGXGXGXGXGXGXGXGXGXGXO o 4 8 / [ %.7XqXwXaXiXeX7X%.[ ( 9 3 2 O X X O 2 4 3 9 / ' ] @.&.qXwXaXwXqX8X&.%.] ( / / ' @.qXhXmXhXiX7X+.' #.7XeXsXgXmXGXGXGXGXGXGXGXGXGXGXGXGXGXGXGXGXGX",
"GXGXGXGXGXGXGXGXGXGXGXGXGXGXGXGXGXGXGXGXGXGXGXGXGXGXGXGXGXGXGXGXGXGXGXGXGXGXGXGXGXGXGXGXGXGXGXGXGXGXGXGX3 8 / #.8XsXgXmXMXmXhXaX8X%.#.[ ( 9 3 2 o O o 2 3 8 9 / ' +.@.*.7X7X7X*.@.+.' / 8 8 / ] &.aXhXhXaX7X#.' ( @.qXsXhXhXhXGXGXGXGXGXGXGXGXGXGXGXGXGXGXGXGXGX",
"GXGXGXGXGXGXGXGXGXGXGXGXGXGXGXGXGXGXGXGXGXGXGXGXGXGXGXGXGXGXGXGXGXGXGXGXGXGXGXGXGXGXGXGXGXGXGXGXGXGXGXGXGX8 / #.qXfXmXBXBXmXhXaXqX7X*.%.#.' / 8 3 2 2 2 2 4 3 8 9 / ( ' ] ] ] [ ' ( 9 8 4 3 / #.7XaXfXaX8X#.' ( ' %.aXhXsXaXeXGXGXGXGXGXGXGXGXGXGXGXGXGXGXGXGXGX",
"GXGXGXGXGXGXGXGXGXGXGXGXGXGXGXGXGXGXGXGXGXGXGXGXGXGXGXGXGXGXGXGXGXGXGXGXGXGXGXGXGXGXGXGXGXGXGXGXGXGXGXGXGX2 3 ( %.qXaXsXsXaXqX8X&.%.@.#.+.[ ' ( / 9 8 2 O X o 2 3 8 8 9 9 / / / 9 8 3 4 o 4 9 ] %.8XqX8X#.' / / ' *.aXfXwX7X7XeXfXGXGXGXGXGXGXGXGXGXGXGXGXGXGXGX",
"GXGXGXGXGXGXGXGXGXGXGXGXGXGXGXGXGXGXGXGXGXGXGXGXGXGXGXGXGXGXGXGXGXGXGXGXGXGXGXGXGXGXGXGXGXGXGXGXGXGXGXGXGXX 2 9 ' #.%.&.&.%.@.#.] [ ' ' ' ' ' ' ' ( / 8 4 4 3 8 3 4 2 4 3 3 3 7 3 3 2 o o 4 9 ' #.%.*.@.' 9 9 9 ' %.wXaX8X@.@.8XaXfXGXGXGXGXGXGXGXGXGXGXGXGXGXGX",
"GXGXGXGXGXGXGXGXGXGXGXGXGXGXGXGXGXGXGXGXGXGXGXGXGXGXGXGXGXGXGXGXGXGXGXGXGXGXGXGXGXGXGXGXGXGXGXGXGXGXGXGXGXGXGX3 8 9 ( [ [ ' ' ( ( / / / / / ( ( ( ( ( ( ' ] @.#.( 3 o O o o 2 2 2 2 2 2 2 4 8 / ( ] +.' / 8 7 9 ( @.8XqX%.' ' %.8XeXGXGXGXGXGXGXGXGXGXGXGXGXGXGX",
"GXGXGXGXGXGXGXGXGXGXGXGXGXGXGXGXGXGXGXGXGXGXGXGXGXGXGXGXGXGXGXGXGXGXGXGXGXGXGXGXGXGXGXGXGXGXGXGXGXGXGXGXGXGXGXGXo 2 3 9 9 9 9 8 8 8 8 8 9 9 9 9 / ( +.%.7XqXwXqX*.' 9 8 3 4 2 o o o 2 2 4 3 3 8 9 ( ( / 8 3 3 8 / [ %.%.[ 9 9 ' @.7XqXGXGXGXGXGXGXGXGXGXGXGXGXGX",
"GXGXGXGXGXGXGXGXGXGXGXGXGXGXGXGXGXGXGXGXGXGXGXGXGXGXGXGXGXGXGXGXGXGXGXGXGXGXGXGXGXGXGXGXGXGXGXGXGXGXGXGXGXGXGXGXX O o 4 3 4 4 4 3 3 3 8 9 9 9 / ( ] *.wXhXgXhXsXwX8X%.+.' 9 3 w O O o 2 3 3 3 3 3 9 / 9 8 4 4 3 8 / ' ' / 3 3 9 ' %.eXhXmXGXGXGXGXGXGXGXGXGXGXGX",
"GXGXGXGXGXGXGXGXGXGXGXGXGXGXGXGXGXGXGXGXGXGXGXGXGXGXGXGXGXGXGXGXGXGXGXGXGXGXGXGXGXGXGXGXGXGXGXGXGXGXGXGXGXGXGXGXGXX X O O o o 2 2 4 8 9 ( [ #.%.&.8XwXfXgXhXaXqX7X%.#.+.[ ( 9 o X X O 2 4 4 3 3 3 8 8 8 3 2 2 4 3 8 9 9 8 3 8 ( +.7XaXgXMXMXGXGXGXGXGXGXGXGXGXGX",
"GXGXGXGXGXGXGXGXGXGXGXGXGXGXGXGXGXGXGXGXGXGXGXGXGXGXGXGXGXGXGXGXGXGXGXGXGXGXGXGXGXGXGXGXGXGXGXGXGXGXGXGXGXGXGXGXGXGXX X X O o 2 4 3 9 ( #.7XwXsXfXfXfXsXaXqX7X@.[ ( ( [ #.#.GXGXGXGXGXGXO o 4 3 3 3 3 4 @ o o 2 4 3 8 9 9 9 ( #.9XaXhXmXMXmXmXmXGXGXGXGXGXGXGXGX",
"GXGXGXGXGXGXGXGXGXGXGXGXGXGXGXGXGXGXGXGXGXGXGXGXGXGXGXGXGXGXGXGXGXGXGXGXGXGXGXGXGXGXGXGXGXGXGXGXGXGXGXGXGXGXGXGXGXGXGXGXX O 2 3 8 ( ] %.7XeXaXsXsXaXwXqX8X*.+.' ( ( ] *.qXaXaXaXGXGXGXGXGXGX2 4 4 4 2 2 o O O O 2 8 / ' ] #.*.qXfXmXMXMXmXhXsXfXhXGXGXGXGXGXGXGX",
"GXGXGXGXGXGXGXGXGXGXGXGXGXGXGXGXGXGXGXGXGXGXGXGXGXGXGXGXGXGXGXGXGXGXGXGXGXGXGXGXGXGXGXGXGXGXGXGXGXGXGXGXGXGXGXGXGXGXGXGXGXo 4 8 / ' @.7X8XqXqX8X8X7X*.%.#.] ( ( ' #.&.wXhXhXaXqX8XGXGXGXGXGXGX4 4 4 4 4 4 4 4 3 8 ( #.*.7X8XaXhXMXCXBXMXhXwXqXiXfXgXcXGXGXGXGXGX",
"GXGXGXGXGXGXGXGXGXGXGXGXGXGXGXGXGXGXGXGXGXGXGXGXGXGXGXGXGXGXGXGXGXGXGXGXGXGXGXGXGXGXGXGXGXGXGXGXGXGXGXGXGXGXGXGXGXGXGXGXGXO o 3 9 ( [ #.@.@.#.+.[ ' ( / / / / ' %.qXsXsXsXeX7X#.+.GXGXGXGXGXGX3 3 8 8 9 9 / ( [ #.&.qXwXaXsXfXmXMXMXmXhXeX&.%.7XwXjXvX4X,XGXGXGX",
"GXGXGXGXGXGXGXGXGXGXGXGXGXGXGXGXGXGXGXGXGXGXGXGXGXGXGXGXGXGXGXGXGXGXGXGXGXGXGXGXGXGXGXGXGXGXGXGXGXGXGXGXGXGXGXGXGXGXGXGXGXGXo 4 8 9 / ( ( ( ( / 9 8 8 8 8 / ' #.8XsXhXfXwX7X#.' / GXGXGXGXGX9 8 8 / ' +.#.%.7X8XqXaXaXsXsXsXsXfXfXsXaXqX*.] ' +.5X0XXX@X=X-XGXGX",
"GXGXGXGXGXGXGXGXGXGXGXGXGXGXGXGXGXGXGXGXGXGXGXGXGXGXGXGXGXGXGXGXGXGXGXGXGXGXGXGXGXGXGXGXGXGXGXGXGXGXGXGXGXGXGXGXGXGXGXGXGXGXGXGX8 8 8 8 8 9 9 8 8 3 3 8 / [ %.8XaXsXjXaX8X*.+.' ( GXGXGX] ' / 9 / ] &.qXaXsXfXhXhXsXaXwXqX8X8X8X8X7X%.#.' 9 8 / ] X.G.^.(.OX:X,X",
"GXGXGXGXGXGXGXGXGXGXGXGXGXGXGXGXGXGXGXGXGXGXGXGXGXGXGXGXGXGXGXGXGXGXGXGXGXGXGXGXGXGXGXGXGXGXGXGXGXGXGXGXGXGXGXGXGXGXGXGXGXGXGXGX4 4 4 4 4 3 3 3 3 3 9 ( ] %.8XeXeXqX8X&.%.@.%.%.*.&.GX+.' ( ( ) ' %.qXsXgXMXMXmXhXaXqX7X%.#.+.] ] ' ( / 8 4 2 3 9 K I f.l.(.OX=X",
"GXGXGXGXGXGXGXGXGXGXGXGXGXGXGXGXGXGXGXGXGXGXGXGXGXGXGXGXGXGXGXGXGXGXGXGXGXGXGXGXGXGXGXGXGXGXGXGXGXGXGXGXGXGXGXGXGXGXGXGXGXGXGXGXo o o o o o o 2 3 9 ( #.*.7X8X8X&.#.] ' [ #.8XaXaX8X%.+.' ` ' ..@.7XeXsXmXMXmXhXaX8X@.[ ( / 9 8 8 8 3 3 2 O X o 4 5 x m u.l.!._.",
"GXGXGXGXGXGXGXGXGXGXGXGXGXGXGXGXGXGXGXGXGXGXGXGXGXGXGXGXGXGXGXGXGXGXGXGXGXGXGXGXGXGXGXGXGXGXGXGXGXGXGXGXGXGXGXGXGXGXGXGXGXGXGXGXGXGXO O o 2 4 8 / [ #.%.&.&.%.#.[ ) ) o.%.7XqXqX8X=.+.+.=.5XrXiXsXfXfXhXhXhXsXqX&.+.( 9 3 3 4 2 2 o o O O X GXGXGXGXGXGXi.d.g.j.",
"GXGXGXGXGXGXGXGXGXGXGXGXGXGXGXGXGXGXGXGXGXGXGXGXGXGXGXGXGXGXGXGXGXGXGXGXGXGXGXGXGXGXGXGXGXGXGXGXGXGXGXGXGXGXGXGXGXGXGXGXGXGXGXGXGXGXGXO 2 3 8 / ] @.%.%.%.#.' ( J J _ *.tXtX9X%.+.] | =.rXjXcXcXZXZXNXgXsXeX7X#.' 9 3 4 o o O O O O X X X GXGXGXGXGXGXGXGXi.i.i.",
"GXGXGXGXGXGXGXGXGXGXGXGXGXGXGXGXGXGXGXGXGXGXGXGXGXGXGXGXGXGXGXGXGXGXGXGXGXGXGXGXGXGXGXGXGXGXGXGXGXGXGXGXGXGXGXGXGXGXGXGXGXGXGXGXGXGXGXo 4 8 9 ( ' ] ] ] ' ) 9 9 W [.|.@X#XXXX.[ } G.}.@X<X4X<X#X#XzXNXgXwX%.[ / 3 2 o O X GXGXGXGXGXGXGXGXGXGXGXGXGXGXGXGXGXGXGX",
"GXGXGXGXGXGXGXGXGXGXGXGXGXGXGXGXGXGXGXGXGXGXGXGXGXGXGXGXGXGXGXGXGXGXGXGXGXGXGXGXGXGXGXGXGXGXGXGXGXGXGXGXGXGXGXGXGXGXGXGXGXGXGXGXGXGXGX2 3 8 / / ) ) / / / J K ! [.*X-X=X].^.W J L E.+X;X>X>XOX!.^.XXlXsX6X' 9 4 O X X X GXGXGXGXGXGXGXGXGXGXGXGXGXGXGXGXGXGXGXGX",
"GXGXGXGXGXGXGXGXGXGXGXGXGXGXGXGXGXGXGXGXGXGXGXGXGXGXGXGXGXGXGXGXGXGXGXGXGXGXGXGXGXGXGXGXGXGXGXGXGXGXGXGXGXGXGXGXGXGXGXGXGXGXGXGXGXGXGXGXGX8 9 9 9 8 8 7 9 } |.*X:X%XOX(.z.h.l 5 F M._.=X;X;X'.!.^..XtX8X+.9 3 o X X GXGXGXGXGXGXGXGXGXGXGXGXGXGXGXGXGXGXGXGXGXGX",
"GXGXGXGXGXGXGXGXGXGXGXGXGXGXGXGXGXGXGXGXGXGXGXGXGXGXGXGXGXGXGXGXGXGXGXGXGXGXGXGXGXGXGXGXGXGXGXGXGXGXGXGXGXGXGXGXGXGXGXGXGXGXGXGXGXGXGXGXGXGX8 8 3 3 4 2 6 ! @X>X:X'.!.l.a.n f = g E Q._.OXOX(.l.m.F.$.#.` 8 2 O X GXGXGXGXGXGXGXGXGXGXGXGXGXGXGXGXGXGXGXGXGXGXGX",
"GXGXGXGXGXGXGXGXGXGXGXGXGXGXGXGXGXGXGXGXGXGXGXGXGXGXGXGXGXGXGXGXGXGXGXGXGXGXGXGXGXGXGXGXGXGXGXGXGXGXGXGXGXGXGXGXGXGXGXGXGXGXGXGXGXGXGXGXGXGX3 3 4 4 2 1 3 W ^.+X_.C.d.u.n m < @ , D g.z./.!.z.d.S P J ~ GXGXGXGXGXGXGXGXGXGXGXGXGXGXGXGXGXGXGXGXGXGXGXGXGXGXGXGX",
"GXGXGXGXGXGXGXGXGXGXGXGXGXGXGXGXGXGXGXGXGXGXGXGXGXGXGXGXGXGXGXGXGXGXGXGXGXGXGXGXGXGXGXGXGXGXGXGXGXGXGXGXGXGXGXGXGXGXGXGXGXGXGXGXGXGXGXGXGXGXGX2 o O O X = G M.Q.M.S z z z f > @ > D a.k.j.j.g.u.n z 6 GXGXGXGXGXGXGXGXGXGXGXGXGXGXGXGXGXGXGXGXGXGXGXGXGXGXGXGXGX",
"GXGXGXGXGXGXGXGXGXGXGXGXGXGXGXGXGXGXGXGXGXGXGXGXGXGXGXGXGXGXGXGXGXGXGXGXGXGXGXGXGXGXGXGXGXGXGXGXGXGXGXGXGXGXGXGXGXGXGXGXGXGXGXGXGXGXGXGXGXGXGXGXO X X X O k S f.D M 4 3 3 7 GXGXGXGXGXGXi.i.i.GXGXGXGXGXGXGXGXGXGXGXGXGXGXGXGXGXGXGXGXGXGXGXGXGXGXGXGXGXGXGXGXGX",
"GXGXGXGXGXGXGXGXGXGXGXGXGXGXGXGXGXGXGXGXGXGXGXGXGXGXGXGXGXGXGXGXGXGXGXGXGXGXGXGXGXGXGXGXGXGXGXGXGXGXGXGXGXGXGXGXGXGXGXGXGXGXGXGXGXGXGXGXGXGXGX( 9 3 4 1 o = k h , 2 2 2 4 q / ] GXGXGXGXGXGXGXGXGXGXGXGXGXGXGXGXGXGXGXGXGXGXGXGXGXGXGXGXGXGXGXGXGXGXGXGXGXGXGXGX",
"GXGXGXGXGXGXGXGXGXGXGXGXGXGXGXGXGXGXGXGXGXGXGXGXGXGXGXGXGXGXGXGXGXGXGXGXGXGXGXGXGXGXGXGXGXGXGXGXGXGXGXGXGXGXGXGXGXGXGXGXGXGXGXGXGXGXGXGXGX@.#.] ' / 9 8 3 3 3 3 3 4 4 4 3 9 ' +.#.GXGXGXGXGXGXGXGXGXGXGXGXGXGXGXGXGXGXGXGXGXGXGXGXGXGXGXGXGXGXGXGXGXGXGXGXGXGXGX",
"GXGXGXGXGXGXGXGXGXGXGXGXGXGXGXGXGXGXGXGXGXGXGXGXGXGXGXGXGXGXGXGXGXGXGXGXGXGXGXGXGXGXGXGXGXGXGXGXGXGXGXGXGXGXGXGXGXGXGXGXGXGXGXGXGXhXsXaXwXqX7X*.#.[ ( / / / ) / 9 8 3 8 9 ( #.*.%.+.( GXGXGXGXGXGXGXGXGXGXGXGXGXGXGXGXGXGXGXGXGXGXGXGXGXGXGXGXGXGXGXGXGXGXGXGXGX",
"GXGXGXGXGXGXGXGXGXGXGXGXGXGXGXGXGXGXGXGXGXGXGXGXGXGXGXGXGXGXGXGXGXGXGXGXGXGXGXGXGXGXGXGXGXGXGXGXGXGXGXGXGXGXGXGXGXGXGXGXGXGXGXaXaXaXwXeXqXqXqX7X%.+.' ` ( ( ' ' / 8 8 9 ' #.%.&.@.' / K GXGXGXGXGXGXGXGXGXGXGXGXGXGXGXGXGXGXGXGXGXGXGXGXGXGXGXGXGXGXGXGXGXGXGXGX",
"GXGXGXGXGXGXGXGXGXGXGXGXGXGXGXGXGXGXGXGXGXGXGXGXGXGXGXGXGXGXGXGXGXGXGXGXGXGXGXGXGXGXGXGXGXGXGXGXGXGXGXGXGXGXGXGXGXGXGX2X3XvXtXrX7X*.*.7X7X7X7X*.@.] ' ( / / ( / 8 4 3 / #.%.%.#.' 9 6 H M./.GXGXGXGXGXGXGXGXGXGXGXGXGXGXGXGXGXGXGXGXGXGXGXGXGXGXGXGXGXGXGXGXGXGX",
"GXGXGXGXGXGXGXGXGXGXGXGXGXGXGXGXGXGXGXGXGXGXGXGXGXGXGXGXGXGXGXGXGXGXGXGXGXGXGXGXGXGXGXGXGXGXGXGXGXGXGXGXGXGXGXGXGX2X1X>X<XXX0X*.+.' ' ] +.+.+.[ ( / 9 8 8 8 8 3 4 O 2 0 ' [ ' ( 9 4 = A h.~.(.].GXGXGXGXGXGXGXGXGXGXGXGXGXGXGXGXGXGXGXGXGXGXGXGXGXGXGXGXGXGXGXGX",
"GXGXGXGXGXGXGXGXGXGXGXGXGXGXGXGXGXGXGXGXGXGXGXGXGXGXGXGXGXGXGXGXGXGXGXGXGXGXGXGXGXGXGXGXGXGXGXGXGXGXGXGXGXGXGXGX2X1X;X&X|.{.=.[ / 8 8 9 9 9 8 7 3 2 o o o O O X X X X 1 3 3 3 3 2 o O f S j.!.].OXGXGXGXGXGXGXGXGXGXGXGXGXGXGXGXGXGXGXGXGXGXGXGXGXGXGXGXGXGXGXGX",
"GXGXGXGXGXGXGXGXGXGXGXGXGXGXGXGXGXGXGXGXGXGXGXGXGXGXGXGXGXGXGXGXGXGXGXGXGXGXGXGXGXGXGXGXGXGXGXGXGXGXGXGXGXGX;X:X=XOX_.Q.m.W ) 9 3 4 2 4 4 2 o O O X X X X X X X X X X X O O O O X X O < m a.l.!.(.GXGXGXGXGXGXGXGXGXGXGXGXGXGXGXGXGXGXGXGXGXGXGXGXGXGXGXGXGXGXGX",
"GXGXGXGXGXGXGXGXGXGXGXGXGXGXGXGXGXGXGXGXGXGXGXGXGXGXGXGXGXGXGXGXGXGXGXGXGXGXGXGXGXGXGXGXGXGXGXGXGXGXGXGXGX;X-X&X].!.j.a.n N 6 4 2 o O o O O X X X X X X X X X X X X X X X X X X X . O < m u.d.j.l.GXGXGXGXGXGXGXGXGXGXGXGXGXGXGXGXGXGXGXGXGXGXGXGXGXGXGXGXGXGXGX",
"GXGXGXGXGXGXGXGXGXGXGXGXGXGXGXGXGXGXGXGXGXGXGXGXGXGXGXGXGXGXGXGXGXGXGXGXGXGXGXGXGXGXGXGXGXGXGXGXGXGXGXGXGX%X%XOXGXGXGXGXGXGXGXGXGXGXGXGXGXGXGXGXGXGXGXGXGXGXGXGXGXGXGXGXGXGXGXGXGXGXGXGXGXGXp.a.a.GXGXGXGXGXGXGXGXGXGXGXGXGXGXGXGXGXGXGXGXGXGXGXGXGXGXGXGXGXGXGX",
"GXGXGXGXGXGXGXGXGXGXGXGXGXGXGXGXGXGXGXGXGXGXGXGXGXGXGXGXGXGXGXGXGXGXGXGXGXGXGXGXGXGXGXGXGXGXGXGXGXGXGXGXGXOXOXOXGXGXGXGXGXGXGXGXGXGXGXGXGXGXGXGXGXGXGXGXGXGXGXGXGXGXGXGXGXGXGXGXGXGXGXGXGXGXGXi.i.GXGXGXGXGXGXGXGXGXGXGXGXGXGXGXGXGXGXGXGXGXGXGXGXGXGXGXGXGXGXGX"
};
