/* XPM */
static const char *bos2a2[] = {
/* columns rows colors chars-per-pixel */
"128 128 249 2 ",
"   c #0C0C0C",
".  c #050505",
"X  c #141414",
"o  c #1C1C1C",
"O  c #181818",
"+  c #15120F",
"@  c #271A0B",
"#  c #241D16",
"$  c #351D0D",
"%  c #183812",
"&  c #162B10",
"*  c #2C2314",
"=  c #24211D",
"-  c #2B251B",
";  c #3C2A16",
":  c #3B2B1B",
">  c #362717",
",  c #302C11",
"<  c #1C1E21",
"1  c #1F2123",
"2  c #242424",
"3  c #2C2A25",
"4  c #252729",
"5  c #2B2B2B",
"6  c #2B2723",
"7  c #342B23",
"8  c #362E27",
"9  c #38332A",
"0  c #2C2E31",
"q  c #2F3032",
"w  c #343434",
"e  c #3B3B3B",
"r  c #393736",
"t  c #2C3529",
"y  c #201F22",
"u  c #53140D",
"i  c #690303",
"p  c #780101",
"a  c #6B1818",
"s  c #422D1B",
"d  c #472B15",
"f  c #45311D",
"g  c #4A331C",
"h  c #4A3719",
"j  c #54371B",
"k  c #522B0B",
"l  c #682B06",
"z  c #742C00",
"x  c #7A2E00",
"c  c #6A360C",
"v  c #7B3402",
"b  c #773707",
"n  c #673916",
"m  c #753B15",
"M  c #4A3622",
"N  c #483826",
"B  c #533C23",
"V  c #5B3E24",
"C  c #533C29",
"Z  c #453D37",
"A  c #54312C",
"S  c #672626",
"D  c #6A3933",
"F  c #1B4217",
"G  c #2D4B19",
"H  c #34742F",
"J  c #2F5826",
"K  c #544716",
"L  c #694618",
"P  c #784618",
"I  c #78551A",
"U  c #704912",
"Y  c #5B4327",
"T  c #49433A",
"R  c #584838",
"E  c #524E2D",
"W  c #64452A",
"Q  c #6C4A2B",
"!  c #654627",
"~  c #734D2C",
"^  c #744625",
"/  c #7A532E",
"(  c #654A36",
")  c #795433",
"_  c #6C5632",
"`  c #736B2F",
"'  c #586C22",
"]  c #3E3F41",
"[  c #3E4041",
"{  c #444444",
"}  c #4B4B4C",
"|  c #474748",
" . c #554C49",
".. c #57524B",
"X. c #545454",
"o. c #5C5C5C",
"O. c #595756",
"+. c #4D5051",
"@. c #655849",
"#. c #655B57",
"$. c #745349",
"%. c #6A6459",
"&. c #786554",
"*. c #7B6649",
"=. c #5D5F60",
"-. c #5E6161",
";. c #636464",
":. c #6B6C6C",
">. c #696767",
",. c #766C66",
"<. c #7C7469",
"1. c #6D6F70",
"2. c #737373",
"3. c #7B7B7B",
"4. c #797776",
"5. c #6E7171",
"6. c #870000",
"7. c #980202",
"8. c #8F1717",
"9. c #A60202",
"0. c #B80202",
"q. c #BF1212",
"w. c #833D05",
"e. c #813804",
"r. c #923333",
"t. c #A33030",
"y. c #C60000",
"u. c #D90000",
"i. c #CE1919",
"p. c #E40000",
"a. c #EB0505",
"s. c #F60202",
"d. c #EA1515",
"f. c #C23333",
"g. c #854107",
"h. c #8C4A0A",
"j. c #874408",
"k. c #94530E",
"l. c #9A580C",
"z. c #844C14",
"x. c #895416",
"c. c #9A5C12",
"v. c #945713",
"b. c #904F0D",
"n. c #9E6215",
"m. c #9B691B",
"M. c #8F671C",
"N. c #A46917",
"B. c #A46B1A",
"V. c #A26616",
"C. c #AB741C",
"Z. c #AC781E",
"A. c #B27B1D",
"S. c #865934",
"D. c #8D5C2C",
"F. c #876928",
"G. c #94623A",
"H. c #9C663C",
"J. c #996738",
"K. c #987937",
"L. c #906E2C",
"P. c #AA7A24",
"I. c #B17E21",
"U. c #A2693E",
"Y. c #A57835",
"T. c #905050",
"R. c #8D7451",
"E. c #A56B40",
"W. c #AA6E43",
"Q. c #B77649",
"!. c #AB7248",
"~. c #896868",
"^. c #877A67",
"/. c #847A77",
"(. c #967771",
"). c #AA6363",
"_. c #E44A4A",
"`. c #C37C4E",
"'. c #D86969",
"]. c #4D9035",
"[. c #968438",
"{. c #B48324",
"}. c #B88A28",
"|. c #BE922C",
" X c #B8902C",
".X c #AC8D35",
"XX c #BCA23C",
"oX c #C2982D",
"OX c #C49D31",
"+X c #CAA435",
"@X c #CDAB3A",
"#X c #C9A535",
"$X c #D3B43E",
"%X c #CEA835",
"&X c #9A8453",
"*X c #AF9347",
"=X c #B8A648",
"-X c #908476",
";X c #AB9575",
":X c #B4A774",
">X c #CB8354",
",X c #D28859",
"<X c #D7BA42",
"1X c #C8B24E",
"2X c #C3B777",
"3X c #DCC247",
"4X c #DCCA57",
"5X c #E3CC4B",
"6X c #E8D654",
"7X c #E5D04F",
"8X c #F1E65C",
"9X c #D0C46B",
"0X c #F2EA61",
"qX c #7B7D80",
"wX c #7D8081",
"eX c #838383",
"rX c #8C8C8C",
"tX c #888887",
"yX c #8E9191",
"uX c #939494",
"iX c #9C9C9C",
"pX c #989796",
"aX c #938E8B",
"sX c #A99690",
"dX c #B3AA95",
"fX c #9EA0A1",
"gX c #A3A3A3",
"hX c #ABACAC",
"jX c #A8A8A7",
"kX c #B3B3B3",
"lX c #BBBBBB",
"zX c #B6B8BA",
"xX c #B1B0AD",
"cX c #CBB4B1",
"vX c #C4BD93",
"bX c #C7C3BB",
"nX c #BDBEC1",
"mX c #C3C3C3",
"MX c #CBCBCB",
"NX c #C7C8C7",
"BX c #D3D3D3",
"VX c #DBDBDB",
"CX c #D2DCDC",
"ZX c #CDCFCF",
"AX c #E4E4E4",
"SX c #EBEBEB",
"DX c #BCC3C3",
"FX c None",
"GX c black",
/* pixels */
"GXGXGXGXGXGXGXGXGXGXGXGXGXGXGXGXGXGXGXGXGXGXGXGXGXGXGXGXGXGXGXGXGXGXGXGXGXGXGXGXp.p.u.u.y.9.7.r.~.aXyXeXeXeXeXrXrXuXuXuXpXgXgXjXhXhXkXkXlXlXmXMXBXBXCXCXcX'.d.s.s.s.s.s.s.a.p.p.u.u.u.p.p.p.p.p.GXGXGXGXGXGXGXGXGXGXGXGXGXGXGXGXGXGXGXGXGXGXGXGXGXGXGXGXGXGXGXGX",
"GXGXGXGXGXGXGXGXGXGXGXGXGXGXGXGXGXGXGXGXGXGXGXGXGXGXGXGXGXGXGXGXGXGXGXGXGXGXGXp.p.u.y.0.9.8.r.T.~.eXtXeXeXeXeXeXrXuXuXuXuXpXiXiXiXiXgXgXhXkXlXmXMXMXcXcX'._.d.s.s.a.p.u.y.y.y.0.0.0.0.y.y.y.y.y.y.GXGXGXGXGXGXGXGXGXGXGXGXGXGXGXGXGXGXGXGXGXGXGXGXGXGXGXGXGXGXGX",
"GXGXGXGXGXGXGXGXGXGXGXGXGXGXGXGXGXGXGXGXGXGXGXGXGXGXGXGXGXGXGXGXGXGXGXGXGXGXp.u.u.y.9.6.8.T.(.tX/.2.3.eXrXeXeXeXrXuXuXuXuXrXrXeXeXeXeXrXuXgXhXzXnXcX'._.d.d.a.p.u.y.0.9.7.6.p p p p p 6.6.7.7.9.0.0.GXGXGXGXGXGXGXGXGXGXGXGXGXGXGXGXGXGXGXGXGXGXGXGXGXGXGXGXGXGX",
"GXGXGXGXGXGXGXGXGXGXGXGXGXGXGXGXGXGXGXGXGXGXGXGXGXGXGXGXGXGXGXGXGXGXGXGXr.q.u.u.y.9.6.i a ~.fXhXfXpXiXgXgXgXpXiXgXgXgXiXpXuXuXrXeX3.3.3.3.rXuXsXsX'._.d.p.u.y.0.9.7.8.r.r.D D D S S S S S S a 8.7.7.7.7.GXGXGXGXGXGXGXGXGXGXGXGXGXGXGXGXGXGXGXGXGXGXGXGXGXGXGXGX",
"GXGXGXGXGXGXGXGXGXGXGXGXGXGXGXGXGXGXGXGXGXGXGXGXGXGXGXGXGXGXGXGX;.;.-.o.$.t.y.0.7.6.i i S ~.xXNXMXBXBXBXMXmXlXlXmXmXlXhXjXjXgXgXpXaX/.5.:.2.4.).f.i.a.u.y.0.7.6.p a D ~.tXtX/.4.>.#.O....... .A a p p 6.6.GXGXGXGXGXGXGXGXGXGXGXGXGXGXGXGXGXGXGXGXGXGXGXGXGXGXGX",
"GXGXGXGXGXGXGXGXGXGXGXGXGXGXGXGXGXGXGXGXGXGXGXGXGXGXGXGXGXGXGX>.;.;.:.2.~.t.0.9.6.i S $.~.sXmXBXVXVXVXVXBXmXlXlXlXlXlXkXkXkXkXhXhXgXpXrX/.T.t.t.q.y.y.0.7.6.i a S $.,.eXrXeX3.1.=.X.+.} } | { Z A d S S S D ..GXGXGXGXGXGXGXGXGXGXGXGXGXGXGXGXGXGXGXGXGXGXGXGXGX",
"GXGXGXGXGXGXGXGXGXGXGXGXGXGXGXGXGXGXGXGXGXGXGXGXGXGXGX;.>.:.2.:.;.;.3.yX(.T.9.7.p a T.sXzXMXBXVXVXVXBXMXmXlXkXkXhXhXkXkXkXlXlXlXlXlXlXkXsX).i.q.0.9.7.p i i u S #.4.3.3.2.>.o.X.} { { e e e e e Z { } ..X.O.o.;.;.;.>.GXGXGXGXGXGXGXGXGXGXGXGXGXGXGXGXGXGXGXGXGX",
"GXGXGXGXGXGXGXGXGXGXGXGXGXGXGXGXGXGXGXGXGXGXGXGXGX;.:.2.2.:.:.2.3.eXyXpX(.t.7.8.r.~.aXxXmXZXBXVXVXBXBXMXmXmXmXlXlXkXkXkXkXmXMXMXMXmXmXmXcXsX).t.8.p i i u S D #.:.2.:.;.X.} { | } X.} { { e [ | O.;.:.5.2.2.2.3.3.3.3.eXeX3.:.GXGXGXGXGXGXGXGXGXGXGXGXGXGXGXGXGX",
"GXGXGXGXGXGXGXGXGXGXGXGXGXGXGXGXGXGXGXGXGXGXGXGX;.>.2.3.3.2.:.3.rXiXiXuX(.T.8.t.(.jXkXkXlXmXMXBXBXMXmXlXlXlXlXlXlXlXkXhXkXmXBXBXMXMXMXMXmXkXpX~.S i u u S  .>.:.>.o.X.| { e { | O.;.O.} { { | O.2.eXrXuXuXuXuXuXpXpXuXuXrX3.2.2.GXGXGXGXGXGXGXGXGXGXGXGXGXGXGXGX",
"GXGXGXGXGXGXGXGXGXGXGXGXGXGXGXGXGXGXGXGXGXGXGXGX2.2.2.2.3.3.eXrXiXgXuXeX/.(.(.(.sXjXkXlXlXkXkXkXlXlXkXgXiXuXuXuXpXiXgXgXhXkXlXmXMXMXMXmXlXhXpX,.S u u A  .O.o.o.X.| e e e } o.>.:.:.O.| { | O.>.eXuXpXgXgXjXjXkXkXlXkXjXiXuXrX3.2.;.GXGXGXGXGXGXGXGXGXGXGXGXGXGX",
"GXGXGXGXGXGXGXGXGXGXGXGXGXGXGXGXGXGXGXGXGXGXGXGX2.2.:.>.2.eXuXiXgXiXrX2.2.rXiXgXiXiXjXlXlXkXjXjXhXhXgXuXrXeXeXeXrXuXgXhXkXkXkXlXmXMXmXlXkXhXiX~.D u A ..o.O.} { e e e { X.>.eXeX3.1.X.{ e | o.2.eXuXgXjXhXkXlXmXBXBXBXmXlXhXiXrX2.>.;.GXGXGXGXGXGXGXGXGXGXGXGXGX",
"GXGXGXGXGXGXGXGXGXGXGXGXGXGXGXGXGXGXGXGXGXGXO.o.;.>.=.O.;.eXpXiXuXrX2.;.;.3.yXuXrXrXfXkXmXmXlXlXkXhXgXuXrXrXuXiXjXkXmXMXMXMXmXlXkXkXhXhXkXlXkXuX#.Z Z +.X.| { e r e } ;.3.rXpXuX3.;.} r w Z X.>.eXuXgXjXhXkXlXMXVXSXSXAXBXmXjXuX3.2.:.GXGXGXGXGXGXGXGXGXGXGXGXGX",
"GXGXGXGXGXGXGXGXGXGXGXGXGXGXGXGXGXGXGXGXGXX.X.O.o.o.O.O.>.tXiXpXeX2.:.2.3.eXrXrXeXeXpXkXmXMXMXmXlXhXgXpXiXjXkXlXmXMXBXVXBXMXmXkXgXpXiXjXkXmXNXjX4.X.| | { { e e e { ;.rXgXhXjXuX2.O.{ w 5 r | o.2.rXpXgXjXkXlXMXVXAXSXSXVXmXhXpXrX3.2.GXGXGXGXGXGXGXGXGXGXGXGXGX",
"GXGXGXGXGXGXGXGXGXGXGXGXGXGXGXGXGXGXGXGXGXO.X.X.X.X.;.2.eXuXiXrX>.o.3.gXkXhXgXuXrXrXiXkXmXMXBXmXkXgXgXkXlXMXBXVXBXMXMXMXmXkXjXpXrXrXpXkXmXMXMXhXeX;.X.| { e e T | o.eXjXlXlXkXuX>.| r 5 4 w e } ;.2.eXuXgXjXkXmXMXBXBXBXMXlXjXiXrX3.:.O.} GXGXGXGXGXGXGXGXGXGXGX",
"GXGXGXGXGXGXGXGXGXGXGXGXGXGXGXGXGXGXGXGXGXX.X.X.} X.;.3.rXuXuX3.X.} 2.gXlXkXgXiXpXiXjXkXmXmXmXlXgXgXhXmXBXVXVXBXnXkXkXkXhXgXiXuXeXrXpXkXlXmXkXiX3.=.} { e r r { X.2.uXlXMXmXhXrXo.e 4 2 4 5 e { X.;.2.eXrXpXgXhXkXlXlXlXkXhXgXuXrX3.>.O.X.GXGXGXGXGXGXGXGXGXGXGX",
"GXGXGXGXGXGXGXGXGXGXGXGXGXGXGXGXGXGXGX{ { } } } { | o.2.eXrXrX2.| e O.eXpXiXgXgXjXhXkXkXkXkXhXgXiXgXlXBXVXVXMXkXuX3.eXuXpXpXpXuXrXrXiXhXkXgXuX3.;.| e r q 4 5 { ;.eXgXmXMXlXgX3.} 5 2 o 2 5 e { | X.O.;.2.eXrXuXpXiXgXgXgXpXuXeX3.2.;.o.O.GXGXGXGXGXGXGXGXGXGXGX",
"GXGXGXGXGXGXGXGXGXGXGXGXGXGXGXGXGXGXGX{ { { { { { } ;.3.eXrXeX;.e 4 e o.3.uXgXhXkXkXkXkXjXiXuXuXgXhXmXVXVXmXjXeXo.| | O.>.3.rXuXuXuXuXuXrXeX2.;.X.{ r 5 4 2 4 { ;.rXhXMXMXlXiX2.{ 2 O O o 4 w e e { } X.o.>.2.3.eXeXrXrXrXtXeX3.:.;.o.O.X.X.GXGXGXGXGXGXGXGXGXGX",
"GXGXGXGXGXGXGXGXGXGXGXGXGXGXGXGXGXGXGX{ { e e { { X.;.3.eXeX3.O.5 X o e o.rXhXlXlXkXhXgXpXrXeXuXhXmXBXVXMXgX3.X.5 X X O r o.eXuXuXuXeX2.>.;.o.O.} { e 5 2 2 2 e ;.rXhXMXBXlXiX2.{ 2 o o o 2 4 5 r e { { } X.o.;.:.2.2.3.3.2.2.>.;.O.X.X.} | { { GXGXGXGXGXGXGXGX",
"GXGXGXGXGXGXGXGXGXGXGXGXGXGXGXGXGXGXGX} | e r e { X.;.2.3.3.2.} 2     2 | rXlXMXmXkXhXgXiXrXeXpXlXMXBXMXhX3.{ 2 X . .   2 X.3.rXrXeX3.>.>.2.3.2.>.O.| e 4 2 2 e O.3.gXmXMXmXgXeXX.w 2 o o o 2 4 5 w r r e e { } X.O.;.;.>.>.>.;.O.X.} | | { { { GXGXGXGXGXGXGXGX",
"GXGXGXGXGXGXGXGXGXGXGXGXGXGXGXGXGXGXGXo.X.{ r e { X.o.>.:.:.;.{ o . . X { rXmXBXmXkXhXgXiXuXrXgXmXBXMXkXrX} o   .     O w O.3.eX3.2.2.2.3.uXgXiXrX2.o.{ w 2 2 w } 2.uXlXMXmXkXuX>.| r 5 4 4 5 5 w r r e e e e e { { } X.O.o.;.o.X.| { { { e e e GXGXGXGXGXGXGXGX",
"GXGXGXGXGXGXGXGXGXGXGXGXGXGXGXGXGXGXGX3.2.o.| { { | X.o.;.O.X.e 2     X r 3.kXmXkXgXiXpXuXrXrXiXlXmXkXrX;.w   . .   o w } 2.rXrX2.>.3.uXgXkXlXkXiXeX>.} e 2 2 4 { o.3.gXzXmXmXkXuX2.;.o.X.X.X.O.;.;.:.:.>.;.O.} { { { | | } X.} { { { e e e r r GXGXGXGXGXGXGXGX",
"GXGXGXGXGXGXGXGXGXGXGXGXGXGXGXGXGXGXGXrXeX2.o.} { e { X.X.} { e 4 2 2 4 { 3.hXlXhXgXiXuXrXeXeXpXkXlXuX;.e 2     X 2 e X.2.uXgXuX:.;.eXjXmXmXmXkXgXrX:.X.e 2 o 2 w { ;.eXiXkXmXlXhXpXrXeX3.3.3.eXuXiXgXjXgXuXeX2.o.X.| | { { { { e e e e e w 5 5 GXGXGXGXGXGXGXGX",
"GXGXGXGXGXGXGXGXGXGXGXGXGXGXGXGXGXGXGX3.3.3.2.o.{ w e { | { e e e { X.2.rXkXMXBXMXlXkXjXiXrXeXrXgXjXeXX.5 o X O 4 { ;.rXgXhXhXuX2.;.eXkXMXmXlXjXpXeX>.} r 2 O O 2 w { O.2.rXiXgXgXiXpXuXuXrXuXiXhXlXmXMXMXmXlXjXuXeX:.o.} { e r r w r e r w 4 4 GXGXGXGXGXGXGXGX",
"GXGXGXGXGXGXGXGXGXGXGXGXGXGXGXGXGXGXGXX.o.:.2.;.e 2 5 e { e e { X.:.rXhXMXVXAXAXVXBXmXkXgXrXeXrXiXpX2.| w 4 4 e X.:.uXkXmXlXhXuX2.>.rXkXmXlXjXpXrX2.o.{ w 2 O O O 2 5 e { O.>.2.3.eXeXeXtXrXrXpXjXlXmXMXBXBXBXMXlXjXuX3.;.X.{ e w 5 w w w 5 4 2 GXGXGXGXGXGXGXGX",
"GXGXGXGXGXGXGXGXGXGXGXGXGXGXGXGXGXGXGXw e } X.| w 2 4 r e e e O.3.fXlXMXVXAXSXSXAXVXmXjXpXuXrXuXpXuX2.X.{ { X.>.eXgXlXBXMXkXuX3.>.>.rXkXlXhXpXeX2.;.| r 4 2 2 o O O O o 2 5 r e { } X.O.;.;.:.2.eXrXpXgXhXkXlXlXlXkXjXiXrX2.O.| e 5 5 5 4 4 2 2 GXGXGXGXGXGXGXGX",
"GXGXGXGXGXGXGXGXGXGXGXGXGXGXGXGXGXGXGX2 4 r e r 2 o 2 w r w e X.3.gXmXBXAXSXSXAXBXmXgXeX3.eXuXiXiXpXeX:.;.:.3.uXhXmXMXMXlXpX3.>.>.2.rXgXhXpXeX2.;.X.e 4 2 2 2 2 # # # o o o # = 3 8 9 r Z { { } X.o.>.2.eXrXuXpXgXgXjXgXpXeX:.O.{ w 4 2 2 2 2 2 GXGXGXGXGXGXGXGX",
"GXGXGXGXGXGXGXGXGXGXGXGXGXGXGXGXGXGXGXGXGX2 2 2 o o 2 5 q 5 5 e X.3.gXMXAXSXAXBXkXrX;.| | >.rXgXhXhXiXrXrXuXiXkXmXMXmXkXpX2.O.O.>.3.rXuXuXeX:.o.} ] w 2 o o o - : g f : : > > : 8 8 7 > - 6 2 4 4 5 e { } O.;.:.2.eXrXuXrXeX2.;.X.e 5 2 o o GXGXGXGXGXGXGXGXGXGX",
"GXGXGXGXGXGXGXGXGXGXGXGXGXGXGXGXGXGXGXGXGXGXO o # = 6 4 4 4 2 5 e X.rXlXVXAXVXlXrX;.e 4 r ;.uXhXkXkXkXgXgXiXiXgXjXgXpXeX2.O.} X.:.3.3.3.2.;.X.| e 5 2 o o # > N W / Q V C V ! W W W B ; > > - - # # = 3 8 w e { } O.;.2.2.2.:.;.X.e 5 2 o GXGXGXGXGXGXGXGXGXGXGX",
"GXGXGXGXGXGXGXGXGXGXGXGXGXGXGXGXGXGXGXGXGXGXGXGX> : 7 3 4 2 2 2 2 e 2.kXBXVXBXjX2.{ 5 4 e 2.gXkXlXkXkXhXgXuXeX2.>.;.O.X.X.} X.o.:.2.>.O.+.| e w 2 O X X # : V / G.H.S.~ Q S.G.U.E.G.) Y h j B g ; > * * * # o 2 2 w e | X.O.O.X.{ e 5 2 2 GXGXGXGXGXGXGXGXGXGXGX",
"GXGXGXGXGXGXGXGXGXGXGXGXGXGXGXGXGXGXGXGXGXGXGXGXs : 7 6 2 2 2 o o w >.jXMXBXmXpX;.e r { o.rXhXlXkXjXpXrX3.:.;.O.X.X.X.O.o.;.;.;.;.o.X.{ r 5 4 2 O X X o 6 M Q S.W.Q.H.S./ H.Q.Q.Q.W.G./ Q ~ ~ W g ; ; ; > * * = = = 3 5 r e { { e r 5 4 GXGXGXGXGXGXGXGXGXGXGXGX",
"GXGXGXGXGXGXGXGXGXGXGXGXGXGXGXGXGXGXGXGXGXGXGXGXs : : 6 2 o o o 2 e 2.gXmXmXkXuXo.{ } :.eXiXhXhXgXrX2.o.X.} +.X.o.;.:.3.3.3.2.;.X.{ e w 4 2 2 o o o 2 4 9 C ~ G.Q.`.E.S.S.W.>X>XQ.W.H.G.S.S.S.~ V f f M M M M f > * = = 2 4 w w w w 5 GXGXGXGXGXGXGXGXGXGXGXGXGX",
"GXGXGXGXGXGXGXGXGXGXGXGXGXGXGXGXGXGXGXGXGXGXGXGX; ; : 7 7 = 2 w } >.uXkXmXmXlXgXeX:.3.rXiXgXiXuX3.:.;.;.;.2.3.3.eXeXeX3.2.:.;.X.{ r w r r e e { { { Z Z C Q S.H.W.Q.E.G.G.Q.,X>XQ.H.H.U.H.G.S.~ V M C W W Y B f ; * > > : 7 5 5 5 GXGXGXGXGXGXGXGXGXGXGXGXGXGXGX",
"GXGXGXGXGXGXGXGXGXGXGXGXGXGXGXGXGXGXGXGXGXGXGXGX> > s M M > 3 { 2.pXkXmXMXMXMXlXjXiXgXgXgXuXeX2.;.o.>.eXuXgXhXjXgXuXeX2.;.X.| { e e e | X.o.;.>.>.;.@.R ! / G.U.E.W.U.H.E.Q.>X`.E.G.H.W.W.G.S.Q C C W / / Q B f ; > f j Y GXGXGXGXGXGXGXGXGXGXGXGXGXGXGXGXGXGXGX",
"GXGXGXGXGXGXGXGXGXGXGXGXGXGXGXGXGXGXGXGXGXGXGXGX@ * ; B B : 3 | 3.jXmXMXBXBXMXmXlXhXgXuXeX2.;.;.5.eXuXjXkXkXjXpXeX2.;.X.} | } X.X.o.;.2.2.2.2.:.;.#...Y Q S.U.U.G.G.H.W.Q.`.>XQ.E.G.E.Q.!.G.~ Q W W ~ S.S.W M ; > > g V ! GXGXGXGXGXGXGXGXGXGXGXGXGXGXGXGXGXGXGX",
"GXGXGXGXGXGXGXGXGXGXGXGXGXGXGXGXGXGXGXGXGXGXGXGX@ @ ; B B : 3 | 3.gXmXBXBXBXMXmXlXjXuX3.>.O.X.>.rXjXlXmXlXgXrX3.o.} { e e | X.;.2.3.3.wX3.2.;.O.+.| T Y ~ G.W.U.S.S.H.`.>X>XQ.W.E.U.W.Q.W.S.Q W Q / S.S.~ V s > > ; g V ! GXGXGXGXGXGXGXGXGXGXGXGXGXGXGXGXGXGXGX",
"GXGXGXGXGXGXGXGXGXGXGXGXGXGXGXGXGXGXGXGXGXGXGXGXGXGXs M M : 7  .4.gXlXMXBXBXMXlXhXuX3.o.O.;.3.uXhXlXlXhXpXeX:.X.{ r r e { X.o.;.;.;.o.X.} { e w 4 3 9 V ~ G.W.U.S.S.E.>X,X`.W.W.Q.Q.Q.E.G.~ Y W / S.S.Q V g ; ; g j j GXGXGXGXGXGXGXGXGXGXGXGXGXGXGXGXGXGXGXGXGX",
"GXGXGXGXGXGXGXGXGXGXGXGXGXGXGXGXGXGXGXGXGXGXGXGXGXGXGXs s s f R <.uXjXlXmXNXmXkXuX3.;.X.O.3.pXhXkXkXgXrX2.o.} { { { } O.;.2.2.2.>.o.} e 5 2 o O X o : V / G.W.E.G.S.!.,X,XQ.U.E.Q.`.W.G.) Q Y Q S.G.) Y M ; > s j Y Y GXGXGXGXGXGXGXGXGXGXGXGXGXGXGXGXGXGXGXGXGX",
"GXGXGXGXGXGXGXGXGXGXGXGXGXGXGXGXGXGXGXGXGXGXGXGXGXGXGX> > d B ( %.3.uXjXkXkXhXuX2.o.O.;.2.rXgXjXgXuXwX>.X.e r { o.2.eXuXiXgXgXiXrX3.;.| r 2 o O o 6 M W / G.E.E.H.U.Q.,X,XQ.U.W.`.`.W.S.~ Q Q / S.S.~ B s > ; s M B B GXGXGXGXGXGXGXGXGXGXGXGXGXGXGXGXGXGXGXGXGX",
"GXGXGXGXGXGXGXGXGXGXGXGXGXGXGXGXGXGXGXGXGXGXGXGXGXGXGX@ $ g Y R @.>.3.rXpXiXpX3.O.| X.2.eXuXpXuXeX:.O.{ e 5 5 { >.rXiXhXkXlXkXjXuXeX;.} e 4 2 2 2 8 N ! / S.G.H.U.W.Q.>X>XQ.W.W.Q.Q.H./ Q ~ / S.S.) ! g ; s g g M M GXGXGXGXGXGXGXGXGXGXGXGXGXGXGXGXGXGXGXGXGXGX",
"GXGXGXGXGXGXGXGXGXGXGXGXGXGXGXGXGXGXGXGXGXGXGXGXGXGXGXGXGXg B T T +.=.5.3.eX3.>.| e X.3.rXeX3.2.;.X.e 5 2 4 r { ;.3.rXiXgXgXgXuXeX:.O.{ e 5 4 4 w r T W ~ ~ ~ S.H.!.Q.Q.Q.Q.Q.W.E.G.) Q Q ) S.) Q Y M ; s j V ! GXGXGXGXGXGXGXGXGXGXGXGXGXGXGXGXGXGXGXGXGXGXGXGX",
"GXGXGXGXGXGXGXGXGXGXGXGXGXGXGXGXGXGXGXGXGXGXGXGXGXGXGXGXGXg f N Z T } X.o.;.;.X.{ e } >.2.>.O.} { r 4 2 2 5 e } o.:.3.rXuXrXeX3.>.O.| e 5 2 2 2 5 r C Y ! ! ! / G.E.U.H.H.W.Q.W.G.) Q W Q / S.~ V M s s g j V V GXGXGXGXGXGXGXGXGXGXGXGXGXGXGXGXGXGXGXGXGXGXGXGX",
"GXGXGXGXGXGXGXGXGXGXGXGXGXGXGXGXGXGXGXGXGXGXGXGXGXGXGXGXGX> > s M N Z Z { | } | e e { } +.{ e w 5 4 4 5 w e | X.;.:.2.wXeX3.2.>.O.| e 5 2 o O o 2 3 N B ! ! W ~ S.S.S./ / G.H.G.) W Y Y W Q Q V g ; s j B g g s GXGXGXGXGXGXGXGXGXGXGXGXGXGXGXGXGXGXGXGXGXGXGXGX",
"GXGXGXGXGXGXGXGXGXGXGXGXGXGXGXGXGXGXGXGXGXGXGXGXGXGXGXGXGX@ $ > f M N 8 9 r e e r w r e e w 5 w e { | } O.;.2.eXrXuXpXgXgXiXuXeX2.;.} Z w 4 2 o O # : B Y Y Y W Q ~ Q ! ! ) ) ) Y B M j j j j d ; > g j Y j s GXGXGXGXGXGXGXGXGXGXGXGXGXGXGXGXGXGXGXGXGXGXGXGXGX",
"GXGXGXGXGXGXGXGXGXGXGXGXGXGXGXGXGXGXGXGXGXGXGXGXGXGXGXGXGX@ @ * f M f ; > 7 q 5 4 4 4 4 4 4 w e X.;.:.2.3.rXiXjXkXlXmXmXMXmXcXhXuXeX:.O.| e q 2 o o > B Y Y B B B B B B Y Y Y C M s f f f f s s s M M V Y GXGXGXGXGXGXGXGXGXGXGXGXGXGXGXGXGXGXGXGXGXGXGXGXGXGXGX",
"GXGXGXGXGXGXGXGXGXGXGXGXGXGXGXGXGXGXGXGXGXGXGXGXGXGXGXGXGXGXGX* ; ; ; > > > - - = 2 2 2 4 4 5 r { X.O.o.>.2.eXrXuXpXiXiXgXgXgXuXeX2.;.X.| e 5 5 w r N M g g f s s s s s s ; : : 7 9 Z  .#.,.<.<.<.,.%.@.R T GXGXGXGXGXGXGXGXGXGXGXGXGXGXGXGXGXGXGXGXGXGXGXGXGXGX",
"GXGXGXGXGXGXGXGXGXGXGXGXGXGXGXGXGXGXGXGXGXGXGXGXGXGXGXGXGXGXGXGX* * * > > $ $ @ # 2 4 q w 5 4 4 5 w r e { } O.o.o.o.;.;.>.>.:.;.O.} | { e w 5 r | X. .N M M N N N N M s : > > : 9 { O.4.uXjXlXlXkXgXeX;.+.e w 5 GXGXGXGXGXGXGXGXGXGXGXGXGXGXGXGXGXGXGXGXGXGXGXGX",
"GXGXGXGXGXGXGXGXGXGXGXGXGXGXGXGXGXGXGXGXGXGXGXGXGXGXGXGXGXGXGXGX@ @ @ * * @ @ * 8 e { } | e 4 2 2 4 w r e { { { { { { { | | } { e w w q w w r e | X.O.#.%.,./.-X-X-X/.<.%...T | X.;.eXgXzXnXzXhXuX3.;.} e 5 2 1 GXGXGXGXGXGXGXGXGXGXGXGXGXGXGXGXGXGXGXGXGXGXGXGX",
"GXGXGXGXGXGXGXGXGXGXGXGXGXGXGXGXGXGXGXGXGXGXGXGXGXGXGXGXGXGXGXGX- * * * @ @ @ - e } o.>.;.| w 5 w e { | } X.X.X.X.X.X.O.O.X.X.| e w 4 4 5 e { } X.o.>.3.rXiXjXhXkXhXgXpXeX5.;.;.3.uXhXmXNXcXdXaX^.%...T 9 7 - - GXGXGXGXGXGXGXGXGXGXGXGXGXGXGXGXGXGXGXGXGXGXGXGX",
"GXGXGXGXGXGXGXGXGXGXGXGXGXGXGXGXGXGXGXGXGXGXGXGXGXGXGXGXGXGXGXGXO...Z - @ @ @ > r } ;.2.:.O.| | O.;.:.2.3.rXuXpXiXgXhXkXkXjXiXtX1.O.| e e | o.>.4.eXrXrXuXuXuXrXeX3.:.;.o.O.;.3.gXlXnXzXxXvX9X9X1X=X*X[.F.I U L GXGXGXGXGXGXGXGXGXGXGXGXGXGXGXGXGXGXGXGXGXGXGXGX",
"GXGXGXGXGXGXGXGXGXGXGXGXGXGXGXGXGXGXGXGXGXGXGXGXGXGXGXGXGXGXGXGX3.:...9 # @ * > 9 T X.;.;.O.X.o.2.eXtXrXpXjXlXmXMXZXVXVXVXMXlXjXaX^.%.@.@.%.<.-XpXgXgXgXiXuXrX3.:.o.} { { O.2.pXlXMXbXdXdX9X6X6X6X7X<X+X}.C.c.k.GXGXGXGXGXGXGXGXGXGXGXGXGXGXGXGXGXGXGXGXGXGXGXGX",
"GXGXGXGXGXGXGXGXGXGXGXGXGXGXGXGXGXGXGXGXGXGXGXGXGXGXGXGXGXGXGXGX:.;.X.{ r 9 8 3 6 4 w e { { } O.;.2.3.eXrXiXjXkXkXlXlXkXhXfXuX-X&XY..X*X*X=X=X:XdXjXzXlXlXzXhXiXrX3.o.} O.eXkXmXmXbXvX2X1X4X6X6X7X3X@X|.Z.n.k.h.GXGXGXGXGXGXGXGXGXGXGXGXGXGXGXGXGXGXGXGXGXGXGXGX",
"GXGXGXGXGXGXGXGXGXGXGXGXGXGXGXGXGXGXGXGXGXGXGXGXGXGXGXGXGXGXGXGX;.o.X.| ] r 4 2 o O o 2 5 r e | O.;.:.2.3.eXrXuXuXuXuXeX3.,.&.R.L.{.OX<X5X5X5X9X2XdXdXdXdXdXsXsXpXrX2.;.2.gXMXMXkXiX:X1X3X5X7X5X3X@XOXI.V.k.g.e.GXGXGXGXGXGXGXGXGXGXGXGXGXGXGXGXGXGXGXGXGXGXGXGX",
"GXGXGXGXGXGXGXGXGXGXGXGXGXGXGXGXGXGXGXGXGXGXGXGXGXGXGXGXGXGXGXGXO.X.} { r 2 O O O O O o 2 2 4 r { X.O.o.;.;.>.:.1.:.>.o...W m z.n.{.#X3X6X0X0X0X4X1X*XY.U.D.D.R.-XaXtX3.rXhXmXkXrX<.&X1X<X3X3X<X@XOX{.B.v.j.v x GXGXGXGXGXGXGXGXGXGXGXGXGXGXGXGXGXGXGXGXGXGXGXGX",
"GXGXGXGXGXGXGXGXGXGXGXGXGXGXGXGXGXGXGXGXGXGXGXGXGXGXGXGXGXGXGXO.X.| { r 4 2 O O 2 2 2 2 2 2 2 4 r e { { { { { { | { [ e Z Y ~ D.n.C.oX<X7X8X8X8X7X$XoXC.l.j.w.^ &.3.tXuXgXkXkXiX^.*.[.XX$X$X$X+X}.P.V.k.j.v x z GXGXGXGXGXGXGXGXGXGXGXGXGXGXGXGXGXGXGXGXGXGXGXGX",
"GXGXGXGXGXGXGXGXGXGXGXGXGXGXGXGXGXGXGXGXGXGXGXGXGXGXGXGXGXGX;.O.| e r 5 4 2 2 4 w r w 5 4 2 2 2 2 4 4 5 5 5 5 5 5 4 2 2 r o./.(.J.B.A.oX@X<X3X3X3X<XOX{.V.h.v n R o.wXgXkXhXiX-X&XP.{.|.+X+XOX{.m.h.w.v v x z z GXGXGXGXGXGXGXGXGXGXGXGXGXGXGXGXGXGXGXGXGXGXGXGX",
"GXGXGXGXGXGXGXGXGXGXGXGXGXGXGXGXGXGXGXGXGXGXGXGXGXGXGXGX;.O.X.| e r r r r e e { { { e w 4 2 o o o 2 2 4 r { X.O.O.X.| { X.4.iXdX;X;X*XP.C.{.|.OX+XOX}.C.v.w.x n R #.tXhXkXuX2.R.K.I.{.}.}.{.C.n.h.v x z z z z GXGXGXGXGXGXGXGXGXGXGXGXGXGXGXGXGXGXGXGXGXGXGXGXGX",
"GXGXGXGXGXGXGXGXGXGXGXGXGXGXGXGXGXGXGXGXGXGXGXGX2.2.2.:.;.X.{ e e e { | +.X.X.X.} | { r 5 2 2 2 2 2 5 r | :.rXiXgXiXrX3.3.uXjXcXZXbX:XJ.k.k.n.B.C.Z.N.k.g.v b ^ &.3.uXgXiX4.O._ L.P.A.A.C.c.h.w.v z z z z GXGXGXGXGXGXGXGXGXGXGXGXGXGXGXGXGXGXGXGXGXGXGXGXGXGXGX",
"GXGXGXGXGXGXGXGXGXGXGXGXGXGXGXGXGXGXGXGXGXGXGX2.3.3.2.;.X.} | X.o.;.;.;.;.o.X.X.| | | | { { { e r r r { O.eXgXlXmXmXkXpXuXpXgXzXZXBXcXsX!.D.j.j.k.c.k.j.g.m Q &.-XuXuXrXqX1.%.$.D.c.l.k.z.P n j d d k l GXGXGXGXGXGXGXGXGXGXGXGXGXGXGXGXGXGXGXGXGXGXGXGXGXGXGXGX",
"GXGXGXGXGXGXGXGXGXGXGXGXGXGXGXGXGXGXGXGXGX2.2.3.eX3.>.X.| X.o.2.eXuXrX3.:.;.X.} | | X.o.;.:.2.;.X.{ { | o.eXhXmXBXBXmXkXgXpXpXgXkXmXMXmXdXR.P b e.g.g.g.P _ %.3.iXgXrX:.;.5.3.^.S.z.w.b c j 9 w 5 6 6 GXGXGXGXGXGXGXGXGXGXGXGXGXGXGXGXGXGXGXGXGXGXGXGXGXGXGXGXGX",
"GXGXGXGXGXGXGXGXGXGXGXGXGXGXGXGXGXGXGXGX2.3.eX2.;.O.X.} X.>.eXpXjXhXuX3.:.>.>.;.X.X.o.:.eXuXgXrX:.X.| | o.eXjXmXBXVXBXmXkXiXrXuXiXjXkXzXjX-XR.) m v x v P *.4.tXyXrX3.>.:.eXuXaX^.*.( V M 8 5 5 0 w C I GXGXGXGXGXGXGXGXGXGXGXGXGXGXGXGXGXGXGXGXGXGXGXGXGXGXGXGX",
"GXGXGXGXGXGXGXGXGXGXGXGXGXGXGXGXGXGX2.2.2.3.3.>.} e { O.:.rXgXkXzXkXuX2.:.3.rXeX:.;.;.2.rXgXkXgX3.o.} | X.3.gXlXMXVXVXMXlXiXeXwXeXrXuXpXuXrX/.&.^ c l c ^ &./.qX2.:.>.:.4.rXiXuXeX>.X.{ w 4 4 5 w Z Q x.n.GXGXGXGXGXGXGXGXGXGXGXGXGXGXGXGXGXGXGXGXGXGXGXGXGXGXGX",
"GXGXGXGXGXGXGXGXGXGXGXGXGXGXGXGXGX2.3.eX3.;.X.{ { { o.3.uXjXkXkXgXuXeX2.3.pXkXjXrX2.>.;.2.rXpXuX3.;.} { } :.uXhXmXBXBXBXmXfXeX2.:.:.2.3.3.3.2.#. .C C ( @.#.;.=.X.X.;.:.3.3.3.2.=.} e 5 4 4 q w w Z ~ m.C.GXGXGXGXGXGXGXGXGXGXGXGXGXGXGXGXGXGXGXGXGXGXGXGXGXGXGX",
"GXGXGXGXGXGXGXGXGXGXGXGXGXGXGXGX2.2.3.3.:.+.e r { o.3.gXkXlXlXjXrX3.:.;.2.iXlXkXuX3.;.o.;.3.rXrXeX:.X.{ { o.3.uXhXlXMXMXmXiX3.;.O.X.O.;.;.;.o.X.| { | X.X.} | { { { X.;.>.;.O.| e w 2 2 2 r { { ] T ( F.m.P.GXGXGXGXGXGXGXGXGXGXGXGXGXGXGXGXGXGXGXGXGXGXGXGXGXGX",
"GXGXGXGXGXGXGXGXGXGXGXGXGXGX:.2.eXeX5.o.| e r { ;.3.fXlXmXmXkXpX3.;.X.X.;.eXpXrX2.o.X.O.>.rXgXgXpXeX;.| e | O.2.rXgXlXmXkXpX3.o.} { { } +.X.} | { ] [ { e r w r e { { | { e r 5 2 2 2 4 e X.;.;.O.+.T N Y F. XOXGXGXGXGXGXGXGXGXGXGXGXGXGXGXGXGXGXGXGXGXGXGXGXGX",
"GXGXGXGXGXGXGXGXGXGXGXGXGX2.3.3.3.2.%.R N Z { O.3.iXzXMXMXlXgXrX:.X.| { | ;.2.:.O.} X.O.>.eXuXpXuXeX>.} { e { O.2.rXgXhXgXrX2.O.{ r w e e e e e e r w w 5 2 2 4 w r r 5 4 2 2 2 o 2 4 e } ;.2.3.2.;.| w N F. X+XGXGXGXGXGXGXGXGXGXGXGXGXGXGXGXGXGXGXGXGXGXGXGXGX",
"GXGXGXGXGXGXGXGXGXGXGX:.2.eXrXeX:.O.( P L Y ..1.pXkXmXMXmXhXuX3.;.X.{ e e { X.X.} X.X.o.;.>.>.>.>.;.o.O.} { { | o.2.eXrXrX3.>.X.e 4 2 4 5 5 5 5 4 2 2 2 2 o o o 2 2 2 o o o o o o 2 r | o.2.eXrXtX3.=.{ R F. X+XGXGXGXGXGXGXGXGXGXGXGXGXGXGXGXGXGXGXGXGXGXGXGXGX",
"GXGXGXGXGXGXGXGXGXGXGXeXeXeXeX4.&._ I j.z.) %.eXgXlXmXlXhXpXeX1.o.} e r w r e | O.;.;.;.o.X.} } X.O.>.2.2.;.X.} } X.;.:.:.;.X.{ 5 2 o 2 2 2 2 2 o o O O O o 2 2 2 4 5 5 4 2 o o 2 4 e } ;.2.rXuXpXuX2.X.R F.}.oXOXGXGXGXGXGXGXGXGXGXGXGXGXGXGXGXGXGXGXGXGXGXGXGX",
"GXGXGXGXGXGXGXGXGXGXGXpXuXqX1.&.K.m.c.h.z.*.4.yXgXkXxXgXuXeX2.;.X.| e r 5 5 r | :.3.2.;.X.{ e e | o.3.pXiXeX>.X.{ e e { | { e w 2 o O o o o o O X X X X O 2 4 r e { } } { r 2 2 2 3 r { O.2.eXuXgXfXeX;.@.F.P.}.|.oXGXGXGXGXGXGXGXGXGXGXGXGXGXGXGXGXGXGXGXGXGXGX",
"GXGXGXGXGXGXGXGXGXGXyXrXtX^.R.K..X{.m.^ _ &.-XyXpXpXuXeX2.>.o.X.| { r 5 4 4 w | >.3.:.O.} { { { | X.2.eXtX2.O.{ w 2 4 5 5 5 4 2 o X X X O O O X X X X O o 4 r { X.;.>.;.O.{ 5 2 2 2 5 e } ;.3.rXiXgXyX2.%.S.m.C.}.oXOXGXGXGXGXGXGXGXGXGXGXGXGXGXGXGXGXGXGXGXGXGX",
"GXGXGXGXGXGXGXGXuXuXeX4.<.&X.XOXOX XL.R +.>.eXtXeX3.:.;.O.X.| { e r 5 4 2 4 5 ] X.;.O.| { } X.X.} } X.O.X.} e w 2 o o o o o o O X X X X X X X X X X O o 4 w { X.>.3.3.3.>.} r 2 2 o 2 5 e } ;.3.rXpXyX3.,.) z.n.{.oXOXGXGXGXGXGXGXGXGXGXGXGXGXGXGXGXGXGXGXGXGXGX",
"GXGXGXGXGXGXGXGX3.4.<.R.!.XX@X%XOX}.F. .+.;.4.2.;.O.X.} { { e r w 5 2 < o < 2 q e { { e { O.>.;.X.{ { { e e e r 5 4 2 o O O O O X O @ $ d d d $ # O o 2 w e } ;.2.eXrXrX3.;.{ 5 1 o o 2 4 r { o.2.eXeX3.,.S.z.l.C.}.|.GXGXGXGXGXGXGXGXGXGXGXGXGXGXGXGXGXGXGXGXGX",
"GXGXGXGXGXGXGXGXo.#.` L.{.OX@X+X}.P./ R | O.;.o.} { e e r w 5 5 4 2 3 3 3 3 7 8 q w w r { o.2.:.X.{ e r r e { { e r 4 2 o O O O O # d l z x z k $ o 1 4 r { X.;.3.rXuXiXrX2.+.e 3 = # o o 2 5 { O.>.2.2.,.) z.k.N.Z.{.GXGXGXGXGXGXGXGXGXGXGXGXGXGXGXGXGXGXGXGXGX",
"GXGXGXGXGXGX} R Q ^ x.n.B.A.I.A.N.v.^ T [ | | { e w 5 5 4 2 < < O 2 E ` [.[.K._ 9 2 2 5 e +.o.o.X.{ e e e | X.X.| [ w 2 o o o o O GXk z x e.v l $ X O 2 q e } o.:.3.yXiXuX3.#.@._ L h # X O 2 5 T } O.o.O. .Y P x.B.}.#XGXGXGXGXGXGXGXGXGXGXGXGXGXGXGXGXGXGXGXGX",
"GXGXGXGXGXO.O.@./ x.v.M.m.M.v.v.h.P n N r w r w 4 2 6 7 7 : : - - N L.1X6X7X<X[.Y > 2 5 w e { { { { e e e } X.X.} [ w 4 = o o o GXGXGXz x e.g.c d * = = 4 r { X.=.1.eXuXuXqX>.*.K.m.I h - o O 2 5 r e { | [ e Y I n.{.#X<XGXGXGXGXGXGXGXGXGXGXGXGXGXGXGXGXGXGXGX",
"GXGXGXX.o.:.2.4.^.^.^.^.R.*._ Q m z k 7 5 5 4 4 1 = s L I F.F.L.K..X=X3X5X3X@X XM.L g 8 5 0 q q q q 5 5 q r e r w q 4 2 o o & & GXGXGXz x v g.z.x.I K - 2 4 r { X.;.2.eXeX3.1.&.L.B.P.[.` K O X o 2 5 w w w r N L k.C.oX#XGXGXGXGXGXGXGXGXGXGXGXGXGXGXGXGXGXGXGX",
"GXGXGXX.;.2.rXpXiXfXiXpXrXqX:.@.Q n j 8 4 4 2 2 < - j z.B.}.OX@X$X$X$X$X@XOX|.I.N.v.L f 7 7 : : : : 8 t t t t t 9 9 8 - & & % % GXGXGXz x v w.k.N.m.L > o < 4 r { X.;.2.4.2.1.&.D.c.{.#XXXF.h - o O o 2 2 4 5 M n h.N.{.oXGXGXGXGXGXGXGXGXGXGXGXGXGXGXGXGXGXGXGX",
"GXGXGXX.o.3.uXjXkXlXnXmXlXkXgXrX<.@.T r 5 4 2 2 4 8 j z.B.oX@X$X@X#XOX|.{.P.B.n.k.h.b c l c c c c n ' ' H H J E I F.' G F % % % GXGXGXGXGXx v j.c.v.L * X O < 2 w e } o.>.:.:.$.^ j.V.|.#XXX.X` 9 X X X O o = ; c h.V.Z.{.GXGXGXGXGXGXGXGXGXGXGXGXGXGXGXGXGXGXGX",
"GXGXGX{ X.>.eXuXpXgXjXkXkXkXkXgXyX3.;.} e w 4 4 5 9 V z.V.}.+X#XOX|.{.Z.B.n.k.h.j.e.v x x e.g.h.x.I ' ].].H ' I M.m.I J F % % & GXGXGXGXGXz z v h.b.U h > # O o 2 5 e | X.=.;.@.V n z.B.}.+X@X.X_ h * O X X O > k c x.m.C.GXGXGXGXGXGXGXGXGXGXGXGXGXGXGXGXGXGXGX",
"GXGXGXr e { X.X.O.#.;.:.3.rXpXiXfXpXeX>.X.e w 5 5 9 j P k.B.{.}.{.I.C.V.c.k.h.w.v x x x x e.g.I ` ].].].' ' U j.h.z.L G F % & & GXGXGXGXGXz z v w.h.v.M.I h o X O 2 4 w e } X.X.T N n z.c.C.{.}.}.L.! * X   X O # ; n x.V.GXGXGXGXGXGXGXGXGXGXGXGXGXGXGXGXGXGXGX",
"GXGXGX4 5 w r e e e e { } o.:.3.rXrXeX:.o.{ r q 5 9 j m h.l.n.V.N.n.c.b.j.j.e.v v v v v b c L K H H H H ' K b e.e.b k , % & & GXGXGXGXGXGXGXz x v w.k.B.m.I K : = O o 2 5 e { { e r j c g.x.L.K.[.K._ 9 < o o O X # j z.c.GXGXGXGXGXGXGXGXGXGXGXGXGXGXGXGXGXGXGX",
"GXGXGX4 4 5 w w w w 5 5 w e { } o.>.>.;.O.| e w q 9 j m j.h.h.h.h.j.w.v x x x v e.g.g.g.U K G G G G F F , k l x x l k , & GXGXGXGXGXGXGXGXGXGXGXz v j.k.N.I.{.F.h O X O 2 4 w w q 9 g l m Q @.%.%.%...{ e w 5 2 O # j z.c.GXGXGXGXGXGXGXGXGXGXGXGXGXGXGXGXGXGXGX",
"GXGXGX4 5 r e { | | { e r w w e { | X.X.X.| { e r r N V n m v e.w.g.w.v v v v v w.j.j.j.U K F F F % % & , k l z z l k @ GXGXGXGXGXGXGXGXGXGXGXGXz x v h.c.A.}.P.I j > # O o 2 2 4 5 8 j V @.>.2.4.4.2.>.;.X.} e q 3 f j L GXGXGXGXGXGXGXGXGXGXGXGXGXGXGXGXGXGXGX",
"GXGXGX5 r { X.;.2.2.>.o.X.{ e e r r e { { { { { e e e r N j l v v g.g.g.g.g.g.g.GXGXGXGXGXGXGXGXGXGXGXGXGXGXGXGXGXGXGXGXGXGXGXGXGXGXGXGXGXGXGXGXz x v w.h.n.C.I.Z.m.L * X X o o 2 2 q Z ..>./.rXuXuXuXrX3.2.;.X.{ e q 3 6 GXGXGXGXGXGXGXGXGXGXGXGXGXGXGXGXGXGXGX",
"GXGXGXr { O.2.rXpXgXgXpXrX3.>.X.{ r w r e e { { e e e r r s d d k j j k k c P GXGXGXGXGXGXGXGXGXGXGXGXGXGXGXGXGXGXGXGXGXGXGXGXGXGXGXGXGXGXGXGXGXGXx x v w.h.c.B.A.C.I * X X X O o 2 e +.=.:.2.3.3.3.3.2.>.=.X.} { e q 4 1 o o GXGXGXGXGXGXGXGXGXGXGXGXGXGXGXGXGX",
"GXGXGXe | ;.rXgXlXMXBXBXmXkXiXeX;.| e r w r e e e e e r w 5 2 2 2 2 = # o GXGXGXGXGXGXGXGXGXGXGXGXGXGXGXGXGXGXGXGXGXGXGXGXGXGXGXGXGXGXGXGXGXGXGXGXGXGXz x v g.k.N.m.I ; O X X O o 4 { O.;.;.O.O.X.X.X.} | { e e e e w 5 2 2 o o GXGXGXGXGXGXGXGXGXGXGXGXGXGXGXGX",
"GXGXGX{ } ;.3.iXmXVXAXAXVXBXmXjXrX2.O.| e r w w w 5 5 5 4 2 2 1 < o o o O GXGXGXGXGXGXGXGXGXGXGXGXGXGXGXGXGXGXGXGXGXGXGXGXGXGXGXGXGXGXGXGXGXGXGXGXGXGXGXx x v w.b.v.x.U j > o o 4 r { X.X.| { e e e e e e e e e e e r w 5 4 2 2 2 2 GXGXGXGXGXGXGXGXGXGXGXGXGXGX",
"GXGXGX{ } X.>.rXkXBXVXAXAXAXVXmXhXuX3.;.} { e w 5 4 4 4 6 2 2 2 o o O O O GXGXGXGXGXGXGXGXGXGXGXGXGXGXGXGXGXGXGXGXGXGXGXGXGXGXGXGXGXGXGXGXGXGXGXGXGXGXGXGXGXx v v g.h.k.P j - 2 q e { { { e w w r e e { | } X.X.X.X.| { e e r w 5 4 4 GXGXGXGXGXGXGXGXGXGXGXGXGX",
"GXGXGXGXGX} X.:.uXkXmXBXBXBXBXmXkXgXrX3.>.o.X.| e r w 5 4 4 2 2 2 2 o o O GXGXGXGXGXGXGXGXGXGXGXGXGXGXGXGXGXGXGXGXGXGXGXGXGXGXGXGXGXGXGXGXGXGXGXGXGXGXGXGXGXGXx x v v e.c d 6 5 w e e r r w r e } O.;.:.3.eXrXrXrXeX3.:.;.O.} { e e e GXGXGXGXGXGXGXGXGXGXGXGXGX",
"GXGXGXGXGXe { X.:.rXfXkXlXlXlXkXjXiXuXeX3.:.;.O.| e r w 5 4 4 2 2 2 o o O o GXGXGXGXGXGXGXGXGXGXGXGXGXGXGXGXGXGXGXGXGXGXGXGXGXGXGXGXGXGXGXGXGXGXGXGXGXGXGXGXGXGXz z z z l d 3 5 w r r w w e { X.>.3.rXpXjXkXmXmXlXkXgXuXeX2.;.O.} { { GXGXGXGXGXGXGXGXGXGXGXGXGX",
"GXGXGXGXGXw r e } o.2.eXaXuXuXuXrXeX3.3.2.>.;.X.| { e e w 5 4 2 2 2 o o o o 2 2 GXGXGXGXGXGXGXGXGXGXGXGXGXGXGXGXGXGXGXGXGXGXGXGXGXGXGXGXGXGXGXGXGXGXGXGXGXGXGXGXGXGXz z l d 6 4 4 5 5 w e | o.:.3.uXgXlXMXVXAXAXAXBXnXgXuXeX2.;.X.{ { e r GXGXGXGXGXGXGXGXGXGXGX",
"GXGXGXGXGXGX5 w r e } o.;.:.2.2.:.>.;.;.;.O.X.} { e e r w 5 2 2 2 2 2 2 2 2 2 2 2 GXGXGXGXGXGXGXGXGXGXGXGXGXGXGXGXGXGXGXGXGXGXGXGXGXGXGXGXGXGXGXGXGXGXGXGXGXGXGXGXGXGXz l ; = 1 2 2 5 r { X.>.3.rXfXkXmXBXAXAXAXAXBXlXgXrX3.5.;.X.{ e r w GXGXGXGXGXGXGXGXGXGXGX",
"GXGXGXGXGXGXGXGX4 4 w e { } X.X.X.X.} } | { { e r w 5 4 4 4 2 4 4 5 5 5 4 2 o o 2 2 GXGXGXGXGXGXGXGXGXGXGXGXGXGXGXGXGXGXGXGXGXGXGXGXGXGXGXGXGXGXGXGXGXGXGXGXGXGXGXGXGXGXGX# o o o 2 4 e | O.:.3.uXgXkXlXmXMXBXMXmXlXgXrX2.;.O.} { e w 4 2 GXGXGXGXGXGXGXGXGXGXGX",
"GXGXGXGXGXGXGXGXo 2 2 4 w r e e e e e e r r w q 5 4 4 4 5 w r e e { e e w 2 o o 2 2 2 GXGXGXGXGXGXGXGXGXGXGXGXGXGXGXGXGXGXGXGXGXGXGXGXGXGXGXGXGXGXGXGXGXGXGXGXGXGXGXGXGXGXGXO O O o 4 r { X.o.:.3.rXuXpXgXgXgXgXpXuX3.:.o.X.| e r w 4 2 2 4 GXGXGXGXGXGXGXGXGXGX",
"GXGXGXGXGXGXGXGXO o < 2 2 4 4 4 4 4 4 4 4 4 4 4 4 4 5 w e { X.O.O.O.X.{ e 4 o O O o 2 4 5 GXGXGXGXGXGXGXGXGXGXGXGXGXGXGXGXGXGXGXGXGXGXGXGXGXGXGXGXGXGXGXGXGXGXGXGXGXGXGXGXGXGXGXO o 2 5 r e { X.O.o.;.>.:.:.:.:.>.;.O.} { { e r 5 4 2 2 4 r { { GXGXGXGXGXGXGXGX",
"GXGXGXGXGXGXGXGXGXo o o o = 2 2 2 2 2 2 2 4 q r e { } X.o.;.:.:.>.;.X.{ r 4 o O o o 2 5 5 GXGXGXGXGXGXGXGXGXGXGXGXGXGXGXGXGXGXGXGXGXGXGXGXGXGXGXGXGXGXGXGXGXGXGXGXGXGXGXGXGXGXGXO o 2 4 5 w e e { { | | } } } | | { { e r r w 4 2 2 2 4 w T | } GXGXGXGXGXGXGXGX",
"GXGXGXGXGXGXGXGXGXGXGXo o o o o o o 2 2 5 r { X.o.>.2.2.3.3.3.2.;.X.{ e 5 2 o o 2 2 4 5 5 GXGXGXGXGXGXGXGXGXGXGXGXGXGXGXGXGXGXGXGXGXGXGXGXGXGXGXGXGXGXGXGXGXGXGXGXGXGXGXGXGXGXGXO o 2 2 4 5 q w w w r e e e e r r w w w 5 5 4 2 o 2 4 r { | X.X.GXGXGXGXGXGXGXGX",
"GXGXGXGXGXGXGXGXGXGXGXGXO O O O o 2 4 e | o.2.3.eXeXeX3.2.:.;.O.| e r 4 2 2 2 2 5 5 w w w GXGXGXGXGXGXGXGXGXGXGXGXGXGXGXGXGXGXGXGXGXGXGXGXGXGXGXGXGXGXGXGXGXGXGXGXGXGXGXGXGXGXGXO o o o 2 2 4 4 4 4 4 4 5 5 5 4 4 4 4 4 4 2 2 2 2 4 r { } X.X.X.GXGXGXGXGXGXGXGX",
"GXGXGXGXGXGXGXGXGXGXGXGXGXO O o o 2 r | ;.3.uXpXuXrX3.:.;.X.{ e q 4 2 2 4 5 w e e e r w 5 GXGXGXGXGXGXGXGXGXGXGXGXGXGXGXGXGXGXGXGXGXGXGXGXGXGXGXGXGXGXGXGXGXGXGXGXGXGXGXGXGXGXGXO O O O o 2 2 2 2 2 2 2 2 2 2 2 2 2 2 2 2 2 2 3 5 r { X.O.X.| | GXGXGXGXGXGXGXGX",
"GXGXGXGXGXGXGXGXGXGXGXGXGXO O O o 2 w { X.;.2.3.2.>.;.X.{ e w 4 2 2 4 w e | X.X.} { e w 4 2 2 GXGXGXGXGXGXGXGXGXGXGXGXGXGXGXGXGXGXGXGXGXGXGXGXGXGXGXGXGXGXGXGXGXGXGXGXGXGXGXGXGXGXGXO O o o o o o o o o o o o o 2 2 2 2 2 2 2 w e | X.o.O.} e e GXGXGXGXGXGXGXGX",
"GXGXGXGXGXGXGXGXGXGXGXGXGXGXO O O o 2 w e | X.X.} | { e w 4 2 2 2 4 e | O.;.:.>.O.| e 5 2 2 2 4 GXGXGXGXGXGXGXGXGXGXGXGXGXGXGXGXGXGXGXGXGXGXGXGXGXGXGXGXGXGXGXGXGXGXGXGXGXGXGXGXGXGXGXo o o o o = = = # o o 1 2 2 4 5 w r e e | X.o.;.;.X.{ w 4 GXGXGXGXGXGXGXGX",
"GXGXGXGXGXGXGXGXGXGXGXGXGXGXGXO O o 2 2 5 r e e r w 5 4 2 2 2 2 4 r } >.3.eX3.:.X.{ w 4 2 4 5 5 GXGXGXGXGXGXGXGXGXGXGXGXGXGXGXGXGXGXGXGXGXGXGXGXGXGXGXGXGXGXGXGXGXGXGXGXGXGXGXGXGXGXGX2 2 2 4 4 5 5 5 5 5 5 5 w e { } o.>.2.3.3.3.2.>.O.{ 5 2 2 5 e GXGXGXGXGXGX",
"GXGXGXGXGXGXGXGXGXGXGXGXGXGXGXGXO o o 2 2 2 4 4 2 2 2 2 2 2 4 5 r { ;.3.rXeX3.;.| e w 5 5 5 w w GXGXGXGXGXGXGXGXGXGXGXGXGXGXGXGXGXGXGXGXGXGXGXGXGXGXGXGXGXGXGXGXGXGXGXGXGXGXGXGXGXGXGX2 2 4 5 w r r e e e e { | X.;.2.rXpXgXjXgXuX3.;.} e 2 o 2 r e { GXGXGXGXGX",
"GXGXGXGXGXGXGXGXGXGXGXGXGXGXGXGXO o o o o o o o o o o 2 2 4 w e } o.:.3.3.2.o.} e w r e e r w q GXGXGXGXGXGXGXGXGXGXGXGXGXGXGXGXGXGXGXGXGXGXGXGXGXGXGXGXGXGXGXGXGXGXGXGXGXGXGXGXGXGXGXGXGX4 4 5 5 w e e { } O.;.2.rXgXkXmXMXmXkXuX2.X.e 5 5 w e { | } GXGXGXGXGX",
"GXGXGXGXGXGXGXGXGXGXGXGXGXGXGXGXO O O o o O O O O O o 2 4 w e | O.>.2.2.:.O.| e w w e { { e 5 5 GXGXGXGXGXGXGXGXGXGXGXGXGXGXGXGXGXGXGXGXGXGXGXGXGXGXGXGXGXGXGXGXGXGXGXGXGXGXGXGXGXGXGXGXGXGX2 2 4 4 q r { | X.;.3.rXgXlXmXmXlXgXeX;.| r w e } X.X.X.X.GXGXGXGXGX",
"GXGXGXGXGXGXGXGXGXGXGXGXGXGXGXGXGXGXO O O O o O O o o 2 4 r { X.;.>.>.;.O.| e w 5 w e { { r 4 2 GXGXGXGXGXGXGXGXGXGXGXGXGXGXGXGXGXGXGXGXGXGXGXGXGXGXGXGXGXGXGXGXGXGXGXGXGXGXGXGXGXGXGXGXGXGXGXGXo o 2 2 5 r e } o.2.eXuXiXpXuX3.;.X.{ e { o.2.2.;.X.X.GXGXGXGXGX",
"GXGXGXGXGXGXGXGXGXGXGXGXGXGXGXGXGXGXGXO o o 2 2 o o o 2 4 r { } o.;.o.X.| e 5 4 5 r e { e 5 2 o GXGXGXGXGXGXGXGXGXGXGXGXGXGXGXGXGXGXGXGXGXGXGXGXGXGXGXGXGXGXGXGXGXGXGXGXGXGXGXGXGXGXGXGXGXGXGXGXGXO o o 2 2 4 r { } o.;.:.>.;.X.| { | O.>.3.eX3.>.o.O.GXGXGXGXGX",
"GXGXGXGXGXGXGXGXGXGXGXGXGXGXGXGXGXGXGXGXGX2 2 2 2 2 2 2 2 w e { X.X.} { e 5 3 4 w e e e w 2 o O GXGXGXGXGXGXGXGXGXGXGXGXGXGXGXGXGXGXGXGXGXGXGXGXGXGXGXGXGXGXGXGXGXGXGXGXGXGXGXGXGXGXGXGXGXGXGXGXGXGXGXo o o o 2 4 5 w r e e e r w e o.eXuXrXeX3.:.;.o.GXGXGXGXGX",
"GXGXGXGXGXGXGXGXGXGXGXGXGXGXGXGXGXGXGXGXGXGX4 2 2 2 2 2 2 4 r e { | { e w 4 2 4 w e r w 4 2 o O GXGXGXGXGXGXGXGXGXGXGXGXGXGXGXGXGXGXGXGXGXGXGXGXGXGXGXGXGXGXGXGXGXGXGXGXGXGXGXGXGXGXGXGXGXGXGXGXGXGXGX5 5 4 2 2 2 o o 2 2 2 2 4 w { ;.eXuXrXeX3.>.;.o.GXGXGXGXGX",
"GXGXGXGXGXGXGXGXGXGXGXGXGXGXGXGXGXGXGXGXGXGXGXGX2 2 o o o 2 5 r e e r w 5 2 2 4 w r w 4 2 o o O GXGXGXGXGXGXGXGXGXGXGXGXGXGXGXGXGXGXGXGXGXGXGXGXGXGXGXGXGXGXGXGXGXGXGXGXGXGXGXGXGXGXGXGXGXGXGXGXGXGXGX{ { e e 5 2 o o o o O o 2 r | o.:.3.3.3.2.;.O.X.GXGXGXGXGX",
"GXGXGXGXGXGXGXGXGXGXGXGXGXGXGXGXGXGXGXGXGXGXGXGX2 2 2 o o 2 2 4 5 5 5 4 2 2 2 2 5 w 4 2 o o o GXGXGXGXGXGXGXGXGXGXGXGXGXGXGXGXGXGXGXGXGXGXGXGXGXGXGXGXGXGXGXGXGXGXGXGXGXGXGXGXGXGXGXGXGXGXGXGXGXGXGXGX{ { { | { e w 4 2 o O o 2 w e } O.;.;.;.o.} { { GXGXGXGXGX",
"GXGXGXGXGXGXGXGXGXGXGXGXGXGXGXGXGXGXGXGXGXGXGXGX6 2 2 o O O o o 2 2 2 2 2 o o 2 4 5 2 o O GXGXGXGXGXGXGXGXGXGXGXGXGXGXGXGXGXGXGXGXGXGXGXGXGXGXGXGXGXGXGXGXGXGXGXGXGXGXGXGXGXGXGXGXGXGXGXGXGXGXGXGXGXGXr e { } } { e w 4 2 o O o 2 5 e { | } | { r 5 5 GXGXGXGXGX",
"GXGXGXGXGXGXGXGXGXGXGXGXGXGXGXGXGXGXGXGXGXGXGXGXGXGXo o O O X O O o o o o O O o 2 2 2 o O GXGXGXGXGXGXGXGXGXGXGXGXGXGXGXGXGXGXGXGXGXGXGXGXGXGXGXGXGXGXGXGXGXGXGXGXGXGXGXGXGXGXGXGXGXGXGXGXGXGXGXGXGXGXGXGXe e e r w 4 2 o X X X O o 2 5 w w 5 4 2 o o GXGXGXGXGX",
"GXGXGXGXGXGXGXGXGXGXGXGXGXGXGXGXGXGXGXGXGXGXGXGXGXGXo o O O X O o o 2 2 o o O O O O O O O GXGXGXGXGXGXGXGXGXGXGXGXGXGXGXGXGXGXGXGXGXGXGXGXGXGXGXGXGXGXGXGXGXGXGXGXGXGXGXGXGXGXGXGXGXGXGXGXGXGXGXGXGXGXGXGX2 2 2 2 2 2 O X X       X O o o o O X X X GXGXGXGXGXGX",
"GXGXGXGXGXGXGXGXGXGXGXGXGXGXGXGXGXGXGXGXGXGXGXGXGX5 2 o O O o 2 2 4 5 5 4 2 O O O O O O O GXGXGXGXGXGXGXGXGXGXGXGXGXGXGXGXGXGXGXGXGXGXGXGXGXGXGXGXGXGXGXGXGXGXGXGXGXGXGXGXGXGXGXGXGXGXGXGXGXGXGXGXGXGX5 4 o O O O o O X             X X X X     GXGXGXGXGXGXGXGX",
"GXGXGXGXGXGXGXGXGXGXGXGXGXGXGXGXGXGXGXGXGXGXGXGXw 5 2 o o 2 5 e { } X.} { e 4 2 < o o o o GXGXGXGXGXGXGXGXGXGXGXGXGXGXGXGXGXGXGXGXGXGXGXGXGXGXGXGXGXGXGXGXGXGXGXGXGXGXGXGXGXGXGXGXGXGXGXGXGXGXGXGXGXe r q 4 2 o 2 o O X             X X O O X O GXGXGXGXGXGXGXGX",
"GXGXGXGXGXGXGXGXGXGXGXGXGXGXGXGXGXGXGXGXGXGX>.X.e 2 2 2 4 e | o.2.-XeXeX2.;.} e 5 2 2 2 2 GXGXGXGXGXGXGXGXGXGXGXGXGXGXGXGXGXGXGXGXGXGXGXGXGXGXGXGXGXGXGXGXGXGXGXGXGXGXGXGXGXGXGXGXGXGXGXGXGXGXGX} | { { T { e e r 5 2 X         X O 2 4 5 w r r r e GXGXGXGXGXGX",
"GXGXGXGXGXGXGXGXGXGXGXGXGXGXGXGXGXGXGXGXGX>.o.} r 2 2 4 r } ;.3.uXgXgXgXuXeX:.X.e q 5 w r | GXGXGXGXGXGXGXGXGXGXGXGXGXGXGXGXGXGXGXGXGXGXGXGXGXGXGXGXGXGXGXGXGXGXGXGXGXGXGXGXGXGXGXGXGXGXGXGXGXGX;.;.;.;.;.;.;.o.X.{ w 2 X X   X o 6 r { } X.O.o.o.o.;.GXGXGXGXGX",
"GXGXGXGXGXGXGXGXGXGXGXGXGXGXo.:.eXuXuXrX2.o.{ e 5 4 5 e } ;.3.uXjXkXkXhXgXuXeX>.X.{ e { } >.eXrXGXGXGXGXGXGXGXGXGXGXGXGXGXGXGXGXGXGXGXGXGXGXGXGXGXGXGXGXGXGXGXGXGXGXGXGXGXGXGXGXGXGXGXGXGXGXGXGXuXuXuXuXuXuXrXeX2.;.| 5 o X X O 2 r } ;.2.3.eXrXuXuXuXrXrXGXGXGX",
"GXGXGXGXGXGXGXGXGXGXGXGXGXo.o.;.:.2.2.>.o.{ w 5 q e } =.2.eXuXfXjXkXhXgXiXuXeX2.O.| { { X.>.3.-X&XGXGXGXGXGXGXGXGXGXGXGXGXGXGXGXGXGXGXGXGXGXGXGXGXGXGXGXGXGXGXGXGXGXGXGXGXGXGXGXGXGXGXGXGXGXGX1X2XdX:X;X;XsXpXrX2.o.{ 4 O X X X 2 w | o.2.eXrXaXsX;X;X;X;XGXGXGX",
"GXGXGXGXGXGXGXGX4.4.4.3.2.;.O.X.| { e e r 5 5 q T X.:.tXpXiXiXiXiXpXuXuXrXeX3.:.O.| e e { O.>.R.K.P.A.GXGXGXGXGXGXGXGXGXGXGXGXGXGXGXGXGXGXGXGXGXGXGXGXGXGXGXGXGXGXGXGXGXGXGXGXGXGXGXGXGXGXoXOX$X4X4X1XY.J.^.tX4.o.{ 5 o X     X X 2 w { O.1.3.^.J.m..X1X1XGXGXGX",
"GXGXGXGXGXGXGX*X&XR.-XrXtX2.;.} e 5 1 < 3 E ` K.K.R.R.&X;XsXfXiXyXeX3.3.3.2.2.;.} { e r e | +.@.D.n.N.C.GXGXGXGXGXGXGXGXGXGXGXGXGXGXGXGXGXGXGXGXGXGXGXGXGXGXGXGXGXGXGXGXGXGXGXGXGXGXGXGXGX@X@X$X<X$X|.V.x.*.,.o.{ 4 o X         X o w | X.X.+.( P h.N.|.+X@X<XGX",
"GXGXGXGXGX3X<X#X}..X&XsXpXeX;.} r 2 O o N [.1X3X@X XP.B.J.;XiXpXeX2.>.;.;.o.O.X.{ r w w w w r C L h.c.B.Z.GXGXGXGXGXGXGXGXGXGXGXGXGXGXGXGXGXGXGXGXGXGXGXGXGXGXGXGXGXGXGXGXGXGXGXGXGXGXGXGX<X$X@X#X|.C.k.P W | e 2 X +           X 2 e } } r 2 > k v b.B.}.+X<X<X",
"GXGXGXGX6X5X<X@X|.I.Y.!.R.,.;.+.r 3 N _ [.=X3X5X#X}.C.V.m.&XpXrX2.O.X.| { { { e w 5 4 2 2 4 5 s c v h.k.c.GXGXGXGXGXGXGXGXGXGXGXGXGXGXGXGXGXGXGXGXGXGXGXGXGXGXGXGXGXGXGXGXGXGXGXGXGXGXGXGXOXOX}.P.n.k.w.c d 6 o X       GXGXGXGXGX2 w e w 1 X @ u z w.k.B.|.<X3X",
"GXGXGX6X7X3X<X+X}.C.c.h.P _ #.} w 9 ` XX<X<X$X+X}.C.V.c.D.R.tX3.=.| e w 5 5 5 4 2 2 o o o < 2 > k z e.w.g.GXGXGXGXGXGXGXGXGXGXGXGXGXGXGXGXGXGXGXGXGXGXGXGXGXGXGXGXGXGXGXGXGXGXGXGXGXGXGXGXI.Z.B.v.j.e.v l $ +         GXGXGXGXGXGXGXGX2 o X   @ u z v w.v.}.@X<X",
"OX+X@X$X@X+X|.{.N.k.j.v c V Z w 4 7 ` XX<X@X|.I.N.k.h.g.P $.>.=.| r 4 2 o o o O O O X X X O o # d GXv v v GXGXGXGXGXGXGXGXGXGXGXGXGXGXGXGXGXGXGXGXGXGXGXGXGXGXGXGXGXGXGXGXGXGXGXGXGXGXGXGXV.V.n.k.GXGXGXGXGXGXGXGXGXGXGXGXGXGXGXGXGXGXGXGXGXGXGXGXGXGXGXv.C.I.{.",
"oXoXoXoXoX}.I.N.k.g.v x l g 8 4 < - ` XX@XOXI.V.k.g.v x c ( ..} e 5 2 O X X X X X X X X X O O o GXGXGXz z GXGXGXGXGXGXGXGXGXGXGXGXGXGXGXGXGXGXGXGXGXGXGXGXGXGXGXGXGXGXGXGXGXGXGXGXGXGXGXGXc.c.c.GXGXGXGXGXGXGXGXGXGXGXGXGXGXGXGXGXGXGXGXGXGXGXGXGXGXGXGXGXGXc.c.",
"{.{.}.GXGXGXGXGXGXGXGXGXGXGXGXGXGXGXL.{.}.}.GXGXGXGXGXGXGXGXGXGXGXGXGXGXGXGXGXGXGXGXGXGXGXGXGXGXGXGXGXGXGXGXGXGXGXGXGXGXGXGXGXGXGXGXGXGXGXGXGXGXGXGXGXGXGXGXGXGXGXGXGXGXGXGXGXGXGXGXGXGXGXGXGXGXGXGXGXGXGXGXGXGXGXGXGXGXGXGXGXGXGXGXGXGXGXGXGXGXGXGXGXGXGXGXGXGX",
"Z.Z.Z.GXGXGXGXGXGXGXGXGXGXGXGXGXGXGXGXZ.Z.GXGXGXGXGXGXGXGXGXGXGXGXGXGXGXGXGXGXGXGXGXGXGXGXGXGXGXGXGXGXGXGXGXGXGXGXGXGXGXGXGXGXGXGXGXGXGXGXGXGXGXGXGXGXGXGXGXGXGXGXGXGXGXGXGXGXGXGXGXGXGXGXGXGXGXGXGXGXGXGXGXGXGXGXGXGXGXGXGXGXGXGXGXGXGXGXGXGXGXGXGXGXGXGXGXGXGX"
};
