/* XPM */
static const char *bos2c8[] = {
/* columns rows colors chars-per-pixel */
"128 128 252 2 ",
"   c #0C0C0C",
".  c #050505",
"X  c #141414",
"o  c #1C1C1C",
"O  c #191918",
"+  c #1C140A",
"@  c #271A0B",
"#  c #251D17",
"$  c #32160F",
"%  c #13280C",
"&  c #1B3914",
"*  c #192915",
"=  c #292319",
"-  c #3C2B1B",
";  c #372717",
":  c #2D2F12",
">  c #1C1E20",
",  c #1E2122",
"<  c #242424",
"1  c #252728",
"2  c #2C2C2C",
"3  c #2A2825",
"4  c #352C25",
"5  c #293726",
"6  c #37332B",
"7  c #2C2E31",
"8  c #2F3032",
"9  c #333334",
"0  c #3B3B3B",
"q  c #383737",
"w  c #302F30",
"e  c #201F20",
"r  c #560707",
"t  c #561817",
"y  c #4B1005",
"u  c #6A0403",
"i  c #7B0100",
"p  c #740303",
"a  c #6F1714",
"s  c #442C18",
"d  c #48331D",
"f  c #56371A",
"g  c #562E0E",
"h  c #742C00",
"j  c #7B3402",
"k  c #773808",
"l  c #68310E",
"z  c #4A3621",
"x  c #483825",
"c  c #533C23",
"v  c #5B3E23",
"b  c #523C2A",
"n  c #443C39",
"m  c #4F2B29",
"M  c #682626",
"N  c #703733",
"B  c #1E4316",
"V  c #234919",
"C  c #28561D",
"Z  c #38511B",
"A  c #2B4725",
"S  c #2C5921",
"D  c #3A4837",
"F  c #34592D",
"G  c #2E6223",
"H  c #336A28",
"J  c #3A7A2D",
"K  c #37742B",
"L  c #3C7633",
"P  c #564D14",
"I  c #784516",
"U  c #714815",
"Y  c #6B651D",
"T  c #5B4327",
"R  c #584938",
"E  c #4B4530",
"W  c #6B4A2B",
"Q  c #664727",
"!  c #734D2B",
"~  c #754A26",
"^  c #7A542B",
"/  c #795433",
"(  c #675133",
")  c #437837",
"_  c #517728",
"`  c #736D2A",
"'  c #423E43",
"]  c #3E4242",
"[  c #434444",
"{  c #4B4C4C",
"}  c #484847",
"|  c #554A49",
" . c #57524C",
".. c #535454",
"X. c #5B5C5C",
"o. c #595656",
"O. c #4C514C",
"+. c #675849",
"@. c #6A504D",
"#. c #566D50",
"$. c #716654",
"%. c #5D5F61",
"&. c #5E6162",
"*. c #636464",
"=. c #6B6B6B",
"-. c #686766",
";. c #776C67",
":. c #737373",
">. c #7B7B7B",
",. c #7A7876",
"<. c #70726D",
"1. c #8A0000",
"2. c #840100",
"3. c #940100",
"4. c #9C0000",
"5. c #980B08",
"6. c #911714",
"7. c #A40100",
"8. c #AA0303",
"9. c #B30000",
"0. c #BB0101",
"q. c #B80B0B",
"w. c #BF1212",
"e. c #833C04",
"r. c #912F0C",
"t. c #8F2F2F",
"y. c #A33030",
"u. c #C40101",
"i. c #CB0100",
"p. c #C20A0A",
"a. c #D40000",
"s. c #DB0000",
"d. c #CE1919",
"f. c #E30000",
"g. c #EC0000",
"h. c #E80C0C",
"j. c #F50101",
"k. c #EA1515",
"l. c #C23333",
"z. c #8D4B0B",
"x. c #874308",
"c. c #93530E",
"v. c #98570C",
"b. c #895517",
"n. c #9B5C12",
"m. c #945915",
"M. c #8A4C10",
"N. c #9C6317",
"B. c #8E6B1B",
"V. c #A46B1A",
"C. c #A36716",
"Z. c #AB761D",
"A. c #B27B1E",
"S. c #875934",
"D. c #8D5C2E",
"F. c #95623A",
"G. c #9B663C",
"H. c #926F2D",
"J. c #AA7A22",
"K. c #B17D21",
"L. c #A2693F",
"P. c #A3712E",
"I. c #A25C12",
"U. c #905050",
"Y. c #8C754F",
"T. c #AA6E43",
"R. c #A56B40",
"E. c #B77649",
"W. c #AD7145",
"Q. c #8B736F",
"!. c #AA6363",
"~. c #C37C4E",
"^. c #DD5C5C",
"/. c #3E8533",
"(. c #3C832F",
"). c #428B35",
"_. c #448935",
"`. c #45943A",
"'. c #489A3C",
"]. c #528F35",
"[. c #6C8B30",
"{. c #4BA13F",
"}. c #4E9545",
"|. c #4CA542",
" X c #4DAB45",
".X c #51AC45",
"XX c #55AA49",
"oX c #56B74B",
"OX c #5BB950",
"+X c #76B848",
"@X c #788B74",
"#X c #5BC552",
"$X c #59C04F",
"%X c #62D459",
"&X c #69CB54",
"*X c #6DEB65",
"=X c #8C8E33",
"-X c #B78827",
";X c #BD922C",
":X c #AF8E33",
">X c #B4A739",
",X c #9E9A34",
"<X c #C2972E",
"1X c #C59D32",
"2X c #CBA737",
"3X c #D3B33E",
"4X c #D0AC3A",
"5X c #908372",
"6X c #A69571",
"7X c #A59B4F",
"8X c #CB8354",
"9X c #D28859",
"0X c #D6BA42",
"qX c #C9B34A",
"wX c #C0B67C",
"eX c #88DE5C",
"rX c #DDC549",
"tX c #D2CF53",
"yX c #E4D050",
"uX c #7C7E80",
"iX c #7F8081",
"pX c #838383",
"aX c #8C8C8C",
"sX c #898886",
"dX c #949494",
"fX c #9C9C9C",
"gX c #989897",
"hX c #928F8C",
"jX c #A89590",
"kX c #A9A598",
"lX c #9FA0A1",
"zX c #A3A3A3",
"xX c #ACACAC",
"cX c #A7A8A8",
"vX c #B3B3B3",
"bX c #BBBBBB",
"nX c #B7B8B8",
"mX c #B0AFAE",
"MX c #9C9EA0",
"NX c #CFB0B0",
"BX c #BFBFC0",
"VX c #C3C3C3",
"CX c #CBCBCB",
"ZX c #C7C8C8",
"AX c #D3D3D3",
"SX c #DCDCDC",
"DX c #D2DCDC",
"FX c #CED0D0",
"GX c #E6E6E6",
"HX c #BCC3C3",
"JX c None",
"KX c black",
/* pixels */
"KXKXKXKXKXKXKXKXKXKXKXKXKXKXKXKXKXKXKXKXKXKXKXKXKXKXKXKXKXKXKXKXf.f.f.f.f.s.s.s.f.f.g.g.j.j.j.j.j.k.^.NXDXDXAXAXCXZXBXbXvXmXxXxXcXzXzXgXgXgXdXaXsXpXpXpXsXhXhXQ.t.3.7.u.a.s.f.f.KXKXKXKXKXKXKXKXKXKXKXKXKXKXKXKXKXKXKXKXKXKXKXKXKXKXKXKXKXKXKXKXKXKXKXKXKXKXKXKX",
"KXKXKXKXKXKXKXKXKXKXKXKXKXKXKXKXKXKXKXKXKXKXKXKXKXKXKXKXKXKXKXi.i.i.u.u.u.0.0.0.0.u.u.i.s.f.g.g.g.h.^.^.NXVXCXCXZXBXvXxXzXzXfXfXfXgXgXgXgXgXdXaXsXpXpXpXsXsXsXQ.U.t.6.8.0.i.s.f.f.KXKXKXKXKXKXKXKXKXKXKXKXKXKXKXKXKXKXKXKXKXKXKXKXKXKXKXKXKXKXKXKXKXKXKXKXKXKXKX",
"KXKXKXKXKXKXKXKXKXKXKXKXKXKXKXKXKXKXKXKXKXKXKXKXKXKXKXKXKXKX0.9.7.4.1.1.2.i i i i i 2.3.7.9.u.a.f.g.h.k.l.^.NXHXbXxXzXgXaXsXpXpXsXsXaXdXgXgXdXaXsXpXsXsXsX>.,.Q.hXQ.U.6.1.9.i.a.s.f.KXKXKXKXKXKXKXKXKXKXKXKXKXKXKXKXKXKXKXKXKXKXKXKXKXKXKXKXKXKXKXKXKXKXKXKXKXKX",
"KXKXKXKXKXKXKXKXKXKXKXKXKXKXKXKXKXKXKXKXKXKXKXKXKXKXKXKX3.4.4.5.6.a M M M M M M N N N t.t.6.3.7.0.i.s.f.h.l.^.jXjXgXaX>.>.>.>.sXsXdXgXgXfXzXcXzXfXgXMXzXzXfXgXlXxXlXQ.a p 1.8.u.a.a.w.t.KXKXKXKXKXKXKXKXKXKXKXKXKXKXKXKXKXKXKXKXKXKXKXKXKXKXKXKXKXKXKXKXKXKXKXKX",
"KXKXKXKXKXKXKXKXKXKXKXKXKXKXKXKXKXKXKXKXKXKXKXKXKXKXKX1.2.i p a m | |  . .o.X.-.:.Q.sXhXQ.N a p 2.4.9.i.s.h.d.l.!.,.:.=.:.>.aXgXzXzXcXcXxXbXVXVXbXbXVXCXAXAXAXCXZXmXQ.M r u 2.4.0.p.y.@.X.&.*.*.KXKXKXKXKXKXKXKXKXKXKXKXKXKXKXKXKXKXKXKXKXKXKXKXKXKXKXKXKXKXKXKX",
"KXKXKXKXKXKXKXKXKXKXKXKXKXKXKXKXKXKXKXKXKXKXKXKXKX .N M M t t m n [ } { { O...&.<.>.pXaXpX;.@.M a p 2.4.9.0.u.q.y.y.U.Q.aXgXzXxXxXvXvXvXvXbXbXbXbXbXVXAXAXSXSXSXAXVXkXQ.@.M p 2.7.q.y.Q.:.=.&.*.-.KXKXKXKXKXKXKXKXKXKXKXKXKXKXKXKXKXKXKXKXKXKXKXKXKXKXKXKXKXKXKX",
"KXKXKXKXKXKXKXKXKXKXKXKXKXKXKXKXKXKXKXKXKX-.*.*.*.X.o...| { } ' 0 0 0 0 0 [ } { ..X.-.:.>.>.,.$.M r u p i 3.7.9.q.d.!.jXvXbXbXbXbXbXbXvXvXvXxXvXvXvXbXVXCXAXSXSXSXAXCXnXjXU.a p 3.8.U.Q.hX>.*.*.=.:.=.-.*.KXKXKXKXKXKXKXKXKXKXKXKXKXKXKXKXKXKXKXKXKXKXKXKXKXKXKX",
"KXKXKXKXKXKXKXKXKXKXKXKXKXKXKXKXKX=.>.pXsX>.>.>.>.:.:.:.:.=.*.o.} ] 0 [ } { ..{ } } { ..%.=.:.=.@.N M r u u i 6.y.!.jXNXVXVXVXCXCXCXVXvXvXvXvXbXbXVXVXVXCXCXAXSXSXAXCXVXxXhXQ.t.6.5.y.Q.gXhXpX>.:.=.=.:.:.=.*.KXKXKXKXKXKXKXKXKXKXKXKXKXKXKXKXKXKXKXKXKXKXKXKXKX",
"KXKXKXKXKXKXKXKXKXKXKXKXKXKXKXKX:.:.>.sXdXgXgXgXgXgXgXgXdXsXpX=.X.} } } { X.*.X.} [ 0 [ } ..X.-.<.-.@.t r r r M Q.gXmXBXZXCXCXCXAXAXVXvXxXvXbXbXbXbXbXbXbXVXCXAXFXCXVXbXvXmXcXQ.y.6.U.Q.dXfXfXaX>.=.:.>.>.:.-.*.KXKXKXKXKXKXKXKXKXKXKXKXKXKXKXKXKXKXKXKXKXKXKXKX",
"KXKXKXKXKXKXKXKXKXKXKXKXKXKX*.:.>.sXgXfXcXvXbXbXvXcXcXzXzXgXdXuX-.X.} [ } X.=.=.-.X.{ 0 0 0 } ..X.X.o.| b t r M ;.gXxXbXVXCXCXCXVXbXvXxXzXzXfXgXgXgXgXfXzXvXbXbXvXvXvXbXbXvXcXjXQ.!.Q.Q.sXgXzXfXaXpX>.>.:.:.:.:.KXKXKXKXKXKXKXKXKXKXKXKXKXKXKXKXKXKXKXKXKXKXKXKX",
"KXKXKXKXKXKXKXKXKXKXKXKXKX*.-.:.sXfXxXbXVXAXAXAXVXbXvXxXcXzXgXsX:.X.} 0 [ ..=.>.sXpX-...[ 0 0 0 } { o.X. .m t N Q.fXxXvXbXVXCXVXbXvXvXvXxXzXgXaXsXpXpXsXdXzXxXvXcXcXvXbXbXcXfXfXzXMXsX:.:.sXgXzXfXdXpX:.-.=.:.:.KXKXKXKXKXKXKXKXKXKXKXKXKXKXKXKXKXKXKXKXKXKXKXKX",
"KXKXKXKXKXKXKXKXKXKXKXKXKX=.:.>.dXcXVXAXGXGXGXSXCXbXvXxXcXzXgXpX-...0 9 9 { *.>.dXgXaX>.*.{ 0 9 0 [ } O.{ n n $.dXnXbXvXxXxXxXvXbXVXCXCXCXVXvXcXfXgXaXsXdXfXvXbXbXbXVXVXvXzXaXaXdXhX>.*.*.:.sXgXfXgXpX*.X.X.-.*.X.X.KXKXKXKXKXKXKXKXKXKXKXKXKXKXKXKXKXKXKXKXKXKX",
"KXKXKXKXKXKXKXKXKXKXKXKXKX:.>.sXgXxXVXSXGXGXGXSXCXbXvXcXzXgXsX:.X.} 9 2 9 [ X.:.gXcXxXzXsX*.} 0 0 0 [ } } } ..,.cXVXVXvXcXfXgXzXvXVXCXAXAXAXCXVXbXvXcXfXgXzXxXbXVXCXCXVXvXgXsXsXaXhXsX>.:.=.:.pXgXfXsX-.X.X.X.X.X.....KXKXKXKXKXKXKXKXKXKXKXKXKXKXKXKXKXKXKXKXKX",
"KXKXKXKXKXKXKXKXKXKXKX{ X.=.>.aXfXxXbXCXAXAXAXCXbXvXxXzXgXsX:.*.{ 0 9 3 2 9 } -.dXvXbXbXcXpXX.} [ 0 0 [ } ..*.sXxXCXCXVXvXgXsXaXfXcXvXVXCXCXCXAXSXAXCXbXxXzXzXvXVXFXCXVXvXfXaXaXgXzXxXvXzX>.X.-.sXgXdXpX:.*.........X.KXKXKXKXKXKXKXKXKXKXKXKXKXKXKXKXKXKXKXKXKX",
"KXKXKXKXKXKXKXKXKXKXKX..X.-.>.sXgXzXxXvXbXbXbXvXxXzXgXaXpX:.*...} 0 2 3 1 3 0 X.sXxXVXCXbXgX:...[ 9 9 0 [ { X.>.fXvXVXbXvXgXsXsXdXfXzXxXvXvXvXbXAXSXSXAXVXxXzXzXbXVXVXVXvXzXfXgXlXcXvXbXzX:.{ ..>.gXgXsX>.*...{ ......KXKXKXKXKXKXKXKXKXKXKXKXKXKXKXKXKXKXKXKXKX",
"KXKXKXKXKXKXKXKXKXKXKXX.X.*.:.>.sXdXgXzXzXzXfXgXgXaXpX:.*.X...} [ 0 2 < o < 2 { >.zXbXCXVXzXpX*.[ 2 3 w 9 0 } *.>.gXzXvXxXfXaXaXdXgXgXgXdXsX>.dXvXCXSXSXAXbXfXfXzXxXvXvXvXvXxXcXzXzXfXgXpXX.0 } :.sXaXsX>.X.} } { { } } [ KXKXKXKXKXKXKXKXKXKXKXKXKXKXKXKXKXKXKX",
"KXKXKXKXKXKXKXKXKXKX{ ..X.X.*.=.:.pXsXaXaXaXsXpX>.:.-.X...{ } 0 0 9 3 o O O 1 } :.fXbXCXCXxXsX*.[ 3 < 3 2 9 [ ..*.:.pXaXdXdXdXdXgXaX>.-.X.} } X.sXcXVXSXSXVXxXlXgXgXfXcXvXvXvXvXxXzXdX>.X.0 3 0 *.pXsXsX>.*.{ } } } } [ [ KXKXKXKXKXKXKXKXKXKXKXKXKXKXKXKXKXKXKX",
"KXKXKXKXKXKXKXKX[ } } { ....X.*.-.:.:.>.>.:.:.=.*.X...{ } [ 0 9 2 3 < o o o 1 } :.fXbXAXCXxXsX*.0 1 < 1 2 0 } { ..X.*.-.:.sXdXgXdXpXX.9 O X X 2 ..>.zXCXSXAXVXxXdXpXsXgXzXxXvXbXbXxXsXX.0 o X 2 X.>.sXsX>.*...} [ 0 0 [ } KXKXKXKXKXKXKXKXKXKXKXKXKXKXKXKXKXKXKX",
"KXKXKXKXKXKXKXKX' [ [ } } { ..X.*.-.-.-.*.*.X...{ } 0 0 9 9 9 2 3 < o o o < 9 ..pXzXVXCXVXzX>.X.q < < 2 0 } X.-.:.>.:.-.-.>.sXaXsX>...1   .   X 1 } >.xXCXAXFXbXgXsXsXgXzXxXvXVXCXbXsX} <     < { :.>.>.:.*...} 0 9 0 } { KXKXKXKXKXKXKXKXKXKXKXKXKXKXKXKXKXKXKX",
"KXKXKXKXKXKXKXKX0 0 0 [ } } } ..X.*.X.X...{ } [ 0 0 0 0 0 9 9 9 w 2 3 3 2 9 } -.gXvXVXCXbXgX:.{ 9 < 1 9 } X.:.sXfXzXdX>.:.:.:.>.sX>.X.9 O     .   o { sXvXCXAXVXzXaXdXfXzXxXvXVXAXVXsX[ X . . o } *.=.=.-.X.O.[ 0 9 } ..X.KXKXKXKXKXKXKXKXKXKXKXKXKXKXKXKXKXKXKX",
"KXKXKXKXKXKXKXKX9 9 0 0 0 [ [ } { ..{ { } [ ] } { X.*.-.=.=.*.*.X.......X.*.:.dXvXVXVXbXzX>.X.[ 3 < 1 0 { -.sXfXvXbXvXzXdX>.-.:.sXaX:.{ 9 o   . .   9 *.sXvXVXbXzXaXsXdXgXfXzXvXVXvX>.9 X   X < 0 ..X.X.X...} [ [ } X.:.>.KXKXKXKXKXKXKXKXKXKXKXKXKXKXKXKXKXKXKX",
"KXKXKXKXKXKXKXKX2 2 9 0 0 0 0 0 [ [ } } } } { X.:.sXgXzXcXzXfXdXpX>.>.>.sXaXgXxXbXVXvXfXpX*.} 9 < o 1 0 ..=.sXzXvXVXVXVXcXpX*.=.dXzXdX:...0 < X     < 0 *.gXvXvXgXsXsXaXgXgXzXxXbXxX>.} 3 < < 3 0 [ { ....} 0 [ { X.:.sXaXKXKXKXKXKXKXKXKXKXKXKXKXKXKXKXKXKXKXKX",
"KXKXKXKXKXKXKXKX3 3 9 9 0 9 9 9 9 0 [ { X.=.pXgXcXbXVXCXCXVXbXxXfXdXaXdXdXgXfXzXzXfXsX:.X.} 9 1 O O 1 9 { -.pXgXcXnXVXCXvXsX*.:.gXxXxXzXsX*.[ 3 O X o 2 ..pXcXzXaXuXsXfXcXvXbXZXAXCXvXaX:...} 0 0 0 } } } q 9 [ X.:.>.>.>.KXKXKXKXKXKXKXKXKXKXKXKXKXKXKXKXKXKXKX",
"KXKXKXKXKXKXKXKX1 3 2 9 9 9 9 9 0 [ ..*.>.dXcXbXCXAXAXAXCXVXbXxXgXaXsXsXsXsXpX>.:.-.X.} q 2 < o O O < 9 [ X.:.sXgXcXbXVXvXsX-.:.dXcXbXVXvXdX=...0 3 1 9 } :.gXfXsXpXaXzXvXVXAXSXGXGXSXCXxXaX=...} 0 0 [ 0 2 1 0 *.:.=.X...KXKXKXKXKXKXKXKXKXKXKXKXKXKXKXKXKXKXKX",
"KXKXKXKXKXKXKXKX1 1 3 3 2 2 2 0 } X.:.sXfXcXvXbXbXbXvXxXzXgXaXpX:.-.*.*.X...{ } 0 9 2 < o O O O o < 1 3 9 } *.:.sXgXxXbXvXsX-.-.>.gXvXCXAXbXzXsX-...} } ..:.dXgXdXhXdXgXzXVXSXGXGXGXGXSXCXbXfX>.X.0 0 0 9 1 < 9 } o.{ 0 9 KXKXKXKXKXKXKXKXKXKXKXKXKXKXKXKXKXKXKX",
"KXKXKXKXKXKXKXKX1 1 1 1 1 3 9 [ X.=.pXgXzXcXzXzXfXdXsXpX:.-.X...{ } [ n q 9 4 3 = # o o o # # # < < < < 3 0 O.*.:.sXgXxXzXsX:.-.-.>.gXbXCXCXVXxXdX>.=.*.=.pXgXfXfXgXsX,.pXzXVXSXGXGXGXGXAXVXzX>...0 9 9 w 1 o 1 9 0 9 3 < KXKXKXKXKXKXKXKXKXKXKXKXKXKXKXKXKXKXKX",
"KXKXKXKXKXKXKXKXKXKXo o < 2 0 ..*.:.pXaXhXsXpX:.=.*.X.{ [ q 2 3 1 1 3 = ; - 4 4 - - - - - d d - = o o o < 9 [ { X.=.pXdXdXsX>.-.X.X.:.gXvXVXCXVXvXfXdXaXdXfXxXxXzXaX-.} } *.aXvXAXGXGXGXCXzX>.X.0 2 2 2 2 < o o < 1 1 KXKXKXKXKXKXKXKXKXKXKXKXKXKXKXKXKXKXKXKXKX",
"KXKXKXKXKXKXKXKXKXKXKXo < 2 0 ..*.=.:.:.<.*...{ [ 0 9 w 3 = # # = = = ; - c Q Q Q Q v c v W ! Q z ; # O O < 2 0 } ..*.:.>.>.>.=...{ X.:.sXgXzXcXzXfXfXzXzXvXvXvXxXgX*.9 3 0 *.aXbXSXGXSXbXsX..0 2 1 1 3 3 3 = # O O KXKXKXKXKXKXKXKXKXKXKXKXKXKXKXKXKXKXKXKXKXKX",
"KXKXKXKXKXKXKXKXKXKXKX< 1 2 0 } ..X.X...} 0 9 1 < o # = = = ; - d c f f T / F.L.L.F.S.W ! D.L.F./ v - # X X O < 9 0 } ..X.=.:.=.X.{ { ....X.*.-.:.pXdXzXxXvXvXbXvXzX:.0 3 2 } :.cXAXSXAXvX:.0 1 < 1 1 1 3 4 - ; KXKXKXKXKXKXKXKXKXKXKXKXKXKXKXKXKXKXKXKXKXKXKXKX",
"KXKXKXKXKXKXKXKXKXKXKXKX3 2 9 0 [ [ 0 9 2 3 = = = = = ; ; ; - d Q ! ! W / F.T.E.E.E.G.^ ^ G.E.T.D.W z 3 o X X O < 3 2 9 [ ..X.*.*.*.X.X.X.......X.*.=.>.sXgXcXvXbXxXsXX.[ 9 0 X.gXVXCXCXcX-.9 o o < < < 3 - - s KXKXKXKXKXKXKXKXKXKXKXKXKXKXKXKXKXKXKXKXKXKXKXKX",
"KXKXKXKXKXKXKXKXKXKXKXKXKX2 9 9 9 9 3 < = = = ; s z z z z d d v ! S.D.S.F.G.T.E.8X8XT.S.S.R.~.E.F.! b 6 3 < o o o < 1 3 9 0 } ..*.:.>.>.>.:.*.X...{ { ..X.:.aXzXxXxXfXsX=.{ [ X.dXvXVXVXzX:.0 1 o o o < 3 - - s KXKXKXKXKXKXKXKXKXKXKXKXKXKXKXKXKXKXKXKXKXKXKXKX",
"KXKXKXKXKXKXKXKXKXKXKXKXKXKXKX2 2 2 4 - - ; ; ; d c T Q Q c z v ! S.F.G.L.G.G.W.8X9XE.F.F.R.E.W.G.S.W b n n [ } [ 0 0 9 9 9 9 [ ..*.=.:.>.pXpXpX>.>.:.*.*.*.=.>.dXfXzXfXhX>.=.pXzXbXVXVXvXdX-.{ 9 < = 4 4 - - ; KXKXKXKXKXKXKXKXKXKXKXKXKXKXKXKXKXKXKXKXKXKXKXKX",
"KXKXKXKXKXKXKXKXKXKXKXKXKXKXKXKXKXKXKXT f s ; ; d c Q / / Q c c W S.F.T.T.G.F.R.~.8XE.T.G.L.T.R.L.F.^ W R +.*.-.-.*.X...} 0 0 0 [ } ..*.:.sXdXzXcXxXzXgXpX-.X.*.:.sXdXfXzXMXfXcXbXCXCXCXVXvXfX:.} 3 ; x z s ; ; KXKXKXKXKXKXKXKXKXKXKXKXKXKXKXKXKXKXKXKXKXKXKXKX",
"KXKXKXKXKXKXKXKXKXKXKXKXKXKXKXKXKXKXKXQ v d ; ; - z Q / S.! Q Q Q ! F.W.E.R.G.R.E.8X~.E.W.G.F.F.L.L.S.W T  .X.*.=.:.:.:.:.*.X.....{ } { ..*.:.sXgXcXvXvXcXgXpX=.*.*.:.sXgXzXxXbXVXCXAXAXCXVXcX>.} 3 4 z f - @ @ KXKXKXKXKXKXKXKXKXKXKXKXKXKXKXKXKXKXKXKXKXKXKXKX",
"KXKXKXKXKXKXKXKXKXKXKXKXKXKXKXKXKXKXKXQ v d - ; ; s v ! S.S./ W Q Q S.T.E.T.R.R.W.E.8X8X~.G.S.S.L.T.F.! T E } { X.-.:.>.>.>.>.:.*.o.} 0 0 [ { X.:.aXzXbXbXbXcXaX-...X.-.>.gXcXnXVXCXAXAXAXVXzX>.} 3 - c f - @ + KXKXKXKXKXKXKXKXKXKXKXKXKXKXKXKXKXKXKXKXKXKXKXKX",
"KXKXKXKXKXKXKXKXKXKXKXKXKXKXKXKXKXKXKXKXKXf f d s - d v W S.S./ Q T ! F.R.W.E.E.T.T.~.9X8XR.S.S.L.T.F.! v 4 3 1 9 0 [ { ..X.*.*.*.X...} 0 9 9 [ ..=.pXgXxXbXbXxXgX>.*.X.X.>.gXxXbXCXAXAXZXnXlX,.| 4 - z z s KXKXKXKXKXKXKXKXKXKXKXKXKXKXKXKXKXKXKXKXKXKXKXKXKXKX",
"KXKXKXKXKXKXKXKXKXKXKXKXKXKXKXKXKXKXKXKXKXT T f s ; - z T / F.S.W T Q / F.W.~.E.R.L.E.9X9XW.D.F.R.T.F./ v s # O O o < 2 0 { X.-.:.:.:.*.X.{ [ ' [ { X.:.aXzXvXbXxXgX>.X...*.>.gXvXVXZXVXbXcXdX;.R z s s s KXKXKXKXKXKXKXKXKXKXKXKXKXKXKXKXKXKXKXKXKXKXKXKXKXKXKX",
"KXKXKXKXKXKXKXKXKXKXKXKXKXKXKXKXKXKXKXKXKXc c z s - - s c ! D.S./ W W ! S.T.~.~.T.L.E.9X9XE.G.G.L.L.F.^ W v f - = o 1 9 } *.>.aXfXzXzXfXdXsX:.X.[ 9 [ ..-.>.dXzXcXzXaX:.*.X.X.:.gXmXvXvXcXgX>.$.( c s ; ; KXKXKXKXKXKXKXKXKXKXKXKXKXKXKXKXKXKXKXKXKXKXKXKXKXKXKX",
"KXKXKXKXKXKXKXKXKXKXKXKXKXKXKXKXKXKXKXKXKXKXx z z d s - d Q / S.S.^ ! W ! G.E.E.T.T.E.8X8XE.T.L.G.F.S.^ ! W Q z ; < 3 0 { -.pXgXcXvXbXvXxXfXsX-.} 2 2 0 } X.:.pXdXgXdXsX:...} X.>.gXMXgXhX>.-.+.R T d ; @ KXKXKXKXKXKXKXKXKXKXKXKXKXKXKXKXKXKXKXKXKXKXKXKXKXKXKX",
"KXKXKXKXKXKXKXKXKXKXKXKXKXKXKXKXKXKXKXKXKXKXKXKXQ v f s - z T W / S./ Q W S.G.R.W.E.E.E.E.E.W.G.S.^ ! ! ! W Q z 4 3 2 q } X.=.pXdXzXzXzXfXaX>.*.} 9 3 1 2 0 ..*.:.>.sXsX>...0 } -.>.pX>.:.&...R E c f KXKXKXKXKXKXKXKXKXKXKXKXKXKXKXKXKXKXKXKXKXKXKXKXKXKXKXKXKX",
"KXKXKXKXKXKXKXKXKXKXKXKXKXKXKXKXKXKXKXKXKXKXKX6.v v f d s s d v ! S.! Q Q W / F.T.E.T.G.G.L.R.F./ Q W ! ! W Q z 4 < 1 2 0 } X.-.>.sXaXdXaX>.=.X.{ 0 2 < < 3 9 [ { X.-.:.-.{ 0 ' ..*.*.X...} E x x d d KXKXKXKXKXKXKXKXKXKXKXKXKXKXKXKXKXKXKXKXKXKXKXKXKXKXKXKXKX",
"KXKXKXKXKXKXKXKXKXKXKXKXKXKXKXKXg.g.g.g.g.f.i.5.a d z c f s - d v W W Q T T Q / F.G.F.^ / S.D.S.! Q W ! ! W T d = O O < 2 0 } X.-.:.>.pXpX>.=.*...} 0 9 3 3 3 2 9 0 } { { [ 0 0 } { } [ n n x z s ; ; KXKXKXKXKXKXKXKXKXKXKXKXKXKXKXKXKXKXKXKXKXKXKXKXKXKXKXKXKX",
"KXKXKXKXKXKXKXKXKXKXKXKXKXKXKXg.g.g.g.f.s.a.u.7.a t f v v d - - d f f f f f c Q / / / Q Q W ! W Q T Q Q Q Q T z ; < 1 9 ' { *.:.sXgXfXzXzXfXgXsXpX:.*.X.{ } [ 0 9 2 9 0 0 9 9 9 0 0 q 6 6 x z s ; @ @ KXKXKXKXKXKXKXKXKXKXKXKXKXKXKXKXKXKXKXKXKXKXKXKXKXKXKXKXKX",
"KXKXKXKXKXKXKXKXKXKXKXKXKXg.g.g.g.g.f.a.i.u.9.4.2.u a v v f s - - - s z z d s z b T T T c c c c c c T T Q Q T b 6 9 0 } X.=.pXgXxXBXVXZXVXVXbXvXcXfXaX>.:.=.*...0 9 3 3 3 3 3 3 2 w 4 ; - s d s = @ + KXKXKXKXKXKXKXKXKXKXKXKXKXKXKXKXKXKXKXKXKXKXKXKXKXKXKXKXKX",
"KXKXKXKXKXKXKXKXKXKXKXKXa.f.g.g.f.s.i.9.7.4.3.1.i p t m n x x E | +.;.Q.;.R - ; ; - ; - - - s s s d R +.$.+.R E 6 2 0 } ..*.:.pXdXMXzXzXfXgXgXdXaXpX:.-.X.....} 9 2 3 3 1 < < = = = ; ; ; - - ; = KXKXKXKXKXKXKXKXKXKXKXKXKXKXKXKXKXKXKXKXKXKXKXKXKXKXKXKXKXKXKX",
"KXKXKXKXKXKXKXKXKXKXKXi.a.f.g.f.s.u.9.3.2.i i p u u t x 0 0 } X.:.aXzXvXlX-.6 : ; - - z z x z x x R $.5XaX>.*.{ 0 2 9 0 } } { X.*.-.-.*.*.*.X.X.X...{ } 0 9 9 2 3 3 2 9 w 1 < # # @ $ ; ; ; = @ KXKXKXKXKXKXKXKXKXKXKXKXKXKXKXKXKXKXKXKXKXKXKXKXKXKXKXKXKXKXKXKX",
"KXKXKXKXKXKXKXKXKXKXKXa.a.f.g.f.i.9.4.2.i p KXM N N |  ...O.O.X.-.:.iXsX>.*. .o.-.,.Q.5XsXsXhXhXjXkXmXnXmXgX>.-...} 0 9 2 2 9 0 } { { } } } } } } } [ 0 9 9 2 3 1 3 0 } { } 0 4 = @ @ = = @ @ + KXKXKXKXKXKXKXKXKXKXKXKXKXKXKXKXKXKXKXKXKXKXKXKXKXKXKXKXKXKXKXKX",
"KXKXKXKXKXKXKXKXKXKXKXa.s.f.g.s.u.7.3.i p KXKXKX:.:.:.:.<.-.*.*.*.*.X.....X.*.>.dXzXvXbXVXVXCXAXGXGXSXAXBXzXaX:.*...[ 9 2 2 9 0 } { ............X.X.X...{ } 0 9 2 9 } *.-.X.{ 0 = @ @ @ = = = = KXKXKXKXKXKXKXKXKXKXKXKXKXKXKXKXKXKXKXKXKXKXKXKXKXKXKXKXKXKXKXKX",
"KXKXKXKXKXKXKXKXKXKXKXa.a.f.g.s.u.9.4.KXKXKXKXKXpXpXsXdXgXgXgXdXsXpX=.X.....X.&.-.:.iXhXMXxXbXCXAXAXCXbXcXdX>.-...{ } O...X.*.-.:.>.sXdXgXfXzXcXvXvXxXzXdX>.*...} } X.=.:.*.{ q ; @ @ @ = n  .o.KXKXKXKXKXKXKXKXKXKXKXKXKXKXKXKXKXKXKXKXKXKXKXKXKXKXKXKXKXKXKXKX",
"KXKXKXKXKXKXKXKXKXKXKXu.i.s.g.s.i.0.9.KXKXKXKXKXsXaXdXfXzXcXxXvXvXcXdX>.*.X...{ { ..*.:.sXdXfXzXzXzXzXgXsX,.*.X.....*.:.pXsXsXsXsXdXfXxXbXVXCXAXSXGXSXCXvXgX>.-.X...X.*.*...n 6 ; = @ # 6  .=.>.KXKXKXKXKXKXKXKXKXKXKXKXKXKXKXKXKXKXKXKXKXKXKXKXKXKXKXKXKXKXKXKX",
"KXKXKXKXKXKXKXKXKXKXKX9.0.a.f.f.a.i.0.7.4.KXKXKXpXsXsXaXdXfXcXnXCXAXVXcXaX:.X...X.-.>.sXdXaXpX>.=.*.*.-.*.X.....X.=.sXfXcXcXzXgXpX>.pXaXgXzXxXbXbXVXbXxXlXaX>.-...} } } 0 9 3 1 3 4 6 q [ ..*.=.KXKXKXKXKXKXKXKXKXKXKXKXKXKXKXKXKXKXKXKXKXKXKXKXKXKXKXKXKXKXKXKX",
"KXKXKXKXKXKXKXKXKXKXKX4.7.u.a.f.f.s.i.9.8.8.KXKX;.:.:.:.,.>.aXzXVXAXAXCXbXgX>.-.*.-.>.aXgXdXsX>.:.=.:.:.:.=.-.:.pXdXcXbXBXbXxXgX>.=.-.=.:.>.sXaXaXaXaXsX>.:.-.X.} 0 9 3 1 o O o < 3 9 0 } ..X.*.KXKXKXKXKXKXKXKXKXKXKXKXKXKXKXKXKXKXKXKXKXKXKXKXKXKXKXKXKXKXKXKX",
"KXKXKXKXKXKXKXKXKXKXKX2.3.9.i.s.f.g.s.a.u.0.7.6.@.........X.*.>.dXxXVXSXSXVXzXsX*...X.:.sXgXcXvXvXbXbXvXvXvXvXvXnXbXBXVXbXvXzXdXuX=.*.X...X.X.X.X.X.X.X...{ } 0 2 < o o o o O O O o 1 9 [ { ..X.KXKXKXKXKXKXKXKXKXKXKXKXKXKXKXKXKXKXKXKXKXKXKXKXKXKXKXKXKXKXKXKX",
"KXKXKXKXKXKXKXKXKXKXKXi 1.4.9.u.a.f.f.s.a.i.0.8.t.N N N b | ..&.:.sXzXVXCXVXxXaX*.{ } ..*.:.sXgXcXvXvXbXnXnXnXnXnXvXxXzXgXhX@X@X<.#.#.O.D D D D 0 0 0 0 0 9 2 3 < o o < < < o O X X o 3 9 [ { ..X.KXKXKXKXKXKXKXKXKXKXKXKXKXKXKXKXKXKXKXKXKXKXKXKXKXKXKXKXKXKXKX",
"KXKXKXKXKXKXKXKXKXKXKXKXKX1.3.7.9.u.i.a.a.s.s.a.i.p.q.8.6.M | ..X.*.:.sXhXdXaX>.-...[ q 9 q [ ..*.:.>.sXsXaXaXaXaXsX,.<.#.#.) ) ) L H H G S S A 9 9 w 2 3 3 1 1 < < 1 3 3 1 < o o o o < 3 9 0 } X.*.KXKXKXKXKXKXKXKXKXKXKXKXKXKXKXKXKXKXKXKXKXKXKXKXKXKXKXKXKXKX",
"KXKXKXKXKXKXKXKXKXKXKXKXKXKX1.1.3.4.8.0.u.a.s.f.f.f.a.i.q.6.t.N N N @.o.X.&.*.*.X...} 0 9 2 1 2 0 } O...X.X.#.#.#.#.#.#.) L K K J (./.).)././.L L L F A 5 5 3 1 e o o < 1 < < < 1 1 1 3 3 2 9 0 } ..X.*.KXKXKXKXKXKXKXKXKXKXKXKXKXKXKXKXKXKXKXKXKXKXKXKXKXKXKXKX",
"KXKXKXKXKXKXKXKXKXKXKXKXKXKXKXKXi i 1.3.7.9.u.a.s.s.f.s.s.a.i.p.q.8.a m q 0 n n [ } ..X.X.} 9 3 2 2 2 2 5 A S G K L _.).).)._._.).`.{..XoX$X$X$XOXXX'.J H D q 2 o X X X X O o 1 2 9 0 0 0 9 2 2 9 0 O.*.=.:.:.:.KXKXKXKXKXKXKXKXKXKXKXKXKXKXKXKXKXKXKXKXKXKXKXKX",
"KXKXKXKXKXKXKXKXKXKXKXKXKXKXKXKXKXp p i 2.3.7.9.0.i.a.s.s.f.f.s.s.i.8.6.a a a t x } *.pXaX>.-...0 2 < * & V C H K (.`.|..X.X|.{.'.`.`.'.|.oX#X%X%X%X$X.X`.) F 5 < O X X X O < 9 [ { ..o...} 0 9 9 9 0 { X.=.>.>.:.KXKXKXKXKXKXKXKXKXKXKXKXKXKXKXKXKXKXKXKXKXKXKX",
"KXKXKXKXKXKXKXKXKXKXKXKXKXKXKXKXKXKXKXu p p 2.1.4.7.9.u.i.a.s.s.f.s.s.a.i.9.4.p t n -.gXmXvXcXsXX.0 5 & & C H J ).`.{..XoXoXoX.X.X|.).(./.'.oX#X%X%X%XOX.X`.K F A 3 e O O < 2 [ ..*.=.:.:.-.X.{ 0 9 9 9 } *.>.pX>.:.:.KXKXKXKXKXKXKXKXKXKXKXKXKXKXKXKXKXKXKXKXKX",
"KXKXKXKXKXKXKXKXKXKXKXKXKXKXKXKXKXKXKXKXKXKXKXi 2.1.3.4.9.0.u.i.i.a.s.f.s.i.9.4.p M @.;.dXvXVXcX:.{ 9 & V G J ).`.`.).J H H K )..X$X.X`./.J (.).'..X|.'.`.(.J J ) ) F 3 < 2 0 { *.:.>.sXsX>.:.*.} 0 2 3 9 [ ..*.:.pX>.:.KXKXKXKXKXKXKXKXKXKXKXKXKXKXKXKXKXKXKXKX",
"KXKXKXKXKXKXKXKXKXKXKXKXKXKXKXKXKXKXKXKXKXKXKXKXp p i 1.5.7.8.9.9.0.i.a.s.i.0.7.3.p M | =.cXCXbXsXX.D A V G J ).'.`.K V % % & G |.$X$X.X'.K S G K J K H H H K )..XXX) D 2 q } X.-.>.sXaXdXaXsX:.*.{ 0 9 3 3 9 } *.>.>.:.:.:.KXKXKXKXKXKXKXKXKXKXKXKXKXKXKXKXKXKX",
"KXKXKXKXKXKXKXKXKXKXKXKXKXKXKXKXKXKXKXKXKXKXKXKXKXKXr.r.r.5.3.3.4.7.9.u.u.0.8.4.1.p t m o.gXZXbXdX-.O.A V C H (.`.).H B % % % & S K |.oXoX`.H S C C C V V C H )..XoX}.D q ' ..X.=.>.pXsXdXgXgXaXpX:.X.{ 0 2 3 9 [ ..-.>.pX>.:.KXKXKXKXKXKXKXKXKXKXKXKXKXKXKXKXKX",
"KXKXKXKXKXKXKXKXKXKXKXKXKXKXKXKXKXKXKXKXKXKXKXKXKXKXB.b.M.k a p p p 1.4.7.4.3.1.i u t 4 O.aXbXvXaX*.} A B V S H /./.K C & % % % % & J oX#X.X).J H G C C C H (.'.oXoX}.#.O.O.o.*.=.>.pXsXaXgXfXfXgXaXpX=.X.} 9 3 3 9 { =.>.>.:.:.KXKXKXKXKXKXKXKXKXKXKXKXKXKXKXKX",
"KXKXKXKXKXKXKXKXKXKXKXKXKXKXKXKXKXKXKXKXKXKXKXKX-XJ.^ T x x m s $ $ r p i i p p p u t x ..pXzXfX:...D & & & V S K /.(.K G V % % % & G '.oXoXoX.X|.'.'.'.|. X.XoX$XOXoXXX}.#.X.*.=.>.>.pXsXdXgXfXzXzXfXgXsX-.{ 0 2 2 9 } X.:.pXpX:.=.KXKXKXKXKXKXKXKXKXKXKXKXKXKX",
"KXKXKXKXKXKXKXKXKXKXKXKXKXKXKXKXKXKXKXKXKXKXKXKXA.J.^ x 7 q ' ' 0 q 4 y r r r r r t m | X.>.sX>...0 5 V B B B V G K J J K H S C C G J '..X#X%X$X|.'. X#X%X%X%X#X.X|..XoXOX}.X.X.-.<.:.>.>.sXaXgXzXcXvXvXzXaX:...0 2 3 9 [ X.:.>.>.>.,.KXKXKXKXKXKXKXKXKXKXKXKXKX",
"KXKXKXKXKXKXKXKXKXKXKXKXKXKXKXKXKXKXKXKXKXKXKXKXA.J.^ E q [ ..*.:.=.| 3 + + # # = 6 } X.-.=.*...9 3 A H H C & & B C C G K _.`.'.|.|..XoX$X%X%X.XK S /.#X*X*X*XoXJ S J .XXX}.O.{ o.X.*.-.=.:.:.pXgXzXvXVXbXxXgX:...0 3 3 w [ o.=.pXaXsX:.=.KXKXKXKXKXKXKXKXKXKXKX",
"KXKXKXKXKXKXKXKXKXKXKXKXKXKXKXKXKXKXKXKXKXKXKX-XA.N.^ E [ ..*.,.sXsX*.' 1 , , < 1 9 [ ....{ [ q 5 A H )._.Z : @ @ : : V S H (.`.'.|.|..XoX%X%XoX/.K }.%X*X*X*XoX/.H )..XXX#.D 0 ' } { ....X.%.=.>.dXzXbXbXbXcXaX-.} 9 3 4 E ( $.,.pXpXpXpXKXKXKXKXKXKXKXKXKXKXKX",
"KXKXKXKXKXKXKXKXKXKXKXKXKXKXKXKXKXKXKXKXKXKX<X-XZ.m.~ R { *.>.sXsXsX:.X.} 9 1 1 3 2 w w 2 1 1 5 A H `..X'.P y y r y $ : & B V V C H J ).{..XOX$XoXoX#X#X%X%X%X#XoX.XoXOX|.L 5 3 2 2 9 0 0 [ } ..*.:.aXzXxXvXxXfXpX*.} 9 6 ~ H.H.$.<.uXhXgXKXKXKXKXKXKXKXKXKXKXKX",
"KXKXKXKXKXKXKXKXKXKXKXKXKXKXKXKXKXKXKXKXKX2X<X-XC.b.!  .&.>.hXdXaXpX:.X.} 9 3 < 1 1 < < o o o 5 S K `..X|._ P f l h l g P P P P Y Y _ K H J /.`.|.|. X|.|. X X X X|.'.`.) E d - 4 1 1 2 w 9 9 0 } X.-.>.sXgXfXgXsX:.o.0 E ^ -X:X=XY.Q.sXaXdXKXKXKXKXKXKXKXKXKXKX",
"KXKXKXKXKXKXKXKXKXKXKXKXKXKXKXKXKXKXKXKXKX1X<X-Xn.M./ $.,.dXzXfXaX>.*.{ 0 2 1 e o o o o o e < 5 A H (.`.|.|.|.[.Y x.x.c.m.N.V.K.-X:X` P V V C S H K J J _._._._._._.K S Z P I l z 6 2 2 2 3 3 w 9 [ } ..*.:.>.sXsXpX*.} R H.:X1X1X:X7X;.:.pXdXgXKXKXKXKXKXKXKXKX",
"KXKXKXKXKXKXKXKXKXKXKXKXKXKXKXKXKXKXKXKXKX;X-XZ.v.M.S.Q.aXMXzXfXpX-...0 8 1 , o o o O O O o e 5 A H J ).'. X.X{._ Y Y m.I.I.C.C.V.V.B.Y Y ` ` [.=X=X=X,X,X,X,X,X=X=X` Y Y b.N.m.^ ! Q T f 6 2 7 w 9 q 0 } ..*.=.>.>.-.{ R S.-X1X4X2X:XY.Y.;.>.uXKXKXKXKXKXKXKXKX",
"KXKXKXKXKXKXKXKXKXKXKXKXKXKXKXKXKXKXKXKXKX-XZ.C.c.b.Y.5XgXlXlXaX:...[ 8 1 = # = 3 3 1 1 < o o = V G H J ).'.|.|.`._.` B.m.c.z.z.z.z.v.V.-X;X2X4X4X0X0XrXyXyXrX0X2X;X-XJ.Z.Z.Z.Z.K.J.Z.V.b.W E q 9 6 w 9 9 0 } ..-.=.&.{ R ^ J.-X2X4X1X-XP./ +.X.KXKXKXKXKXKXKXKX",
"KXKXKXKXKXKXKXKXKXKXKXKXKXKXKXKXKXKXKXKX2X-XV.m.^ ( ;.sXgXgXaX,.X.[ 8 , = ; g f n n } ..} 9 o * & V C G K (.`.'.{.'.]._ Y B.N.C.C.N.n.n.n.C.Z.K.K.-X-X;X;X;X;X-XK.Z.V.V.V.Z.K.-X<X2X4X2X1X:XH.^ U f d 4 7 8 q [ { ..{ [ E ~ m.C.A.-XA.V.N.b.~ W R { KXKXKXKXKXKX",
"KXKXKXKXKXKXKXKXKXKXKXKXKXKXKXKXKXKXKX0X2X-XN.b.( o.<.pXsXpX:.X.} 9 3 = - f I ~ +.X.=.>.:...9 < * & & V C G J ).'.|.'.).].[.=X-XJ.J.N.c.z.z.c.m.N.C.V.V.V.V.V.C.C.C.N.N.C.V.Z.-X2X0XrXyXyX0X2X-XC.M.U x 6 w 2 9 9 0 q 9 x v I z.c.m.N.N.m.m.b./ +.o.o.KXKXKXKXKX",
"KXKXKXKXKXKXKXKXKXKXKXKXKXKXKXKXKXKXKX2X<XZ.c.I R { &.:.:.-.X.[ w 3 d U ^ ! ( +.;.>.sXdXaX>.*.o.{ D 5 & & V C H J ).`.`.'.].[.[.[.[.H.J.K.A.K.-X;X1X2X4X4X2X1X<X-X-XK.Z.V.V.V.J.;X2X0XrXrXrX3X2X;XJ.N.b.Q z 4 3 2 2 2 2 4 g h k W ( $.Y.Y.Q.Q.Q.,.:.=.&...KXKXKX",
"KXKXKXKXKXKXKXKXKXKXKXKXKXKXKXKXKXKXKX;X-XC.z.k T } O.X.X.O.[ q 4 d ^ J.:XY.X.*.,.sXdXgXgXaX>.=.X.} 8 * % % & V S H J ).`.'.`.`./._.[.,X>X>X>X>XqXtXtXtXtXtXqX>X>X:X-XZ.C.n.n.C.K.;X1X2X3X3X3X3X2X1X-XV.b.f 4 1 1 1 1 3 4 f l W +.=.uXaXgXfXlXfXgXaX:.*...KXKXKX",
"KXKXKXKXKXKXKXKXKXKXKXKXKXKXKXKXKXKXKX-XZ.N.z.I T [ } } [ q 2 x W B.;X0XqX6X,.:.:.:.pXaXsX>.-.X.} 9 3 e O % % % & B C H K J (./.`.'.XX+X+X+X+X&X&XeXeXeXeXeX+X+X[.[.Y I x.x.z.c.N.V.J.-X;X<X2X4X3X4X<XV.b.v 6 1 < 1 1 2 q | +.;.aXzXvXbXVXBXbXvXcXgX>.X...KXKXKX",
"KXKXKXKXKXKXKXKXKXKXKXKXKXKXKXKXKXKXKXZ.N.b.U f b n 0 0 9 4 ; f b.A.2XrXqX6X,.<.=.-.:.>.>.*...[ 9 3 3 ; ; ; : : : : : V C C G H J /.`.|.|. X|. X X XoX$XoX|.).) _ _ P l h j e.x.z.m.N.V.Z.-X;X1X2X2X-XC.b.v 6 2 1 3 9 0 { *.>.hXzXvXvXvXvXcXzXgXdXpX-...} KXKXKX",
"KXKXKXKXKXKXKXKXKXKXKXKXKXKXKXKXKXKXKXC.b.Q z 4 9 0 q 9 6 s l k z.C.-X1X>XY.X.X.&.*.-.-.*...[ 9 1 = s l k k k k l g s : & & B B V C G H K K K K H H H H G A 5 - P U I h h h h j e.z.c.n.C.Z.K.-X-X-XV.c.I f 6 2 2 9 0 ..-.pXgXlXfXgXsX>.=.*.&.X.o...} 0 9 KXKXKX",
"KXKXKXKXKXKXKXKXKXKXKXKXKXKXKXKXKXKXKXn.b.f 3 1 2 9 9 9 6 b v ~ ~ D.H.J.P./ } } O.......} 0 2 3 ; s l x.z.z.x.e.e.h g : % % % & & B V C S G S C C V A A 5 * X # s l k j j j j j j e.x.x.z.n.N.C.C.N.v.z.k f 6 w w 9 } X.=.pXaXsX>.<.X.{ [ 0 0 0 0 9 9 2 3 KXKXKX",
"KXKXKXKXKXKXKXKXKXKXKXKXKXKXKXKXKXKXKXn.b.f = , 1 9 0 0 } |  .o.o.+./ b.I v 9 q 0 0 0 9 9 1 < ; l I z.m.c.z.x.x.KXKXKXKXKXKXKXKXKXKXKXKXKXKXKXKXKXKXKXD q 2 o o 3 4 f k x.x.x.j j h h j j e.x.z.z.z.z.x.k f 6 8 9 0 } X.*.-.-.X.{ [ q 9 2 2 9 9 9 9 2 3 3 KXKXKX",
"KXKXKXKXKXKXKXKXKXKXKXKXKXKXKXKXKXKXKXU f z 2 9 0 } ..*.-.:.>.>.:.=.+.Q f s 3 1 2 9 2 1 3 ; s l M.n.n.c.z.x.e.j KXKXKXKXKXKXKXKXKXKXKXKXKXKXKXKXKXKXKXKX0 w 3 w q E R W ! ! ! W f g l k e.e.x.e.e.j k l v x q q 0 [ } ......} [ 0 9 9 9 0 [ } } } 0 9 2 3 KXKXKX",
"KXKXKXKXKXKXKXKXKXKXKXKXKXKXKXKXKXKXKX3 3 w 0 } ..*.:.>.sXdXgXgXaX5X=. .n 2 < e 1 1 < o = g I c.C.V.N.z.e.j h h KXKXKXKXKXKXKXKXKXKXKXKXKXKXKXKXKXKXKXKXKX9 9 [ { o...| |  . .} 0 6 f k x.x.x.j j h f x q 0 0 0 [ } } } [ 0 9 9 0 0 } ..X.-.:.=.*...} 9 2 KXKXKX",
"KXKXKXKXKXKXKXKXKXKXKXKXKXKXKXKXKXo o , 1 8 0 } { ..%.-.:.>.>.>.>.:.=.&.{ q < o o e o O = U m.C.C.n.z.e.j h h KXKXKXKXKXKXKXKXKXKXKXKXKXKXKXKXKXKXKXKXKXKXKXKX0 0 0 9 8 w 9 9 w 1 < ; s g g f g g s s 9 q 0 0 0 [ [ 0 0 9 9 9 [ ..-.>.aXgXzXzXgXsX:.X.[ 9 KXKXKX",
"KXKXKXKXKXKXKXKXKXKXKXKXKXKXKXKXo o < 1 2 9 0 0 0 0 [ } { ......o.X.*.*.X.[ 3 , o o O # - U N.C.c.x.j h h KXKXKXKXKXKXKXKXKXKXKXKXKXKXKXKXKXKXKXKXKXKXKXKXKXKXKXX X X X X X X X X X O O # = < < < 1 2 9 9 0 0 0 0 0 9 9 9 0 } *.pXfXvXVXAXAXCXbXzXsX-.} 0 KXKXKX",
"KXKXKXKXKXKXKXKXKXKXKXKXKXKX1 1 1 1 3 2 9 9 0 0 0 0 0 0 0 0 0 0 0 [ } ....[ 9 3 , # - f U b.v.c.x.j h h KXKXKXKXKXKXKXKXKXKXKXKXKXKXKXKXKXKXKXKXKXKXKXKXKXKXKXKXKXKXKXKXKXKXKXKXKXKXO O o o o e , < 1 2 2 2 2 2 9 9 9 0 } X.:.aXcXVXAXSXGXGXSXVXfX>.*.{ [ KXKXKX",
"KXKXKXKXKXKXKXKXKXKXKXKXKX3 3 2 9 9 0 0 [ } } { { { } } [ 0 0 9 9 9 0 [ [ [ 0 8 < = f I c.z.x.e.j h KXKXKXKXKXKXKXKXKXKXKXKXKXKXKXKXKXKXKXKXKXKXKXKXKXKXKXKXKXKXKXKXKXKXKXKXKXKXKXKXKXO o o o o < 1 1 3 3 3 3 2 9 0 [ { *.>.dXxXVXSXGXGXGXSXAXvXsX-.o.{ } KXKXKX",
"KXKXKXKXKXKXKXKXKXKXKXKXKX0 0 0 } } ....X.-.:.:.,.:.:.=.*.X...} 0 9 9 9 9 0 0 9 2 3 s k e.e.j h h KXKXKXKXKXKXKXKXKXKXKXKXKXKXKXKXKXKXKXKXKXKXKXKXKXKXKXKXKXKXKXKXKXKXKXKXKXKXKXKXKXKXO o o , < 1 1 3 3 2 9 9 0 } ..X.-.>.aXzXvXVXAXAXAXAXVXvXdX=...{ KXKXKXKXKX",
"KXKXKXKXKXKXKXKXKXKXKXKXKX[ } } ..X.*.-.:.sXdXgXfXfXgXdXsXpX:.*...} 0 9 9 9 9 9 2 3 s l h h h h KXKXKXKXKXKXKXKXKXKXKXKXKXKXKXKXKXKXKXKXKXKXKXKXKXKXKXKXKXKXKXKXKXKXKXKXKXKXKXKXKXKXo O o o < 1 1 3 3 2 9 9 0 } ..*.=.>.sXdXfXcXvXbXbXbXvXfXsX=...[ 0 KXKXKXKXKX",
"KXKXKXKXKXKXKXKXKXKXKX9 0 [ } ..X.-.=.:.pXgXcXvXbXbXbXvXzXgXaX>.=.X.{ 0 9 2 2 3 1 3 s l h h KXKXKXKXKXKXKXKXKXKXKXKXKXKXKXKXKXKXKXKXKXKXKXKXKXKXKXKXKXKXKXKXKXKXKXKXKXKXKXKXKXKX1 < o o o o < 1 1 3 2 9 0 0 [ } ..&.-.:.>.>.sXsXdXgXdXaXpX:.X.{ 0 9 9 KXKXKXKXKX",
"KXKXKXKXKXKXKXKXKXKXKX9 9 0 [ { X.*.-.=.>.aXzXxXbXbXbXbXvXzXgXsX>.-...} 9 2 1 < , = ; g h KXKXKXKXKXKXKXKXKXKXKXKXKXKXKXKXKXKXKXKXKXKXKXKXKXKXKXKXKXKXKXKXKXKXKXKXKXKXKXKXKXKX1 < < < < < < 1 1 1 1 2 9 9 0 0 } { ..X.*.*.-.-.=.:.:.=.*.X.{ 0 9 9 2 KXKXKXKXKXKX",
"KXKXKXKXKXKXKXKXKXKXKX1 3 9 0 [ } ....X.*.:.>.aXgXfXzXcXcXzXgXsX>.-.X.} 0 3 < o O o # KXKXKXKXKXKXKXKXKXKXKXKXKXKXKXKXKXKXKXKXKXKXKXKXKXKXKXKXKXKXKXKXKXKXKXKXKXKXKXKXKXKXKX1 < o o < 3 2 2 2 3 3 1 3 3 2 2 9 9 0 [ } } { ..........{ } 0 9 2 3 KXKXKXKXKXKXKXKX",
"KXKXKXKXKXKXKXKXKXKX2 1 1 3 9 9 0 } } { ..X.*.=.:.>.sXsXsXsX>.:.*.X.{ [ 9 3 o O O O KXKXKXKXKXKXKXKXKXKXKXKXKXKXKXKXKXKXKXKXKXKXKXKXKXKXKXKXKXKXKXKXKXKXKXKXKXKXKXKXKXKXKX1 < < o o 1 9 0 0 [ 0 0 9 9 2 3 3 3 2 2 9 9 9 0 0 0 0 0 0 9 9 3 1 < o KXKXKXKXKXKXKXKX",
"KXKXKXKXKXKXKXKX} [ 9 3 1 1 3 2 9 0 [ } } { ....X.X.X.*.X.X...{ } ] 0 9 2 1 o O KXKXKXKXKXKXKXKXKXKXKXKXKXKXKXKXKXKXKXKXKXKXKXKXKXKXKXKXKXKXKXKXKXKXKXKXKXKXKXKXKXKXKX2 2 1 o O O o 3 0 } ..X.X.o...} 0 9 2 3 3 3 3 3 3 3 3 3 3 3 3 3 1 < < o o KXKXKXKXKXKXKXKX",
"KXKXKXKXKXKXKXKX{ } 0 9 3 1 < 1 2 9 q 0 ] [ } } } { { } } [ 0 0 9 9 9 2 3 < o O KXKXKXKXKXKXKXKXKXKXKXKXKXKXKXKXKXKXKXKXKXKXKXKXKXKXKXKXKXKXKXKXKXKXKXKXKXKXKXKXKXKXKX2 2 1 o O O o 1 9 [ ..*.-.=.=.*.X...{ } 0 9 2 3 1 < < < < < < = o o o o KXKXKXKXKXKXKXKXKX",
"KXKXKXKXKXKXKXKX....} [ 9 3 < o 1 3 2 9 0 0 0 0 [ [ [ 0 0 9 9 8 2 2 2 3 1 < o O KXKXKXKXKXKXKXKXKXKXKXKXKXKXKXKXKXKXKXKXKXKXKXKXKXKXKXKXKXKXKXKXKXKXKXKXKXKXKXKXKXKXKX2 2 3 1 < o o < 3 9 } ..*.:.>.>.>.:.:.-.X...} 9 2 < e o o o o O o o KXKXKXKXKXKXKXKXKXKXKX",
"KXKXKXKXKXKXKXKX......{ } 9 1 < < 1 1 3 2 2 2 2 2 2 2 3 3 1 1 1 1 1 < < o o o O KXKXKXKXKXKXKXKXKXKXKXKXKXKXKXKXKXKXKXKXKXKXKXKXKXKXKXKXKXKXKXKXKXKXKXKXKXKXKXKXKXKXKX9 9 9 2 3 1 < < 1 3 9 0 } X.*.=.:.>.pXsXsX>.:.X.} 0 3 < o o O O O KXKXKXKXKXKXKXKXKXKXKXKX",
"KXKXKXKXKXKXKXKX} } ..X...} 9 2 1 1 1 1 1 1 < < o o o o o o o o o o o o O O O O KXKXKXKXKXKXKXKXKXKXKXKXKXKXKXKXKXKXKXKXKXKXKXKXKXKXKXKXKXKXKXKXKXKXKXKXKXKXKXKXKXKXKX2 9 9 0 0 9 9 2 3 1 1 3 w 0 } ..*.=.>.aXgXgXdX>.&.} 9 1 o o O O KXKXKXKXKXKXKXKXKXKXKXKXKX",
"KXKXKXKXKXKXKXKX0 0 { X.X...} 0 2 1 < < < < < o o O O O O O O O O O O O O O KXKXKXKXKXKXKXKXKXKXKXKXKXKXKXKXKXKXKXKXKXKXKXKXKXKXKXKXKXKXKXKXKXKXKXKXKXKXKXKXKXKXKX1 3 3 9 0 } { ....} 0 9 3 1 1 3 9 0 } ..*.-.:.>.:.*...[ w < o O O O KXKXKXKXKXKXKXKXKXKXKXKXKX",
"KXKXKXKXKXKXKXKX3 9 [ ..*.*.X...} 0 0 9 9 2 3 1 < o o o o e o o o o o o o KXKXKXKXKXKXKXKXKXKXKXKXKXKXKXKXKXKXKXKXKXKXKXKXKXKXKXKXKXKXKXKXKXKXKXKXKXKXKXKXKXKXKX3 3 1 1 2 0 } X.-.=.*.X.} 0 3 < < 1 3 9 0 [ } { ....} 0 9 1 o O O O KXKXKXKXKXKXKXKXKXKXKXKXKXKX",
"KXKXKXKXKXKX0 2 < , 2 } X.-.:.>.>.>.:.-.X.{ [ 0 9 2 2 2 2 2 2 2 3 3 1 < < KXKXKXKXKXKXKXKXKXKXKXKXKXKXKXKXKXKXKXKXKXKXKXKXKXKXKXKXKXKXKXKXKXKXKXKXKXKXKXKXKXKXKX2 2 3 1 3 9 [ ..=.>.pX>.-.{ 9 3 1 < 1 1 3 2 9 9 0 0 9 2 1 < o O O KXKXKXKXKXKXKXKXKXKXKXKXKXKXKX",
"KXKXKXKXKX[ 0 9 1 o 1 q { *.>.dXzXcXzXgXaX:.*...} [ 0 0 0 0 9 9 9 2 3 1 < KXKXKXKXKXKXKXKXKXKXKXKXKXKXKXKXKXKXKXKXKXKXKXKXKXKXKXKXKXKXKXKXKXKXKXKXKXKXKXKXKXKXKX8 2 2 2 2 9 0 } *.>.sXsX>.*.} 9 2 1 1 < < < < 1 3 3 1 < < o o O KXKXKXKXKXKXKXKXKXKXKXKXKXKXKXKX",
"KXKXKXKXKX{ } [ 0 9 3 2 0 ..:.gXvXVXCXVXbXzXsX:.*.X.{ } 0 0 9 2 2 3 3 KXKXKXKXKXKXKXKXKXKXKXKXKXKXKXKXKXKXKXKXKXKXKXKXKXKXKXKXKXKXKXKXKXKXKXKXKXKXKXKXKXKXKXKXKX2 9 9 0 0 9 9 0 { X.:.>.>.=.X.{ 0 9 3 1 < o o o o e o o o O O O KXKXKXKXKXKXKXKXKXKXKXKXKXKXKXKX",
"KXKXKXKXKX........{ 0 9 9 } *.sXzXbXVXVXbXzXaX>.*...} [ 9 9 3 3 1 1 KXKXKXKXKXKXKXKXKXKXKXKXKXKXKXKXKXKXKXKXKXKXKXKXKXKXKXKXKXKXKXKXKXKXKXKXKXKXKXKXKXKXKXKXKXKX3 2 9 [ [ 0 9 9 0 } X.=.:.:.*.X.} 0 9 1 < o O O O O O O O O O O KXKXKXKXKXKXKXKXKXKXKXKXKXKXKXKX",
"KXKXKXKXKX....*.:.:.*.} 0 [ ..*.>.dXgXfXgXsX<.X.{ 0 9 2 1 < o o KXKXKXKXKXKXKXKXKXKXKXKXKXKXKXKXKXKXKXKXKXKXKXKXKXKXKXKXKXKXKXKXKXKXKXKXKXKXKXKXKXKXKXKXKXKXKXKX1 3 9 [ [ 0 9 2 9 0 } X.*.-.-.*...[ 9 3 < o O O O O O O O O KXKXKXKXKXKXKXKXKXKXKXKXKXKXKXKXKXKX",
"KXKXKXKXKXX.X.-.>.sX>.-.X.} [ } ..*.-.=.*.X.{ [ 9 3 1 < o O O KXKXKXKXKXKXKXKXKXKXKXKXKXKXKXKXKXKXKXKXKXKXKXKXKXKXKXKXKXKXKXKXKXKXKXKXKXKXKXKXKXKXKXKXKXKXKXKXKXo < 2 0 [ 0 9 2 3 2 0 } ..X.*.X.{ [ 9 3 < o o o o < o o O KXKXKXKXKXKXKXKXKXKXKXKXKXKXKXKXKXKXKX",
"KXKXKXKXKX*.*.=.>.sXaXdXpXX.0 9 9 0 0 0 9 9 2 3 < o o o o KXKXKXKXKXKXKXKXKXKXKXKXKXKXKXKXKXKXKXKXKXKXKXKXKXKXKXKXKXKXKXKXKXKXKXKXKXKXKXKXKXKXKXKXKXKXKXKXKXKXKXO o 3 9 0 0 0 9 3 1 2 0 } { ....} 0 9 3 < < < < 1 1 1 KXKXKXKXKXKXKXKXKXKXKXKXKXKXKXKXKXKXKXKXKX",
"KXKXKXKXKX*.*.-.,.pXaXdXpX*.[ w 3 1 < < < < o < < 1 3 2 2 KXKXKXKXKXKXKXKXKXKXKXKXKXKXKXKXKXKXKXKXKXKXKXKXKXKXKXKXKXKXKXKXKXKXKXKXKXKXKXKXKXKXKXKXKXKXKXKXKXKXKXO o < 3 9 9 0 9 3 1 3 9 0 [ } } 0 9 3 < = < < 1 1 3 KXKXKXKXKXKXKXKXKXKXKXKXKXKXKXKXKXKXKXKXKXKX",
"KXKXKXKXKX..X.*.:.>.>.>.=.X.} 9 1 o O o o o o 1 2 9 0 [ } KXKXKXKXKXKXKXKXKXKXKXKXKXKXKXKXKXKXKXKXKXKXKXKXKXKXKXKXKXKXKXKXKXKXKXKXKXKXKXKXKXKXKXKXKXKXKXKXKXKXKXO o o < 3 w 9 9 3 1 1 2 9 9 0 0 9 2 1 o o o < 1 KXKXKXKXKXKXKXKXKXKXKXKXKXKXKXKXKXKXKXKXKXKXKXKX",
"KXKXKXKXKX[ } { X.*.*.*.X.{ 0 9 1 o O o < 3 9 0 } } } [ [ KXKXKXKXKXKXKXKXKXKXKXKXKXKXKXKXKXKXKXKXKXKXKXKXKXKXKXKXKXKXKXKXKXKXKXKXKXKXKXKXKXKXKXKXKXKXKXKXKXKXKXKXo o o < 3 9 2 1 < < 1 3 2 w 2 3 < o o o < 1 1 KXKXKXKXKXKXKXKXKXKXKXKXKXKXKXKXKXKXKXKXKXKXKXKX",
"KXKXKXKXKX2 2 9 [ } { } [ 0 2 1 o O o < 3 9 0 } { { } 0 9 KXKXKXKXKXKXKXKXKXKXKXKXKXKXKXKXKXKXKXKXKXKXKXKXKXKXKXKXKXKXKXKXKXKXKXKXKXKXKXKXKXKXKXKXKXKXKXKXKXKXKXKXKXKXO o 1 3 3 < o o < < 1 1 < o o O O o < 1 1 KXKXKXKXKXKXKXKXKXKXKXKXKXKXKXKXKXKXKXKXKXKXKXKX",
"KXKXKXKXKXO o < 3 2 9 9 2 1 o O X X X o < 3 9 9 0 0 0 KXKXKXKXKXKXKXKXKXKXKXKXKXKXKXKXKXKXKXKXKXKXKXKXKXKXKXKXKXKXKXKXKXKXKXKXKXKXKXKXKXKXKXKXKXKXKXKXKXKXKXKXKXKXKXKXO o o < < o O o o o o o O O X O O o o KXKXKXKXKXKXKXKXKXKXKXKXKXKXKXKXKXKXKXKXKXKXKXKXKXKX",
"KXKXKXKXKXKXX X X O o < o O X       X X O < 1 1 1 1 1 KXKXKXKXKXKXKXKXKXKXKXKXKXKXKXKXKXKXKXKXKXKXKXKXKXKXKXKXKXKXKXKXKXKXKXKXKXKXKXKXKXKXKXKXKXKXKXKXKXKXKXKXKXKXKXKXO O O O O O O o o < , o o O X O O o o KXKXKXKXKXKXKXKXKXKXKXKXKXKXKXKXKXKXKXKXKXKXKXKXKXKX",
"KXKXKXKXKXKXKXKX    X X X X             X X O O O O o 3 2 KXKXKXKXKXKXKXKXKXKXKXKXKXKXKXKXKXKXKXKXKXKXKXKXKXKXKXKXKXKXKXKXKXKXKXKXKXKXKXKXKXKXKXKXKXKXKXKXKXKXKXKXKXKXO O O O O O O < 3 2 2 3 1 < o O O o 1 2 KXKXKXKXKXKXKXKXKXKXKXKXKXKXKXKXKXKXKXKXKXKXKXKXKX",
"KXKXKXKXKXKXKXKXO X O O O X             X O o < o < 3 w 9 0 KXKXKXKXKXKXKXKXKXKXKXKXKXKXKXKXKXKXKXKXKXKXKXKXKXKXKXKXKXKXKXKXKXKXKXKXKXKXKXKXKXKXKXKXKXKXKXKXKXKXKXKXKXo o o o e < 2 0 } { O.{ } 0 2 1 e o 1 3 9 KXKXKXKXKXKXKXKXKXKXKXKXKXKXKXKXKXKXKXKXKXKXKXKX",
"KXKXKXKXKXKX0 9 9 9 9 2 3 < O X         X < 2 9 0 0 [ ] [ } } { KXKXKXKXKXKXKXKXKXKXKXKXKXKXKXKXKXKXKXKXKXKXKXKXKXKXKXKXKXKXKXKXKXKXKXKXKXKXKXKXKXKXKXKXKXKXKXKXKXKXKX< < < < 2 0 { *.:.pXpX>.:.X.} 0 3 < < 1 0 ..-.KXKXKXKXKXKXKXKXKXKXKXKXKXKXKXKXKXKXKXKXKXKX",
"KXKXKXKXKX*.X.X.X.X...{ } 9 1 o X   X X < 9 } ..X.*.*.*.*.*.*.*.KXKXKXKXKXKXKXKXKXKXKXKXKXKXKXKXKXKXKXKXKXKXKXKXKXKXKXKXKXKXKXKXKXKXKXKXKXKXKXKXKXKXKXKXKXKXKXKXKXKX} 9 9 2 9 0 ..=.pXgXzXzXzXgX>.*.{ q 3 < 1 9 { X.-.KXKXKXKXKXKXKXKXKXKXKXKXKXKXKXKXKXKXKXKXKX",
"KXKXKXsXaXdXgXgXaXsX>.:.*.{ 9 1 O X X o 2 } *.:.pXaXdXgXgXgXdXdXKXKXKXKXKXKXKXKXKXKXKXKXKXKXKXKXKXKXKXKXKXKXKXKXKXKXKXKXKXKXKXKXKXKXKXKXKXKXKXKXKXKXKXKXKXKXKXKXaXpX-.{ [ 0 [ ..-.uXdXzXxXvXvXcXgX>.*.{ 0 2 3 2 0 } X.:.sXdXdXpX=.X.KXKXKXKXKXKXKXKXKXKXKXKXKXKX",
"KXKXKX6X6X6X6XjXhXaXpX:.X.} 9 < O X X O 3 [ X.:.sXdXjX6X6XwXkXwXqXKXKXKXKXKXKXKXKXKXKXKXKXKXKXKXKXKXKXKXKXKXKXKXKXKXKXKXKXKXKXKXKXKXKXKXKXKXKXKXKXKXKXKXKXKXKX7X5X>.-...[ [ } X.:.sXdXfXzXxXvXcXfXdXpX:.&.{ 0 w 2 9 } X.-.:.:.=.*.X.X.KXKXKXKXKXKXKXKXKXKXKXKXKX",
"KXKXKXqXqX:XP.F.Q.>.=.X.} 9 < X X     X o 2 } X.,.sXY.G.P.qXtXrXqX1X<XKXKXKXKXKXKXKXKXKXKXKXKXKXKXKXKXKXKXKXKXKXKXKXKXKXKXKXKXKXKXKXKXKXKXKXKXKXKXKXKXKXKXA.J.P.Y.-.o.} 0 0 } X.=.>.sXsXdXgXgXfXfXfXfXgXsX=...n w 3 2 9 0 0 [ } ..X.*.:.>.,.,.,.KXKXKXKXKXKXKXKX",
"KX0X4X2X;XV.z.I ( ......} 9 o X         X o 3 [ X.;.$.b.C.;X3X0X3X4X2XKXKXKXKXKXKXKXKXKXKXKXKXKXKXKXKXKXKXKXKXKXKXKXKXKXKXKXKXKXKXKXKXKXKXKXKXKXKXKXKXKXZ.C.N.D.+...} 0 9 0 [ { *.=.:.>.>.>.sXhXfXlXjX6X5XY.Y.H.H.` E 3 > , 2 0 { *.:.sXsX5XY.7X7XKXKXKXKXKXKXKX",
"0X0X2X-XV.z.j g ; 1 q { { 0 < X             X 1 0 } W I c.Z.;X2X4X0X0XKXKXKXKXKXKXKXKXKXKXKXKXKXKXKXKXKXKXKXKXKXKXKXKXKXKXKXKXKXKXKXKXKXKXKXKXKXKXKXKXZ.V.n.z.k b q 9 9 9 9 9 [ ..X.X.*.*.-.:.pXgXfX6XG.V.J.;X4XrXqX=Xx o O 1 9 { *.pXdXjX7X:X-X2X0XrXKXKXKXKXKX",
"rX0X;XV.c.e.h y @ X , 9 0 9 < KXKXKXKXKX      X o 3 s l e.c.N.J.-X<X1XKXKXKXKXKXKXKXKXKXKXKXKXKXKXKXKXKXKXKXKXKXKXKXKXKXKXKXKXKXKXKXKXKXKXKXKXKXKXKXKXn.c.z.j l s 2 1 1 1 3 2 9 0 [ } } } ..X.:.aXgX5XP.C.Z.-X2XrXrX>X=XY x 2 q O.*.;.Y.R.P.K.<X2X0XrXyXKXKXKXKX",
"0X2X-Xn.e.j h y @   X o 1 KXKXKXKXKXKXKXKX        + $ l j e.x.v.V.Z.K.KXKXKXKXKXKXKXKXKXKXKXKXKXKXKXKXKXKXKXKXKXKXKXKXKXKXKXKXKXKXKXKXKXKXKXKXKXKXKXKXx.e.j h g ; < e o o o < 1 3 2 2 2 9 0 } &.>.sXY.D.n.C.Z.-X2X0X0X0X>X` 6 9 { o.( I z.n.Z.-X2X0XrXyXyXKXKXKX",
"-XK.Z.m.KXKXKXKXKXKXKXKXKXKXKXKXKXKXKXKXKXKXKXKXKXKXKXKXKXKXKXc.N.C.C.KXKXKXKXKXKXKXKXKXKXKXKXKXKXKXKXKXKXKXKXKXKXKXKXKXKXKXKXKXKXKXKXKXKXKXKXKXKXKXKXj j j KXs # o O X X X O O O o o o < 3 9 } &.-.+.I x.z.c.V.-X<X4X0X>X` 4 1 q E v l j x.c.V.-X;X2X4X3X2X2X1X",
"n.n.KXKXKXKXKXKXKXKXKXKXKXKXKXKXKXKXKXKXKXKXKXKXKXKXKXKXKXKXKXKXn.n.n.KXKXKXKXKXKXKXKXKXKXKXKXKXKXKXKXKXKXKXKXKXKXKXKXKXKXKXKXKXKXKXKXKXKXKXKXKXKXKXKXh h KXKXKXo O O X X X X X X X X X O < 2 0 {  .Q l h j x.c.C.-X1X2X:X` = > 1 4 d l h j x.c.C.K.-X;X<X<X<X<X",
"KXKXKXKXKXKXKXKXKXKXKXKXKXKXKXKXKXKXKXKXKXKXKXKXKXKXKXKXKXKXKXKXKXKXKXKXKXKXKXKXKXKXKXKXKXKXKXKXKXKXKXKXKXKXKXKXKXKXKXKXKXKXKXKXKXKXKXKXKXKXKXKXKXKXKXKXKXKXKXKXKXKXKXKXKXKXKXKXKXKXKXKXKXKXKXKXKXKXKXKXKXKXKXKXKXKX-X-X-XH.KXKXKXKXKXKXKXKXKXKXKXKXKXKXKX-X-X-X",
"KXKXKXKXKXKXKXKXKXKXKXKXKXKXKXKXKXKXKXKXKXKXKXKXKXKXKXKXKXKXKXKXKXKXKXKXKXKXKXKXKXKXKXKXKXKXKXKXKXKXKXKXKXKXKXKXKXKXKXKXKXKXKXKXKXKXKXKXKXKXKXKXKXKXKXKXKXKXKXKXKXKXKXKXKXKXKXKXKXKXKXKXKXKXKXKXKXKXKXKXKXKXKXKXKXKXKXZ.Z.KXKXKXKXKXKXKXKXKXKXKXKXKXKXKXKXZ.Z.Z."
};
