/* XPM */
static const char *bos2h8[] = {
/* columns rows colors chars-per-pixel */
"128 128 256 2 ",
"   c #0D0D0D",
".  c #0C1A08",
"X  c #1B150C",
"o  c #141414",
"O  c #1C1C1C",
"+  c #191816",
"@  c #0C1013",
"#  c #251A0C",
"$  c #361D0C",
"%  c #251B15",
"&  c #321713",
"*  c #13260C",
"=  c #183011",
"-  c #2A2519",
";  c #342413",
":  c #3A2917",
">  c #332810",
",  c #1D1E21",
"<  c #232324",
"1  c #2B2B2B",
"2  c #292826",
"3  c #342D28",
"4  c #393328",
"5  c #333333",
"6  c #3B3B3C",
"7  c #373837",
"8  c #2C3230",
"9  c #1F2224",
"0  c #570604",
"q  c #50140F",
"w  c #660404",
"e  c #7A0505",
"r  c #77191A",
"t  c #681916",
"y  c #432C16",
"u  c #4B331C",
"i  c #473419",
"p  c #53391D",
"a  c #50290B",
"s  c #742C00",
"d  c #782F01",
"f  c #793505",
"g  c #6A2F0E",
"h  c #473725",
"j  c #5B3D22",
"k  c #543B24",
"l  c #453A36",
"z  c #4F2F2E",
"x  c #6C2D2B",
"c  c #244919",
"v  c #28551D",
"b  c #355218",
"n  c #2B5A22",
"m  c #33522F",
"M  c #336A27",
"N  c #38772C",
"B  c #34692B",
"V  c #1E4116",
"C  c #4D4816",
"Z  c #744B14",
"A  c #5A4424",
"S  c #49433A",
"D  c #524C34",
"F  c #634425",
"G  c #6B4928",
"H  c #734C2B",
"J  c #794D2A",
"K  c #7C522E",
"L  c #745925",
"P  c #7A5332",
"I  c #685030",
"U  c #497133",
"Y  c #746D2F",
"T  c #5E611A",
"R  c #3D3D40",
"E  c #3F4142",
"W  c #434344",
"Q  c #4C4C4C",
"!  c #484846",
"~  c #58534A",
"^  c #545454",
"/  c #5B5B5C",
"(  c #575856",
")  c #504E4B",
"_  c #70534E",
"`  c #556E53",
"'  c #6D6857",
"]  c #5D5E60",
"[  c #5E6061",
"{  c #636363",
"}  c #6B6B6B",
"|  c #686767",
" . c #737373",
".. c #7C7C7C",
"X. c #7A7976",
"o. c #71726A",
"O. c #403F40",
"+. c #860404",
"@. c #990303",
"#. c #8B1919",
"$. c #A80202",
"%. c #B90404",
"&. c #B91B1B",
"*. c #823C09",
"=. c #872526",
"-. c #943433",
";. c #AB3334",
":. c #831F23",
">. c #C90303",
",. c #D80303",
"<. c #CA1B1B",
"1. c #E70101",
"2. c #FD0101",
"3. c #F50000",
"4. c #EE1313",
"5. c #DC2F2F",
"6. c #874509",
"7. c #93530D",
"8. c #965A14",
"9. c #8B5014",
"0. c #9D6519",
"q. c #8D651B",
"w. c #A46919",
"e. c #AA741D",
"r. c #875933",
"t. c #935D39",
"y. c #8A512B",
"u. c #99643B",
"i. c #93702D",
"p. c #AA7925",
"a. c #A87132",
"s. c #A45633",
"d. c #8D4E4E",
"f. c #A84645",
"g. c #AF534F",
"h. c #8A744B",
"j. c #A66B41",
"k. c #B8774B",
"l. c #B17248",
"z. c #8E756F",
"x. c #AC6C6C",
"c. c #8A5C62",
"v. c #C37950",
"b. c #CD6967",
"n. c #DA5D5D",
"m. c #A23C40",
"M. c #3D8332",
"N. c #3C8530",
"B. c #438937",
"V. c #48993C",
"C. c #539638",
"Z. c #689A35",
"A. c #4F9444",
"S. c #4DA642",
"D. c #56B74B",
"F. c #56AF4E",
"G. c #69B54E",
"H. c #758F71",
"J. c #70AE64",
"K. c #5CC753",
"L. c #5CD056",
"P. c #62D35A",
"I. c #66DB5C",
"U. c #6CCC55",
"Y. c #71D26B",
"T. c #6AE762",
"R. c #72F56A",
"E. c #7BEA68",
"W. c #6AE35E",
"Q. c #958934",
"!. c #B78826",
"~. c #B79635",
"^. c #B28E32",
"/. c #9CA73D",
"(. c #C2972E",
"). c #C39C32",
"_. c #C08B26",
"`. c #CAA738",
"'. c #D3B33E",
"]. c #D1AF3C",
"[. c #989451",
"{. c #AC9452",
"}. c #8AB344",
"|. c #B6A947",
" X c #8A8873",
".X c #B7A86E",
"XX c #9B9C78",
"oX c #CB8A53",
"OX c #D6BB44",
"+X c #CBB24C",
"@X c #C4B46E",
"#X c #DCA063",
"$X c #B0D455",
"%X c #B5EE66",
"&X c #95DE5F",
"*X c #DCC448",
"=X c #D7CD55",
"-X c #E2CB4C",
";X c #E9D856",
":X c #E6D253",
">X c #F3E65D",
",X c #ECE35E",
"<X c #D6CB6E",
"1X c #E6D56D",
"2X c #F4EB63",
"3X c #FBF76A",
"4X c #F2F370",
"5X c #CFF068",
"6X c #817F82",
"7X c #838383",
"8X c #8B8B8B",
"9X c #898886",
"0X c #939393",
"qX c #9B9B9B",
"wX c #989796",
"eX c #8F938A",
"rX c #AA9591",
"tX c #96B094",
"yX c #B4AC90",
"uX c #9D9EA0",
"iX c #A3A4A4",
"pX c #ABABAB",
"aX c #A8A7A5",
"sX c #B7A8A7",
"dX c #ADB1B1",
"fX c #B4B4B4",
"gX c #BCBBBC",
"hX c #B7B8B9",
"jX c #B0B2AC",
"kX c #9FA2A3",
"lX c #D38D8D",
"zX c #C6B7B4",
"xX c #D2AE96",
"cX c #A6CCA4",
"vX c #D2C792",
"bX c #F2ED8B",
"nX c #C8C5B2",
"mX c #E3DD99",
"MX c #BDBEC1",
"NX c #BEC2C4",
"BX c #C4C4C4",
"VX c #CCCCCC",
"CX c #C8C8C7",
"ZX c #CED1D1",
"AX c #D3D3D4",
"SX c #DBDCDC",
"DX c #D7D9D8",
"FX c #D2D1CE",
"GX c #E3E3E3",
"HX c #EBEBEB",
"JX c #E6E6E8",
"KX c #F1F1F1",
"LX c #E3E3D7",
"PX c #C0BFC0",
"IX c None",
"UX c #7F7E80",
/* pixels */
"IXIXIXIXIXIXIXIXIXIXIXIXIXIXIXIXIXIXIXIXIXIXIXIXIXIXIXIXIXIXIXIXIXIXIXIXIXIXIXIXIX@.@.$.$.$.%.>.>.,.,.1.1.3.2.2.2.2.IXIXIXIXIXIXIXIXIXIXIXIX+.@.$.%.,.1.3.2.2.2.IXIXIXIXIXIXIXIXIXIXIXIXIXIXIXIXIXIXIXIXIXIXIXIXIXIXIXIXIXIXIXIXIXIXIXIXIXIXIXIXIXIXIXIXIXIXIXIX",
"IXIXIXIXIXIXIXIXIXIXIXIXIXIXIXIXIXIXIXIXIXIXIXIXIXIXIXIXIXIXIXIXIXIXIXIXIXIXIXIXt e +.+.+.@.$.$.%.%.>.>.,.1.3.3.3.2.2.IXIXIXIXIXIXIXIXIXIXx.d.-.;.;.;.&.<.,.3.3.IXIXIXIXIXIXIXIXIXIXIXIXIXIXIXIXIXIXIXIXIXIXIXIXIXIXIXIXIXIXIXIXIXIXIXIXIXIXIXIXIXIXIXIXIXIXIXIX",
"IXIXIXIXIXIXIXIXIXIXIXIXIXIXIXIXIXIXIXIXIXIXpXfXVXSXGXSXDXVXBXhXpXiXqX8X..} ( Q z q 0 0 w w e e +.@.@.$.%.>.,.1.1.3.3.2.2.2.5.c.9XwXaXfXgXgXsXsXrXrX9Xz.d.;.,.1.2.2.2.4.;._ /  .7X9X9X8XIXIXIXIXIXIXIXIXIXIXIXIXIXIXIXIXIXIXIXIXIXIXIXIXIXIXIXIXIXIXIXIXIXIXIXIX",
"IXIXIXIXIXIXIXIXIXIXIXIXIXIXIXIXIXIXIXIXfXhXBXVXDXGXJXGXSXAXVXzXfXpXiXqX0X7X} ( ! z y y q q q x x d.d.d.f.f.;.&.>.,.1.1.3.3.4.5.g.x.wXdXBXZXZXZXVXNXhXdXiXrXb.n.n.n.n.n.;.;.-.' X.8XqXiXiXIXIXIXIXIXIXIXIXIXIXIXIXIXIXIXIXIXIXIXIXIXIXIXIXIXIXIXIXIXIXIXIXIXIXIX",
"IXIXIXIXIXIXIXIXIXIXIXIXIXIXIXIXIXX.7XqXfXBXAXGXJXHXHXGXGXDXAXBXBXhXfXpXiXqX7X} / ^ ! 6 5 7 l ^ o.9X0X0X0X8Xz.d.#.$.%.>.,.4.4.4.5.x.wXfXZXSXSXDXDXAXAXAXAXAXAXFXFXVXBXxXn.5.5.c.UX0XiXpXiXiXwX8X9XIXIXIXIXIXIXIXIXIXIXIXIXIXIXIXIXIXIXIXIXIXIXIXIXIXIXIXIXIXIXIX",
"IXIXIXIXIXIXIXIXIXIXIXIXIXIXIX}  .7X0XiXhXVXDXGXJXJXJXGXDXAXVXBXBXhXfXpXpXqX9X .{ ^ Q W 6 E Q [ 7XiXdXdXdXpXqXz.c.d.d.d.x.b.lXlXlXzXzXVXAXAXAXVXVXVXVXAXDXSXSXSXDXZXCXgXxXlXlXsXiX0X7X8XiXiXqX0X9X..IXIXIXIXIXIXIXIXIXIXIXIXIXIXIXIXIXIXIXIXIXIXIXIXIXIXIXIXIXIX",
"IXIXIXIXIXIXIXIXIXIXIXIXIXIX}  ...8XqXpXgXVXDXGXGXGXSXDXAXVXVXBXgXfXpXiXiXqX9X .| ( ^ Q W Q ^ } wXhXBXBXBXgXfXqX7X..X.9XiXNXZXDXSXSXDXAXVXBXhXfXpXaXpXhXBXAXDXDXAXAXVXVXVXZXAXDXVXiX9X7X8X0X8X9X.. .} IXIXIXIXIXIXIXIXIXIXIXIXIXIXIXIXIXIXIXIXIXIXIXIXIXIXIXIXIX",
"IXIXIXIXIXIXIXIXIXIXIXIX^ / } X.7X0XqXpXfXBXAXDXDXAXAXVXVXBXBXgXfXpXiXqXwX8X7XX.} / ^ Q Q ^ { ..pXFXDXAXAXVXgXqX7X7XqXfXBXAXSXGXGXGXDXVXhXpXqX8X6XX.7XwXpXgXVXDXSXSXSXSXSXSXSXSXDXAXBXqX .{ }  .} ( ^ Q W IXIXIXIXIXIXIXIXIXIXIXIXIXIXIXIXIXIXIXIXIXIXIXIXIXIXIX",
"IXIXIXIXIXIXIXIXIXIXIXIX( / |  ...9X0XqXiXfXgXBXBXBXgXhXfXfXfXpXpXiXqXwX8X9X7XX.} { ^ Q Q ^ | 7XfXSXGXGXSXAXBXiX0XwXfXVXAXDXSXGXGXSXAXBXfXiX8XX.| ( /  .7XqXfXBXZXDXGXJXGXGXGXGXGXGXAXpX7X .7X8X9X..| Q 6 IXIXIXIXIXIXIXIXIXIXIXIXIXIXIXIXIXIXIXIXIXIXIXIXIXIXIX",
"IXIXIXIXIXIXIXIXIXIXIXIX( / / | } X.7X7X9X0XqXiXpXpXiXqXqXiXiXqXqXwX8X9X7X7XX. .} { ( Q Q ^ { 7XfXSXJXGXGXAXBXfXiXpXhXCXVXAXDXDXDXAXVXgXfXiX0X..| ^ Q ^ /  .7XqXdXBXAXSXGXGXGXGXGXAXBXhXpXfXgXCXVXBXqX/ 7 IXIXIXIXIXIXIXIXIXIXIXIXIXIXIXIXIXIXIXIXIXIXIXIXIXIXIX",
"IXIXIXIXIXIXIXIXIXIXIXW Q ^ ( / | }  . .X.UX7X8X8X8X8X9X9X8X0X8X9X7X..X.X. .} { / ( ^ Q W Q ( ..fXGXJXGXSXAXBXfXiXiXfXhXBXBXVXAXVXBXgXhXfXpXiXqX7X} ^ W 6 W Q ( } X.8XiXhXVXDXGXGXAXBXgXhXgXVXAXGXGXVXqX9XwXhXIXIXIXIXIXIXIXIXIXIXIXIXIXIXIXIXIXIXIXIXIXIXIXIXIX",
"IXIXIXIXIXIXIXIXIXIX6 6 W Q ^ / | }  ...7X7X9X9X9X9X7X7X7X7X..X. . .} } | { ( ^ Q Q Q W 6 W Q  .pXSXJXSXAXVXhXiXwXwXqXiXpXfXhXBXgXhXfXdXpXfXhXhXpX0X .Q 5 < < < < 5 W / ..iXhXVXAXVXBXhXpXfXBXAXSXGXGXSXDXAXVXVXIXIXIXIXIXIXIXIXIXIXIXIXIXIXIXIXIXIXIXIXIXIXIXIX",
"IXIXIXIXIXIXIXIXIXIX6 6 W Q ( } 7XwXiXfXgXBXBXBXgXfXiXwX7X .} { / ( ( ^ ^ Q Q W W W 6 6 7 6 W | iXDXGXDXVXgXpXqX7X7X9X8XwXqXqXiXiXiXiXpXfXgXVXAXVXgXiX .^ 6 < O + + O 1 W (  .8XiXiXiXiXqXpXgXVXDXSXGXGXGXSXDXDXSXSXIXIXIXIXIXIXIXIXIXIXIXIXIXIXIXIXIXIXIXIXIXIX",
"IXIXIXIXIXIXIXIXIX5 6 6 Q (  .9XiXfXVXAXGXGXGXGXGXDXBXfXqX7X} / ^ Q Q W W 6 6 7 7 7 5 1 1 8 6 / qXVXDXAXBXfXiX9X .}  .X.......7X7X9X0XiXfXBXAXDXGXSXVXpX9X| W 5 < + o + O < 6 ^ } X.7X8X0XiXfXVXAXAXAXBXBXVXAXSXGXGXGXIXIXIXIXIXIXIXIXIXIXIXIXIXIXIXIXIXIXIXIXIX",
"IXIXIXIXIXIXIXIX2 5 6 Q } 7XqXpXgXBXVXVXVXVXAXAXDXDXAXVXgXpX0X .( Q W 6 7 5 1 2 2 2 < < < < 5 ^ 0XBXZXBXgXfXqX..{ ^ / { { { { { }  .7X0XiXhXVXDXGXGXSXAXBXiX7X{ 6 < O + + O < 1 6 ^ | X.9XqXfXBXVXVXfX8X..wXhXAXSXJXHXHXIXIXIXIXIXIXIXIXIXIXIXIXIXIXIXIXIXIXIXIX",
"IXIXIXIXIXIXIX2 1 6 Q { X.8XqXiXiXqXqX0X8X8X0XwXqXiXfXhXgXhXpX0X ./ Q 6 5 2 < < O O O O O < 1 Q 9XfXBXhXfXiX0X ./ / }  . . . . . . . .7XwXiXfXBXAXSXGXGXSXZXhXqXX.{ Q W 6 6 7 6 W ^ {  .9XqXfXgXVXVXfX7X}  .8XpXBXDXGXHXKXIXIXIXIXIXIXIXIXIXIXIXIXIXIXIXIXIXIXIX",
"IXIXIXIXIXIXIX2 5 W / } X.7XX.} { ^ W 6 6 7 7 6 ! ^ } 7XqXpXfXpXwX../ W 7 2 < O O O O O < < 1 Q ..iXfXpXiX0X7X .} X.0XiXpXpXpXiXwX7XX...7X8XqXpXgXAXSXGXGXGXSXAXBXdXqX9XX. .} } }  .X.7X0XuXfXgXVXVXBXiX9X .} X.qXgXDXHXKXIXIXIXIXIXIXIXIXIXIXIXIXIXIXIXIXIXIXIX",
"IXIXIXIXIXIXIX< 2 7 Q ^ ^ ^ ! 6 5 3 - - % - - - 3 4 l Q /  .9XwXqXwX7X ./ Q W 7 5 1 2 2 2 2 1 W } 0XqXwX8X.. . ...0XpXgXBXVXVXBXgXpXqX7X . .7X0XiXfXgXVXAXDXSXDXAXVXgXpXiXqXqXqXqXqXqXqXqXiXpXhXBXVXVXgXpXqX0XqXfXVXSXHXKXKXIXIXIXIXIXIXIXIXIXIXIXIXIXIXIXIXIXIX",
"IXIXIXIXIXIXIXO O < 1 1 2 < O O % - ; ; ; : i u i : - 2 3 l ^  .9XwXwX0X7X .[ ) W 6 6 5 1 1 1 6 { ..7X7XX.} |  .7XqXhXVXAXDXSXSXDXAXBXqXX.}  .X.7X0XqXpXfXgXBXCXBXBXgXhXfXfXfXhXfXpXiXiXqXqXiXpXfXgXBXBXBXBXBXVXAXGXJXHXKXHXHXIXIXIXIXIXIXIXIXIXIXIXIXIXIXIXIXIX",
"IXIXIXIXIXIXIXIXIXO O O + + + % ; : y i p G r.r.F k k k k h 4 l Q [ }  . .} / ^ W 6 1 2 < 2 8 W /  .X. .} ( ( } 7XiXgXVXDXSXGXGXGXSXAXhXqX7X} |  .7X9X8XwXqXqXiXpXpXpXpXpXpXpXiXqXwX8X9X9X9X8X0XqXiXiXpXfXhXBXVXAXSXGXJXHXHXKXIXIXIXIXIXIXIXIXIXIXIXIXIXIXIXIXIX",
"IXIXIXIXIXIXIXIXIXIXo o o + ; u h p k F K r.u.u.r.H H H F u : ; 2 5 W Q Q Q Q W 6 1 < O O < 5 W ( } } | / Q Q { 7XqXfXVXAXSXGXGXGXGXSXAXBXiX7X} } X.X. . . .X.UX7X9X9X9X8X8X7X.. . . .} } } }  .X...7X8XwXqXiXfXgXVXAXGXJXJXHXIXIXIXIXIXIXIXIXIXIXIXIXIXIXIXIXIX",
"IXIXIXIXIXIXIXIXIXIXIXIX# ; k H H A A r.u.u.H H t.u.P j u i i i y : < < < < < < < O + + + < 7 W ^ ( ( ^ Q W W ^  .0XpXBXAXDXGXGXJXGXGXGXSXVXhXiX7X .| ( ( ( / { | } | { [ ( ^ ^ ^ ( ( ^ Q ! Q Q ^ [ | } } }  .7XwXiXgXVXDXGXGXGXJXIXIXIXIXIXIXIXIXIXIXIXIXIXIXIX",
"IXIXIXIXIXIXIXIXIXIXIXIXy u H r.r.G H j.oXj.G G j.k.u.j p A F A p : % + + + + + + o o o O < 7 W Q Q Q W 6 7 6 Q } 7XiXfXBXAXDXSXGXGXGXJXJXGXDXVXpX8X.. .{ ~ z z l l l ) l 6 W ^ [ } } / W 6 5 7 l S ) ! ) ~ _ ' |  .8XiXfXBXAXDXSXGXIXIXIXIXIXIXIXIXIXIXIXIXIXIX",
"IXIXIXIXIXIXIXIXIXIXIXIXj F K t.r.K r.k.oXk.P r.k.oXl.H H r.r.K A u : ; ; : ; # X o + O < 2 5 6 6 6 6 7 5 1 7 W / X.wXpXhXBXBXVXAXAXSXGXGXGXGXSXAXBXhXdX0X_ t q q t t t z 5 W | ..8X0XX.^ 6 4 i h k k h h F P I l W ^ | ..wXpXPXVXAXIXIXIXIXIXIXIXIXIXIXIXIXIXIX",
"IXIXIXIXIXIXIXIXIXIXIXi F H r.r.r.t.u.oXoXk.t.u.v.oXl.P K u.u.K j u p u u y ; # X o + O < 2 5 5 5 5 1 2 2 2 1 6 Q { ..0XiXpXfXhXgXBXVXAXDXSXSXSXSXAXAXAXzXrXc._ _ x t w 0 q z _ d.c.z.' ) 6 h k G K H k u H r.P k 4 D ~ _ { X.wXpXpXIXIXIXIXIXIXIXIXIXIXIXIXIXIX",
"IXIXIXIXIXIXIXIXIXIX; y G r.r.K r.j.k.v.v.k.j.j.k.v.j.r.r.u.u.H u p F F k y ; # X o + O < 2 1 1 2 2 < < < < 2 1 7 W /  .9XqXqXiXpXpXhXBXVXVXAXAXAXDXDXSXAXVXgXfXpX9X_ t q t t t r =.-.x l l k G r.l.u.G A r.j.t.F k F J I S ) } ..7XIXIXIXIXIXIXIXIXIXIXIXIXIXIX",
"IXIXIXIXIXIXIXIXIXIX; u H t.K H r.l.v.l.j.l.k.k.j.t.t.u.u.u.u.G u k H H j : & # X o + O O < < < < < < < < < < 2 1 7 W ^ {  ...7X0XqXpXfXBXBXBXBXVXAXAXAXAXAXDXAXAXBXsXrXrXz.d.t 0 0 t t x x -.t.j.j.u.J G r.u.u.K H H H H I I ~ ^ ^ IXIXIXIXIXIXIXIXIXIXIXIXIXIX",
"IXIXIXIXIXIXIXIXIXIX: p K t.K F r.k.v.j.t.j.oXk.t.H r.j.j.u.r.F p j H H p ; # # X + + O O O O O , < 2 1 5 1 1 2 < 2 5 6 W Q ( |  .7XwXiXpXfXpXpXfXhXhXhXgXBXVXAXDXSXSXGXSXAXrX_ x x x x r :.-.;.f.j.u.K H K r.r.r.r.H F H r.P D l IXIXIXIXIXIXIXIXIXIXIXIXIXIXIX",
"IXIXIXIXIXIXIXIXIXIXi j r.t.J A P k.oXu.r.u.oXk.r.F r.l.j.r.G A j F H F y # X X X O O < < O O O , 2 7 W Q W 6 1 < O < 1 5 6 W Q ^ |  ...7X9X9X9X9X9X8X0XwXqXiXfXgXCXAXDXGXSXZXzXsXaXrXc.t w r =.-.f.f.r.H F F H r.K j u j H H A k IXIXIXIXIXIXIXIXIXIXIXIXIXIXIX",
"IXIXIXIXIXIXIXIXIX: p F K r.H F P l.k.u.r.u.k.k.r.G r.j.u.H p j F F F p ; # X + - 1 7 6 W 6 7 1 2 2 6 Q ( / ( Q 6 7 7 5 2 < 2 5 6 Q ^ / { { { { | | } }  .X.7X8XqXiXfXgXCXVXDXSXGXSXVXrXc._ d.d.f.f.f.t.r.j i p H H p : i A F p u u IXIXIXIXIXIXIXIXIXIXIXIXIXIX",
"IXIXIXIXIXIXIXX # : p F H K H G r.u.j.u.r.u.j.j.r.K r.u.r.j y p H F k : # # + % 1 W ^ }  . .| ^ 6 1 5 W ^ } X.X. .} / Q 7 < < 2 1 6 6 W W W W W W Q Q Q ^ ( { }  ...9XwXqXpXhXBXVXAXDXAXCXzXhXsXx.f.;.g.g.x : y F F i ; : u u : ; y p A IXIXIXIXIXIXIXIXIXIXIXIX",
"IXIXIXIXIXIXIXX # : p F F F H K r.r.t.u.u.u.r.r.K K r.r.H u : j H F y # # # + < 5 Q } 7XqXqX0X..( W 6 6 Q {  .X..... .} / Q W W 6 5 2 2 2 2 < 2 1 5 5 5 7 6 W Q ^ ( { }  .7XeXqXpXhXBXAXDXSXSXZXzXrXx.g.m.-.x x j u > # # > ; # # : i p IXIXIXIXIXIXIXIXIXIXIXIX",
"IXIXIXIXIXIXIXX # : p j p p H r.r.H H u.j.r.F A H H H F p y y p G k ; X X X + < 7 ^  .wXfXgXhXiX../ Q W W ^ [ }  ...7X7X7X.. .} ^ 6 < O < < < < < < < < < 2 1 5 7 6 W W Q ( { } X.9XqXpXgXBXVXAXAXVXsXx.-.f.g.d.G h 4 4 4 h h y : : : : IXIXIXIXIXIXIXIXIXIXIXIX",
"IXIXIXIXIXIXIXX # ; u p y i F r.K j j P t.K p i k F p y : ; : u j i ; X X + O < 7 Q } 9XaXgXBXgXiX..{ Q Q ( | }  . . .X...7XX.} / Q 6 6 W W W 6 6 7 5 2 < < < < O O < < 2 5 6 W Q ( }  .7X8XqXiXfXBXzXsXrXz.c.z.z.9XeXwXqXiXqXwXz.~ 4 $ IXIXIXIXIXIXIXIXIXIXIXIX",
"IXIXIXIXIXIXIXX # ; y y : : j H G u u F H F y : i u : ; ; ; : y y : # X + O O < 5 W (  .0XpXBXVXhXqX..( ^ { } X.7X7X7X7X8X0X8X7X.. . . . . .} { ( Q W 6 5 2 < O O O < < < < < < 1 7 6 W ^ { } ..8XqXpXfXfXqX7X9XiXfXnXLXLXLXLXLXnX XA y IXIXIXIXIXIXIXIXIXIXIXIX",
"IXIXIXIXIXIXIXX X # ; ; $ ; u A k y : p A p : ; : y ; # # ; : : ; # # X + + O < 1 7 W / ..qXfXBXBXfX0X| ^ / } 9XiXfXgXBXVXVXVXBXBXBXgXhXfXiX0X..} { ^ W 6 2 < < 7 W ^ ( Q 7 < O O O < 5 Q / }  .} |  .7XqXiXpXqX8XeX@X1XbXbXbXbX1X+X^.p.IXIXIXIXIXIXIXIXIXIXIXIX",
"IXIXIXIXIXIXIX2 3 l S l : $ ; y y ; ; : y : ; # ; ; # X - S ~ D h - % X o o O < < 1 6 Q } 7XiXhXBXBXqX} ( ^ { 7XiXgXVXAXDXSXSXDXAXAXVXBXhXpX0X..} / ^ W 7 < < 5 Q {  .X.{ W 2 O o   + 5 ( X.8XwX9XX. . ...0XiXwX X[.+X;X>X3X3X>X;X*X].`.IXIXIXIXIXIXIXIXIXIXIXIX",
"IXIXIXIXIXO < 6 ^  .9X .S $ $ : ; ; ; ; : ; ; ; ; $ # # l } 7XX.{ W < o o o + O < 2 7 W ( } 8XiXhXgXiX .( Q ^ | 7XwXiXfXgXBXBXgXfXpXiXqX0X7X .| ( Q 6 5 < O < 6 (  .7XUX{ O.2 O o   O E  .qXgXVXVXhXiX..} | o. X|.OX-X;X2X3X3X2X;X-XOX`.!.e.IXIXIXIXIXIXIXIXIXIX",
"IXIXIXIX< < < 5 W ^ } | ~ S ~ / ' ' o.o.z.z.z.X.o.o.' ( {  .X.| ^ W 7 2 O o o o O 9 1 7 W ( } 8XpXfXqX .( W 6 Q ( } X.9XwXiXiXiXqXwX0X7XX.} ( Q 6 5 < O O + O 6 / }  .} ^ 7 < O o   O W [ ..qXdXdXaX0X .[ ^ ^ ' |.*X-X-X;X>X>X;X-XOX].`.!.!.IXIXIXIXIXIXIXIXIXIX",
"IXIXIX5 5 5 3 < < < 5 6 ^ | ..8XqXiXfXBXFXDXDXAXVXgXpXqX7X} ^ 6 5 6 Q Q 5 O o o + % 2 1 8 O.^ } 0XiX0X} ^ W 6 6 Q ( |  .7X0XqXqXqXwX8X7X .{ Q 6 1 < O o o o O 6 ^ / ^ W 7 < O + o IXIXIXS ~ }  X X XX.o.{ ( ^ ' |.OXOXOX=X;X;X*X'.`.).(.(.(.IXIXIXIXIXIXIXIXIXIX",
"IXIXQ Q Q ^ Q 6 2 < 2 1 7 O.Q / }  .9XqXfXBXVXVXBXfXpXqX7X} ( W 7 W ^ / ^ ! z q 0 e e q % 1 E ( X.8X..{ ^ Q ^ } 9XqXiXpXhXBXBXBXBXBXhXpXwX7X} ^ W 7 2 O O O < 7 Q Q 6 2 < O + + IXIXIXIXQ.[.{..X@X<X@X|.{. X9XwXyXvXvXvXvXmXvX+X!.!.!.!.!.!.IXIXIXIXIXIXIXIXIXIX",
"IXIX^ ( {  .} ^ W 6 6 7 2 < 2 5 6 ^ | 7XqXpXhXgXhXpXiXqX8X..} ( Q Q ( | } } _ x +.$.$.e q & 3 E [  .} ^ Q ^ | 7XiXhXBXVXAXSXSXDXAXAXVXhXiX0X..} ( Q 6 2 < < < 5 6 6 2 O + o o IXIXIXIXIXOX-X:X>X2X3X2X*X+X@XfXfXpXfXgXVXAXDXnX.X^.p.e.e.e.e.IXIXIXIXIXIXIXIXIXIX",
"IXIXW Q | 9X8X .( ( / ^ Q 6 6 6 Q | ..qXfXBXAXDXAXVXBXhXpXiX0XX.{ ( / |  ... .' P #.@.$.%.+.q 1 ! / ^ 6 6 6 ! /  .9XqXpXhXBXBXgXfXpXiX0X7X .} / ^ W 7 2 < < < 1 5 1 O + o IXIXIXIXIX`.'.-X;X2X3X3X2X-X`.~..XjXpXwXqXfXZXGXGXSXnXyX{.8.7.7.7.IXIXIXIXIXIXIXIXIXIX",
"IXIX5 6 { 8XqX9X .} } } | / Q W Q | 7XqXfXVXDXGXGXGXSXAXVXgXpX8X .{ ( { X.9X8X7X .d.=.&.,.%.+.t z Q E 5 1 7 O.Q / }  .X.7X8X8X8X7X.. .} / ^ ^ Q W 6 5 1 2 2 2 2 2 < O + IXIXIXIXIX!.!.).OX:X>X2X;X*X+X{.{.rXaXqX7X9XiXBXAXGXGXDXzXXXr.9.*.*.IXIXIXIXIXIXIXIXIXIX",
"IXIX< 1 ^ 7XqXqX8X..} } 7X7X{ W W ^ } 7XqXfXBXAXGXJXJXGXDXVXfX0X ./ ^ / ..qXqX0X0X0Xz.f.%.>.,.>.=.l 5 1 1 6 Q / | { ^ ^ ^ ( / { { ( ^ Q W 6 6 7 5 5 5 7 7 5 1 2 < < IXIXIXIXIXIXIX0.w.p.(.].OXOX`.~.{..XsXaXqX8X..7X0XiXhXVXVXVXhXqXz._ g s IXIXIXIXIXIXIXIXIXIX",
"IX%.q 2 E } 8XiXiX8X . .9XeX .^ W W Q } 7XwXpXgXAXGXGXGXSXVXfX0X} / ( } 8XpXiXwXqXdXaXg.@.%.1.,.#.l 1 2 5 W / X.8X0X9X7X9X8X0XwX0X8X9X.. .} / ^ ^ Q W W 6 5 2 < < O IXIXIXIXIXIXo.z.{.{.{.{..X.X{.{..XfXBXgXpXqX8X7X7X9XwXiXpXpXiX8X .~ k a IXIXIXIXIXIXIXIXIXIX",
"3.,.e & 5 ^ X.iXfXqX..X.9X8X..} ^ 6 6 ^ } X.9XqXfXBXAXAXVXgXiX7X} / {  .qXfXiX9X0XfXsXx.:.@.>.%.r 3 2 < 8 W | 9XpXBXVXAXDXSXSXSXSXDXAXBXfXiX0X7X .| ( Q 6 1 < O O O IXIXIXIXIX| X.qXfXjXqXeX8X8XwXaXhXVXAXBXfXiXqX8X7X .X...7X9X7X ./ ! 5 2 IXIXIXIXIXIXIXIXIXIX",
"3.,.e % 9 6 { 0XfXfXiX0X.. .7X0X..( W W Q ( }  .7X0XiXpXiXwX7X .{ [ | 6XpXMXqX . .qXsXrXc.d.=.x z 1 < < 2 7 Q } 8XpXBXAXDXGXGXSXDXAXVXBXfXiX8XX.| ^ W 7 2 < O O < 5 ( X.| ^ ^ | ..pXVXMXuX7X . .0XhXZXDXAXfXqX8X9X9X8X8X..} | | { ( Q 6 2 , IXIXIXIXIXIXIXIXIXIX",
"3.,.@.q - 3 ! X.uXhXgXpX..} 7XiXqX..| ^ ! W Q ^ / }  ..... .| / ^ [ o.eXjXfXeX` | eXtXtXtXH.` Q 7 2 < < < 2 7 Q | 7XqXpXgXBXVXBXBXhXfXiXwX7X ./ Q 6 2 O O O O O < W } 7X .( ^ { ..pXBXfX8X .{ } 0XBXAXVXhXqXX. .7X8XqXqX7X} ( ^ Q 6 7 2 < O IXIXIXIXIXIXIXIXIXIX",
"1.1.,.>.#.y 7 ( UXiXMXhXwX....9XqXpXiX9X| ^ W W Q ( { { { / ( Q Q ` J.Y.E.Y.Y.F.G.Y.E.&XE.E.Y.F.B 2 , < < 2 8 6 W (  .7XwXiXpXpXiXqX9XX.| ^ Q 6 1 < O + + + O O 2 Q ..qX9X} { |  .wXpX8X| ( | ..qXgXgXaX8X .|  .0XqX0X7X.. .| ^ 6 1 < O IXIXIXIXIXIXIXIXIXIXIXIX",
",.1.3.3.%.q 2 6 / 7XpXfXiX0X.. .7XiXdXiX0XX.{ ^ Q Q Q Q ^ ` ` ` ` F.I.T.W.I.I.I.W.T.T.T.T.T.T.I.A.m m m m m O.W ) [  .9XqXpXfXfXfXiXwX9X .| ^ W 5 < O + + + O O 2 Q ..qX9X .{ / | X.7X} W W { 7XqXiXqX7X . .X.8XpXaX9X} } } / Q 6 2 O O IXIXIXIXIXIXIXIXIXIXIXIX",
">.,.1.1.$.q O 9 7 [ 9XuXkXwX7X} }  .9XiXhXfXiX7X( 6 7 6 ` A.K.P.I.I.T.I.P.P.I.T.T.T.I.K.D.S.D.D.D.D.D.D.F.` [ } ..0XiXhXVXDXGXGXGXDXAXBXhXiX9X} ^ 6 2 O + + + + < 6 | .. .{ ^ ^ ^ / { Q 5 7 (  .7X7X..} } 9XpXhXgXpX..( Q Q Q W 6 2 O O IXIXIXIXIXIXIXIXIXIXIXIX",
"%.>.,.,.@.q + + < O.[  ...7XX.} | | } 9XiXfXfXpX8Xo.` ` A.D.I.R.R.R.T.I.P.P.T.R.T.P.D.B.N B M.V.D.K.K.K.D.F.H.H.wXaXfXBXAXGXJXJXJXGXDXVXBXpXwX..| Q 7 < O + + + O 5 ^ | / Q W 6 6 W W 6 1 6 ^ } } { | } ..qXfXfXqX7X| ^ Q Q W 6 5 2 O IXIXIXIXIXIXIXIXIXIXIXIXIX",
"$.$.>.,.@.q o o O 2 6 Q ( } X...X.} } }  .0XpXfXfXiXJ.F.D.L.T.R.R.R.T.I.P.P.T.R.T.D.N.n = = v N S.D.F.V.V.D.K.J.tXaXpXfXgXVXAXAXAXVXBXfXiX0X7X .| ^ W 1 O + + + O < 6 Q W 6 7 1 2 5 7 7 7 W ^ / ^ Q / ..wXiXiX7X{ Q Q ^ ^ ( Q 6 2 IXIXIXIXIXIXIXIXIXIXIXIXIXIXIX",
"e +.$.>.%.IXIX@ + O 2 E ] ..wXpXpXkX0X..}  .UX7XH.J.J.D.K.P.T.R.R.T.I.P.K.K.T.R.P.V.M = * * = n S.K.A.C C B.D.U.Y.XXH...9X0XqXqXwX8X7X .} / ^ Q W W 7 2 < O + o o + < 2 1 2 < < O < 2 5 6 W W Q ^ ( } 7X9XX.| ^ 6 6 ^ | | { ^ W IXIXIXIXIXIXIXIXIXIXIXIXIXIXIXIX",
"0 w @.%.,.IXIX# + + < l _ z.rXxXzXBXhXqX..| ( ) U B.V.D.K.L.I.T.T.T.I.L.K.K.P.T.K.M.v = . * = n S.I.Z.p a C B.D.P.J.H.| |  .X.7X7XX.} { ( Q W 6 7 5 1 < < O + @   o O 2 2 2 2 < < 2 5 6 W Q 6 6 Q { }  .} Q 5 2 1 6 ( } | ^ ^ IXIXIXIXIXIXIXIXIXIXIXIXIXIXIXIXIX",
"0 0 +.%.,.3.>.0 o @ O y #.5.5.5.n.zXAXgXqXo.U n M N B.S.D.D.K.P.T.T.I.P.K.D.K.P.D.M.v = * = n N.D.L.G.Q.q.g i U D.Y. X8X8X0XiXhXgXhXpXiXwX7X .( Q 6 1 2 < O + o + < W ^ ^ Q W W W Q ( { } { W 7 W ^ ^ Q 6 1 < 2 6 W ^ ^ W 7 5 IXIXIXIXIXIXIXIXIXIXIXIXIXIXIXIXIX",
"0 0 +.$.>.1.,.+.# % q +.>.2.2.2.5.xXZXMXqXo.B v n N M.B.V.V.S.D.K.L.P.P.K.D.D.K.D.V.N M n B V.D.U.U.}.Q.8.f g Y G.Y.tXtXaXdXBXSXGXGXDXAXBXhXiX8X ./ Q 6 1 O + + O 7 (  . . .} / / |  .7X8X7X} ^ Q W 6 5 1 2 2 5 6 W 6 7 1 < < IXIXIXIXIXIXIXIXIXIXIXIXIXIXIXIXIX",
"IXIXe +.$.,.1.IXIXIX,.1.3.2.3.3.5.lXfXkX9X' m v v M N N N N N M.B.S.D.K.K.D.K.K.L.K.D.D.S.D.K.U.$X|.i.g g 8.^.}.U.I.I.Y.cXCXSXJXHXJXGXGXSXAXAXBXfXwX .^ 6 < + O < W { ..0XqX0X.. . .X.8XpXfXpX0X} W 8 1 5 6 6 6 7 1 < O O IXIXIXIXIXIXIXIXIXIXIXIXIXIXIXIXIXIXIX",
"IXIXw w +.$.>.1.IX2.2.2.3.1.,.>.;.c.H.H.` ` n v v v v n n n M M M M.S.D.K.L.I.T.L.S.V.S.K.L.L.U.$XOXa.a a 0.`.$XW.W.I.Y.cXZXGXHXHXHXJXGXGXGXSXAXgXiXUX/ O.< + O 1 ! } 9XiXfXfXiXwX7X..9XqXpXfXfXwX ./ W 1 6 W W 7 2 O o IXIXIXIXIXIXIXIXIXIXIXIXIXIXIXIXIXIXIXIX",
"IXIXIX0 w +.$.>.1.1.1.1.,.>.@.e t z ! m B n v v c c c c c c v v v N B.S.K.I.R.R.P.M.M B.K.L.K.U.$X=Xa.g g p.+X$XE.T.P.Y.cXVXSXJXHXJXGXGXSXDXAXBXpX8X} ^ 6 < O O 7 Q  .8XpXBXVXVXgXiX9X7X7X0XpXhXgXhXfXIXIXIXIXIXIXIXIXIXIXIXIXIXIXIXIXIXIXIXIXIXIXIXIXIXIXIXIXIX",
"IXIXIXIX0 w e +.@.$.@.@.+.e 0 & & % 2 n M M M M n v c V = V c c n N V.D.P.T.R.R.I.F.V.S.D.U.&X5X2X>X^.g g ^.=X%XE.T.P.Y.tXPXAXSXGXGXSXDXAXVXgXpX8X} Q 6 < O O < 6 (  .0XpXBXAXSXAXBXpXwX7X7XqXfXBXAXAXVXIXIXIXIXIXIXIXIXIXIXIXIXIXIXIXIXIXIXIXIXIXIXIXIXIXIXIXIX",
"IXIXIXIXIX0 0 0 w w w w 0 0 & o o o O c M N B.B.N B n v v c v v M M.S.D.I.T.T.T.I.P.K.G.G.}.|.*X;X:Xa.g g ^.=X%XE.T.P.U.tXpXhXBXVXVXVXBXBXfXiX9X} W 5 < O O < 5 W /  .0XpXBXAXGXGXDXVXpX9X7X9XqXfXVXAXVXBXgXIXIXIXIXIXIXIXIXIXIXIXIXIXIXIXIXIXIXIXIXIXIXIXIXIXIX",
"IXIXIXIXIXIXIXIXIXIXIXIXIXIXIXIX@ o + = n M.S.S.S.V.V.V.B.M.N N N B.S.D.P.T.I.P.K.D.G.&X$X|.i.y.s.s.=.t g ~.=X%XE.T.L.G.J.7X8XwXqXiXiXiXqX0X..| W 1 O + + O < 7 Q { X.wXpXBXAXGXJXGXAXgXiX9X7X7XqXfXVXAXVXgXpXIXIXIXIXIXIXIXIXIXIXIXIXIXIXIXIXIXIXIXIXIXIXIXIXIX",
"IXIXIXIXIXIXIXIXIXIXIXIXIXIXIXIXIXo + = c B V.S.S.S.S.S.S.S.V.B.N N M.V.D.L.K.D.D.G.}.|.~.a.=.r =.-.:.r y.+X,X%XE.I.K.F.A.[ |  .X.H.7X.. .| ^ E 2 O o o + O < 5 W / X.0XpXgXAXGXJXJXGXAXhXqX.. .7XqXfXVXAXBXfXiXIXIXIXIXIXIXIXIXIXIXIXIXIXIXIXIXIXIXIXIXIXIXIXIX",
"IXIXIXIXIXIXIXIXIXIXIXIXIXIXIXIXIXIXIX* = c B N N N M.B.V.S.S.V.N.M v n B.D.D.S.G.$X+Xi.g t r -.f.g.m.-.s.+X4X%XE.P.K.S.` ! Q ( { | { ^ ! 6 1 < O + o o o + O 1 6 ^ } 7XqXfXBXAXGXJXJXGXAXfX9X} } 7XqXfXBXBXBXpX9X .IXIXIXIXIXIXIXIXIXIXIXIXIXIXIXIXIXIXIXIXIXIX",
"IXIXIXIXIXIXIXIXIXIXIXIXIXIXIXIXIXIXIXIX* = v v c c c n B N N M.N M v n N.V.G.G./.^.a.f 0 0 =.;.g.b.g.f.l.<X4X%XW.K.D.A.B 5 5 O.W W W 7 1 < + + # $ # o   o O < 7 W (  .9XiXfXBXAXGXJXJXGXVXqXX.} |  .0XpXhXgXpX8X..IXIXIXIXIXIXIXIXIXIXIXIXIXIXIXIXIXIXIXIXIXIX",
"IXIXIXIXIXIXIXIXIXIXIXIXIXIXIXIXIXIXIXIXIXIX= = * . * * = = V v B N N N.B.C.}.|.^.9.t 0 0 t =.;.g.b.b.g.v.1X4X%XU.K.S.B.m 2 < 2 2 2 < < O O + % a g a #     + O 2 7 W ^  .9XiXfXBXAXSXJXHXSXfX0X} Q ^ } 7XqXpXiXwX9XIXIXIXIXIXIXIXIXIXIXIXIXIXIXIXIXIXIXIXIXIXIX",
"IXIXIXIXIXIXIXIXIXIXIXIXIXIXIXIXIXIXIXIXIXIX* * * * * . . . * V n M M U Z.Q.i.q.9.r r r r r =.-.f.b.b.b.b.1X4X%XU.D.S.B.m , + O O O + o o + $ a g f f g a #     + < 8 W ^ } 7XqXfXBXVXSXJXGXVXpX .6 7 Q { X.8XwXqX0XX./ IXIXIXIXIXIXIXIXIXIXIXIXIXIXIXIXIXIXIXIX",
"IXIXIXIXIXIXIXIXIXIXIXIXIXIXIXIXIXIXIXIXIXIX. . * * * . . . * = b b M T Q.!.8.t w r =.-.-.-.=.=.-.g.b.b.#X1X5X&XU.D.S.B.n + o O O + % + % $ a d *.6.7.w.q.A > - - - 2 1 6 ^ } 7XqXpXhXVXSXGXDXgX7XW 2 7 W ( } 7X0X8X ./ ^ IXIXIXIXIXIXIXIXIXIXIXIXIXIXIXIXIXIXIX",
"IXIXIXIXIXIXIXIXIXIXIXIXIXIXIXIXIXIXIXIXIXIXIXIX. . * * * * = i Z Z Z q.p.p.9.t w r -.m.g.f.-.-.-.-.v.#X1X%X&XU.D.D.IXIXIXIXIXIXIXa a a a g f 6.7.w.!.).`.|.~.Q.i.L : O < 7 Q | ..8XiXhXVXSXGXVXqX{ 6 1 2 6 ^ |  .X.} { / IXIXIXIXIXIXIXIXIXIXIXIXIXIXIXIXIXIXIX",
"IXIXIXIXIXIXIXIXIXIXIXIXIXIXIXIXIXIXIXIXIXIXIXIXIX. . . * = > a s f *.6.9.9.f t w r =.-.f.f.f.f.f.s.+X5X5X&XP.D.S.V.IXIXIXIXIXIXIXIXs s s d f 6.7.w.!.`.*X:X;X;X*X~.Y C 3 2 5 ! /  .9XiXgXAXSXAXfX7X{ D h 4 6 Q / | } } } IXIXIXIXIXIXIXIXIXIXIXIXIXIXIXIXIXIXIX",
"IXIXIXIXIXIXIXIXIXIXIXIXIXIXIXIXIXIXIXIXIXIXIXIXIXIX. . # a g q 0 0 0 0 0 0 0 0 0 t r =.-.m.g.v.oXOX$X&XE.I.D.S.M.N IXIXIXIXIXIXIXIXIXs s s s d *.6.w.!.].*X;X>X2X>X:X|.Y - , 8 W ^ } 9XpXBXAXDXBXaXXX{.i.I 4 5 W ^ |  . .IXIXIXIXIXIXIXIXIXIXIXIXIXIXIXIXIXIXIX",
"IXIXIXIXIXIXIXIXIXIXIXIXIXIXIXIXIXIXIXIXIXIXIXIXIXIXQ.Y T C a > $ q q 0 0 0 g f *.9.8.s.a.k.oX#X=X$X&XI.K.D.S.B.N IXIXIXIXIXIXIXIXIXIXIXIXs s s s f 6.0.!.`.*X;X2X3X3X,X|.Y D 3 2 7 ^  .wXfXBXVXNXfXyX@X+XQ.Y D S ! [  . .{ IXIXIXIXIXIXIXIXIXIXIXIXIXIXIXIXIXIX",
"IXIXIXIXIXIXIXIXIXIXIXIXIXIXIXIXIXIXIXIXIXIXIXIXOXOX-X=X|.T c c c C g s f Z 7.w.p.!.~.`.+XOX-X=X&XU.K.D.S.B.N N IXIXIXIXIXIXIXIXIXIXIXIXIXIXs s s s f 6.7.e.).OX:X>X3X3X2X:X[.A - < 6 ( X.wXpXfXdXpXyX<X:X-X+XQ.I W ^ | | ( ^ IXIXIXIXIXIXIXIXIXIXIXIXIXIXIXIXIX",
"IXIXIXIXIXIXIXIXIXIXIXIXIXIXIXIXIXIXIXIXIXIXIXIX-X-X;X,XOXQ.T b c V > C C T T Z.Z.Z.Z.}.}.}.}.}.G.V.N.N.M n c 8 IXIXIXIXIXIXIXIXIXIXIXIXIXIXIXIXIXIXs d *.7.w.!.].*X;X2X3X3X=X|.Y h < 8 ) } ..8X8X9XXX@X:X>X>X=X{.h.' / / ( ( IXIXIXIXIXIXIXIXIXIXIXIXIXIXIXIXIX",
"IXIXIXIXIXIXIXIXIXIXIXIXIXIXIXIXIXIXIXIXIXIXIXIX;X;X;X:XOX!.0.T m m B U U U B.B.B.B.B.B.M.B.B.A.A.A.U B m 2 < , IXIXIXIXIXIXIXIXIXIXIXIXIXIXIXIXIXIXIXs s f 6.8.!.`.*X;X2X3X3X2X=XY 4 - 8 O.^ { { | h.{.OX;X3X2X-X|.' ) ) ^ ( IXIXIXIXIXIXIXIXIXIXIXIXIXIXIXIXIX",
"IXIXIXIXIXIXIXIXIXIXIXIXIXIXIXIXIXIXIXIXIXIXIXIX;X;X-X'.!.w.8.h.H.eXiXaXtXeXH.o.` ) m m c m ` H.eXeXH.o.) 5 O + IXIXIXIXIXIXIXIXIXIXIXIXIXIXIXIXIXIXIXIXIXs d *.7.p.`.*X;X>X3X3X2X=X|.Y 3 , 8 6 W W I i.).*X,X;XOX^.Y S E Q ^ IXIXIXIXIXIXIXIXIXIXIXIXIXIXIXIXIX",
"IXIXIXIXIXIXIXIXIXIXIXIXIXIXIXIXIXIXIXIXIXIXIXIX;X-XOX).p.q.r.z.aXNXAXFXhXuX7X} ( W 5 < < W  .wXfXhXiX7X/ 7 O o IXIXIXIXIXIXIXIXIXIXIXIXIXIXIXIXIXIXIXIXIXIXs s f 7.p.).].OX:X;X2X>X:X~.I : 2 2 2 1 k 9.e.(.].].(.p.A 3 5 W ! IXIXIXIXIXIXIXIXIXIXIXIXIXIXIXIXIX",
"IXIXIXIXIXIXIXIXIXIXIXIXIXIXIXIXIXIXIXIXIXIXIXIX*XOX`.!.a.h. XqXfXBXBXhXqX7X} ( ! 7 1 2 7 ( 0XfXVXCXpX..^ 1 +   IXIXIXIXIXIXIXIXIXIXIXIXIXIXIXIXIXIXIXIXIXIXIXs s f 6.8.e.!.~.`.].OXOX].^.i.u O o O : g 7.w.w.e.w.9.p - < 5 7 IXIXIXIXIXIXIXIXIXIXIXIXIXIXIXIXIX",
"IXIXIXIXIXIXIXIXIXIXIXIXIXIXIXIXIXIXIXIXIXIXIXOX'.`.!.w.i.z.0XpXgXgXfXqX7X} ^ Q 7 < , < 6 | iXBXVXBXuX .Q 5 + IXIXIXIXIXIXIXIXIXIXIXIXIXIXIXIXIXIXIXIXIXIXIXIXIXIXs d f 6.7.0.w.e.!.(.(._.0.p o   O - p G K r.r.r.G h < , < < IXIXIXIXIXIXIXIXIXIXIXIXIXIXIXIXIX",
"IXIXIXIXIXIXIXIXIXIXIXIXIXIXIXIXIXIXIXIXIXIXOX'.`.~.w.7.r.z.qXdXhXpXqX7X} ^ W 7 2 - % < 6 } iXBXBXfX7X( W IXIXIXIXIXIXIXIXIXIXIXIXIXIXIXIXIXIXIXIXIXIXIXIXIXIXIXIXIXs s s s f 6.6.7.8.0.0.Z y O O < 5 W / o.z.X.} ( W 5 < O + IXIXIXIXIXIXIXIXIXIXIXIXIXIXIXIXIX",
"IXIXIXIXIXIXIXIXIXIXIXIXIXIXIXIXIXIXIXIXIXIXOX].~.e.7.*.y.z.qXpXpXqX7X} ( W 8 , - A L A S { qXfXpX0X} W 5 IXIXIXIXIXIXIXIXIXIXIXIXIXIXIXIXIXIXIXIXIXIXIXIXIXIXIXIXIXIXIXa $ $ y y p p F F A S S Q /  .9XqXpXhXdXiX8X} ^ 7 O + IXIXIXIXIXIXIXIXIXIXIXIXIXIXIXIXIX",
"IXIXIXIXIXIXIXIXIXIXIXIXIXIXIXIXIXIXIXIXIXIXOX`.p.8.6.f P z.qXqX0X7X} ( W 7 2 - A i.^.i.S [ 9XqX9X .Q 5 < IXIXIXIXIXIXIXIXIXIXIXIXIXIXIXIXIXIXIXIXIXIXIXIXIXIXIXIXIXIXIXIX+ + O < 1 7 6 Q ^ / } 7XqXpXBXDXGXGXGXAXgXwX} W 2 O IXIXIXIXIXIXIXIXIXIXIXIXIXIXIXIXIX",
"IXIXIXIXIXIXIXIXIXIXIXIXIXIXIXIXIXIXIXIXIXIX`.~.w.9.J _ ' X.7X.. .{ ^ 6 1 2 D Q.|.OX`.h.~ ] ..7X .^ 6 < + IXIXIXIXIXIXIXIXIXIXIXIXIXIXIXIXIXIXIXIXIXIXIXIXIXIXIXIXIXIXIXIX+ < 5 E Q ^ [ } ..7X0XpXgXAXGXJXHXHXHXGXFXiX..^ 5 < IXIXIXIXIXIXIXIXIXIXIXIXIXIXIXIXIX",
"IXIXIXIXIXIXIXIXIXIXIXIXIXIXIXIXIXIXIXIXIXIX!.e.7.6.P | } } | [ ^ W 7 1 4 D [.=X>X-X+Xh.( / } } ^ 6 1 O o IXIXIXIXIXIXIXIXIXIXIXIXIXIXIXIXIXIXIXIXIXIXIXIXIXIXIXIXIXIXIX+ O < 7 W ^ ( } ..8XwXuXfXBXAXGXJXHXHXHXGXVXiXX.) 5 < IXIXIXIXIXIXIXIXIXIXIXIXIXIXIXIXIX",
"IXIXIXIXIXIXIXIXIXIXIXIXIXIXIXIXIXIXIXIXIXIXw.8.6.f G / [ ( Q W 7 2 < 4 Y |.=X2X2X*X~.i.~ ^ / ^ 6 1 < IXIXIXIXIXIXIXIXIXIXIXIXIXIXIXIXIXIXIXIXIXIXIXIXIXIXIXIXIXIXIX      + O < 5 6 W ^ } X.7X0XqXiXfXBXAXGXGXGXAXfX9X{ W 2 O IXIXIXIXIXIXIXIXIXIXIXIXIXIXIXIXIX",
"IXIXIXIXIXIXIXIXIXIXIXIXIXIXIXIXIXIXIXIXIXIXZ g a a h W W 7 5 h p p A Y ~.-X>X2X:X`.p.P ! W W m 1 O O IXIXIXIXIXIXIXIXIXIXIXIXIXIXIXIXIXIXIXIXIXIXIXIXIXIXIXIXIXIXo         o + O < 2 6 Q ^ { } X.7X0XiXfXhXMXhXpX8X} W 1 O o IXIXIXIXIXIXIXIXIXIXIXIXIXIXIXIXIX",
"IXIXIXIXIXIXIXIXIXIXIXIXIXIXIXIXIXIXIXIXIXIX2 2 2 2 2 2 < O % a Z 8.p.~.OX:X-XOX`.p.8.F 4 8 8 2 < + o IXIXIXIXIXIXIXIXIXIXIXIXIXIXIXIXIXIXIXIXIXIXIXIXIXIXIXIXIXo o o o o       o o + O < 1 7 W ^ [ } X.7X7X7X7X .{ W 2 O o   IXIXIXIXIXIXIXIXIXIXIXIXIXIXIXIXIX",
"IXIXIXIXIXIXIXIXIXIXIXIXIXIXIXIXIXIXIXIX< 2 1 5 6 6 6 7 1 < < : u Z 0.!.(.`.(.!.w.7.f a - O O O O IXIXIXIXIXIXIXIXIXIXIXIXIXIXIXIXIXIXIXIXIXIXIXIXIXIXIXIXIXIXIXo + O , < 2 2 < , O o o + + O < 2 5 6 W Q Q Q Q W 7 2 O +   IXIXIXIXIXIXIXIXIXIXIXIXIXIXIXIXIXIX",
"IXIXIXIXIXIXIXIXIXIXIXIXIXIXIXIXIXIXIXO < 2 7 W Q ^ ^ ^ Q Q W 6 7 A y.0.p.p.0.9.f s a $ + o o o IXIXIXIXIXIXIXIXIXIXIXIXIXIXIXIXIXIXIXIXIXIXIXIXIXIXIXIXIXIXIXIXo + O 2 7 O.W W 6 7 1 2 < < < < < 2 2 1 1 1 2 < O O + o o IXIXIXIXIXIXIXIXIXIXIXIXIXIXIXIXIXIXIX",
"IXIXIXIXIXIXIXIXIXIXIXIXIXIXIXIXIXo + O O < 1 6 Q ( | } X....... .o.z.h.h.' I k h : & % o o IXIXIXIXIXIXIXIXIXIXIXIXIXIXIXIXIXIXIXIXIXIXIXIXIXIXIXIXIXIXIXIXo o o + O < 5 W ^ / }  .X.X. .} | { { / ( ^ W 7 < O + o o o o IXIXIXIXIXIXIXIXIXIXIXIXIXIXIXIXIXIXIX",
"IXIXIXIXIXIXIXIXIXIXIXIXIXIXIXIXIX+ + O < 2 1 7 W Q / } 7X0XqXiXiXiXqX0X0X9X ./ ! 5 < O + o IXIXIXIXIXIXIXIXIXIXIXIXIXIXIXIXIXIXIXIXIXIXIXIXIXIXIXIXIXIXIXo o o o o + O < 7 Q /  .9XqXiXiXiXiXiXiXqXwX9XX./ W 5 < O + o IXIXIXIXIXIXIXIXIXIXIXIXIXIXIXIXIXIXIXIX",
"IXIXIXIXIXIXIXIXIXIXIXIXIXIXIXIXIXO O < 5 7 6 6 7 6 W ^ | X.0XiXfXBXVXVXAXVXhXqXX.^ 5 < + o IXIXIXIXIXIXIXIXIXIXIXIXIXIXIXIXIXIXIXIXIXIXIXIXIXIXIXIXIXIXIXo o o o o o + O < 2 6 Q } 7XqXpXfXBXVXAXAXAXBXfXqX7X/ 6 2 < IXIXIXIXIXIXIXIXIXIXIXIXIXIXIXIXIXIXIXIXIX",
"IXIXIXIXIXIXIXIXIXIXIXIXIXIXIXIXO O O 2 7 W Q Q Q Q ! W Q ( } 7XiXfXBXAXSXSXVXpX6X^ 5 < O IXIXIXIXIXIXIXIXIXIXIXIXIXIXIXIXIXIXIXIXIXIXIXIXIXIXIXIXIXIXIXIXo o + O O O O O O O < 5 W /  .9XqXfXBXVXAXAXBXfXiX9X| 6 < IXIXIXIXIXIXIXIXIXIXIXIXIXIXIXIXIXIXIXIXIXIX",
"IXIXIXIXIXIXIXIXIXIXIXIXIXIXIX< < O O < 5 W / }  . .| ^ W W Q { X.8XiXfXgXgXpX9X| 6 < O IXIXIXIXIXIXIXIXIXIXIXIXIXIXIXIXIXIXIXIXIXIXIXIXIXIXIXIXIXIXIXIXIXo + O O < 1 5 2 < O O < 2 7 W ^ } ..8XqXpXpXqX0X7X} Q 1 O IXIXIXIXIXIXIXIXIXIXIXIXIXIXIXIXIXIXIXIXIXIX",
"IXIXIXIXIXIXIXIXIXIXIXIXIXIX7 7 7 5 1 2 2 6 ^ | ..9X9X7XX.} | { { }  .X.7X7X .( W 2 O IXIXIXIXIXIXIXIXIXIXIXIXIXIXIXIXIXIXIXIXIXIXIXIXIXIXIXIXIXIXIXIXIXIXo + + O < 5 6 6 6 7 2 < < < < 5 6 Q {  ..... .| ^ W 5 O + IXIXIXIXIXIXIXIXIXIXIXIXIXIXIXIXIXIXIXIXIXIX",
"IXIXIXIXIXIXIXIXIXIXIXIXIXIXW W W W W 5 2 1 6 ^ } 7XqXpXpXiXwX7X} { ^ ^ Q W 6 5 < O + IXIXIXIXIXIXIXIXIXIXIXIXIXIXIXIXIXIXIXIXIXIXIXIXIXIXIXIXIXIXIXIXIXIXo o o o O 2 6 Q ^ ^ Q 6 5 < O O < 2 6 Q ^ ( Q W 7 < O + o IXIXIXIXIXIXIXIXIXIXIXIXIXIXIXIXIXIXIXIXIXIX",
"IXIXIXIXIXIXIXIXIXIXIXIXIXIX5 5 6 Q Q W 6 5 1 6 Q } 8XfXBXVXVXgXpXwX..{ W 5 < O O + IXIXIXIXIXIXIXIXIXIXIXIXIXIXIXIXIXIXIXIXIXIXIXIXIXIXIXIXIXIXIXIXIXIXIX      o + O 2 6 ^ } X.X.{ W 5 < O O O < 5 7 5 1 2 < < IXIXIXIXIXIXIXIXIXIXIXIXIXIXIXIXIXIXIXIXIXIXIXIX",
"IXIXIXIXIXIXIXIXIXIXIXIXIXIX< < 5 W Q Q Q W 6 6 6 Q } 0XpXBXVXAXVXfX8X} W 2 O + o IXIXIXIXIXIXIXIXIXIXIXIXIXIXIXIXIXIXIXIXIXIXIXIXIXIXIXIXIXIXIXIXIXIXIXIXIX    o + + O 5 Q | 7X0X7X .{ Q 6 1 < < < 2 7 6 6 6 6 IXIXIXIXIXIXIXIXIXIXIXIXIXIXIXIXIXIXIXIXIXIXIXIX",
"IXIXIXIXIXIXIXIXIXIXIXIXIXIX< < < 2 7 Q | } } ( W 6 W ^ } 9XqXpXiXqX7X{ W 2 , IXIXIXIXIXIXIXIXIXIXIXIXIXIXIXIXIXIXIXIXIXIXIXIXIXIXIXIXIXIXIXIXIXIXIXIXIXIXIXIXo o + + O < 7 Q | ..qXpXiXwX7X| Q 7 2 6 {  .} | { IXIXIXIXIXIXIXIXIXIXIXIXIXIXIXIXIXIXIXIXIXIXIXIX",
"IXIXIXIXIXIXIXIXIXIXIXIXIXIX< 2 1 5 6 Q {  .7X..| Q 6 6 W ^ | } } | ^ W 6 2 IXIXIXIXIXIXIXIXIXIXIXIXIXIXIXIXIXIXIXIXIXIXIXIXIXIXIXIXIXIXIXIXIXIXIXIXIXIXIXIXIXIX  + < 1 7 6 W Q { 9XpXgXgXfXqX../ W ( 9XqX8X .} IXIXIXIXIXIXIXIXIXIXIXIXIXIXIXIXIXIXIXIXIXIXIXIX",
"IXIXIXIXIXIXIXIXIXIXIXIXIXIXIX1 6 ^ ( ^ ^ } 9XwX8X .^ 7 2 1 5 7 7 5 < < IXIXIXIXIXIXIXIXIXIXIXIXIXIXIXIXIXIXIXIXIXIXIXIXIXIXIXIXIXIXIXIXIXIXIXIXIXIXIXIXIXIXIXIX  O 5 W ) ^ Q W Q | 9XpXVXAXBXpX9X} X.pXhXqXX.} IXIXIXIXIXIXIXIXIXIXIXIXIXIXIXIXIXIXIXIXIXIXIXIX",
"IXIXIXIXIXIXIXIXIXIXIXIXIXIXIXIXQ / | | | }  .7X0X8X| 6 2 1 5 6 W 6 < IXIXIXIXIXIXIXIXIXIXIXIXIXIXIXIXIXIXIXIXIXIXIXIXIXIXIXIXIXIXIXIXIXIXIXIXIXIXIXIXIXIXIXIXIXIXO 1 6 ^ [ / Q Q ^ } wXBXAXAXBXiX7XwXBXVXaX..} IXIXIXIXIXIXIXIXIXIXIXIXIXIXIXIXIXIXIXIXIXIXIXIX",
"IXIXIXIXIXIXIXIXIXIXIXIXIXIXIXIXIX/ |  ... .{ } 9X0X} W 6 W Q ^ ^ ^ IXIXIXIXIXIXIXIXIXIXIXIXIXIXIXIXIXIXIXIXIXIXIXIXIXIXIXIXIXIXIXIXIXIXIXIXIXIXIXIXIXIXIXIXIXIXIXIX< 2 W / | { ( ^ ^ X.pXBXVXVXpX0XiXVXAXpX..} IXIXIXIXIXIXIXIXIXIXIXIXIXIXIXIXIXIXIXIXIXIXIXIX",
"IXIXIXIXIXIXIXIXIXIXIXIXIXIXIXIXIX^ /  .7X .( / X.7X} Q Q | } ( W W IXIXIXIXIXIXIXIXIXIXIXIXIXIXIXIXIXIXIXIXIXIXIXIXIXIXIXIXIXIXIXIXIXIXIXIXIXIXIXIXIXIXIXIXIXIXIXIX+ O 2 6 ^ | } ( ^ { 7XqXfXhXiX7X0XfXhXwX} { IXIXIXIXIXIXIXIXIXIXIXIXIXIXIXIXIXIXIXIXIXIXIXIX",
"IXIXIXIXIXIXIXIXIXIXIXIXIXIXIXIXIXW Q } 7X .^ ^ }  .{ Q (  ...{ 6 IXIXIXIXIXIXIXIXIXIXIXIXIXIXIXIXIXIXIXIXIXIXIXIXIXIXIXIXIXIXIXIXIXIXIXIXIXIXIXIXIXIXIXIXIXIXIXIXIXo + O 2 W / } { ^ ^ (  .0XiX8X .X.wXqX..( Q IXIXIXIXIXIXIXIXIXIXIXIXIXIXIXIXIXIXIXIXIXIXIXIX",
"IXIXIXIXIXIXIXIXIXIXIXIXIXIXIXIXIX5 W { X.} Q Q / } / Q ^ } X. .IXIXIXIXIXIXIXIXIXIXIXIXIXIXIXIXIXIXIXIXIXIXIXIXIXIXIXIXIXIXIXIXIXIXIXIXIXIXIXIXIXIXIXIXIXIXIXIXIXIXIXIXO O 8 Q ( / ( Q 6 Q  .8XX./ {  .X./ W 6 IXIXIXIXIXIXIXIXIXIXIXIXIXIXIXIXIXIXIXIXIXIXIXIX",
"IXIXIXIXIXIXIXIXIXIXIXIXIXIXIXIXIX< 5 Q { ^ 6 6 Q ^ Q W Q / | IXIXIXIXIXIXIXIXIXIXIXIXIXIXIXIXIXIXIXIXIXIXIXIXIXIXIXIXIXIXIXIXIXIXIXIXIXIXIXIXIXIXIXIXIXIXIXIXIXIXIXIXIXIXO < 7 W ) ^ W 5 6 /  .| Q Q ^ ( W 5 2 IXIXIXIXIXIXIXIXIXIXIXIXIXIXIXIXIXIXIXIXIXIXIXIX",
"IXIXIXIXIXIXIXIXIXIXIXIXIXIXIXIXIXO < 5 6 7 2 2 7 6 6 5 6 W Q IXIXIXIXIXIXIXIXIXIXIXIXIXIXIXIXIXIXIXIXIXIXIXIXIXIXIXIXIXIXIXIXIXIXIXIXIXIXIXIXIXIXIXIXIXIXIXIXIXIXIXIXIXIX+ O < 1 6 W 6 2 5 Q / Q 6 7 6 6 1 < O IXIXIXIXIXIXIXIXIXIXIXIXIXIXIXIXIXIXIXIXIXIXIXIX",
"IXIXIXIXIXIXIXIXIXIXIXIXIXIXIXIXO O O < < < < < < 2 2 < 2 5 W / 7XIXIXIXIXIXIXIXIXIXIXIXIXIXIXIXIXIXIXIXIXIXIXIXIXIXIXIXIXIXIXIXIXIXIXIXIXIXIXIXIXIXIXIXIXIXIXIXIXIXIXIXIXo + O < 1 7 1 < < 7 6 7 < < 2 2 O O O 5 IXIXIXIXIXIXIXIXIXIXIXIXIXIXIXIXIXIXIXIXIXIXIX",
"IXIXIXIXIXIXIXIXIXIXIXIXIXIXIX< < O + + O O O O < 2 2 1 2 1 6 { 7X8XIXIXIXIXIXIXIXIXIXIXIXIXIXIXIXIXIXIXIXIXIXIXIXIXIXIXIXIXIXIXIXIXIXIXIXIXIXIXIXIXIXIXIXIXIXIXIXIXIXIX+ o o o + O < < O O < < < < < 1 5 1 2 5 6 Q IXIXIXIXIXIXIXIXIXIXIXIXIXIXIXIXIXIXIXIXIXIX",
"IXIXIXIXIXIXIXIXIXIXIXIXIXIXIX2 < + o o + O O < 7 W Q ^ W 7 7 ^ }  .IXIXIXIXIXIXIXIXIXIXIXIXIXIXIXIXIXIXIXIXIXIXIXIXIXIXIXIXIXIXIXIXIXIXIXIXIXIXIXIXIXIXIXIXIXIXIXIXIX< O o o   o + O O O O O O < 1 W / } | / ( ^ { ..iXiXiXIXIXIXIXIXIXIXIXIXIXIXIXIXIXIXIXIXIX",
"IXIXIXIXIXIXIXIXIXIXIXIXIXIX( W 6 5 1 1 8 1 1 6 ^ } X.7X .( Q /  .7XIXIXIXIXIXIXIXIXIXIXIXIXIXIXIXIXIXIXIXIXIXIXIXIXIXIXIXIXIXIXIXIXIXIXIXIXIXIXIXIXIXIXIXIXIXIXIXIX7 2 < O O < 2 1 5 5 1 2 < < 1 W / 7XwXqXwX9X..6X0XiXiXiXiXIXIXIXIXIXIXIXIXIXIXIXIXIXIXIXIXIX",
"IXIXIXIXIXIXIXIXIXIX;X1XvXdXeX .} } } } } / ^ / ..qXpXfXpXwX9X7X8XiXgXVXIXIXIXIXIXIXIXIXIXIXIXIXIXIXIXIXIXIXIXIXIXIXIXIXIXIXIXIXIXIXIXIXIXIXIXIXIXIXIXIXIXIXIXIX9X .Q 7 5 6 W ^ / }  .| ^ Q 6 6 W ^ } 9XiXhXBXBXfXpXqXwXqXiXpXpXiXIXIXIXIXIXIXIXIXIXIXIXIXIXIXIX",
"IXIXIXIXIXIXIXIXIX1X<X@XyXqX8X7X9XwXiXiXiX0X..7XqXfXCXZXZXNXfXqXwXiXhXVXVXIXIXIXIXIXIXIXIXIXIXIXIXIXIXIXIXIXIXIXIXIXIXIXIXIXIXIXIXIXIXIXIXIXIXIXIXIXIXIXIXIXIXiX0XX.^ W W Q { ..0XiXpXiX8X ./ Q ^ ( } 7XqXgXAXDXAXBXfXiXqXqXqXiXpXfXIXIXIXIXIXIXIXIXIXIXIXIXIXIX",
"IXIXIXIXIXIXIX3X4X<XyX9X .} }  .9XiXhXVXVXhXiXqXpXgXVXDXDXAXBXiX8X0XpXhXBXBXCXIXIXIXIXIXIXIXIXIXIXIXIXIXIXIXIXIXIXIXIXIXIXIXIXIXIXIXIXIXIXIXIXIXIXIXIXIXIXhXfXiX0X .^ W Q /  .qXfXBXAXVXgXiX..{ ^ ^ /  .8XpXBXZXAXAXVXBXpX0X0XiXfXhXhXfXpXpXIXIXIXIXIXIXIXIXIXIX",
"IXIXIXIXIXIXIX:X=X{.' Q O.6 6 W /  .8XqXiXqX8X8XkXjXsXvXvXmXvXrXX. ...0XpXnXnX<X:X2XIXIXIXIXIXIXIXIXIXIXIXIXIXIXIXIXIXIXIXIXIXIXIXIXIXIXIXIXIXIXIXIXIXIX<XyXiX8X .( W 6 W ^ | 7XwXpXfXpXiX8X} ^ Q Q ^ } ..0XiXfXBXVXAXAXCXhXpXiXiXiXiXpXfXhXMXNXIXIXIXIXIXIXIXIX",
"IXIXIXIXIXIXIX(.^.i.h , + + + O 2 6 Q ( { { / | ..9X{.~.'.:X=X[.[ ) Q / 9XaX.X+X*X>X3X3XIXIXIXIXIXIXIXIXIXIXIXIXIXIXIXIXIXIXIXIXIXIXIXIXIXIXIXIXIXIXIX:X=X.X X| Q 6 5 5 7 6 Q ^ {  .X.X.} { Q W 6 W Q / }  .X.8XpXgXVXDXLXDXCXjXwX9X7XwXfXBXnXzXnXIXIXIXIXIXIXIX",
"IXIXIXIXIXIXIX8.8.9.IXIXIXIXo + O O < 2 1 1 1 5 O.~ i.~.'.>X,X[.~ 5 1 7 ^ o.h.a.).-X2X3X3XIXIXIXIXIXIXIXIXIXIXIXIXIXIXIXIXIXIXIXIXIXIXIXIXIXIXIXIX;X*X].^.' ) 6 1 < < < < 1 5 7 6 W Q W W 6 1 2 2 1 6 W Q Q ^ } wXjXvX<XbXbXmXnXpX8X .7XiXjXyX@X<X2X3XIXIXIXIXIX",
"IXIXIXIXIXIXIX6.6.IXIXIXIXIXIXo o o o o o o o o + - F p.].;X=X[.7 , O O 1 l F 9.w.).*X,X3X3XIXIXIXIXIXIXIXIXIXIXIXIXIXIXIXIXIXIXIXIXIXIXIXIXIXIX;X:XOX!.q.A 2 , O O O O O O < < < < < < < O O O O < 2 1 8 1 7 ( 7XrX.X`.-X2X4XmXnXeX| } 9XeX{.~.'.;X3X3XIXIXIXIX",
"IXIXIXIXIXIXIXIXIXIXIXIXIXIXIXIXIXIXIXIXIXo o o @ % a 9.p.].+XY - o o + + % y g 6.8.!.OX;X2XIXIXIXIXIXIXIXIXIXIXIXIXIXIXIXIXIXIXIXIXIXIXIXIXIXIX-X*X).w.Z y + o + + + + + + + + + + + + + + + + O O O O < < 2 ! } z.h.p.).:X2X4X1XXX( ) [ ' t.w.!.OX;X2X3XIXIXIX",
"IXIXIXIXIXIXIXIXIXIXIXIXIXIXIXIXIXIXIXIXIXIXo o @ + a f w.!.^.L -   o o @ o $ g d 6.w.~.].OXIXIXIXIXIXIXIXIXIXIXIXIXIXIXIXIXIXIXIXIXIXIXIXIXIXIX`.(.p.7.s a + @ o o o o o o o o o o o o o o o o + + + + + O O 5 ) _ J 9.p.].;X3X2X[.S 5 6 S G 7.w.!.].:X2X3XIXIX",
"IXIXIXIXIXIXIXIXIXIXIXIXIXIXIXIXIXIXIXIXIXIXIXIXIXIXIXIXIXw.0.8.IXIXIXIXIXIXIXIXIXIXIX!.!.!.IXIXIXIXIXIXIXIXIXIXIXIXIXIXIXIXIXIXIXIXIXIXIXIXIXIXw.0.7.f s IXIXIXIXIXIXIXIXIXIXIXIXIXIXIXIXIXo o o + + + + o + , 1 h p f 8.!.OX>X,X[.4 + O - p 6.7.8.p.).*X;X3X3X",
"IXIXIXIXIXIXIXIXIXIXIXIXIXIXIXIXIXIXIXIXIXIXIXIXIXIXIXIXIXIXIXIXIXIXIXIXIXIXIXIXIXIXIXIXIXIXIXIXIXIXIXIXIXIXIXIXIXIXIXIXIXIXIXIXIXIXIXIXIXIXIXIX*.*.*.d IXIXIXIXIXIXIXIXIXIXIXIXIXIXIXIXIXIXIXIXIXIXIXIXIXIXo + O % ; y g 8.!.'.+XY - @ o + ; a g f 7.w.!.OX;X,X",
"IXIXIXIXIXIXIXIXIXIXIXIXIXIXIXIXIXIXIXIXIXIXIXIXIXIXIXIXIXIXIXIXIXIXIXIXIXIXIXIXIXIXIXIXIXIXIXIXIXIXIXIXIXIXIXIXIXIXIXIXIXIXIXIXIXIXIXIXIXIXIXIXIXs s IXIXIXIXIXIXIXIXIXIXIXIXIXIXIXIXIXIXIXIXIXIXIXIXIXIXIXIXIXo + + % y f 8.!.!.L - @ o o o + $ g f 6.w.!.].OX",
"IXIXIXIXIXIXIXIXIXIXIXIXIXIXIXIXIXIXIXIXIXIXIXIXIXIXIXIXIXIXIXIXIXIXIXIXIXIXIXIXIXIXIXIXIXIXIXIXIXIXIXIXIXIXIXIXIXIXIXIXIXIXIXIXIXIXIXIXIXIXIXIXIXIXIXIXIXIXIXIXIXIXIXIXIXIXIXIXIXIXIXIXIXIXIXIXIXIXIXIXIXIXIXIXIXIXIXIXIXIX7.8.8.Z IXIXIXIXIXIXIXIXIXIXIXe.p.p.",
"IXIXIXIXIXIXIXIXIXIXIXIXIXIXIXIXIXIXIXIXIXIXIXIXIXIXIXIXIXIXIXIXIXIXIXIXIXIXIXIXIXIXIXIXIXIXIXIXIXIXIXIXIXIXIXIXIXIXIXIXIXIXIXIXIXIXIXIXIXIXIXIXIXIXIXIXIXIXIXIXIXIXIXIXIXIXIXIXIXIXIXIXIXIXIXIXIXIXIXIXIXIXIXIXIXIXIXIXIXIXIX6.6.6.IXIXIXIXIXIXIXIXIXIXIXIX8.8."
};
