/* XPM */
static const char *bos2a7[] = {
/* columns rows colors chars-per-pixel */
"128 128 246 2 ",
"   c #0E0E0E",
".  c #141414",
"X  c #1C1C1C",
"o  c #181816",
"O  c #0F140C",
"+  c #241B16",
"@  c #3A1A17",
"#  c #1C2819",
"$  c #1C3816",
"%  c #132A0C",
"&  c #27251C",
"*  c #392A1B",
"=  c #22381C",
"-  c #38300F",
";  c #1E2122",
":  c #232323",
">  c #2B2C2C",
",  c #282825",
"<  c #342C24",
"1  c #362B27",
"2  c #283725",
"3  c #38322A",
"4  c #2E3032",
"5  c #343434",
"6  c #3B3B3C",
"7  c #383836",
"8  c #2C2E31",
"9  c #1F1F21",
"0  c #4A0706",
"q  c #570201",
"w  c #4E1711",
"e  c #690202",
"r  c #780101",
"t  c #6B1717",
"y  c #562B13",
"u  c #4D2D14",
"i  c #6B2B05",
"p  c #742C01",
"a  c #792E00",
"s  c #7B3402",
"d  c #763707",
"f  c #653517",
"g  c #69350D",
"h  c #483625",
"j  c #563C25",
"k  c #453B36",
"l  c #583736",
"z  c #552A2A",
"x  c #6B332F",
"c  c #1E4417",
"v  c #224719",
"b  c #28551D",
"n  c #384716",
"m  c #2B5A22",
"M  c #2F4D27",
"N  c #2E6424",
"B  c #336A27",
"V  c #3B7C2E",
"C  c #37732B",
"Z  c #3C7932",
"A  c #3D611F",
"S  c #4E4E1C",
"D  c #744714",
"F  c #5B4328",
"G  c #45423D",
"H  c #544B2E",
"J  c #6D4A29",
"K  c #684626",
"L  c #744D2A",
"P  c #744A29",
"I  c #7C512D",
"U  c #765629",
"Y  c #6E5233",
"T  c #4C7029",
"R  c #74682D",
"E  c #3F3F40",
"W  c #3E4142",
"Q  c #434344",
"!  c #4C4C4C",
"~  c #484747",
"^  c #564947",
"/  c #4E5152",
"(  c #535353",
")  c #5B5B5B",
"_  c #595957",
"`  c #51524C",
"'  c #645957",
"]  c #725049",
"[  c #516A4C",
"{  c #706656",
"}  c #5E6162",
"|  c #646464",
" . c #6B6B6B",
".. c #686667",
"X. c #737374",
"o. c #7B7B7B",
"O. c #787777",
"+. c #72706E",
"@. c #5D5E60",
"#. c #880000",
"$. c #980101",
"%. c #941717",
"&. c #A90303",
"*. c #B40000",
"=. c #BB0101",
"-. c #B11414",
";. c #833C05",
":. c #903333",
">. c #AF3030",
",. c #C40000",
"<. c #CB0101",
"1. c #D50000",
"2. c #DB0000",
"3. c #D70E0E",
"4. c #CF1818",
"5. c #E40000",
"6. c #EC0101",
"7. c #E80808",
"8. c #F40202",
"9. c #ED1919",
"0. c #CB2B2B",
"q. c #E92B2B",
"w. c #8A4709",
"e. c #94540E",
"r. c #9A5C13",
"t. c #955813",
"y. c #8B4F11",
"u. c #9C6419",
"i. c #926C1E",
"p. c #A56B19",
"a. c #A9741D",
"s. c #B0791D",
"d. c #825631",
"f. c #8B5B35",
"g. c #865933",
"h. c #925E37",
"j. c #83552D",
"k. c #956139",
"l. c #9B653C",
"z. c #9F683E",
"x. c #90712C",
"c. c #AB7923",
"v. c #B17E22",
"b. c #A1693F",
"n. c #A16E22",
"m. c #914D4D",
"M. c #B14D4D",
"N. c #926F52",
"B. c #A86C42",
"V. c #B57448",
"C. c #AC7146",
"Z. c #847878",
"A. c #8E726A",
"S. c #AE7571",
"D. c #C27C4D",
"F. c #CC7474",
"G. c #DE5050",
"H. c #3D8432",
"J. c #3D812E",
"K. c #428A35",
"L. c #459439",
"P. c #4A9C3D",
"I. c #48953A",
"U. c #568733",
"Y. c #6E8F37",
"T. c #50A13F",
"R. c #4A9F40",
"E. c #4EA743",
"W. c #51AC45",
"Q. c #54B349",
"!. c #56B94C",
"~. c #63A742",
"^. c #5CC652",
"/. c #59C04F",
"(. c #64D75B",
"). c #60CE57",
"_. c #6BE763",
"`. c #71F469",
"'. c #68E05F",
"]. c #929135",
"[. c #B78726",
"{. c #BD922C",
"}. c #AE8F32",
"|. c #B2A63C",
" X c #8CA73F",
".X c #C2972D",
"XX c #C59D32",
"oX c #C9A637",
"OX c #D2B33E",
"+X c #D0AE3D",
"@X c #B09748",
"#X c #AFB247",
"$X c #918873",
"%X c #A88D6B",
"&X c #989650",
"*X c #CC8354",
"=X c #D18656",
"-X c #D6B942",
";X c #CCB647",
":X c #DBC549",
">X c #D5CE53",
",X c #E3CB4C",
"<X c #E8D754",
"1X c #E8D04D",
"2X c #F2E65D",
"3X c #FCF96A",
"4X c #FAF669",
"5X c #D9D563",
"6X c #A1C04C",
"7X c #7E7F80",
"8X c #807F80",
"9X c #7E8383",
"0X c #838484",
"qX c #8B8C8C",
"wX c #878788",
"eX c #939393",
"rX c #9B9B9B",
"tX c #979898",
"yX c #958F8D",
"uX c #A79898",
"iX c #B48E8A",
"pX c #9DA3A3",
"aX c #A4A4A4",
"sX c #ABABAB",
"dX c #A9A9A8",
"fX c #B4B4B4",
"gX c #BBBBBB",
"hX c #B7B8B7",
"jX c #AFAFAE",
"kX c #ADA499",
"lX c #D18F8F",
"zX c #CCB8B6",
"xX c #BDC3C3",
"cX c #C3C3C3",
"vX c #CCCCCC",
"bX c #CAC8C7",
"nX c #D3D3D3",
"mX c #DBDBDB",
"MX c #D7D7D6",
"NX c #D2CCCB",
"BX c #E3E3E3",
"VX c #EBEBEB",
"CX c #E7E9EB",
"ZX c #DEE1E2",
"AX c None",
"SX c black",
/* pixels */
"AXAXAXAXAXAXAXAXAXAXAXAXAXAXAXAXAXAXAXAXAXAXAXAXAXAXAXAXAXAXAXAXAXAXAXAXAXAXAXAXAXAXAXAX8.8.8.8.6.6.5.5.5.5.5.2.2.2.2.1.1.1.1.2.4.S.uXsXsXsXsXjXsXaXrXeXwX0XAXAXAXAXAXAXAXAXAXAXAXAXAXAXAXAXAXAXAXAXAXAXAXAXAXAXAXAXAXAXAXAXAXAXAXAXAXAXAXAXAXAXAXAXAXAXAXAXAXAX",
"AXAXAXAXAXAXAXAXAXAXAXAXAXAXAXAXAXAXAXAXAXAXAXAXAXAXAXAXAXAXAXAXAXAXAXAXAXAXAXAXAXAXAXAX2.2.2.2.1.<.<.,.,.,.=.=.*.*.*.*.*.*.*.=.4.M.S.S.S.S.S.F.iXuXaXtXqX0Xo.AXAXAXAXAXAXAXAXAXAXAXAXAXAXAXAXAXAXAXAXAXAXAXAXAXAXAXAXAXAXAXAXAXAXAXAXAXAXAXAXAXAXAXAXAXAXAXAXAX",
"AXAXAXAXAXAXAXAXAXAXAXAXAXAXAXAXAXAXAXAXAXAXAXAXAXAXAXAXAXAXAXAXAXAXAXAXAXAXAX8.6.5.1.,.=.*.*.*.&.$.$.#.#.#.#.r r r r r r r #.$.$.-.-.4.4.4.9.9.0.F.aXpXqXo.X. . .X.O.0XeXaXfXgXbXnXmXmXmXmXnXbXcXhXhXAXAXAXAXAXAXAXAXAXAXAXAXAXAXAXAXAXAXAXAXAXAXAXAXAXAXAXAXAX",
"AXAXAXAXAXAXAXAXAXAXAXAXAXAXAXAXAXAXAXAXAXAXAXAXAXAXAXAXAXAXAXAXAXAXAXAXAXAX3.0.0.>.>.>.>.:.:.:.:.:.:.:.:.:.x x x x x x z t t e r #.$.&.=.,.<.<.4.M.S.A.m.m.m.m.m.A.8XqXeXaXfXgXbXnXmXmXmXmXnXbXbXcXcXbXAXAXAXAXAXAXAXAXAXAXAXAXAXAXAXAXAXAXAXAXAXAXAXAXAXAXAXAX",
"AXAXAXAXAXAXAXAXAXAXAXAXAXAXAXAXAXAXAXAXAXAXAXAXAXAXAXAXAXAXAXAXAXAX6.6.5.2.4.m.A.O.A.Z.Z.Z.yXyXuXuXuXuXuXuXeXyXqX0XZ.+.| ^ z w q e e r #.#.#.$.$.$.%.%.-.-.-.-.>.A.qXtXaXsXhXgXbXnXnXmXmXnXnXvXvXvXnXnXnXvXbXxXAXAXAXAXAXAXAXAXAXAXAXAXAXAXAXAXAXAXAXAXAXAXAXAX",
"AXAXAXAXAXAXAXAXAXAXAXAXAXAXAXAXAXAXAXAXAXAXAXAXAXAXAXAXAXAXAXAXAX3.0.>.>.>.M.A.qXtXrXpXsXfXgXxXxXxXxXgXgXhXfXsXdXrXeXwXO...' l l z z x x x t r r r #.#.#.$.%.%.m.A.rXsXhXbXbXvXnXnXnXnXnXnXvXvXnXmXmXZXmXmXvXbXcXgXAXAXAXAXAXAXAXAXAXAXAXAXAXAXAXAXAXAXAXAXAXAX",
"AXAXAXAXAXAXAXAXAXAXAXAXAXAXAXAXAXAXAXAXAXAXAXAXAXAXAXAXAXAXAX6.7.0.m.+.O.Z.wXtXaXfXcXbXnXmXmXBXBXmXnXvXbXgXhXhXfXaXtXqX0XX.X. ...' _ ) ..' x t e e e e r t x ' X.qXdXgXnXmXmXmXmXnXnXnXnXnXvXvXnXmXBXBXVXBXmXvXcXhXhXAXAXAXAXAXAXAXAXAXAXAXAXAXAXAXAXAXAXAXAXAX",
"AXAXAXAXAXAXAXAXAXAXAXAXAXAXAXAXAXAXAXAXAXAXAXAXAXAXAXAXAXAX3.>.>.m.A.o.9XqXtXdXhXcXnXmXBXVXVXVXVXCXZXMXvXbXxXhXfXdXpXeXwXo.O.X.+...} } } ) ^ l l l l x z z ^ ) +.qXaXhXbXnXmXBXBXBXmXmXnXvXbXbXbXvXnXmXmXnXbXcXhXfXfXhXgXAXAXAXAXAXAXAXAXAXAXAXAXAXAXAXAXAXAXAX",
"AXAXAXAXAXAXAXAXAXAXAXAXAXAXAXAXAXAXAXAXAXAXAXAXAXAXAXAXAX6.3.>.{  .O.0XqXeXaXfXgXbXnXmXBXVXVXVXVXBXmXnXvXbXgXhXsXdXaXeXwXo.O.X. ...| ) ( ( _ ) | | ) _ ! ! ( | X.eXaXfXhXbXnXmXmXBXBXmXnXvXcXgXgXgXgXbXbXcXhXfXdXdXsXhXgXcXAXAXAXAXAXAXAXAXAXAXAXAXAXAXAXAXAXAX",
"AXAXAXAXAXAXAXAXAXAXAXAXAXAXAXAXAXAXAXAXAXAXAXAXAXAXAX6.5.1.-.:...X.9XqXtXaXdXfXhXcXbXvXnXmXmXmXmXmXnXvXbXgXhXdXaXaXaXeXwXZ.X.X. .....) ~ Q ! ) ) ) ( / ! ( ..o.eXaXfXfXfXhXgXcXbXvXNXnXvXbXhXfXsXsXsXsXsXsXdXdXdXdXsXfXhXcXvXnXAXAXAXAXAXAXAXAXAXAXAXAXAXAXAXAX",
"AXAXAXAXAXAXAXAXAXAXAXAXAXAXAXAXAXAXAXAXAXAXAXAXAXAX6.5.<.&.%.] ..O.wXeXrXaXdXsXjXfXhXhXgXcXbXbXbXbXbXgXhXfXdXaXrXrXrXeXwXo.X. ...| ) ( Q Q ~ ( ( ! ~ Q ~ _ X.eXdXhXcXhXfXsXsXfXhXhXhXcXbXgXsXaXaXrXrXrXrXaXdXsXfXfXhXhXhXcXbXvXAXAXAXAXAXAXAXAXAXAXAXAXAXAXAXAX",
"AXAXAXAXAXAXAXAXAXAXAXAXAXAXAXAXAXAXAXAXAXAXAXAXAXAX2.1.-.x l ' ..O.wXeXrXaXaXaXaXaXaXaXdXsXsXfXhXhXfXsXdXaXrXtXtXtXtXeXwXo.X...) ( ! ! ! ! ! ! ! ~ Q Q Q _ X.eXsXcXvXbXhXfXsXdXdXdXdXsXfXsXaXtXeXeXeXeXtXaXhXcXbXvXbXbXcXcXxXgXAXAXAXAXAXAXAXAXAXAXAXAXAXAXAXAX",
"AXAXAXAXAXAXAXAXAXAXAXAXAXAXAXAXAXAXAXAXAXAXAXAXAXAX<.=.%.l ~ ( ..X.0XeXeXtXtXtXtXeXeXqXqXeXeXtXrXrXrXtXtXeXeXqXqXeXeXqX0XO. .| _ ~ Q ~ _ ) _ ! Q Q Q 6 Q / ..0XtXjXhXhXdXaXaXrXrXrXrXrXaXrXtXeXeXwX0X0X0XeXaXhXbXnXmXnXvXbXgXhXhXAXAXAXAXAXAXAXAXAXAXAXAXAXAXAX",
"AXAXAXAXAXAXAXAXAXAXAXAXAXAXAXAXAXAXAXAXAXAXAXAX5.1.,.&.t z Q / )  .o.wXqXqXqXqXwX0Xo.X.X.X.O.o.0X0X0X0X0Xo.o.o.o.0X0Xo.X...| ) ( ~ Q ! ) | ) ! Q 6 6 6 6 Q ( | X.o.0X0X0X0XwXqXeXeXeXeXeXeXeXeXqX0Xo. .| ..X.qXsXvXmXBXmXnXbXgXhXhXhXAXAXAXAXAXAXAXAXAXAXAXAXAX",
"AXAXAXAXAXAXAXAXAXAXAXAXAXAXAXAXAXAXAXAXAXAXAX2.2.<.-.%.x k Q ! _ |  .X.o.o.o.o.O.X............. . .X.X.X.X.X.X.X.X.X. .| ) _ _ / ~ ~ _ ....) ~ Q 6 7 7 6 6 Q ! ( ) | | .... .X.o.0X0X0X0X0XqXeXqXwXo...( ! ( | o.aXgXnXmXmXvXbXhXhXfXhXAXAXAXAXAXAXAXAXAXAXAXAX",
"AXAXAXAXAXAXAXAXAXAXAXAXAXAXAXAXAXAXAXAXAXAXAXAX,.-.:.] ^ Q Q ~ ( _ ) | ..........| ) ) ) ) ) ) ) | ..............| | ) _ ! ! ~ ! ( _ | +. .) ~ 6 7 5 5 6 6 Q Q ~ ! ( ( _ _ ) | .. .X.X.X.O.0XqXeXeX0X .) Q 7 7 Q ) 0XsXvXmXnXvXgXsXsXhXgXAXAXAXAXAXAXAXAXAXAXAX",
"AXAXAXAXAXAXAXAXAXAXAXAXAXAXAXAXAXAXAXAXAXAXAXAX*.%.] ) / Q Q Q ~ ! ( _ _ ) ) _ _ ( ! ! ! ! ! ! ! ! ! ( ( _ _ ) ) ) ) _ / ~ Q Q ~ )  .X.O.X.) ~ 6 5 5 7 6 Q ~ ( _ ) | ......| ) ) } | ....X.O.0XeXtXeXo...~ > : : 7 ( O.rXhXvXvXgXdXdXfXhXgXAXAXAXAXAXAXAXAXAXAX",
"AXAXAXAXAXAXAXAXAXAXAXAXAXAXAXAXAXAXAXAXAXAXAXAX$.%.] ' ( Q 6 k Q ~ ~ ! ! ! ! ~ ~ ~ ! ! ! ! ! ! ~ ~ Q Q Q ~ ~ ! ( _ _ _ ! ~ Q 6 !  .0XwX0X+.) Q 7 5 5 6 Q ( ) ..X.o.0XwXqX0Xo.X...) ) ) | ..X.o.qXrXrXqXX._ 5 X o ; > Q ) wXfXcXhXdXdXdXfXhXcXbXAXAXAXAXAXAXAXAX",
"AXAXAXAXAXAXAXAXAXAXAXAXAXAXAXAXAXAXAXAXAXAXAXAX#.%.] ..) Q 7 6 6 Q Q Q 6 6 Q _ ..X.0XwXwXwXwXwXwX0X0XX...) ! ~ Q ~ ! ~ Q Q Q ~ ) o.eXqXX.) ! 6 7 5 5 6 ! ) ..X.O.0XqXtXaXaXaXtXwXO...| ) ) ..O.qXaXdXaXqX..Q : o . o : 6 | qXaXdXaXsXfXhXhXgXcXbXAXAXAXAXAXAXAX",
"AXAXAXAXAXAXAXAXAXAXAXAXAXAXAXAXAXAXAXAXAXAXAXAX#.t ] +.} Q 7 7 7 7 7 6 7 6 ( X.qXaXhXgXcXgXcXbXbXbXbXhXtXo..._ ~ Q Q Q 6 6 ~ ) X.wXeX0X| ~ 6 6 5 > 5 6 ! ) ..X.o.0XqXrXdXhXcXcXfXtX0X..) _ | X.qXaXfXfXaX0X) 7 : X o o : Q ..0XeXaXsXhXhXhXfXhXcXbXvXAXAXAXAXAX",
"AXAXAXAXAXAXAXAXAXAXAXAXAXAXAXAXAXAXAXAXAXAXAXAXr t ] O.| Q 5 8 5 > > 7 ~ | O.eXaXaXrXtXtXrXaXaXsXhXbXbXbXhXaXqXX.) ~ 6 6 6 ) O.wXwX0X .! 6 7 5 > > > 6 Q _ |  .O.0XwXeXaXhXbXvXbXhXrXo.| ) ) ..0XrXfXhXhXaXo.) ~ 6 7 > 5 Q _ ..0XtXdXsXsXaXeXtXsXgXcXAXAXAXAXAX",
"AXAXAXAXAXAXAXAXAXAXAXAXAXAXAXAXAXAXAXAXAXAXAXAXe t ] O...! 6 7 7 7 7 Q ..wXrXaXrXwX .) ) ....X.o.qXaXhXbXnXbXhXrXo.| ! Q ! ..wXeX0X..( 6 > > > > > > 5 6 ~ ) ..X.O.0XqXtXaXhXbXbXcXfXqX .) _ ) X.qXaXhXgXfXrXwXO...) _ ( ! ( | O.eXaXaXaXwXX.o.eXdXfXAXAXAXAXAX",
"AXAXAXAXAXAXAXAXAXAXAXAXAXAXAXAXAXAXAXAXAXAXAXAXq t ^ .. ...| ) _ ) | X.eXdXaXqXX.) Q 6 7 6 6 Q ! ) ..O.qXrXdXfXfXaXeX0XX.X.o.wX0X ._ Q 5 > > > > > : > 5 6 ~ _ |  .X.0XqXtXaXsXhXhXsXeXX.| _ _ ..O.eXaXhXhXsXdXaXtXqX0XO. ...X.0XtXaXdXrX0X....O.qXrXdXhXAXAXAX",
"AXAXAXAXAXAXAXAXAXAXAXAXAXAXAXAXAXAXAXAXAXAXAXAXq w l ` } +.X. ...X.o.wXeXrXqX..Q 7 > , , , , > 3 5 6 Q ( | O.eXaXdXaXrXeXwX0XO. .) Q 6 > : > > > : : : > 5 6 ~ _ | ..X.0XwXeXtXaXdXaXeXO...( ! ) ..o.eXaXdXsXfXhXhXsXaXeXwX0X0XeXrXdXsXaXwX .| ..X.qXdXhXAXAXAX",
"AXAXAXAXAXAXAXAXAXAXAXAXAXAXAXAXAXAXAXAXAXAXAXq q 0 1 7 Q ( ) ) ) .. . ...) ! 6 > < < * * * * * * , : , 5 6 ( ..O.0XqXeXwXo.X..._ ~ 6 5 > : > > > : : : : > 7 Q ! _ ) ..X.O.0XwXeXtXtXqXo..._ ~ ! ) ..O.0XeXtXaXdXsXsXaXrXtXeXeXrXaXfXgXhXaXwXX.....0XsXbXAXAXAX",
"AXAXAXAXAXAXAXAXAXAXAXAXAXAXAXAXAXAXAXAXAXAXAXAXq 0 @ @ 1 6 Q Q ~ ! / ! G 3 1 < < h j F K K F j h * * & , > 5 E ! ) .. . ...) ! Q 6 5 > : : : : : : : : : : > 6 Q ! ( ) | .. .X.o.0XwX0X0XX.) ! ! ( ) | ..X.o.0XqXeXeXeXqXqXqXeXrXaXfXgXcXhXaXqXX...0XsXbXbXAXAX",
"AXAXAXAXAXAXAXAXAXAXAXAXAXAXAXAXAXAXAXAXAXAXAXAXAXAX0 0 w < > > > > > > 3 h j j F K I g.h.k.g.L K j j h * & : , 8 7 6 Q Q Q Q 6 7 > : X X X X X X X X X X X : > 7 Q ~ ! ( _ ) } .. .X.o.0XO...) ( ~ ~ ! _ ) } | .......... .X.o.qXtXdXhXhXgXhXdXeX0XeXsXhXhXhXhX",
"AXAXAXAXAXAXAXAXAXAXAXAXAXAXAXAXAXAXAXAXAXAXAXAXAXAXq q w * < < < < * * h K J L I g.l.B.C.C.b.g.I I d.L j * & < < , : : , > > > > : X X X X : : : > > : : : : : > > 7 6 Q Q ~ ( _ ) ..X.O.o.X. ...) _ _ ) ) | ..| | ) ) ) ) | ..X.o.wXtXaXsXhXjXaXtXaXsXhXhXhXhX",
"AXAXAXAXAXAXAXAXAXAXAXAXAXAXAXAXAXAXAXAXAXAXAXAXAXAXq q w f K K K K J L L L I d.f.B.V.D.V.V.B.k.f.l.B.l.I F j F j * + o X X X X : : : : : > > 7 6 6 6 6 7 5 > : : : : > 7 6 Q Q ~ ! _ |  .O.0X0X0Xo.X.X.X.O.o.0X0XO.X...| ) ) ) ) ) ..X.0XeXrXaXaXaXaXdXfXhXgXgX",
"AXAXAXAXAXAXAXAXAXAXAXAXAXAXAXAXAXAXAXAXAXAXAXAXAXAXAXq y f J J J I f.k.f.g.g.k.b.V.*X*XV.C.b.z.b.C.V.B.g.L L d.I j * * * * , , : : : : : > > 5 7 6 6 Q ~ ! ~ Q Q 7 5 7 6 6 6 6 6 Q ~ ( ) ..O.0XwXwXwXwXwXeXtXrXrXtXeXqXwX0X0XO. .| ) | ..X.0XqXeXrXaXdXsXhXhXgX",
"AXAXAXAXAXAXAXAXAXAXAXAXAXAXAXAXAXAXAXAXAXAXAXAXAXAXAXAXAXK K K J d.z.C.b.k.k.b.V.D.=X*XV.l.l.B.V.V.V.B.f.I g.l.l.d.K j j j h 7 5 > > > > 5 5 5 5 5 7 Q ) .. . ...) ( ~ Q 6 6 7 7 6 6 Q ! _ ..X.o.0XqXeXtXaXdXfXhXhXhXhXhXhXhXsXtX0XX.| _ ) ..X.o.qXeXaXdXfXhXhX",
"AXAXAXAXAXAXAXAXAXAXAXAXAXAXAXAXAXAXAXAXAXAXAXAXAXAXAXAXJ K K J L g.B.C.b.k.k.B.D.*X=X*XC.k.l.C.V.V.B.z.f.d.k.C.C.f.J K J J F 3 > 8 7 6 ~ ( ) ) ) ) ) ) ) ) _ ( ! ! ! _ ) | ) _ ( ! Q Q Q Q ! _ ) ..X.0XqXeXrXaXdXsXfXhXgXcXbXcXhXaXeX0XX...) ) |  .o.qXrXdXsXfX",
"AXAXAXAXAXAXAXAXAXAXAXAXAXAXAXAXAXAXAXAXAXAXAXAXAXAXK K J J L L I h.B.C.z.f.k.V.*X=X*XD.C.k.z.V.V.V.b.h.f.f.z.V.C.f.J K I I F 1 > 5 Q _ ..O.0XqXeXtXeX0X..( 6 5 > 5 6 _  .O.O.X. .) ( ~ 6 6 6 6 Q ! ) ..X.0X0XwXqXeXeXrXdXfXgXcXgXhXfXaXeXo..._ ! ( | X.wXtXaXsX",
"AXAXAXAXAXAXAXAXAXAXAXAXAXAXAXAXAXAXAXAXAXAXAXAXAXAXK J L g.g.g.g.h.B.C.l.g.h.V.=X=XD.V.B.l.b.V.D.B.l.h.k.l.b.B.z.d.J J I I F 1 > 6 ! ..o.eXrXdXfXgXcXfXrX0X| Q 5 > > 6 ~ _ ) | ) ! Q Q Q 6 6 6 6 Q ! )  . ......... .X.o.0XeXeXtXrXaXaXtXqXO...( ~ ( | X.wXtXaX",
"AXAXAXAXAXAXAXAXAXAXAXAXAXAXAXAXAXAXAXAXAXAXAXAXAXAXK J d.k.z.k.g.h.b.B.k.g.h.V.=X*XV.B.z.z.C.V.D.C.h.f.z.C.B.k.g.I L L L J j 1 8 E _ ..0XeXaXsXgXvXnXmXvXhX0X) 6 > : : > 7 Q ! ! Q Q Q Q 6 6 6 6 Q ~ AXAXAX! ! ! ( ( ) ) .. .X.X.O.0XwXqXqXwXO.) ! ~ ( | O.qXeX",
"AXAXAXAXAXAXAXAXAXAXAXAXAXAXAXAXAXAXAXAXAXAXAXAXAXAXK J d.k.z.k.f.h.l.z.h.g.k.V.*XV.B.l.l.b.C.V.V.b.f.f.B.V.b.d.L L I J j 3 < > 5 E ! | X.0XwXeXaXhXvXmXmXbXeX..Q 7 > > 7 Q _ | ) _ ! Q 6 5 > > 5 AXAXAXAXAXAXAXAXAXAXAXAXAXAXAX} ) | ..X.X.O.X...) ( ! _  .0XwX",
"AXAXAXAXAXAXAXAXAXAXAXAXAXAXAXAXAXAXAXAXAXAXAXAXAXAXK J I f.l.k.k.k.k.h.f.g.k.V.D.V.l.h.k.b.B.C.C.l.g.f.b.V.l.I K L d.J h & ; > 7 6 ~ _ | ..X.o.qXaXhXnXmXvXtX..~ 6 7 6 ! | X.0X0XO...( 6 5 > > > AXAXAXAXAXAXAXAXAXAXAXAXAXAXAXAX! ( _ ) .. . . ...) ~ ! | X.o.",
"AXAXAXAXAXAXAXAXAXAXAXAXAXAXAXAXAXAXAXAXAXAXAXAXK K K K I g.k.l.l.l.h.f.g.g.h.C.V.B.f.g.k.b.b.l.h.f.g.f.l.l.g.L J I g.Y h : : > 7 6 Q ! ( ) |  .0XeXsXbXnXbXeX..~ 6 6 ! ..0XaXhXhXaXeXX.) ~ 6 7 5 AXAXAXAXAXAXAXAXAXAXAXAXAXAXAXAXAXAXAXAXAXAXAX| ) _ ! ! ) .. .",
"AXAXAXAXAXAXAXAXAXAXAXAXAXAXAXAXAXAXAXAXAXAXAXH Y Y Y ] N.N.N.C.B.l.g.j.I j.f.b.C.l.g.d.h.z.l.g.d.g.h.k.f.d.I I I d.d.J h : : , > 7 6 Q Q ! _ | X.wXaXhXbXhXwX) Q 6 Q _  .wXdXgXhXdXeXo...) ~ 6 AXAXAXAXAXAXAXAXAXAXAXAXAXAXAXAXAXAXAXAXAXAXAXAXAX_ ( ! ! _ ) ) ",
"AXAXAXAXAXAXAXAXAXAXAXAXAXAXAXAXAXAXAXAXAX7 6 ~ ( { +.$XyXkXkX%XC.h.I L P I g.h.l.h.d.I f.l.h.I L g.l.k.I J L g.f.d.J j < + X X : > 5 7 6 Q ~ _ ..o.eXaXsXaXO._ Q 6 Q ! ) X.0XeXqX0XX...| ) AXAXAXAXAXAXAXAXAXAXAXAXAXAXAXAXAXAXAXAXAXAXAXAXAXAXAXAX~ ~ ~ ! ( ( ",
"AXAXAXAXAXAXAXAXAXAXAXAXAXAXAXAXAXAXAXAXt h 5 6 ~ _ ..O.qXrXuXiX%XS.A.A.$X%XS.N.h.j.L L d.g.g.L J I f.g.I K L g.g.J h * & o o o X : > > 5 7 Q ! ) X.0XqXeX0X..Q 6 7 6 6 ~ _ | ..| _ ! ~ ~ ~ AXAXAXAXAXAXAXAXAXAXAXAXAXAXAXAXAXAXAXAXAXAXAXAXAXAXAXAXAXQ ~ ~ ! ! ",
"AXAXAXAXAXAXAXAXAXAXAXAXAXAXAXAX8.8.6.1.%.w , > 5 6 Q ( ) ..O.wXtXdXgXbXMXMXzX%Xf.P P J L I I L J J L L L L I I J h & o . . . o X : : > > > 7 Q ( ..X.O.X.| ! 6 8 5 5 7 6 Q ~ ~ Q 7 > > > > AXAXAXAXAXAXAXAXAXAXAXAXAXAXAXAXAXAXAXAXAXAXAXAXAXAXAXAXAXAXAXAXAXAX",
"AXAXAXAXAXAXAXAXAXAXAXAXAXAXAX8.8.8.5.,.%.z 6 W ~ ( ) .... .X.o.0XeXaXfXbXnXbXkX$XA.A.N.N.{ ] ] Y F F K L I I L F * o   . . . o X : : : : > > 6 Q ) | ) _ ~ 6 5 7 Q ! ) .. . ..._ Q 7 > > , AXAXAXAXAXAXAXAXAXAXAXAXAXAXAXAXAXAXAXAXAXAXAXAXAXAXAXAXAXAXAXAXAXAX",
"AXAXAXAXAXAXAXAXAXAXAXAXAX6.6.8.8.5.1.=.%.x _ | X.0XeXtXtXeXwXo. .....X.wXaXsXfXjXsXaXtXqXZ.+...' H j F L g.I K h & o . . . . o X X : : : > > > 6 Q ~ Q 6 7 5 5 Q ) X.qXaXdXaXeXo.| ! W 7 7 AXAXAXAXAXAXAXAXAXAXAX.. .O.wXtXdXfXhXhXaXeXo...) ( AXAXAXAXAXAXAXAX",
"AXAXAXAXAXAXAXAXAXAXAXAXAX5.5.6.6.5.1.,.-.%.:.A.yXaXfXgXgXhXsXtX0Xo.X.X.X.o.o.o.o.O.X. ...| @.) _ ! G H J I K h * + . . . . . . o o o X : : : > > 5 7 5 > > > 5 Q ) X.qXaXaXeX0XX.) ! 6 7 G ].<XAXAXAXAXAXAXAXwXO. ....... .O.wXrXdXdXaXeX0XX...| ( AXAXAXAXAXAX",
"AXAXAXAXAXAXAXAXAXAXAXAXAX1.1.2.2.5.2.1.,.*.-.M.uXhXvXnXmXmXnXzXjXaXeXwXO..._ Q 6 7 7 6 6 6 W Q ~ ~ Q G H F h & X . . . . . . . . . . . o X X : : : : : X X : > 6 ( ..X.0X0XX.| _ ~ 6 7 7 R #X<X4X3X5X&X_ ..wXeXeXo...( Q 6 Q _ X.eXaXdXdXaXeX0XX.) Q 7 > AXAXAX",
"AXAXAXAXAXAXAXAXAXAXAXAXAX*.*.=.<.1.2.5.2.<.-.M.uXhXvXmXBXCXBXMXbXhXdXtXwXX.| Q 7 6 ~ ~ 6 > : > > 7 E G k 3 < + o . . . . . .             . . . o o o o o X : 5 6 Q ! ( _ ( ~ Q 6 4 7 H R }.;X<X2X2X5X%X+.wXsXgXhXaX0X) Q 5 > 5 ~ | X.wXtXaXdXaXeXo...( 6 5 : : ",
"AXAXAXAXAXAXAXAXAXAXAXAXAX$.$.&.*.,.2.5.5.2.4.M.S.aXgXvXmXBXVXBXmXvXgXsXrXwXX.( Q _ X.X.! > X X > 7 ~ ~ Q 6 > : X o . . . o o X : : : : : > > > 5 8 > : X : > 6 Q ! ( ! ~ Q 6 5 > , h U [.+X:X<X<X<X>X%X$XrXcXnXbXhXeX..Q > : : > Q ) X.wXrXdXdXaXeXo...! 6 > : ",
"AXAXAXAXAXAXAXAXAXAXAXAXAXAXAX$.$.*.,.2.5.5.7.4.0.M.iXsXxXnXZXBXBXmXnXcXdXeXX./ Q ..eXtXX.Q 7 6 ~ ) +.X. .| / 6 > : : : > 7 Q ! ) | ..X.O.0XwXqXqXwXO._ > : 6 ) X.wXeXeXwXX.) G h f D y.p.[.oX+XOXOX@X&X+.0XsXhXfXrXo.) 6 : X : Q ) X.0XqXeXqXwX0XX...) ~ 6 > > ",
"AXAXAXAXAXAXAXAXAXAXAXAXAXAXAXAX#.$.*.<.2.5.6.6.5.4.M.S.kXzXnXmXBXBXmXvXhXtXO.( ~ X.fXgXqX_ ! ) X.wXrXaXtXwXX.( 6 > : : 5 Q _ ..X.0XqXtXaXjXhXgXgXhXaXX.6 > ~  .qXaXhXhXsXtX+.` K D w.w.t.p.v.{..X{.}.{ ' X.eXrXeXo...Q > ; X > ~ ..O.wXqXwX0XO.X...) ! Q 7 > > ",
"AXAXAXAXAXAXAXAXAXAXAXAXAXAXAXAXe r #.&.=.1.5.6.6.7.9.q.F.kXxXnXmXBXBXnXcXaXwX) _ 0XbXnXtX..) O.eXsXcXbXxXsXwX| Q > X X : 5 Q _ | ..X.o.0XqXeXtXtXeX0X| 6 7 ~ ..O.qXeXtXeXwXX.' Y y.w.w.w.e.u.p.s.[.c.R _ ..7XwXO.../ 7 : o o : 7 ~ )  .o.wXeXeXqXo...~ 6 > > : ",
"AXAXAXAXAXAXAXAXAXAXAXAXAXAXAXAX0 q e #.$.*.<.1.5.8.8.8.q.F.lXzXnXmXZXmXbXdXqX .| eXvXnXrX....wXdXbXmXBXmXbXaXX.! 5 o . o : 5 Q ~ ( _ ) | .. .X.X. ...! 7 > 6 / ) .. .X. ...) ( Y P D d ;.;.w.e.r.p.i.R '  .7X0XX.) Q > X X : > 6 ! ) |  .O.0XwX0XO...~ 7 > : : ",
"AXAXAXAXAXAXAXAXAXAXAXAXAXAXAXAX+ @ 0 e r #.&.*.<.2.6.8.8.9.G.lXzXMXmXnXbXsXeXO.X.eXbXbXeX.. .eXhXvXBXVXVXmXhXwX) 6 X . . X : 5 7 6 6 6 Q Q ~ ! ! ! Q 5 : X : 5 6 Q Q Q Q W 7 5 7 G H f d a s d ;.w.y.Y | X.wXqXO.| ~ 5 : : > Q ) X.X. .| ) ) ) ) ) _ ~ 6 5 > : ",
"AXAXAXAXAXAXAXAXAXAXAXAXAXAXAXAX; : 1 w t e r $.&.=.<.2.6.8.9.G.F.zXNXnXcXsXeXo.X.eXgXcXeX....wXsXbXBXVXVXBXgXqX| 6 X . . o X : : : : : > > > 5 5 5 > : . . o : 5 6 Q Q Q 6 > : 4 W ~ l f g i p a s D Y ' +.o.o. .) Q 5 : : > 6 ) X.O.O.X...) ( ~ Q 6 6 7 5 > : ",
"AXAXAXAXAXAXAXAXAXAXAXAXAXAXAXAXo , 6 ^ l w q e #.$.&.=.1.5.8.8.9.G.lXbXxXsXeXO. .wXhXhXqX..| O.eXhXnXBXBXmXhXwX| 6 X . . . . . . . . o X X ; : : : X o . o : > 6 ~ ( ) ) ( 6 > > 7 6 Q k j f p p a g F ` ) | @.( Q 7 : X o X : 6 ! ..o.wX0XO...! 7 > : : : AXAX",
"AXAXAXAXAXAXAXAXAXAXAXAXAXAXAXAX. : 7 ~ ^ l z t e r r $.&.,.1.6.8.9.G.F.lXdXtXX...0XsXhXeX .| ..O.tXgXnXmXnXfX0X) 6 X . . . . . . . o X : > 5 7 6 6 6 6 7 7 7 7 6 6 ~ _ | _ 6 : : : > 4 5 3 h y y y u h k Q ~ Q 6 5 > X o . o X : 7 ~ | X.O.O...( 6 > : X AXAXAX",
"AXAXAXAXAXAXAXAXAXAXAXAXAXAXAXAX. o , 6 ~ ) ' l w q q e r $.&.,.2.6.8.9.G.iXeXX...0XdXfXtXX.| _ ) o.aXgXbXcXaXo.) 7 X . . o o o X : : 5 6 Q ( ) .. .X. ...| ) ! Q 6 6 ! ) _ 6 : o o o X : > > > 1 > > > > > 4 5 > : : o . . o X : : 5 6 ~ _ @.) ( Q 7 > : AXAXAX",
"AXAXAXAXAXAXAXAXAXAXAXAXAXAXAXAXAXo : > 6 ! ( ^ l z w q q e r $.*.<.6.8.q.G.M.A.Z.eXdXsXtXo...! ~ ..wXaXfXfXrXX.( 7 o . . o X : > > 7 Q ! ) ..X.0XqXeXtXtXtXeXwXO. .| ) ) ( Q 6 > : o o X : ; ; ; ; ; X X X X X X o o . . . o X : > > 7 6 6 6 6 7 5 > > AXAXAXAX",
"AXAXAXAXAXAXAXAXAXAXAXAXAXAXAXAXAXAX: : > 7 Q _ } ^ z 0 0 q q e #.&.<.5.8.8.q.F.uXsXsXaXtXwX .! 6 ( X.wXrXaXqX .! 5 o . . . X > 5 6 Q ! ) ..X.0XeXaXfXhXcXbXbXcXhXsXtX0X..) ) _ ~ 7 > AXAXAX. . . . . . . . . . . . . . . . o X : > 5 5 5 > : X X X X AXAXAXAXAX",
"AXAXAXAXAXAXAXAXAXAXAXAXAXAXAXAXAXAXo o X : 7 ! ) _ k z w 0 q q e #.&.,.1.5.q.F.zXxXjXaXaXrXo.! 5 6 )  .0XqXo.} Q > o   . o X : > 7 W ~ _ ..X.0XeXaXhXcXvXnXmXmXnXnXbXhXrXwXX...) ( ! AXAXAXAXAXAXAX. . . . . . .     . . . . o o X : : X o . . . AXAXAXAXAXAXAX",
"AXAXAXAXAXAXAXAXAXAXAXAXAXAXAXAXAXAX. . o 9 > Q ( _ ! G h w 0 q q e #.$.*.<.0.lXNXxXaXtXaXdXwX( > 5 Q _ ..X.../ 6 > + o o o X : : > 7 Q ! ) ..O.wXrXsXhXbXnXnXmXBXBXBXmXvXhXtXo.X. . . .AXAXAXAXAXAXAX. . . . .       . . . . . . . . . .       AXAXAXAXAXAXAXAX",
"AXAXAXAXAXAXAXAXAXAXAXAXAXAXAXAXAXAX. . . o : 7 Q ! ! ~ k 1 @ 0 q e r #.$.*.>.F.fXpXo.X.eXaXqX) 7 > 7 Q ( ) ( 6 1 u w w + . . o o : > 7 Q ! ) ..X.0XeXaXfXgXbXnXmXmXBXBXBXnXbXfXtX0XO.O.0XAXAXAXAXAXAXAXAXAXAXAXAXAXAXAXAXAXAXAXAXAXAXAXAXAXAXAXAXAXAXAXAXAXAXAX",
"AXAXAXAXAXAXAXAXAXAXAXAXAXAXAXAXAXAXAX. . . X > 6 Q Q Q 6 5 1 @ w t t %.%.%.>.S.eXo._ ( X.qX0X| Q 7 > 5 6 Q 6 > * u i i w + o . . o : > 7 Q ~ ( ) ..O.0XeXaXfXgXbXnXmXBXBXBXBXnXgXaXqX0X0X0XAXAXAXAXAXAXAXAXAXAXAXAXAXAXAXAXAXAXAXAXAXAXAXAXAXAXAXAXAXAXAXAXAXAX",
"AXAXAXAXAXAXAXAXAXAXAXAXAXAXAXAXAXAXAXAX. . o : > 5 6 6 5 : , 5 ^ ' A.S.S.S.A.Z. ./ 7 5 ! .. ...) Q > : > 5 > : & u d ;.d g u + . . . X > 5 6 Q ~ _ |  .O.0XtXsXhXbXnXmXBXVXVXVXmXbXfXeXO.O.qXrXAXAXAXAXAXAXAXAXAXAXAXAXAXAXAXAXAXAXAXAXAXAXAXAXAXAXAXAXAXAXAXAX",
"AXAXAXAXAXAXAXAXAXAXAXAXAXAXAXAXAXAXAXAXAX. . X : > 7 7 > 9 : 5 ~ } O.wXwX9XX.) Q 5 : : 5 ~ ) ..| ~ > X : : : X + u d w.w.w.g u & o . . X : > 5 6 Q ! ) |  .0XeXaXfXxXvXmXBXVXVXVXBXvXdX0Xo.0XqXeXAXAXAXAXAXAXAXAXAXAXAXAXAXAXAXAXAXAXAXAXAXAXAXAXAXAXAXAXAXAXAX",
"AXAXAXAXAXAXAXAXAXAXAXAXAXAXAXAXAXAXAXAXAX. . # > 5 7 7 > : X : > 7 W Q ~ Q 6 5 : X . o : 7 Q ) ) ~ 5 : X X o . + u d w.e.e.t.y.D u o   . o ; , 4 6 Q ~ _ @...X.0XtXdXhXbXnXBXVXVXBXmXbXdXeXO. .X.wXeXAXAXAXAXAXAXAXAXAXAXAXAXAXAXAXAXAXAXAXAXAXAXAXAXAXAXAXAXAX",
"AXAXAXAXAXAXAXAXAXAXAXAXAXAXAXAXAXAXAXAXAX. . X : > > > , # # # # & , 2 2 2 2 & # o . . o : 5 Q ! Q 6 5 > : X . + u d w.e.r.p.p.r.D u u u u * + : > 7 6 Q ! _ @. .o.eXaXfXcXvXnXmXmXmXnXcXaX0X . .X.o.wXAXAXAXAXAXAXAXAXAXAXAXAXAXAXAXAXAXAXAXAXAXAXAXAXAXAXAXAX",
"AXAXAXAXAXAXAXAXAXAXAXAXAXAXAXAXAXAXAXAXAX. . o X X X # # $ $ c v v v v v v v v $ # o . . o X : 5 6 Q Q 6 5 , o + w i ;.w.r.p.a.a.a.i.n.n.i.F & o : > > 5 6 Q ( ) ..X.0XeXaXfXgXbXbXvXnXvXhXrX0X .) ) X.0XqXAXAXAXAXAXAXAXAXAXAXAXAXAXAXAXAXAXAXAXAXAXAXAXAXAXAX",
"AXAXAXAXAXAXAXAXAXAXAXAXAXAXAXAXAXAXAXAXAXAX. o # $ 2 M N C C C B N N b N N b b v $ = = = = = # X , 5 7 7 4 , X + w i s w.e.r.p.a.[.[..X.X{.x.R S * X X 9 , 5 6 ~ _ |  .O.wXeXaXdXfXgXbXvXbXfXtXO.) ( ) ..X.0XAXAXAXAXAXAXAXAXAXAXAXAXAXAXAXAXAXAXAXAXAXAXAXAXAX",
"AXAXAXAXAXAXAXAXAXAXAXAXAXAXAXAXAXAXAXAXAXAXAX$ v m Z I.W.Q.Q.W.P.L.K.J.V C B b v b B C V V N = o . o X : : ; X + w i s ;.w.y.t.p.v.{.oX+X-X-X;X].H & o X : , 5 6 Q ! ) |  .O.0XeXtXaXhXcXbXgXsXqX..( Q ~ ) o.eXAXAXAXAXAXAXAXAXAXAXAXAXAXAXAXAXAXAXAXAXAXAXAXAX",
"AXAXAXAXAXAXAXAXAXAXAXAXAXAXAXAXAXAXAXAXAXAXb N C L.W.^.(._._.(.)./.Q.E.L.V B m b C P.Q.!.!.E.Z N v $ # # X X X & < u f g s ;.w.r.a.[.oX+X:X,X,X;X].R U U F h : : 8 7 Q ! ) |  .O.0XeXaXfXgXxXhXtXX.' Y J ]  .X.AXAXAXAXAXAXAXAXAXAXAXAXAXAXAXAXAXAXAXAXAXAXAXAX",
"AXAXAXAXAXAXAXAXAXAXAXAXAXAXAXAXAXAXAXAXAXc b C E./.(._.`.`.`.`._.'.(./.R.V B N B L./.'._._.(.^.E.H.N v # o o X : 8 7 h f p s ;.w.u.a.{.oX-X,X<X<X:X-X+XoX}.U 3 , > 3 7 6 Q ( ) |  .o.qXaXsXhXhXrXo.{ f.t.j.{ | | AXAXAXAXAXAXAXAXAXAXAXAXAXAXAXAXAXAXAXAXAXAXAX",
"AXAXAXAXAXAXAXAXAXAXAXAXAXAXAXAXAXAXAXAXAXb N L.!.(._.`.`.`._._.(.(.^.!.L.B N B H.E.(._.`.`._.'.^.E.J.m # . . o : 8 7 h f p a s ;.w.t.p.[.oX-X<X<X<X1X1X,X-X|.x.R U J j 3 4 6 Q ! ) ..O.qXrXjXfXpXwXA.k.u.n.}.&X$X+.AXAXAXAXAXAXAXAXAXAXAXAXAXAXAXAXAXAXAXAXAXAX",
"AXAXAXAXAXAXAXAXAXAXAXAXAXAXAXAXAXAXAXAXAXN C P.^._._._._.(.).^.Q.W.E.P.C m b C L.!.(._._._._.(.).!.P.C v # o o 9 > 7 k f i p p a s w.e.u.v.oX:X<X<X<X<X<X<X1X:X+XXX[.U F 3 4 7 6 Q ( ..X.qXaXdXpXwXA.k.u.v.oX;X@XA.+.AXAXAXAXAXAXAXAXAXAXAXAXAXAXAXAXAXAXAXAXAX",
"AXAXAXAXAXAXAXAXAXAXAXAXAXAXAXAXAXAXAXAXAXB V R.^.(._._.(.^.Q.P.K.V C B n - - T P.!.).(.(.^./.!.!.Q.W.P.Z m = # X , 5 7 k j f i p a s ;.w.r.a.{.+X-X:X<X<X2X2X2X2X<X:XoX].U h : , 7 Q ( ..O.qXtXeX0XA.h.u.[.-X:X;X@X@XAXAXAXAXAXAXAXAXAXAXAXAXAXAXAXAXAXAXAXAXAX",
"AXAXAXAXAXAXAXAXAXAXAXAXAXAXAXAXAXAXAXAXAXC H.P./.).(.)./.W.I.V B N A S u 0 w S I.W.Q.Q.E.I.K.K.K.E.Q.Q.P.V m & X 9 > 5 7 k j g p p p a s w.e.p.[.XX+X-X,X<X2X3X3X3X3X2X-X}.R h < 3 7 Q ( ..o.wXwXO.{ g.r.[.-X,X-XoX.XAXAXAXAXAXAXAXAXAXAXAXAXAXAXAXAXAXAXAXAXAX",
"AXAXAXAXAXAXAXAXAXAXAXAXAXAXAXAXAXAXAXAXAXV K.T.!./.!.W.P.K.V B N T R x.w.e w S K.H.V B m v v $ v C E.W.P.V m # . o X : > > 1 AXAXp p p a s ;.w.r.a.{.oX-X,X2X3X3X3X3X3X2X1X|.x.K < : 8 Q ( ..X.O.X.{ I y.a.oX-XOXoX.XAXAXAXAXAXAXAXAXAXAXAXAXAXAXAXAXAXAXAXAXAX",
"AXAXAXAXAXAXAXAXAXAXAXAXAXAXAXAXAXAXAXAXAXJ.K.T.Q.Q.E.L.J.B B T U.].|.{.u.g u S C B b c % % O O % m L.P.L.V m # . . o o X : ; AXAXAXp p p a s s w.t.p.[.XX-X<X2X4X4X3X3X3X2X,XoXx.K * 1 5 Q _ ....| ' L w.u.{.oXoX.X{.AXAXAXAXAXAXAXAXAXAXAXAXAXAXAXAXAXAXAXAXAX",
"AXAXAXAXAXAXAXAXAXAXAXAXAXAXAXAXAXAXAXAXAXJ.K.P.W.W.P.H.B m T ].#X:X:XoX].T m B B N v % % O O O % b V K.K.C M # . . . . . . . AXAXAXAXAXAXAXa a s w.e.u.s.{.+X:X<X<X2X2X2X<X,XOX{.c.j.F 3 5 ~ ( ( ( ^ f d w.a.[.[.[.[.AXAXAXAXAXAXAXAXAXAXAXAXAXAXAXAXAXAXAXAXAX",
"AXAXAXAXAXAXAXAXAXAXAXAXAXAXAXAXAXAXAXAXAXV H.L.P.P.H.V T Y.].#X-X,X,X;X].T B J.K.B v $ % % % $ v B K.K.J.B b # . . . . . . AXAXAXAXAXAXAXAXAXp a s ;.w.t.a.[.XX+X-X:X,X:X:X-XOXoX{.n.K < , 7 Q Q Q k y i s w.t.r.r.t.AXAXAXAXAXAXAXAXAXAXAXAXAXAXAXAXAXAXAXAXAX",
"AXAXAXAXAXAXAXAXAXAXAXAXAXAXAXAXAXAXAXAXAXC V H.L.H.C C Y.>X<XOX{.XX:X>X XU.J.P.W.L.B v $ $ v N V L.E.P.H.B v # o . . . AXAXAXAXAXAXAXAXAXAXAXAXAXp a s w.e.p.v.{.XXoXoXoXoXoXXX.X[.i.K & : 8 6 6 6 k f p s s s d d s AXAXAXAXAXAXAXAXAXAXAXAXAXAXAXAXAXAXAXAXAX",
"AXAXAXAXAXAXAXAXAXAXAXAXAXAXAXAXAXAXAXAXAXB C V H.V N B Y.>X1XXXp.[.-X>X6XU.I.Q.^.Q.L.C B B V L.T.P.L.K.[ [ M , . . . . AXAXAXAXAXAXAXAXAXAXAXAXAXAXp a s ;.y.r.p.p.a.v.v.v.v.a.a.p.t.F 1 5 ~ ) .. .O.A.N.N.N.N.N.N.N.AXAXAXAXAXAXAXAXAXAXAXAXAXAXAXAXAXAXAXAXAX",
"AXAXAXAXAXAXAXAXAXAXAXAXAXAXAXAXAXAXAXAXAXN B C V V C T Y.|.oXv.t.c.-X>X#X~.E.^.(.^.Q.E.E.E.W.Q.Q.L.C C [ | ! > . . . . AXAXAXAXAXAXAXAXAXAXAXAXAXAXAXAXp s ;.w.w.w.w.e.r.r.e.w.w.w.D K ~ ) X.eXaXhXcXvXNXNXNXcXhXjXdXAXAXAXAXAXAXAXAXAXAXAXAXAXAXAXAXAXAXAXAXAX",
"AXAXAXAXAXAXAXAXAXAXAXAXAXAXAXAXAXAXAXAXAXb N B C U.Y. X|.{.{.v.a.{.-X>X#X~.W.^.(.(.).^.!.Q.Q.W.P.V m M ~ / E : . . . AXAXAXAXAXAXAXAXAXAXAXAXAXAXAXAXAXAXa s s s s s ;.;.;.;.s d f Y { O.qXaXhXbXmXBXVXVXCXZXMXvXbXxXAXAXAXAXAXAXAXAXAXAXAXAXAXAXAXAXAXAXAXAXAX",
"AXAXAXAXAXAXAXAXAXAXAXAXAXAXAXAXAXAXAXAXAXb b m B Y.#X>X-X{.v.[..XoX+X|. XT.W.^.(._.(.(.^.Q.T.L.V N v v 2 5 > X . . AXAXAXAXAXAXAXAXAXAXAXAXAXAXAXAXAXAXAXAXi i i i i i i p p d f ^ | 0XaXhXgXcXvXmXBXBXBXmXnXbXzXhXhXAXAXAXAXAXAXAXAXAXAXAXAXAXAXAXAXAXAXAXAXAX",
"AXAXAXAXAXAXAXAXAXAXAXAXAXAXAXAXAXAXAX..` M v b B Y.#X1XOXv.a.{.oX|.x.R T I.Q.)._._.(.).!.W.L.V N b v = = : X . . AXAXAXAXAXAXAXAXAXAXAXAXAXAXAXAXAXAXAXAX& * @ @ u u u u h F ] { O.wXrXdXsXdXdXfXhXgXgXgXhXdXrXeX0X0XAXAXAXAXAXAXAXAXAXAXAXAXAXAXAXAXAXAXAXAXAX",
"AXAXAXAXAXAXAXAXAXAXAXAXAXAXAXAXAXAX+. ._ M v c m U.#X,X+Xc.p..X+X].S v N L.Q.(._._.(.^.Q.P.H.B b v v $ # X . . . AXAXAXAXAXAXAXAXAXAXAXAXAXAXAXAXAXAXAX: : : : : > 5 7 6 Q ) X.0XeXtXtXeXqX0Xo.o.0X0X0X0Xo.X...) ( ! AXAXAXAXAXAXAXAXAXAXAXAXAXAXAXAXAXAXAXAXAX",
"AXAXAXAXAXAXAXAXAXAXAXAXAXAXAXAX7 !  .o.| M $ $ v T #X,X+Xc.p..XOX].S v N P.!.^.(.(.^.Q.I.V B b v = 2 & X . . AXAXAXAXAXAXAXAXAXAXAXAXAXAXAXAXAXAXAX> > > 5 7 6 Q / ) } |  .O.wXqXqXwXO...) ! Q Q Q Q Q Q 6 6 7 5 > > AXAXAXAXAXAXAXAXAXAXAXAXAXAXAXAXAXAXAXAXAX",
"AXAXAXAXAXAXAXAXAXAXAXAXAXAXAXAX5 Q @.X.) M % % $ T |.:XoXp.p.[.oX].S v B P.!././.!.W.L.V N b v $ = : : X . . AXAXAXAXAXAXAXAXAXAXAXAXAXAXAXAXAXAX: : > > 7 6 Q ! ) .. .X.X.O.O.X.X..._ ~ Q 6 6 6 6 7 7 4 > : X o o o AXAXAXAXAXAXAXAXAXAXAXAXAXAXAXAXAXAXAXAXAX",
"AXAXAXAXAXAXAXAXAXAXAXAXAXAXAXAX: > 6 Q M = % % $ S ].oX[.r.e.a.[.i.S v B P.Q.Q.W.P.H.C m v = # # # X X X AXAXAXAXAXAXAXAXAXAXAXAXAXAXAXAXAXAXAXAXX X : : > > 5 7 Q ~ ! ( ( ( ! Q 6 6 6 Q ( |  .X.X.X...) Q 7 : : X o AXAXAXAXAXAXAXAXAXAXAXAXAXAXAXAXAXAXAXAXAX",
"AXAXAXAXAXAXAXAXAXAXAXAXAXAXAX7 6 6 6 6 5 , # % % n i.v.p.w.w.e.u.D n c N L.P.L.H.C N b v = # # o o o o AXAXAXAXAXAXAXAXAXAXAXAXAXAXAXAXAXAXAXAXAX> > > > > > > > 5 7 6 6 6 6 7 6 6 Q _ ..o.tXdXsXdXrXwX+._ 6 > : X o AXAXAXAXAXAXAXAXAXAXAXAXAXAXAXAXAXAXAXAXAX",
"AXAXAXAXAXAXAXAXAXAXAXAXAX7 6 ! | ..| ) ! M 4 # % - D u.e.s s ;.w.D - $ b C C m v c v v 2 , : X o o AXAXAXAXAXAXAXAXAXAXAXAXAXAXAXAXAXAXAXAXAXQ Q Q Q Q Q Q 7 > > > 5 5 5 5 5 6 ! ..0XeXaXgXnXmXnXbXjXeX .( 6 > : AXAXAXAXAXAXAXAXAXAXAXAXAXAXAXAXAXAXAXAXAXAXAX",
"AXAXAXAXAXAXAXAXAXAXAXAXAX6 ~ | 0XeXeXqX0X..( 7 & - g w.;.s p s s g - $ v m b v $ $ $ = : : X X o AXAXAXAXAXAXAXAXAXAXAXAXAXAXAXAXAXAXAXAXAXAX6 ~ ) | | ) _ ! Q Q Q Q 6 6 6 Q ! ..0XtXsXgXvXmXmXnXhXaXo.) Q > : AXAXAXAXAXAXAXAXAXAXAXAXAXAXAXAXAXAXAXAXAXAXAXAX",
"AXAXAXAXAXAXAXAXAXAXAXAXAX! ) X.eXsXcXbXhXrXo.) 7 < y p a a a a p y - $ $ v v c $ = , : X o . AXAXAXAXAXAXAXAXAXAXAXAXAXAXAXAXAXAXAXAXAXAXAXAX6 ~ ..o.0XO.X. .....| ) ( ! ( ) ..X.0XeXaXfXhXgXhXdXeXO.) Q 5 : X AXAXAXAXAXAXAXAXAXAXAXAXAXAXAXAXAXAXAXAXAXAXAXAX",
"AXAXAXAXAXAXAXAXAXAXAXAXAX~ ( | o.eXfXcXbXgXaXo.( k h u y f f K J F G 2 2 = $ # # # # X o . AXAXAXAXAXAXAXAXAXAXAXAXAXAXAXAXAXAXAXAXAXAXAXAX7 6 !  .wXeXeXqX0Xo.X...| _ ( ( ) | ..X.O.0XqXeXeXwXO...( 6 > : : AXAXAXAXAXAXAXAXAXAXAXAXAXAXAXAXAXAXAXAXAXAXAXAXAX",
"AXAXAXAXAXAXAXAXAXAXAXAXAX6 Q ~ _ ..0XrXfXbXgXrX+.` 7 , > 7 ~ _ | ) ` Q 5 , & # X o . . AXAXAXAXAXAXAXAXAXAXAXAXAXAXAXAXAXAXAXAXAXAXAXAXQ Q 6 6 ! ..0XeXaXaXtXqX0XX...) ( ~ ~ ~ ! ( _ ) ....| ) ~ 6 > : X o AXAXAXAXAXAXAXAXAXAXAXAXAXAXAXAXAXAXAXAXAXAXAXAXAXAX",
"AXAXAXAXAXAXAXAXAXAXAXAXQ Q Q Q Q ! ) X.qXsXhXaXwX..6 : : 8 6 ~ / / Q 6 > 9 o o . . . AXAXAXAXAXAXAXAXAXAXAXAXAXAXAXAXAXAXAXAXAXAXAXAXAX~ Q Q Q ~ )  .0XeXaXdXdXaXaXeXO.) ! Q 6 6 6 Q Q Q Q 6 6 > : X o . . AXAXAXAXAXAXAXAXAXAXAXAXAXAXAXAXAXAXAXAXAXAXAXAXAXAX",
"AXAXAXAXAXAXAXAXAXAX~ ~ ! ! ! ~ Q Q Q ( ..0XtXrXeXX.Q : X : > 5 6 6 5 > : . . . . . AXAXAXAXAXAXAXAXAXAXAXAXAXAXAXAXAXAXAXAXAXAXAXAXAXAX( ! ! ! ( _ )  .0XeXaXfXgXbXgXrXO.| ( Q Q 6 6 7 5 > > : : X o . . . AXAXAXAXAXAXAXAXAXAXAXAXAXAXAXAXAXAXAXAXAXAXAXAXAXAX",
"AXAXAXAXAXAXAXAXAXAX) ) | ....| _ ! Q Q ( ..O.wXqXO.! > X X : > > > : : o . . . AXAXAXAXAXAXAXAXAXAXAXAXAXAXAXAXAXAXAXAXAXAXAXAXAXAXAXAX_ ) ..X.X...| ) |  .o.qXrXsXhXhXfXdXrXqXX.) Q 6 > : : X o . . . AXAXAXAXAXAXAXAXAXAXAXAXAXAXAXAXAXAXAXAXAXAXAXAXAXAXAXAX",
"AXAXAXAXAXAXAXAXAXAX . .X.o.0Xo.X.| ! Q Q ! ) X.o.X.( 7 : X X : : : X o . . . AXAXAXAXAXAXAXAXAXAXAXAXAXAXAXAXAXAXAXAXAXAXAXAXAXAXAXAXAX_ | X.qXeX0XX...) _ ) ..O.qXaXhXbXnXvXcXaXo.| ! 6 > : o . . . AXAXAXAXAXAXAXAXAXAXAXAXAXAXAXAXAXAXAXAXAXAXAXAXAXAXAXAXAX",
"AXAXAXAXAXAXAXAXAXAXO.o.0X0XwXqXqXo.| ~ Q Q ! ) ...._ Q > X . o X o o . . AXAXAXAXAXAXAXAXAXAXAXAXAXAXAXAXAXAXAXAXAXAXAXAXAXAXAXAXAXAXAX~ _ X.eXaXdXaXqXX.) _ ) | X.0XeXaXhXcXbXhXdXeXO.) Q > X . AXAXAXAXAXAXAXAXAXAXAXAXAXAXAXAXAXAXAXAXAXAXAXAXAXAXAXAXAXAXAX",
"AXAXAXAXAXAXAXAXAXAXwX0X0X0X0XeXrXeXX.( Q Q Q ! ) ) ( Q 5 X . . o . . . AXAXAXAXAXAXAXAXAXAXAXAXAXAXAXAXAXAXAXAXAXAXAXAXAXAXAXAXAXAXAXAXQ ~ | o.tXfXhXsXeXO...) _ ) ..X.o.wXtXaXsXdXrX0X| Q > X o AXAXAXAXAXAXAXAXAXAXAXAXAXAXAXAXAXAXAXAXAXAXAXAXAXAXAXAXAXAXAX",
"AXAXAXAXAXAXAXAXAXAXeXeX0XX.X.qXaXrXo.) ~ Q 6 Q ! ~ Q 6 > o . . . . AXAXAXAXAXAXAXAXAXAXAXAXAXAXAXAXAXAXAXAXAXAXAXAXAXAXAXAXAXAXAXAXAXAX6 6 ~ ) X.eXdXhXhXdXwX..) _ ( ( _ ) ..X.O.o.X.| ! 6 : X o AXAXAXAXAXAXAXAXAXAXAXAXAXAXAXAXAXAXAXAXAXAXAXAXAXAXAXAXAXAXAX",
"AXAXAXAXAXAXAXAXAXAXeXeX0X..| o.rXrX0X..( Q 7 6 6 6 6 5 : o . . . AXAXAXAXAXAXAXAXAXAXAXAXAXAXAXAXAXAXAXAXAXAXAXAXAXAXAXAXAXAXAXAXAXAXAX7 6 6 Q ) X.eXdXhXhXrX0X .) / ~ Q Q ~ ! ( _ ( Q 7 > : o o AXAXAXAXAXAXAXAXAXAXAXAXAXAXAXAXAXAXAXAXAXAXAXAXAXAXAXAXAXAXAX",
"AXAXAXAXAXAXAXAXAXAXeXqXO.) _ ..0XqXwXX.) 6 > > 5 5 > > : o . . AXAXAXAXAXAXAXAXAXAXAXAXAXAXAXAXAXAXAXAXAXAXAXAXAXAXAXAXAXAXAXAXAXAXAXAX7 6 6 Q ( ..O.qXrXaXaXrXwXX.) ( Q Q Q Q Q 6 7 5 > : o . . AXAXAXAXAXAXAXAXAXAXAXAXAXAXAXAXAXAXAXAXAXAXAXAXAXAXAXAXAXAXAX",
"AXAXAXAXAXAXAXAXAXAXqX0XX._ Q ( ..X.o.O.| 6 : : > > > : X o . AXAXAXAXAXAXAXAXAXAXAXAXAXAXAXAXAXAXAXAXAXAXAXAXAXAXAXAXAXAXAXAXAXAXAXAXAXQ Q ! _ ) ) ) ..X.0XeXtXeX0XX.| ( Q 6 6 5 > : : X o . . AXAXAXAXAXAXAXAXAXAXAXAXAXAXAXAXAXAXAXAXAXAXAXAXAXAXAXAXAXAXAXAX",
"AXAXAXAXAXAXAXAXAXAX0Xo...~ 7 6 ~ )  .X.) 6 : : : : : : X X o AXAXAXAXAXAXAXAXAXAXAXAXAXAXAXAXAXAXAXAXAXAXAXAXAXAXAXAXAXAXAXAXAXAXAXAXAX_ ) ..X. .) ~ ~ ! )  .o.wXqX0XX.) ~ 6 > : 9 X o . . AXAXAXAXAXAXAXAXAXAXAXAXAXAXAXAXAXAXAXAXAXAXAXAXAXAXAXAXAXAXAXAXAXAX",
"AXAXAXAXAXAXAXAXAXAXX. .) Q > > 7 Q ) .._ 6 > : : X X 9 X X AXAXAXAXAXAXAXAXAXAXAXAXAXAXAXAXAXAXAXAXAXAXAXAXAXAXAXAXAXAXAXAXAXAXAXAXAXAX( ) X.wX0X..( Q 6 6 ! )  .o.0XO. .) Q 5 : X o . . . AXAXAXAXAXAXAXAXAXAXAXAXAXAXAXAXAXAXAXAXAXAXAXAXAXAXAXAXAXAXAXAXAXAX",
"AXAXAXAXAXAXAXAXAXAX) ) ~ 7 : : : > Q ( ~ 6 > : X o o o o AXAXAXAXAXAXAXAXAXAXAXAXAXAXAXAXAXAXAXAXAXAXAXAXAXAXAXAXAXAXAXAXAXAXAXAXAXAXAX6 !  .qXeXo...( 6 5 5 6 ~ @. .X.X...! 6 > : o . . . AXAXAXAXAXAXAXAXAXAXAXAXAXAXAXAXAXAXAXAXAXAXAXAXAXAXAXAXAXAXAXAXAXAX",
"AXAXAXAXAXAXAXAXAXAX! ~ E > : X X : 5 6 6 5 > : X o . . . AXAXAXAXAXAXAXAXAXAXAXAXAXAXAXAXAXAXAXAXAXAXAXAXAXAXAXAXAXAXAXAXAXAXAXAXAXAXAX> 7 ( X.0XwX0X..Q 5 > > 7 Q ( ) ) _ Q 7 > : o . . AXAXAXAXAXAXAXAXAXAXAXAXAXAXAXAXAXAXAXAXAXAXAXAXAXAXAXAXAXAXAXAXAXAXAX",
"AXAXAXAXAXAXAXAXAXAXQ Q 6 5 : : X : , > > > : : X o . . . AXAXAXAXAXAXAXAXAXAXAXAXAXAXAXAXAXAXAXAXAXAXAXAXAXAXAXAXAXAXAXAXAXAXAXAXAXAXAXo : 6 ( ..0XwX .~ 7 > > > 5 7 6 Q 6 7 > : X o AXAXAXAXAXAXAXAXAXAXAXAXAXAXAXAXAXAXAXAXAXAXAXAXAXAXAXAXAXAXAXAXAXAXAXAXAX",
"AXAXAXAXAXAXAXAXAX5 6 Q Q 6 7 > : : : : : : X o . . . . . AXAXAXAXAXAXAXAXAXAXAXAXAXAXAXAXAXAXAXAXAXAXAXAXAXAXAXAXAXAXAXAXAXAXAXAXAXAXAXAXAX> 7 Q |  .| ~ 7 > : : : : > > > > > : X o AXAXAXAXAXAXAXAXAXAXAXAXAXAXAXAXAXAXAXAXAXAXAXAXAXAXAXAXAXAXAXAXAXAXAXAXAX",
"AXAXAXAXAXAXAXAX5 6 ~ ) @.) ) ! Q 6 5 > : : X o . . . o X AXAXAXAXAXAXAXAXAXAXAXAXAXAXAXAXAXAXAXAXAXAXAXAXAXAXAXAXAXAXAXAXAXAXAXAXAXAXAXAXAXAX: > Q ( ! Q 7 > X o o X X : : : : : X o AXAXAXAXAXAXAXAXAXAXAXAXAXAXAXAXAXAXAXAXAXAXAXAXAXAXAXAXAXAXAXAXAXAXAXAXAX",
"AXAXAXAXAXAXAXAX~ _ X.qXtXtXeX0XX..._ ~ 6 7 > : : : : > 7 Q ( AXAXAXAXAXAXAXAXAXAXAXAXAXAXAXAXAXAXAXAXAXAXAXAXAXAXAXAXAXAXAXAXAXAXAXAXAXAXAXAXX : 7 6 6 7 > : X o o o X X X X X o . . AXAXAXAXAXAXAXAXAXAXAXAXAXAXAXAXAXAXAXAXAXAXAXAXAXAXAXAXAXAXAXAXAXAXAXAXAX",
"AXAXAXAXAXAXAXAX( | o.rXsXhXhXdXrXqXo. .) ~ 6 7 5 > > 4 6 Q ~ ~ AXAXAXAXAXAXAXAXAXAXAXAXAXAXAXAXAXAXAXAXAXAXAXAXAXAXAXAXAXAXAXAXAXAXAXAXAXAXAXo : > 5 5 > > : X o o o o o o o o . . . AXAXAXAXAXAXAXAXAXAXAXAXAXAXAXAXAXAXAXAXAXAXAXAXAXAXAXAXAXAXAXAXAXAXAXAXAX",
"AXAXAXAXAXAXAXAX! ) ..0XeXaXsXfXfXdXrXqXO..._ ~ Q 7 > > 5 6 6 E ~ ..eXdXAXAXAXAXAXAXAXAXAXAXAXAXAXAXAXAXAXAXAXAXAXAXAXAXAXAXAXAXAXAXAXAXAXAXAXAXAX> > > > : : X o . . . . . . . . . . AXAXAXAXAXAXAXAXAXAXAXAXAXAXAXAXAXAXAXAXAXAXAXAXAXAXAXAXAXAXAXAXAXAXAXAXAX",
"AXAXAXAXAXAXAXO...| | |  .o.wXeXrXrXtXeX0XX...) ! Q 7 > > > 5 6 !  .qXaXkXAXAXAXAXAXAXAXAXAXAXAXAXAXAXAXAXAXAXAXAXAXAXAXAXAXAXAXAXAXAXAXAXAXAXAXAX> > > : : X X o . . . . o o X : > 5 6 AXAXAXAXAXAXAXAXAXAXAXAXAXAXAXAXAXAXAXAXAXAXAXAXAXAXAXAXAXAXAXAXAXAXAXAX",
"AXAXAXAXAXaXrXeXwXO.| ~ Q ! _ |  .X.O.o.o.O.X...) ~ 6 > : : > Q ) X.wXyX%X@X+X:X<X<XAXAXAXAXAXAXAXAXAXAXAXAXAXAXAXAXAXAXAXAXAXAXAXAXAXAX..) Q 5 > > > > : : : : X o o X : : > 7 Q _ ) | | | AXAXAXAXAXAXAXAXAXAXAXAXAXAXAXAXAXAXAXAXAXAXAXAXAXAXAXAXAXAXAXAXAXAX",
"AXAXAXAX#X$X$X0XwX0X ._ Q 6 7 6 Q ! _ ) ) | ) ) ! Q 7 > : o : Q } +.X.O.N.c.{.+X:X,X:XAXAXAXAXAXAXAXAXAXAXAXAXAXAXAXAXAXAXAXAXAXAXAXAX|  ..._ 6 5 > > > 5 5 7 7 5 > > 5 6 ~ ) ..X.0XwXqXwXo...AXAXAXAXAXAXAXAXAXAXAXAXAXAXAXAXAXAXAXAXAXAXAXAXAXAXAXAXAXAXAXAXAX",
"AXAXAX-X@XN._ @.X.o.O.X.) Q > > > > 5 7 6 6 6 6 6 7 > : X o > Q ) | ) ( Y y.r.[.XX+XOX-XAXAXAXAXAXAXAXAXAXAXAXAXAXAXAXAXAXAXAXAXAXQ ~ ) X.o...( Q 7 5 7 6 Q ! ( ! Q Q ( | X.wXtXaXdXfXhXhXtX..Q Q _ ..o.qXeXAXAXAXAXAXAXAXAXAXAXAXAXAXAXAXAXAXAXAXAXAXAXAXAXAXAX",
"AX+XXX[.x.Y k Q / ) | | ( 6 > : : X X : : : > > > : : X o X > 6 ! ~ W k j d w.t.p.[.{.oX+X-XAXAXAXAXAXAXAXAXAXAXAXAXAXAXAXAXAXAXx.H 6 ! ..O.X...) 6 > 7 Q ( ) | | ) ) |  .O.wXeXrXaXaXfXfXeX| ~ ) X.o.o.X.+.N.AXAXAXAXAXAXAXAXAXAXAXAXAXAXAXAXAXAXAXAXAXAXAXAXAX",
":X+X[.r.D j 3 4 5 7 Q Q Q 6 > : X o . . . o X X X o . . o X > 5 6 7 4 < u i s ;.w.r.a.[.oXOX-XAXAXAXAXAXAXAXAXAXAXAXAXAXAXAXAX.X}.K < 5 / ..X.O...Q > > 6 ! ) ..............X.X.O.o.0XqXeXo.) (  .eXeXX._ Y x.[..XOX-XAXAXAXAXAXAXAXAXAXAXAXAXAXAXAXAXAXAXAXAXAX",
"AXAXAXAXAXAXAXAXAXAXAXAXAXAXAXAXAXAXAXAXAXAXAXAXAXAXAXAXAXAXAXAXAXAXAXAXAXAXAXAXAXAXAXAXAXAXAXAXAXAXAXAXAXAXAXAXAXAXAXAXAXOXXX[.i.F & , 6 ! ) | _ 7 ; : > 6 Q ( _ ) ) _ ( ( ! ( _ ) | ....) ! !  .wX0X} G F y.p.v.{.oX+X:XAXAXAXAXAXAXAXAXAXAXAXAXAXAXAXAXAXAXAX",
"AXAXAXAXAXAXAXAXAXAXAXAXAXAXAXAXAXAXAXAXAXAXAXAXAXAXAXAXAXAXAXAXAXAXAXAXAXAXAXAXAXAXAXAXAXAXAXAXAXAXAXAXAXAXAXAXAXAXAXAX-X+X{.p.D u o X > 7 6 Q 6 : . . X : > 5 6 6 6 6 7 5 5 > 7 6 6 6 6 6 6 Q ) X...~ 3 u g w.r.p.[.XX+X+XAXAXAXAXAXAXAXAXAXAXAXAXAXAXAXAXAXAX",
"AXAXAXAXAXAXAXAXAXAXAXAXAXAXAXAXAXAXAXAXAXAXAXAXAXAXAXAXAXAXAXAXAXAXAXAXAXAXAXAXAXAXAXAXAXAXAXAXAXAXAXAXAXAXAXAXAXAXAXAXXX{.s.r.d u . . X : > > : o . . . o X X : : : : : X X X X : : : > > 5 6 Q ! ~ 7 , * i s ;.w.e.u.a.[.{.XXAXAXAXAXAXAXAXAXAXAXAXAXAXAXAXAX",
"AXAXAXAXAXAXAXAXAXAXAXAXAXAXAXAXAXAXAXAXAXAXAXAXAXAXAXAXAXAXAXAXAXAXAXAXAXAXAXAXAXAXAXAXAXAXAXAXAXAXAXAXAXAXAXAXAXAXAXAXa.p.u.y.d - O   . o X o o . . . . . . . . o o . . . . . . . . o : : > 5 7 6 7 > , * i p p p a s w.p.[..XAXAXAXAXAXAXAXAXAXAXAXAXAXAXAXAX",
"AXAXAXAXAXAXAXAXAXAXAXAXAXAXAXAXAXAXAXAXAXAXAXAXAXAXAXAXAXAXAXAXAXAXAXAXAXAXAXAXAXAXAXAXAXAXAXAXAXAXAXAXAXAXAXAXAXAXAXAXe.e.e.AXAXAXAXAXAXAXAXAXAXAXAXAXAXAXAXAXAXAXAXAXAXAXAXAXAXAXAXAXAXAXAXAXAXAXAXAXAXAXAXAXAXAXAXAXAXAXAXAXp.r.r.AXAXAXAXAXAXAXAXAXAXAXAXAX",
"AXAXAXAXAXAXAXAXAXAXAXAXAXAXAXAXAXAXAXAXAXAXAXAXAXAXAXAXAXAXAXAXAXAXAXAXAXAXAXAXAXAXAXAXAXAXAXAXAXAXAXAXAXAXAXAXAXAXAXAXw.w.w.AXAXAXAXAXAXAXAXAXAXAXAXAXAXAXAXAXAXAXAXAXAXAXAXAXAXAXAXAXAXAXAXAXAXAXAXAXAXAXAXAXAXAXAXAXAXAXAXAXr.r.r.AXAXAXAXAXAXAXAXAXAXAXAXAX"
};
