/* XPM */
static const char *bos2g8[] = {
/* columns rows colors chars-per-pixel */
"128 128 256 2 ",
"   c #0C0D0D",
".  c #070607",
"X  c #150C08",
"o  c #0D1909",
"O  c #18160C",
"+  c #0E0E10",
"@  c #141414",
"#  c #1B1B1B",
"$  c #191915",
"%  c #0F1012",
"&  c #280907",
"*  c #3C0101",
"=  c #360808",
"-  c #28180B",
";  c #271B16",
":  c #371B10",
">  c #14270C",
",  c #1C3813",
"<  c #192914",
"1  c #292418",
"2  c #362816",
"3  c #332C12",
"4  c #232323",
"5  c #2C2C2C",
"6  c #282626",
"7  c #332B28",
"8  c #343434",
"9  c #3B3B3B",
"0  c #373938",
"q  c #30322B",
"w  c #1E2022",
"e  c #450201",
"r  c #4B0302",
"t  c #4B0B07",
"y  c #580505",
"u  c #501A0E",
"i  c #660707",
"p  c #780303",
"a  c #691615",
"s  c #771919",
"d  c #671507",
"f  c #452B18",
"g  c #48341B",
"h  c #56381A",
"j  c #53280C",
"k  c #652705",
"l  c #732B00",
"z  c #762903",
"x  c #7B3403",
"c  c #783707",
"v  c #6D3212",
"b  c #4A3A29",
"n  c #553A23",
"m  c #453D37",
"M  c #552A2A",
"N  c #6C322E",
"B  c #1E4115",
"V  c #234A1A",
"C  c #28561D",
"Z  c #354916",
"A  c #2B5921",
"S  c #344D2E",
"D  c #2D6323",
"F  c #346827",
"G  c #38772C",
"H  c #3C7033",
"J  c #4B4A18",
"K  c #714A15",
"L  c #584628",
"P  c #494438",
"I  c #514A32",
"U  c #674627",
"Y  c #764A29",
"T  c #705131",
"R  c #4C732F",
"E  c #736C2E",
"W  c #64631C",
"Q  c #3D3F41",
"!  c #3F4041",
"~  c #434343",
"^  c #4B4B4B",
"/  c #464847",
"(  c #58544A",
")  c #545454",
"_  c #5B5B5B",
"`  c #585857",
"'  c #50504D",
"]  c #70534C",
"[  c #557150",
"{  c #696659",
"}  c #726A50",
"|  c #5D5E61",
" . c #646464",
".. c #6B6B6B",
"X. c #686866",
"o. c #737374",
"O. c #7C7C7C",
"+. c #787876",
"@. c #73716A",
"#. c #5E6061",
"$. c #880202",
"%. c #970000",
"&. c #8F1815",
"*. c #A70201",
"=. c #B70000",
"-. c #B71C0A",
";. c #823D05",
":. c #882626",
">. c #993636",
",. c #8E302E",
"<. c #A33A3A",
"1. c #B32929",
"2. c #C90303",
"3. c #D80201",
"4. c #DE1919",
"5. c #E70101",
"6. c #FB0101",
"7. c #EA1416",
"8. c #DE2B25",
"9. c #884509",
"0. c #95540D",
"q. c #874B14",
"w. c #89571A",
"e. c #985A12",
"r. c #914C0C",
"t. c #9A6417",
"y. c #806D1B",
"u. c #A46918",
"i. c #AA751D",
"p. c #B2781D",
"a. c #875A36",
"s. c #8D502D",
"d. c #9A633A",
"f. c #8D6F2A",
"g. c #A97923",
"h. c #A9752D",
"j. c #865251",
"k. c #AB4545",
"l. c #B24F4F",
"z. c #8F6E50",
"x. c #AA7046",
"c. c #867867",
"v. c #8E7670",
"b. c #B27270",
"n. c #D0644F",
"m. c #BE4238",
"M. c #3D8432",
"N. c #3B8A32",
"B. c #458B35",
"V. c #47983B",
"C. c #52963B",
"Z. c #709135",
"A. c #4DA13E",
"S. c #7BA43D",
"D. c #53904B",
"F. c #679256",
"G. c #4DA442",
"H. c #4CAA44",
"J. c #53AA45",
"K. c #56B84B",
"L. c #54B14C",
"P. c #68B550",
"I. c #738D71",
"U. c #73B06A",
"Y. c #5CC753",
"T. c #58C34F",
"R. c #64D95C",
"E. c #69C953",
"W. c #6DEC65",
"Q. c #6AE461",
"!. c #73F96B",
"~. c #73F86B",
"^. c #6FD969",
"/. c #948A33",
"(. c #B78726",
"). c #BC922B",
"_. c #B99838",
"`. c #AD8B33",
"'. c #B6A63C",
"]. c #97A036",
"[. c #C3972C",
"{. c #C49C30",
"}. c #C9A738",
"|. c #D3B33D",
" X c #D1AD39",
".X c #988D52",
"XX c #AC964D",
"oX c #B4AF49",
"OX c #958A72",
"+X c #AB8F76",
"@X c #AFA76A",
"#X c #8DB846",
"$X c #D7BB43",
"%X c #C7AF4A",
"&X c #CC9553",
"*X c #AFCB50",
"=X c #95E160",
"-X c #DCC349",
";X c #D8CD57",
":X c #E2CA4C",
">X c #E9D855",
",X c #E9D452",
"<X c #F3E75C",
"1X c #ECE05A",
"2X c #D7D667",
"3X c #E8DE65",
"4X c #F5ED62",
"5X c #FEFC6B",
"6X c #FBF566",
"7X c #F1EB66",
"8X c #DCE45E",
"9X c #7D7E81",
"0X c #827F83",
"qX c #838383",
"wX c #8C8C8C",
"eX c #858787",
"rX c #939494",
"tX c #9B9B9C",
"yX c #979796",
"uX c #93918A",
"iX c #A39A98",
"pX c #AC948B",
"aX c #94AA92",
"sX c #ACA794",
"dX c #A4A4A4",
"fX c #ABABAC",
"gX c #A7A8A6",
"hX c #B4B4B4",
"jX c #BCBCBC",
"kX c #B8B7B7",
"lX c #B2AEAB",
"zX c #9E9FA0",
"xX c #CA8B8C",
"cX c #C7B8B8",
"vX c #D3AC98",
"bX c #8CF486",
"nX c #B5CAB4",
"mX c #99CC94",
"MX c #BEBCC0",
"NX c #C5BEC2",
"BX c #BCC2C2",
"VX c #C4C4C4",
"CX c #CBCBCB",
"ZX c #C9C5C6",
"AX c #D3D3D3",
"SX c #DCDCDC",
"DX c #D5D6D9",
"FX c #CDD2CD",
"GX c #CDE6CB",
"HX c #E3E3E3",
"JX c #EBEBEB",
"KX c #E5E8E8",
"LX c #F0F0F0",
"PX c #DFDDE1",
"IX c #D3CBAC",
"UX c None",
/* pixels */
"UXUXUXUXUXUXUXUXUXUXUXUXUXUXUXUXUXUXUXUXUXUXUXUXUXUXUXUXUXUXUXUXUXCXCXDXHXJXJXLXLXJXJXJXHXHXSXSXAXAXCXsX] y y p $.%.*.=.=.2.UXUXUXUXUXUXUXUXUXUXUXUXUXUXUXUXUXUXUXUXUXUXUXUXUXUXUXUXUXUXUXUXUXUXUXUXUXUXUXUXUXUXUXUXUXUXUXUXUXUXUXUXUXUXUXUXUXUXUXUXUXUXUXUXUXUX",
"UXUXUXUXUXUXUXUXUXUXUXUXUXUXUXUXUXUXUXUXUXUXUXUXUXUXUXUXUXUXUXUXUXDXDXSXHXHXHXHXKXJXHXHXHXHXHXHXSXSXDXcXv.j.j.j.:.$.$.%.*.*.UXUXUXUXUXUXUXUXUXUXUXUXUXUXUXUXUXUXUXUXUXUXUXUXUXUXUXUXUXUXUXUXUXUXUXUXUXUXUXUXUXUXUXUXUXUXUXUXUXUXUXUXUXUXUXUXUXUXUXUXUXUXUXUXUXUX",
"UXUXUXUXUXUXUXUXUXUXUXUXUXUXUXUXUXUXUXUXUXUXUXUXUXUXUXUXUXhXVXAXSXHXHXHXSXSXDXDXSXSXSXSXHXHXHXHXHXHXSXAXVXkXkXlXv.N y i p %.=.2.5.7.n.pXgXhXhXjXjXBXhXv.N t y i p $.%.=.=.UXUXUXUXUXUXUXUXUXUXUXUXUXUXUXUXUXUXUXUXUXUXUXUXUXUXUXUXUXUXUXUXUXUXUXUXUXUXUXUXUXUXUX",
"UXUXUXUXUXUXUXUXUXUXUXUXUXUXUXUXUXUXUXUXUXUXUXUXUXUXUXfXjXZXAXSXHXSXCXjXhXhXkXVXCXSXSXSXDXCXZXkXfXfXfXfXfXfXfXfXrXc.] a y p %.=.3.7.8.n.xXlXBXVXCXCXZXlXv.j.j.j.s p $.%.%.%.*.UXUXUXUXUXUXUXUXUXUXUXUXUXUXUXUXUXUXUXUXUXUXUXUXUXUXUXUXUXUXUXUXUXUXUXUXUXUXUXUXUX",
"UXUXUXUXUXUXUXUXUXUXUXUXUXUXUXUXUXUXUXUXUXUXUXUXUXUXfXhXZXDXSXSXDXVXfXyXeXrXgXhXVXZXZXjXlXdXwXO.X. . .X...o.O.qXwXyXv.] u y i $.=.3.5.7.n.xXcXCXAXDXSXDXCXVXhXiXj.s a i p $.%.*.=.2.3.3.5.UXUXUXUXUXUXUXUXUXUXUXUXUXUXUXUXUXUXUXUXUXUXUXUXUXUXUXUXUXUXUXUXUXUXUX",
"UXUXUXUXUXUXUXUXUXUXUXUXUXUXUXUXUXUXUXUXUXUXUXUXtXfXhXVXAXSXAXVXfXwXO.O.wXdXkXjXfXrXO. .` ^ 9 8 q 5 5 5 5 8 ! )  .+.O.@.] M y i %.=.3.5.7.8.n.vXCXDXPXHXHXPXAXMXiXv.j.] N s p $.$.%.=.2.3.5.UXUXUXUXUXUXUXUXUXUXUXUXUXUXUXUXUXUXUXUXUXUXUXUXUXUXUXUXUXUXUXUXUXUX",
"UXUXUXUXUXUXUXUXUXUXUXUXUXUXUXUXUXUXUXUXUXUXUXUXgXfXVXCXDXCXhXyXO.....qXdXfXhXdXO.` ~ 8 6 ; $ ; ; 1 2 2 2 7 7 m ( { @.O.+.] M a $.%.*.-.-.4.m.+XnXnXGXGXGXGXGXnXnXaXaXI.{ U k a a p $.%.=.2.3.UXUXUXUXUXUXUXUXUXUXUXUXUXUXUXUXUXUXUXUXUXUXUXUXUXUXUXUXUXUXUXUXUX",
"UXUXUXUXUXUXUXUXUXUXUXUXUXUXUXUXUXUXUXUXUXUXUXUXkXjXCXCXZXhXrXX._ o.eXgXhXdXO.` 9 5 b L L b g n U a.x.x.x.x.a.T a.z.z.c.o.o.@.] s i v E E Z.F.P.^.^.bXbXbXbXbXbX=X^.^.P.L.D.R R ( N a p $.*.2.3.5.UXUXUXUXUXUXUXUXUXUXUXUXUXUXUXUXUXUXUXUXUXUXUXUXUXUXUXUXUXUXUX",
"UXUXUXUXUXUXUXUXUXUXUXUXUXUXUXUXUXUXUXUXUXUXUXfXkXVXZXjXgXeXo._  .eXgXgXyXo./ 5 1 2 n Y a.T T Y a.d.x.n.&Xn.x.d.d.d.d.] ` X.I.} L J R B.V.H.H.T.Y.R.Q.W.~.~.~.W.W.Q.R.Y.K.L.H.D.D.{ ] j.k.k.1.2.2.UXUXUXUXUXUXUXUXUXUXUXUXUXUXUXUXUXUXUXUXUXUXUXUXUXUXUXUXUXUXUX",
"UXUXUXUXUXUXUXUXUXUXUXUXUXUXUXUXUXUXUXUXUXqXeXyXfXhXhXdXO.` ` o.eXgXfXeX` 8 # $ 2 n Y a.d.x.d.a.Y Y a.d.x.&Xx.x.x.d.T I 9 H B.C.C.C.V.V.V.V.A.L.T.R.R.Q.W.W.W.Q.Q.Q.R.Y.K.L.J.G.G.U.aXcXVXcXb.1.*.UXUXUXUXUXUXUXUXUXUXUXUXUXUXUXUXUXUXUXUXUXUXUXUXUXUXUXUXUXUXUX",
"UXUXUXUXUXUXUXUXUXUXUXUXUXUXUXUXUXUXUXUXUXO.eXrXgXfXdXwX..`  .eXyXyXeX` 5 $ ; 1 2 h U Y a.x.x.x.d.a.s.a.b.+X+Xv.v.+XOX[ R B.G.K.T.T.L.H.V.V.V.A.J.L.K.Y.R.Q.W.W.W.W.W.Q.R.Y.K.L.J.P.U.mXGXSXcXxXb.pXjXUXUXUXUXUXUXUXUXUXUXUXUXUXUXUXUXUXUXUXUXUXUXUXUXUXUXUXUXUX",
"UXUXUXUXUXUXUXUXUXUXUXUXUXUXUXUXUXUXUXUXUXO.qXwXtXtXwXO.X. .o.rXrXo.) 5 @ O 2 g g g g n Y a.d.x.x.d.a.z.OXyXrXwXtXhXfXU.G.H.T.R.R.R.Y.T.L.H.V.V.V.V.G.L.Y.R.W.!.!.!.!.~.W.R.R.T.L.J.J.P.mXGXHXDXAXZXjXfXdXtXUXUXUXUXUXUXUXUXUXUXUXUXUXUXUXUXUXUXUXUXUXUXUXUXUXUX",
"UXUXUXUXUXUXUXUXUXUXUXUXUXUXUXUXUXUXUXUXUXO.O.eXyXrXO.....o.O.O...^ 5 @ . X 2 h n n n g n U a.d.x.x.OXOXqXeXtXfXkXMXfXI.B.V.K.Y.R.R.Q.R.R.Y.K.V.B.B.V.L.R.W.!.!.!.!.!.~.W.Q.R.Y.K.L.H.L.U.mXnXFXAXZXhXfXdXdXfXkXMXZXUXUXUXUXUXUXUXUXUXUXUXUXUXUXUXUXUXUXUXUXUXUX",
"UXUXUXUXUXUXUXUXUXUXUXUXUXUXUXUXUXUXUXUXUX..o.O.eX9X.. .o.O.o. .^ 5 $   . O 2 g L U U n g h U a.x.+XuXrXqXqXtXkXjXgXwX[ H G B.G.H.K.R.W.W.Q.Y.G.B.B.G.K.Q.W.Q.Q.W.!.!.~.W.W.R.T.G.V.G.J.V.G.U.nXCXMXhXfXgXfXhXjXZXCXCXUXUXUXUXUXUXUXUXUXUXUXUXUXUXUXUXUXUXUXUXUX",
"UXUXUXUXUXUXUXUXUXUXUXUXUXUXUXUXUXUXUXUXUX) ` _ X.X._ _ ..O.o.` 0 # . X - ; 3 2 h U Y Y U h L } uXuXv.O.9XwXzXfXaXF.R F A V V V A G J.R.W.W.R.L.V.V.J.Y.Q.R.G.M.L.W.!.~.W.W.R.G.G F V.G.G A [ zXjXkXfXhXhXjXZXAXSXSXSXDXAXUXUXUXUXUXUXUXUXUXUXUXUXUXUXUXUXUXUXUX",
"UXUXUXUXUXUXUXUXUXUXUXUXUXUXUXUXUXUXUXUXUX9 ~ ^ ) ` ` ` X.o. .^ 5 @ . X 2 2 1 3 g n Y Y Y n L @.eX9X ._ ..+.qXqX@.H C C V , > o > , G J.Y.Q.R.K.H.G.H.K.R.Y.V.M.J.Q.~.~.W.Q.R.G.G G V.V.A < ~ eXfXhXhXkXVXCXAXSXHXJXHXSXDXAXUXUXUXUXUXUXUXUXUXUXUXUXUXUXUXUXUXUX",
"UXUXUXUXUXUXUXUXUXUXUXUXUXUXUXUXUXUXUXUXUX0 0 9 ~ ^ ) `  .X.` 9 6   . X : 2 3 3 2 f n U Y Y T } ..| / Q / ^ ' ) / S C C C , > o o O , D B.K.Y.K.J.V.V.G.K.T.K.L.T.R.Q.Q.R.R.Y.L.V.V.A.B.V o 8 +.zXfXhXnXZXFXSXHXJXJXJXHXSXAXCXUXUXUXUXUXUXUXUXUXUXUXUXUXUXUXUXUX",
"UXUXUXUXUXUXUXUXUXUXUXUXUXUXUXUXUXUXUXUXUX5 8 8 0 ~ ^ ' ` ` ^ 8 4   . X : 2 2 2 2 2 f h U T ] _ ` ~ 5 6 6 5 q q V A D F G F V , > o > , D B.G.G.V.N.G M.V.G.H.L.K.T.T.T.K.K.H.G.V.B.N.G C , S F.aXgXhXkXVXCXSXHXJXJXJXJXHXSXAXCXZXUXUXUXUXUXUXUXUXUXUXUXUXUXUXUX",
"UXUXUXUXUXUXUXUXUXUXUXUXUXUXUXUXUXUXUXUXUX6 6 5 8 0 9 ~ ^ ^ ~ 5 # . . X : 2 2 2 2 3 2 g b ( ) ^ ~ 8 5 4 4 4 1 , V C F V.G.V.M.F V , < < V F G G G G F G R B.C.J.J.L.K.J.J.A.C.C.B.B.R R F D M.J.U.aXdXdXfXjXDXHXHXHXJXJXJXHXSXCXjXkXUXUXUXUXUXUXUXUXUXUXUXUXUXUX",
"UXUXUXUXUXUXUXUXUXUXUXUXUXUXUXUXUXUXUXUXUX# 4 6 5 q 8 0 9 ~ 8 6 $ . . X - 2 2 f 2 2 2 2 7 0 9 8 5 9 ^ ) ' ^ ~ S S A F V.K.T.K.J.V.G D V V C C C C W E f./.].].oXoX*X*X*X*X*XoXoX].]././.R G N.V.J.I.I.@.X.qXhXAXSXHXJXJXLXJXHXZXfXgXUXUXUXUXUXUXUXUXUXUXUXUXUXUX",
"UXUXUXUXUXUXUXUXUXUXUXUXUXUXUXUXUXUXUXUXUXUX# # 4 6 5 5 8 8 5 4 $ . . . O ; 2 2 f 2 2 1 2 f M M M N j.v.v.qXo. .' S A M.J.T.R.R.K.G.M.D C Z Z Z J W g.[.{.}.|.-X,X1X<X<X<X<X<X>X:X$X X_./.R R B.D.[ X.) / ` eXfXjXAXSXJXLXLXHXhXwXqXUXUXUXUXUXUXUXUXUXUXUXUXUXUX",
"UXUXUXUXUXUXUXUXUXUXUXUXUXUXUXUXUXUXUXUXUXUXUX$ $ # # 4 6 5 6 # $   . X O - - 1 2 f 2 2 u &.2.2.2.4.4.m.xXjXhXrXX.S B C F V.L.K.L.V.G C J K K K w.g.).}.|.$X:X>X<X6X5X5X5X5X5X4X1X,X:X|.).f.E R R [ @. .` ` ` X.wXhXCXHXJXJXDXuX`  .rXfXUXUXUXUXUXUXUXUXUXUXUXUX",
"UXUXUXUXUXUXUXUXUXUXUXUXUXUXUXUXUXUXUXUXUXUXUXUX@ @ $ # # 4 w # $ +   X O O O - 1 2 j a %.3.6.6.6.6.6.8.vXSXFXgXo.S > > B A G M.M.G F J K q.0.u.u.u.t.f.h./.`.'.oXoXoX%X%X%X%XoX_.`.`.`.(.g.E J H @.wXwXqXo. ...wXhXCXSXKXJXAXyXX.o.yXgXUXUXUXUXUXUXUXUXUXUXUXUX",
"UXUXUXUXUXUXUXUXUXUXUXUXUXUXUXUXUXUXUXUXUXUXUXUX@ @ @ $ # # # $ @ @ @ O O O - O O - p 2.5.6.6.6.5.3.3.8.vXSXFXgX@.q o o o < , B , , J K 9.0.t.i.u.q.u t : 3 3 3 3 3 2 u u u u u u u u k q.u.W Z S eXhXkXfXdXtXdXhXVXCXSXSXHXSXVXfXtXyXyXUXUXUXUXUXUXUXUXUXUXUXUX",
"UXUXUXUXUXUXUXUXUXUXUXUXUXUXUXUXUXUXUXUXUXUXUXUXUX@ @ @ $ $ $ @ @ @ @ % X X O O O - $.5.6.6.5.3.2.=.*.1.xXVXkXrX .q o o o o > > - : k x x c c c c d e * & X X X X & & * * * * * * * * e k c k : b qXkXjXfXfXgXgXfXhXjXZXCXDXAXZXhXdXrXeXUXUXUXUXUXUXUXUXUXUXUXUX",
"UXUXUXUXUXUXUXUXUXUXUXUXUXUXUXUXUXUXUXUXUXUXUXUXUXUX@ @ @ @ @ @ @ @ @   . X - - O - p 3.6.5.3.=.*.%.$.:.v.tXrX+.) q > > > > > - t i d k d t e e e e e e e * & & & * e e e e e e e e e e e e r r M c.tXzXrXrXrXrXrXyXdXfXkXVXZXkXfXrXO.o.UXUXUXUXUXUXUXUXUXUXUXUX",
"UXUXUXUXUXUXUXUXUXUXUXUXUXUXUXUXUXUXUXUXUXUXUXUXUXUXUXUX$ $ $ @ @ $ $ % % = y i = - i 2.5.2.=.%.$.p i a ] +.o.` S 1 > , V C C J d p i y t e e e e r y y i y t t e r r y i y y r e e e e * e r i a N _ | _ _  ...o.O.qXwXyXfXfXdXwXo.` ^ UXUXUXUXUXUXUXUXUXUXUXUX",
"UXUXUXUXUXUXUXUXUXUXUXUXUXUXUXUXUXUXUXUXUXUXUXUXUXUXUXUX# # # $ # # # @ @ = p $.i t p =.2.*.$.p i y t u m ) ^ 9 q < , V D G B.R K z d t e e e r t y s s :.:.s s d y i s s s a i t r e e e r y d a M m m m m ~ ^ ` _  .X.o.eXwXqX..` / 0 UXUXUXUXUXUXUXUXUXUXUXUX",
"UXUXUXUXUXUXUXUXUXUXUXUXUXUXUXUXUXUXUXUXUXUXUXUXUXUXUXUX$ $ # 6 6 w # @ @ = y p $.%.*.=.*.$.p i y t 2 7 8 8 5 6 w < , V F M.V.J.J.Z.W k y r r y d s :.>.k.k.k.>.:.s s >.>.>.:.s a y r r y k j J I ` { ] T L m 9 0 9 ~ / )  . .` ^ / UXUXUXUXUXUXUXUXUXUXUXUXUXUX",
"UXUXUXUXUXUXUXUXUXUXUXUXUXUXUXUXUXUXUXUXUXUXUXUXUXUXUXUX@ $ # 6 5 5 5 5 5 : t i $.*.*.%.$.p i y r = 6 6 4 w # $ $ > , V D M.G.T.R.K.E c z k k d d s :.>.k.l.l.l.<.,.,.>.<.<.>.,.s i r r d c K F [ I.wXc.a.Y T I m q 5 5 8 ~ / 0 8 5 UXUXUXUXUXUXUXUXUXUXUXUXUXUX",
"UXUXUXUXUXUXUXUXUXUXUXUXUXUXUXUXUXUXUXUXUXUXUXUXUXUXUXUX@ @ # 4 q 9 ^ ^ ^ m u r i p p p p y r r e = ; # # # $ o o > < , C G G.K.Y.P.E c 9.e.w.k t y s :.>.k.l.l.l.<.,.:.:.>.k.>.:.d t t z r.K Z R eXgXOXa.a.d.x.UXUXUX# 4 5 5 6 4 # UXUXUXUXUXUXUXUXUXUXUXUXUXUX",
"UXUXUXUXUXUXUXUXUXUXUXUXUXUXUXUXUXUXUXUXUXUXUXUXUXUXUXUX@ @ $ # 6 8 Q / ^ m f u t y y i y y r * = ; 6 5 q q 6 # $ o > , V F B.J.K.K.C.E f.i.0.k e r y a s ,.>.k.l.k.>.s s ,.k.>.s s K w.u.u.K Z S ( c.v.c.z.x.x.UXUXUXUX# # # # # UXUXUXUXUXUXUXUXUXUXUXUXUXUXUX",
"UXUXUXUXUXUXUXUXUXUXUXUXUXUXUXUXUXUXUXUXUXUXUXUXUXUXUXUXUX@ $ # # 4 5 8 0 0 8 7 : e r r r r * & ; 6 8 9 / / 9 q 1 o o > , C G B.G.L.T.Y.S.t.9.k t e r r y a :.,.<.k.>.s a :.>.:.a ;.`.}.{.g.W Z 1 = u ] iXpXz.d.UXUXUXUXUX# # UXUXUXUXUXUXUXUXUXUXUXUXUXUXUXUXUX",
"UXUXUXUXUXUXUXUXUXUXUXUXUXUXUXUXUXUXUXUXUXUXUXUXUXUXUXUXUXUX$ $ # # 4 6 5 5 5 5 6 : : - - & & $ # 4 8 0 ! ~ 9 8 4 o o o < V C G B.G.K.T.Z.w.r.e.w.v e * e r i s ,.>.,.s s :.,.s y v `.$X'.Z.W n a a N v.lXsXz.a.d.&XUXUXUXUXUXUXUXUXUXUXUXUXUXUXUXUXUXUXUXUXUXUX",
"UXUXUXUXUXUXUXUXUXUXUXUXUXUXUXUXUXUXUXUXUXUXUXUXUXUXUXUXUXUXUX@ @ $ # # 4 4 4 4 4 4 4 # # $ @ $ # w 6 5 8 8 8 5 4 $ o o > , V C G N.G.L.Z.E t.(.(.w.v j j k d i s :.s s a s :.s k K `.}.].B.R s.>.>.k.b.sXpXj.s.d.x.&XUXUXUXUXUXUXUXUXUXUXUXUXUXUXUXUXUXUXUXUXUX",
"UXUXUXUXUXUXUXUXUXUXUXUXUXUXUXUXUXUXUXUXUXUXUXUXUXUXUXUXUXUXUX    @ $ # # # # # # # # # # $ @ @ $ $ # # 4 4 4 4 # # $ o o > < , V D M.V.J.P.S./.i.g.`._.%X`.v t y i i y y y s s._.}. X_.Z.F I s.k.<.<.k.l.l.>.s.d.x.x.UXUXUXUXUXUXUXUXUXUXUXUXUXUXUXUXUXUXUXUXUX",
"UXUXUXUXUXUXUXUXUXUXUXUXUXUXUXUXUXUXUXUXUXUXUXUXUXUXUXUXUXUXUX.   + @ # # w 4 6 5 5 0 9 9 8 5 # $ @ @ @ @ @ @ $ $ $ $ @ o o o > < B A G G.T.P.S./.`.}.-X,X$Xh.Y q.s.s.s.s.s.d._.:X;XoX].R A L s.k.k.k.k.<.<.<.<.s.s.d.UXUXUXUXUXUXUXUXUXUXUXUXUXUXUXUXUXUXUXUXUX",
"UXUXUXUXUXUXUXUXUXUXUXUXUXUXUXUXUXUXUXUXUXUXUXUXUXUXUXUXUXUXUXUXUX@ $ # 4 6 5 0 / )  .o.o. .) 9 5 # $ @           @ $ @ @ o o o > < , V F B.J.T.E.].`.[.|.-X-X-X;X3X3X3X3X3X3X>X-XoX#XA.G V b ,.<.k.l.l.k.k.k.k.<.>.>.UXUXUXUXUXUXUXUXUXUXUXUXUXUXUXUXUXUXUXUXUX",
"UXUXUXUXUXUXUXUXUXUXUXUXUXUXUXUXUXUXUXUXUXUXUXUXUXUXUXUXUXUXUXUXUX@ $ # # 6 5 0 / `  .o.O.O.O... .` ^ 9 8 6 # # # # # $ $ @ o o o O > , B C M.H.T.P.#X#X*X*X;X:X1X6X6X6X6X6X6X8X*X#XA.M.C 3 u a s s :.,.>.<.<.<.<.<.<.<.UXUXUXUXUXUXUXUXUXUXUXUXUXUXUXUXUXUXUXUX",
"UXUXUXUXUXUXUXUXUXUXUXUXUXUXUXUXUXUXUXUXUXUXUXUXUXUXUXUXUXUXUXUXUX@ @ $ # 4 5 8 0 / )  .o.eXwXyXyXrXeXo. .) ^ ~ 9 0 0 8 5 5 4 # $ @ O > , V A G V.L.E.Q.W.=X#X'.$X>X1X>X>X>X8X*XE.L.M.A 3 u t r e e t a s :.>.>.<.<.>.>.>.UXUXUXUXUXUXUXUXUXUXUXUXUXUXUXUXUXUXUX",
"UXUXUXUXUXUXUXUXUXUXUXUXUXUXUXUXUXUXUXUXUXUXUXUXUXUXUXUXUXUXUXUXUXUXUX$ $ # # 6 5 8 ~ ^ _ o.O.eXwXyXyXyXrXwXwXwXrXyXyXrXeXo. ./ 5 # # 5 / { [ H D G V.H.L.K.P.#X=X=X=X=X=X=X=X=XY.V.D A { OXj.u * * e r y N b.pXb.s.N N N UXUXUXUXUXUXUXUXUXUXUXUXUXUXUXUXUXUXUX",
"UXUXUXUXUXUXUXUXUXUXUXUXUXUXUXUXUXUXUXUXUXUXUXUXUXUXUXUXUXUXUXUXUXUXUXUX@ $ $ # 6 5 8 9 ^ ` X.o.O.eXyXtXgXfXhXkXZXAXSXDXCXkXtXo.~ 6 6 0 _ O.o.P , V F F F M.A.K.Y.R.Q.W.W.R.Y.K.G.M.A S uXCXlX] M t e * e ] lXZX+XT U n b UXUXUXUXUXUXUXUXUXUXUXUXUXUXUXUXUXUXUX",
"UXUXUXUXUXUXUXUXUXUXUXUXUXUXUXUXUXUXUXUXUXUXUXUXUXUXUXUXUXUXUXUXUXUXUXUX@ @ $ $ # 6 5 8 ~ ^ `  ...O.eXwXrXyXzXfXhXZXDXSXHXSXZXyX_ 8 5 8 / _ ` S 5 q q V V C D G N.A.L.T.K.H.B.G D F ( @.tXZXFXcXpX] e * e ] cXAXpXT h g I @.yXUXUXUXUXUXUXUXUXUXUXUXUXUXUXUXUXUX",
"UXUXUXUXUXUXUXUXUXUXUXUXUXUXUXUXUXUXUXUXUXUXUXUXUXUXUXUXUXUXUXUXUXUXUXUX@ @ @ $ # # 6 5 8 9 ^ `  ...o.O.O.qXeXyXdXhXVXAXSXHXSXhXO.^ 8 5 8 9 9 8 8 9 ^ ' [ [ [ F.F.F.F.F.D.[ F C V S ) ..wXfXCXKXZXj.e * e ] lXZXOXU f f P @.eXUXUXUXUXUXUXUXUXUXUXUXUXUXUXUXUXUX",
"UXUXUXUXUXUXUXUXUXUXUXUXUXUXUXUXUXUXUXUXUXUXUXUXUXUXUXUXUXUXUXUXUXUXUXUXUXUX@ @ $ $ # 4 5 8 ~ ^ `  .X...o.o.O.eXrXtXfXkXZXDXHXZXrX .9 4 4 5 5 8 ~ #.qXtXhXnXnXkXlXdXaXwX+.` S 0 0 0 0 ^  .eXhXAXcX] t * e ] iXlXc.L f 2 b ` X.UXUXUXUXUXUXUXUXUXUXUXUXUXUXUXUXUX",
"UXUXUXUXUXUXUXUXUXUXUXUXUXUXUXUXUXUXUXUXUXUXUXUXUXUXUXUXUXUXUXUXUXUXUXUXUXUXUX@ @ @ $ # 4 5 8 9 ^ ) _  . .X...O.qXwXyXdXhXCXDXZXtXo.~ 4 # 5 /  .qXyXhXVXCXAXCXVXhXgXtXrXqXX.) ~ 9 0 0 ~ )  .wXhXkXpXj.N t N uXdX@.b b ( ` #....XUXUXUXUXUXUXUXUXUXUXUXUXUXUXUXUX",
"UXUXUXUXUXUXUXUXUXUXUXUXUXUXUXUXUXUXUXUXUXUXUXUXUXUXUXUXUXUXUXUXUXUXUXUXUXUXUXUX@ @ @ @ # 4 5 5 8 ~ ) ` ` _  ...o.O.eXrXtXhXVXkXyXo.~ 6 6 9  .yXjXCXCXZXjXhXfXdXyXeXeXeXqXo. .^ 0 8 ! / ~ /  .wXhXCXcXv.M N uXiX{ b ( +.qX+.c.@X;X>XUXUXUXUXUXUXUXUXUXUXUXUXUXUX",
"UXUXUXUXUXUXUXUXUXUXUXUXUXUXUXUXUXUXUXUXUXUXUXUXUXUXUXUXUXUXUXUXUXUXUXUXUXUXUXUXUXUX+   @ $ # 4 5 8 9 ~ / ^ ) `  ...o.O.eXyXgXtXqX .0 4 5 / X.yXhXhXfXtXeXO.o.X._ ) ) ` ` _ ` ^ 8 8 0 0 7 7 m _ qXfXMXlXuXuXiXuX` m ` qXrXwXOX@X%X|.UXUXUXUXUXUXUXUXUXUXUXUXUXUX",
"UXUXUXUXUXUXUXUXUXUXUXUXUXUXUXUXUXUXUXUXUXUXUXUXUXUXUXUXUXUXUXUXUXUXUXUXUXUXUXUXUXUXUX.   @ $ # w 6 5 5 8 0 9 / ^ ` _  ...O.qXO. .^ 8 4 6 9 ` O.wXwXeXO... .` ) ^ 9 0 0 0 ~ / 9 q 5 5 5 ; $ 1 8 ) O.tXhXjXhXyXo.^ 0 ) O.rXyXuXXX).).UXUXUXUXUXUXUXUXUXUXUXUXUXUX",
"UXUXUXUXUXUXUXUXUXUXUXUXUXUXUXUXUXUXUXUXUXUXUXUXUXUXUXUXUXUXUXUXUXUXUXUXUXUXUXUXUXUXUXUXUX    @ $ # # # 6 5 5 8 8 ~ / ^ ^ ) ` ` ^ 0 6 # # 6 8 ^ `  .o.O.eXeXeXqXo. .` ^ 9 0 8 5 4 4 6 6 # @ $ 6 0 ) o.wXtXrXo.) 0 8 ^ ..eXtXiX.Xi.u.UXUXUXUXUXUXUXUXUXUXUXUXUXUX",
"UXUXUXUXUXUXUXUXUXUXUXUXUXUXUXUXUXUXUXUXUXUXUXUXUXUXUXUXUXUXUXUXUXUXUXUXUXUXUXUXUXUXUXUXUX. .   @ @ @ @ # # 4 4 5 8 8 8 8 8 9 0 8 5 # $ $ # 5 9 ` @.eXtXfXhXhXhXdXrXO.X.` / 8 5 6 4 4 4 # $ $ # 5 9 ^  .o..._ ^ 8 5 9 ` O.yXiXv.a.w.UXUXUXUXUXUXUXUXUXUXUXUXUXUX",
"UXUXUXUXUXUXUXUXUXUXUXUXUXUXUXUXUXUXUXUXUXUXUXUXUXUXUXUXUXUXUXUXUXUXUXUXUXUXUXUXUXUXUXUXUX.   + @ @ @ $ # # 4 4 5 5 q 5 5 8 8 8 5 6 # $ $ 4 8 ` O.dXjXCXDXDXAXCXjXfXtXwXO._ / 9 0 q 6 # $ @ $ # 4 8 9 ~ / )  ._ ~ 5 8 ^ X.rXiXv.{ ( UXUXUXUXUXUXUXUXUXUXUXUXUXUX",
"UXUXUXUXUXUXUXUXUXUXUXUXUXUXUXUXUXUXUXUXUXUXUXUXUXUXUXUXUXUXUXUXUXUXUXUXUXUXUXUXUXUXUXUX# # # 4 6 5 5 8 0 9 ~ / ^ ` _ _ #. ...X.` ^ 8 # # 5 / @.yXhXVXCXZXjXhXfXtXwXeXqXO.X._ ) / 0 5 # $ @ @ $ # 5 0 9 9 ^  ._ Q 6 6 8 ` eXyXO.| #.O.UXUXUXUXUXUXUXUXUXUXUXUXUX",
"UXUXUXUXUXUXUXUXUXUXUXUXUXUXUXUXUXUXUXUXUXUXUXUXUXUXUXUXUXUXUXUXUXUXUXUXUXUXUXUXUXUXUX# # 6 5 0 9 ^ ) `  .X...o.O.wXyXdXfXhXkXlXyXO.^ 5 6 8 ^ O.yXgXdXzXyXeXO... .` ` _  .X.X._ ^ 9 5 4 $     @ # 5 8 9 / ) _ ` ~ 8 q 0 ) O.wXo. .X.O.eXUXUXUXUXUXUXUXUXUXUXUXUX",
"UXUXUXUXUXUXUXUXUXUXUXUXUXUXUXUXUXUXUXUXUXUXUXUXUXUXUXUXUXUXUXUXUXUXUXUXUXUXUXUXUXUXUX# # 6 5 0 / )  ...o.O.eXwXyXgXhXVXCXDXSXDXVXtX .8 6 8 ^ X.O.@. .` ` ) ^ / 9 8 8 8 9 ^ ^ ^ ~ 0 5 # @     @ # 4 5 8 Q / ^ ` } .XXXXX@XOXqXo. . .....UXUXUXUXUXUXUXUXUXUXUXUX",
"UXUXUXUXUXUXUXUXUXUXUXUXUXUXUXUXUXUXUXUXUXUXUXUXUXUXUXUXUXUXUXUXUXUXUXUXUXUXUXUXUXUXUX# # 4 5 8 9 ^ _ X.o.O.qXeXyXgXhXZXAXSXSXDXVXdX .5 6 5 9 ) ` ' ~ ~ ^ ^ ^ ^ ~ 0 8 5 5 8 8 8 8 5 4 # @     % $ # 4 q m P P } XX,X6X5X2X@XO.o... .` ) UXUXUXUXUXUXUXUXUXUXUXUX",
"UXUXUXUXUXUXUXUXUXUXUXUXUXUXUXUXUXUXUXUXUXUXUXUXUXUXUXUXUXUXUXUXUXUXUXUXUXUXUXUXUXUXUX$ # w 6 5 8 0 ~ ^ ) ` _  .o.qXrXdXfXlXfXfXyXO.^ 6 # 4 5 9 )  .o.eXyXtXtXyXeXo. .) ~ 8 5 5 5 6 # $ @ UX.     % $ g K w.f.h.'.-X<X5X2XOX . ..._ ^ ~ UXUXUXUXUXUXUXUXUXUXUXUX",
"UXUXUXUXUXUXUXUXUXUXUXUXUXUXUXUXUXUXUXUXUXUXUXUXUXUXUXUXUXUXUXUXUXUXUXUXUXUXUXUXUXUX# # 4 5 8 8 0 0 0 0 0 0 0 9 ^ `  .o.O.O.O.o.X.` 8 4 # 4 5 ~ _ O.tXkXCXAXAXCXhXzXeX..` ~ 8 5 5 4 # @ UXUXUX- - - : v r.u.i.(.{.|.,X<X;X} ' _  .` / 9 UXUXUXUXUXUXUXUXUXUXUXUX",
"UXUXUXUXUXUXUXUXUXUXUXUXUXUXUXUXUXUXUXUXUXUXUXUXUXUXUXUXUXUXUXUXUXUXUXUXUXUXUXUX# # 6 8 9 ^ ) ` ) ^ / 9 8 5 6 4 6 5 8 9 / ^ ^ / 0 5 4 # 4 5 ~ ` o.yXhXCXSXHXSXDXZXhXyXO. .` / 0 5 4 # @ UXUXUXk k k k c 9.0.u.(.).}.-X>X%X} ~ ^ ` ` ^ ^ UXUXUXUXUXUXUXUXUXUXUXUX",
"UXUXUXUXUXUXUXUXUXUXUXUXUXUXUXUXUXUXUXUXUXUXUXUXUXUXUXUXUXUXUXUXUXUXUXUXUXUXUXUX6 q ! `  .o.O.O.o... .) / 0 5 4 # # # 4 6 5 5 5 4 # # w 5 0 ^  .O.tXhXCXSXHXSXAXZXhXtXqX.. .) ~ 5 4 # # 4 UXUXv z l z x 9.0.t.i.(.).}.$X%X/.E ( ^ )  .o.yXUXUXUXUXUXUXUXUXUXUXUX",
"UXUXUXUXUXUXUXUXUXUXUXUXUXUXUXUXUXUXUXUXUXUXUXUXUXUXUXUXUXUXUXUXUXUXUXUXUXUXUXUX/ ^  .O.rXtXgXgXtXyXeX+.X.` ~ 5 4 # $ $ $ # # # # # # 4 5 9 ^  .O.yXfXVXAXSXAXZXhXdXrXqXo. .` ~ 5 4 # # q Q / UXUXl l x 9.r.0.t.u.p.(.[.}. XoXE ' | eXdXkXZXCXUXUXUXUXUXUXUXUXUX",
"UXUXUXUXUXUXUXUXUXUXUXUXUXUXUXUXUXUXUXUXUXUXUXUXUXUXUXUXUXUXUXUXUXUXUXUXUXUXUX2X.X_ ..wXgXkXZXZXVXkXhXdXwX+._ / 8 4 # $ $ $ $ $ $ $ # w 5 8 ^  .o.wXgXkXZXCXZXjXfXyXqXo. .` ^ 9 5 4 # 4 8 ~ / UXUXl l l x ;.9.0.e.u.i.(.[.[._..X@.wXfXkXhXfXfXlXUXUXUXUXUXUXUXUX",
"UXUXUXUXUXUXUXUXUXUXUXUXUXUXUXUXUXUXUXUXUXUXUXUXUXUXUXUXUXUXUXUXUXUXUXUXUXUX5X3X.X{ o.yXhXCXSXSXSXDXCXjXgXuXo.` ~ 5 4 # # $ @ @ @ $ $ # 4 5 9 ) X.O.rXdXfXhXfXdXrXqX.._ ) / 9 8 5 4 # 4 8 ^ ` UXUXc l l l x ;.9.r.e.t.t.i.h.h.OXyXgXhXhXgXtXfXhXjXUXUXUXUXUXUXUX",
"UXUXUXUXUXUXUXUXUXUXUXUXUXUXUXUXUXUXUXUXUXUXUXUXUXUXUXUXUXUXUXUXUXUXUXUX5X6X4X;X.XX.O.dXjXDXHXHXHXSXAXVXfXyXO. .^ 8 5 4 # $     @ @ $ $ # 6 8 9 ^ _ ..o.O.O.O.o.X._ ) ^ 9 8 6 4 w # # 4 9 ` X.O.v.UXUXl l l x x 9.9.K h I } c.uXdXyXO.O.yXfXVXAXDXDXDXUXUXUXUXUX",
"UXUXUXUXUXUXUXUXUXUXUXUXUXUXUXUXUXUXUXUXUXUXUXUXUXUXUXUXUXUXUXUXUXUXUXUX5X6X1X;X.X@.eXfXZXSXHXJXHXSXAXVXfXyXqX .) 0 5 4 # @     @ $ @ @ $ # 4 5 8 ~ ^ ) ` ` ) ' ^ / 9 0 5 4 # $ $ # # 5 ~  .o.eXuXUXUXUXl l l l l v f 7 9 _ o.O.qX+...O.tXkXZXCXVXkXhXVXUXUXUXUX",
"UXUXUXUXUXUXUXUXUXUXUXUXUXUXUXUXUXUXUXUXUXUXUXUXUXUXUXUXUXUXUXUXUXUXUXUX5X<X,X%X.XO.wXfXZXSXHXJXHXSXCXjXfXyXO. .^ 0 5 4 # @     $ $ @     @ # 4 5 8 0 ~ / / ~ 9 9 0 8 5 6 # $ @ @ # 4 8 ^  .qXyXdXUXUXUXUXUXl k u ; 6 8 ~ ) ` ^ ~ ` qXdXkXjXhXtXeXO.eXhXSXUXUXUX",
"UXUXUXUXUXUXUXUXUXUXUXUXUXUXUXUXUXUXUXUXUXUXUXUXUXUXUXUXUXUXUXUXUXUXUX6X4X>X-X%X.XqXyXhXCXSXHXHXHXSXCXkXgXrXo._ / 0 5 4 # @   @ # # @     @ $ # 4 6 5 8 8 8 8 8 8 8 5 4 # $ @ @ $ # 5 0 ) ..eXgXhXUXUXUXUXUXu : - $ w q 8 0 0 8 0 ` qXyXtXyXqX..X.o.wXhXAXSXUXUX",
"UXUXUXUXUXUXUXUXUXUXUXUXUXUXUXUXUXUXUXUXUXUXUXUXUXUXUXUXUXUXUXUXUX5X5X4X>X-X}._..XuXdXjXAXSXHXHXSXAXZXhXdXwXo.` ~ 8 5 # $ @ $ # # # $     @ $ # # # 4 6 6 6 6 6 5 6 4 # @ @ @ $ # 4 5 9 ` o.rXlXjXUXUXUXUXUXX   @ # 4 6 4 # w 8 )  .o.o.X.` ^ ~ ` qXdXjXCXCXUXUX",
"UXUXUXUXUXUXUXUXUXUXUXUXUXUXUXUXUXUXUXUXUXUXUXUXUXUXUXUXUXUXUXUXUX4X<X>X:X X(.h.OXyXlXZXDXHXHXHXDXCXkXfXyXeXX.) 9 5 4 # # # 4 4 4 # @   .   @ @ $ # # # # # # # # # $ @   @ @ $ # 4 5 9 ` o.rXfXkXfXyXUXUXUX  % @ $ # # # # 6 0 ^ ) ) ^ 0 5 6 5 ^ o.yXhXVXAXSXHX",
"UXUXUXUXUXUXUXUXUXUXUXUXUXUXUXUXUXUXUXUXUXUXUXUXUXUXUXUXUXUXUXUXUX1X>X:X$X).u.t.v.iXkXCXSXHXHXSXAXVXhXtXeXo. .^ 0 6 # # # 6 5 5 4 # @   . .   + @ @ @ @ @ @ @ @ @ @         @ $ # 4 5 9 ) ..eXgXhXgXyXUXUXUX@ $ @ @ @ @ # 6 5 8 0 8 5 6 # $ # 5 /  .v.dXjXCXDXSX",
"UXUXUXUXUXUXUXUXUXUXUXUXUXUXUXUXUXUXUXUXUXUXUXUXUXUXUXUXUXUXUX5X6X4X>X$X[.i.0.w.c.iXjXAXSXPXSXAXZXhXgXrXO.X.` ~ 8 4 # 4 5 5 5 5 4 # $ @     .                       . .     @ @ $ # 6 0 ^ X.eXtXfXgXdXfXUXUX$ $ @     @ $ # 4 4 4 # $ @ @ # 8 ^ ) ` X.wXlXVXCXAX",
"UXUXUXUXUXUXUXUXUXUXUXUXUXUXUXUXUXUXUXUXUXUXUXUXUXUXUXUXUXUXUX6X4X<X:X}.p.t.w.a.v.zXjXAXSXSXAXCXkXfXyXqX..` / 8 5 # # 5 8 8 5 5 w # $ $ @     O - - - - - - - - - : : 2 3 $ @ + @ # 4 8 ^  .O.yXgXfXfXUXUXUX# # $     @ $ $ $ @ @     + # 5 ^ ...._ { OXsXsXsXsX",
"UXUXUXUXUXUXUXUXUXUXUXUXUXUXUXUXUXUXUXUXUXUXUXUXUXUXUXUXUXUXUX1X>X:X$X).u.f.z.c.uXgXjXAXSXAXCXjXfXyXeXo._ ^ 0 5 4 # 4 8 ~ 0 5 6 # # $ @ @ @ - u k k k k k k l c K q.w.t.w.g O   @ $ # 5 ~ ` +.rXdXfXfXUXUXUX4 4 # @ @ @ @     @ @ @ @ # 6 9 X.wXeX..} XX%XXXh.h.",
"UXUXUXUXUXUXUXUXUXUXUXUXUXUXUXUXUXUXUXUXUXUXUXUXUXUXUXUXUXUX4X1X,X$X{.i.e.a.@.eXzXhXZXAXDXCXjXfXtXeXo. .^ 0 5 # # 6 8 9 ~ 0 5 4 # $ @ @ ; 2 j k l z l l l z x ;.r.e.u.p.g.y.U 3 # $ # 6 0 ) ..wXtXfXfXhXUXUXUX6 # # $ @ +     @ # 4 5 8 8 ~ } +XOXX.} .X{.(.u.0.",
"UXUXUXUXUXUXUXUXUXUXUXUXUXUXUXUXUXUXUXUXUXUXUXUXUXUXUXUXUX5X6X1X-X{.g.e.q.a.c.wXfXVXCXAXCXjXfXtXwXO. .) 9 5 w # 6 0 / / ~ 8 6 # $ @ % @ 2 v c x l l l l l l l x 9.0.u.i.(.{.'.E 3 % @ 4 8 ^  .qXyXgXfXfXUXUXUXUX4 4 # $ @ @ $ # 5 Q ` ` / P f.`./.( ( f.g.(.UXUX",
"UXUXUXUXUXUXUXUXUXUXUXUXUXUXUXUXUXUXUXUXUXUXUXUXUXUXUXUX4X4X>X-X}.g.e.w.T } v.yXhXCXCXZXkXfXyXeXo. .) ~ q 4 # $ 5 ^ ` ^ 9 q 4 # $ @ % UXUXUX;.x l l l l l l l l x r.e.u.(.{.}.f.3   + # 5 9 ` o.eXyXtXdXUXUXUXUXUXUX5 8 6 # # 0 `  ...{ } f.`.}./.I 0 L UXUXUXUX",
"UXUXUXUXUXUXUXUXUXUXUXUXUXUXUXUXUXUXUXUXUXUXUXUXUXUXUXUX>X,X-X}.(.e.q.T { +.wXdXkXZXVXhXgXrXqXo. .' 9 q 4 # # 6 9 _  .) 9 5 # $ @ @ UXUXUXUXUXl l l l l l l l l x 9.0.u.(.[.).E 1 .   $ 4 8 ^  .O.eXwXwXUXUXUXUXUXUX^ / 0 1 2 ( +.+.X.{ a.h.). X/.I 6 UXUXUXUXUX",
"UXUXUXUXUXUXUXUXUXUXUXUXUXUXUXUXUXUXUXUXUXUXUXUXUXUXUXUX:X-X}.(.e.9.c T X.qXtXfXkXkXhXdXrXO..._ ^ 9 5 # @ $ q ^ _ X. .) 0 5 # @     UXUXUXUXUX;.;.x l l l l l l x 9.0.u.(.[.).W ; .   $ # 5 9 `  ...o.o.UXUXUXUXUX^ / Q b h K f.h.E P 8 b L E UXUXUXUXUXUXUXUXUX",
"UXUXUXUXUXUXUXUXUXUXUXUXUXUXUXUXUXUXUXUXUXUXUXUXUXUXUXUX-X|.).u.r.q.Y } v.rXgXfXfXdXyXeXo. .) ~ 8 6 # # 3 I { o.o..._ ^ 8 4 $     . UXUXUXUXUX9.9.x l l l l l l x 9.0.u.p.).).f.L 3 # $ $ 4 8 ^ ` _  . .UXUXUXUXT I P 8 7 h K w.f.Y 2 # 4 5 UXUXUXUXUXUXUXUXUXUX",
"UXUXUXUXUXUXUXUXUXUXUXUXUXUXUXUXUXUXUXUXUXUXUXUXUXUX>X,X$X}.p.e.w.z.v.wXyXtXdXtXrXqXo.#.) / 9 5 4 $ @ q /.oX@XuX9X .) 0 6 #   . UXUXUXUXUXUXUX9.9.x l l l l l l x 9.r.e.u.(.).}._.f.g $ @ # 5 ~ ) ` _ UXUXUXl c q.w.U 2 4 6 7 m I I UXUXUXUXUXUXUXUXUXUXUXUXUXUX",
"UXUXUXUXUXUXUXUXUXUXUXUXUXUXUXUXUXUXUXUXUXUXUXUXUXUX,X-X X(.t.9.q.c.rXtXyXyXeXO.X.` / 0 q 6 q I E E E f.'.-X@XuX+._ / 5 # @   . UXUXUXUXUXUXUXUX;.x l l l l l l x x ;.r.e.i.). X$X_.L @   $ 6 0 ^ ) ` ` UXUXUXx r.0.K 1 # w 5 8 Q UXUXUXUXUXUXUXUXUXUXUXUXUXUXUX",
"UXUXUXUXUXUXUXUXUXUXUXUXUXUXUXUXUXUXUXUXUXUXUXUXUXUX-X|.).u.9.x Y c.uXrXeXO. .) ~ 0 7 6 1 ; P .X8X7X,X-X X_..X+. .' 0 6 $     . UXUXUXUXUXUXUXUXUXl l l l l l l l l x ;.r.t.p.{.|.`.J   . @ 4 8 9 / ^ ^ UXUXUXUXUXUXUXUXUXUXUXUXUXUXUXUXUXUXUXUXUXUXUXUXUXUXUXUX",
"UXUXUXUXUXUXUXUXUXUXUXUXUXUXUXUXUXUXUXUXUXUXUXUXUXUX X{.i.r.q.Y ] @.o...` ^ 8 q L K E f.f.f..X%X>X,X$X%XXX.Xc.{ ' 9 5 # @     UXUXUXUXUXUXUXUXUXUXx x x l l l l l l l x r.t.p.[.}./.g . .   # 5 8 0 9 ~ UXUXUXUXUXUXUXUXUXUXUXUXUXUXUXUXUXUXUXUXUXUXUXUXUXUXUXUX",
"UXUXUXUXUXUXUXUXUXUXUXUXUXUXUXUXUXUXUXUXUXUXUXUXUXUXoX_.h.w.a.@.+.o... .) ~ 0 P E `.}.%X-X:X:X$X X[.p.h.OXOX..^ 0 5 # @   . UXUXUXUXUXUXUXUXUXUXUXUX9.x x l l l l l x ;.r.t.i.(.[./.L 1 %   @ w 5 8 8 8 UXUXUXUXUXUXUXUXUXUXUXUXUXUXUXUXUXUXUXUXUXUXUXUXUXUXUXUX",
"UXUXUXUXUXUXUXUXUXUXUXUXUXUXUXUXUXUXUXUXUXUXUXUXwXuXpX+X+XpXpXiXdXgXfXgXgXdXdXgXlXvXvXvX@X%X{.(.g.u.e.w.z..._ 9 5 # $   . . UXUXUXUXUXUXUXUXUXUXUXUXUXx l l l l l l x ;.9.0.u.p.).{.'./.L O   # 4 5 8 8 UXUXUXUXUXUXUXUXUXUXUXUXUXUXUXUXUXUXUXUXUXUXUXUXUXUXUXUX",
"UXUXUXUXUXUXUXUXUXUXUXUXUXUXUXUXUXUXUXUXUXUXUXO.qXeXrXtXdXfXfXfXhXjXCXAXDXSXHXHXHXSXAXVXsX.Xf.e.r.q.q.T ] _ ~ 5 4 $ +   . UXUXUXUXUXUXUXUXUXUXUXUXUXUXUXx x l l l l z x 9.r.e.i.(.}.:X$XE $ . @ # 6 5 5 UXUXUXUXUXUXUXUXUXUXUXUXUXUXUXUXUXUXUXUXUXUXUXUXUXUXUXUX",
"UXUXUXUXUXUXUXUXUXUXUXUXUXUXUXUXUXUXUXUXUXUX .X...o.9XeXrXyXyXtXdXfXjXCXAXSXHXJXKXHXPXAXhXOX} Y c Y ] { ' 9 5 4 $ @   UXUXUXUXUXUXUXUXUXUXUXUXUXUXUXUXUX9.;.x l l l l l x 9.e.u.p.[.|.%XE $ . @ # # 6 6 UXUXUXUXUXUXUXUXUXUXUXUXUXUXUXUXUXUXUXUXUXUXUXUXUXUXUXUX",
"UXUXUXUXUXUXUXUXUXUXUXUXUXUXUXUXUXUXUXUXUXo.o.o.O.qXrXyXzXdXtXyXrXrXrXyXyXtXdXfXhXjXZXZXlXeXX.I n L ( ' 9 5 # $ @   UXUXUXUXUXUXUXUXUXUXUXUXUXUXUXUXUXg h h j j j j j j h h Y w.i.[.|.}.E O . + $ # # # UXUXUXUXUXUXUXUXUXUXUXUXUXUXUXUXUXUXUXUXUXUXUXUXUXUXUXUX",
"UXUXUXUXUXUXUXUXUXUXUXUXUXUXUXUXUXUXUXUXUXeXeXwXrXtXhXkXjXjXhXtXwXO... ._ ` ` ` X.O.rXtXyXeX..` / m 9 8 6 # @   . UXUXUXUXUXUXUXUXUXUXUXUXUXUXUXUXUX8 q 7 7 4 1 1 6 7 7 8 8 m T f.). X'.W $   + @ $ $ $ UXUXUXUXUXUXUXUXUXUXUXUXUXUXUXUXUXUXUXUXUXUXUXUXUXUXUXUX",
"UXUXUXUXUXUXUXUXUXUXUXUXUXUXUXUXUXUXUXUXo.qXwXyXgXhXVXCXAXCXCXVXhXfXdXrXeXo... .` ) `  . .X. .) ~ 8 6 # $ @   . UXUXUXUXUXUXUXUXUXUXUXUXUXUXUXUXUX0 0 9 ~ ~ Q 9 9 Q Q 9 9 9 9 I T E f.E I 1 @ @ @ @ UXUXUXUXUXUXUXUXUXUXUXUXUXUXUXUXUXUXUXUXUXUXUXUXUXUXUXUXUXUX",
"UXUXUXUXUXUXUXUXUXUXUXUXUXUXUXUXUXUXUXX...O.eXyXgXhXZXAXSXSXSXHXHXSXSXCXjXfXtXqX_ ~ 8 8 0 ^ ^ ~ 8 6 # @     UXUXUXUXUXUXUXUXUXUXUXUXUXUXUXUXUXUXUX~ / ^ _  . . . . ._ ` ^ ^ ~ 9 0 0 8 8 5 4 # $ @ UXUXUXUXUXUXUXUXUXUXUXUXUXUXUXUXUXUXUXUXUXUXUXUXUXUXUXUXUXUXUX",
"UXUXUXUXUXUXUXUXUXUXUXUXUXUXUXUXUXUXUX_  .o.O.eXyXgXjXFXSXHXJXJXJXJXHXSXDXCXkXtXO.` 9 5 5 8 8 5 6 # @   . UXUXUXUXUXUXUXUXUXUXUXUXUXUXUXUXUXUXUX0 9 / ` ..qXwXrXrXeX9Xo. .` / 0 5 6 4 w w w # $ @ UXUXUXUXUXUXUXUXUXUXUXUXUXUXUXUXUXUXUXUXUXUXUXUXUXUXUXUXUXUXUX",
"UXUXUXUXUXUXUXUXUXUXUXUXUXUXUXUXUXUXUX . . .X.o.O.wXgXkXCXDXSXHXHXSXSXDXAXCXkXdXeX ./ 8 4 4 4 # # @   . UXUXUXUXUXUXUXUXUXUXUXUXUXUXUXUXUXUXUX8 0 ~ ^ _ o.qXrXyXyXwXqXO.X.` / 0 5 6 4 # # # $ @ @ UXUXUXUXUXUXUXUXUXUXUXUXUXUXUXUXUXUXUXUXUXUXUXUXUXUXUXUXUXUXUX",
"UXUXUXUXUXUXUXUXUXUXUXUXUXUXUXUXUXyXwXqXo._ ' `  .o.qXrXtXfXhXkXjXjXjXkXhXfXdXrXo._ / 5 4 # $ $ $ @   . UXUXUXUXUXUXUXUXUXUXUXUXUXUXUXUXUXUXUX0 9 ^ `  ...o.o.o.o... . .` ) ^ ~ 0 8 5 5 # $ @     UXUXUXUXUXUXUXUXUXUXUXUXUXUXUXUXUXUXUXUXUXUXUXUXUXUXUXUXUXUXUX",
"UXUXUXUXUXUXUXUXUXUXUXUXUXUXUXUXUXo.qXrXrXO. .` ^ ' `  .o.O.qXeXwXwXeXeXeXO.O..._ ^ 0 5 # $ @ @ @     UXUXUXUXUXUXUXUXUXUXUXUXUXUXUXUXUXUXUXUX0 ~ ` ..o.O.9XeXwXeXv.o. .` ^ / 9 8 5 5 6 # $ +   UXUXUXUXUXUXUXUXUXUXUXUXUXUXUXUXUXUXUXUXUXUXUXUXUXUXUXUXUXUXUXUX",
"UXUXUXUXUXUXUXUXUXUXUXUXUXUXUXUXUX^  .yXfXfXyXo.^ 8 0 ~ / ^ ^ ) ` ` ` ) ) ^ ^ ~ 0 8 6 # # $ @     . UXUXUXUXUXUXUXUXUXUXUXUXUXUXUXUXUXUXUXUXUX8 ~ ` o.qXeXyXfXhXfXdXwXo._ ^ 9 5 4 # # # $ @ @ UXUXUXUXUXUXUXUXUXUXUXUXUXUXUXUXUXUXUXUXUXUXUXUXUXUXUXUXUXUXUXUXUX",
"UXUXUXUXUXUXUXUXUXUXUXUXUXUXUXUXUX8 ) O.tXhXjXgXO.` 9 5 6 5 5 5 8 8 8 5 5 5 6 6 4 # # # $ @     UXUXUXUXUXUXUXUXUXUXUXUXUXUXUXUXUXUXUXUXUXUXUX8 0 ^  ...o.O.eXeXeXO.o. .` ^ ~ 8 6 # # $ @     UXUXUXUXUXUXUXUXUXUXUXUXUXUXUXUXUXUXUXUXUXUXUXUXUXUXUXUXUXUXUXUXUX",
"UXUXUXUXUXUXUXUXUXUXUXUXUXUXUXUXUX/ ^ _ O.gXCXCXhXrX_ 8 6 4 # # # # # $ $ @ @ @ @ @ @ @ @   . UXUXUXUXUXUXUXUXUXUXUXUXUXUXUXUXUXUXUXUXUXUXUXUX5 8 9 ) _  .X.X. . ._ _ ` ) ^ 9 8 6 # $ @     . UXUXUXUXUXUXUXUXUXUXUXUXUXUXUXUXUXUXUXUXUXUXUXUXUXUXUXUXUXUXUXUXUX",
"UXUXUXUXUXUXUXUXUXUXUXUXUXUXUXUXUXeXo._ ` O.tXkXCXjXyXo.^ 5 # $ @ @ @ @ @                   UXUXUXUXUXUXUXUXUXUXUXUXUXUXUXUXUXUXUXUXUXUXUXUXUX6 5 ~ _ ..O.qXwXwXeXO.X.` ^ 0 5 4 # $ $ @ @ UXUXUXUXUXUXUXUXUXUXUXUXUXUXUXUXUXUXUXUXUXUXUXUXUXUXUXUXUXUXUXUXUXUXUX",
"UXUXUXUXUXUXUXUXUXUXUXUXUXUXUXUXhXgXwXo. ._ ..wXhXVXhXzXO.` ~ 8 6 4 # # # $ @         . . UXUXUXUXUXUXUXUXUXUXUXUXUXUXUXUXUXUXUXUXUXUXUXUXUXUX# 5 9 ` ..O.eXyXyXwXO.X.` ~ 5 # $ @ @ @ @ UXUXUXUXUXUXUXUXUXUXUXUXUXUXUXUXUXUXUXUXUXUXUXUXUXUXUXUXUXUXUXUXUXUXUXUX",
"UXUXUXUXUXUXUXUXUXUXUXUXUXUXHXAXfXwXeXyXwX .~ ) o.rXgXfXgXyXeXo.` / 8 5 6 4 # $ $ @ @ UXUXUXUXUXUXUXUXUXUXUXUXUXUXUXUXUXUXUXUXUXUXUXUXUXUXUXUX# 4 5 ~ ^ `  .o.o.X._ ) / 0 5 6 # $ @     UXUXUXUXUXUXUXUXUXUXUXUXUXUXUXUXUXUXUXUXUXUXUXUXUXUXUXUXUXUXUXUXUXUXUXUX",
"UXUXUXUXUXUXUXUXUXUXUXUXUXUXDXZXyXX.+.gXfXo.9 0 / ` ..qXeXeXqXo._ / 8 5 4 # # # $ $ UXUXUXUXUXUXUXUXUXUXUXUXUXUXUXUXUXUXUXUXUXUXUXUXUXUXUXUXUXUX4 5 0 ^ `  .o.o._ ^ 9 8 5 6 4 # $ @   . UXUXUXUXUXUXUXUXUXUXUXUXUXUXUXUXUXUXUXUXUXUXUXUXUXUXUXUXUXUXUXUXUXUXUXUX",
"UXUXUXUXUXUXUXUXUXUXUXUXUXUXjXfX+./ _ tXhXwX_ 9 5 6 5 8 ~ ^ ^ ^ 9 8 6 # $ @ @ $ UXUXUXUXUXUXUXUXUXUXUXUXUXUXUXUXUXUXUXUXUXUXUXUXUXUXUXUXUXUXUXUXUX8 0 ^  .o.O.O. .~ 5 4 # # # # @ @   . UXUXUXUXUXUXUXUXUXUXUXUXUXUXUXUXUXUXUXUXUXUXUXUXUXUXUXUXUXUXUXUXUXUXUXUX",
"UXUXUXUXUXUXUXUXUXUXUXUXUXUXfXyX .0 ^ eXgXdXeX .8 # # # # 4 6 6 4 # $ @     @ UXUXUXUXUXUXUXUXUXUXUXUXUXUXUXUXUXUXUXUXUXUXUXUXUXUXUXUXUXUXUXUXUXUXUX6 8 ^ ` _ _ ) ~ 8 w $ $ $ $ @ @   . UXUXUXUXUXUXUXUXUXUXUXUXUXUXUXUXUXUXUXUXUXUXUXUXUXUXUXUXUXUXUXUXUXUXUXUX",
"UXUXUXUXUXUXUXUXUXUXUXUXUXUXrXeX .8 ~ X.wXgXgXO./ 6 # # # # # # $ @     . . UXUXUXUXUXUXUXUXUXUXUXUXUXUXUXUXUXUXUXUXUXUXUXUXUXUXUXUXUXUXUXUXUXUXUX@ $ 4 8 ~ ^ ^ ^ / 8 4 $ @ @ @ @ @   . UXUXUXUXUXUXUXUXUXUXUXUXUXUXUXUXUXUXUXUXUXUXUXUXUXUXUXUXUXUXUXUXUXUXUXUX",
"UXUXUXUXUXUXUXUXUXUXUXUX`  .O.O._ 0 0 ` o.yXgXqX^ 5 6 5 ~ ` ^ 8 6 # @   UXUXUXUXUXUXUXUXUXUXUXUXUXUXUXUXUXUXUXUXUXUXUXUXUXUXUXUXUXUXUXUXUXUXUXUXUX  @ 4 8 ^ X.o. .^ 8 4 # $ @ @       UXUXUXUXUXUXUXUXUXUXUXUXUXUXUXUXUXUXUXUXUXUXUXUXUXUXUXUXUXUXUXUXUXUXUXUXUX",
"UXUXUXUXUXUXUXUXUXUXUX^ ^ ` X.o.` 0 8 ~ ` 9XyX+.^ 0 ~ ^  .o. .Q 5 # $ UXUXUXUXUXUXUXUXUXUXUXUXUXUXUXUXUXUXUXUXUXUXUXUXUXUXUXUXUXUXUXUXUXUXUXUXUXUXUX$ 4 8 ^ X.O. .~ 5 4 # $ @     . UXUXUXUXUXUXUXUXUXUXUXUXUXUXUXUXUXUXUXUXUXUXUXUXUXUXUXUXUXUXUXUXUXUXUXUXUXUX",
"UXUXUXUXUXUXUXUXUXUX^ / ~ / ` _ ) 9 8 5 9  .O. .~ / X.O.o. ./ 5 # UXUXUXUXUXUXUXUXUXUXUXUXUXUXUXUXUXUXUXUXUXUXUXUXUXUXUXUXUXUXUXUXUXUXUXUXUXUXUXUXUXUXUX# 6 ~ ^ 9 5 # # # @     . . UXUXUXUXUXUXUXUXUXUXUXUXUXUXUXUXUXUXUXUXUXUXUXUXUXUXUXUXUXUXUXUXUXUXUXUXUXUX",
"UXUXUXUXUXUXUXUXUX9 9 8 5 8 9 ^ ^ ~ 8 6 5 ) X.` 0 ~ X.O.X.^ 8 # @ UXUXUXUXUXUXUXUXUXUXUXUXUXUXUXUXUXUXUXUXUXUXUXUXUXUXUXUXUXUXUXUXUXUXUXUXUXUXUXUXUXUXUX@ # 6 5 6 # # # $ @ . . . . UXUXUXUXUXUXUXUXUXUXUXUXUXUXUXUXUXUXUXUXUXUXUXUXUXUXUXUXUXUXUXUXUXUXUXUXUXUX",
"UXUXUXUXUXUXUXUXUX6 6 4 # 4 5 8 9 / 0 6 6 ~ ` ^ 8 8 ^ ` ^ 8 6 # @ UXUXUXUXUXUXUXUXUXUXUXUXUXUXUXUXUXUXUXUXUXUXUXUXUXUXUXUXUXUXUXUXUXUXUXUXUXUXUXUXUXUXUX# # # # # # # $ @     .     UXUXUXUXUXUXUXUXUXUXUXUXUXUXUXUXUXUXUXUXUXUXUXUXUXUXUXUXUXUXUXUXUXUXUXUXUXUX",
"UXUXUXUXUXUXUXUXUXUX# $ $ # # 6 8 0 8 4 # 5 0 8 6 5 9 / 0 5 4 # UXUXUXUXUXUXUXUXUXUXUXUXUXUXUXUXUXUXUXUXUXUXUXUXUXUXUXUXUXUXUXUXUXUXUXUXUXUXUXUXUXUXUX` ~ 0 8 5 6 6 4 # # $ $ @ @ # 5 ) o.yXhXZXUXUXUXUXUXUXUXUXUXUXUXUXUXUXUXUXUXUXUXUXUXUXUXUXUXUXUXUXUXUXUXUX",
"UXUXUXUXUXUXUXUXUX# $ $ @ @ $ # 4 5 6 # $ # 6 4 # 4 5 8 5 6 4 UXUXUXUXUXUXUXUXUXUXUXUXUXUXUXUXUXUXUXUXUXUXUXUXUXUXUXUXUXUXUXUXUXUXUXUXUXUXUXUXUXUXo... ._ ) ~ 8 8 5 5 6 4 # # # # 6 0 ^ ..eXdXhXkXUXUXUXUXUXUXUXUXUXUXUXUXUXUXUXUXUXUXUXUXUXUXUXUXUXUXUXUXUXUXUX",
"UXUXUXUXUXUXUXUX^ 8 # $ +     @ # # # $ @ # # # $ # w 4 # # # UXUXUXUXUXUXUXUXUXUXUXUXUXUXUXUXUXUXUXUXUXUXUXUXUXUXUXUXUXUXUXUXUXUXUXUXUXUXUXUXUXrXeXO..._ ^ ~ 0 8 5 5 6 4 # # # 4 5 0 ^ ` ..O.qXeXeXeXtXfXUXUXUXUXUXUXUXUXUXUXUXUXUXUXUXUXUXUXUXUXUXUXUXUXUXUXUX",
"UXUXUXUXUXUXUXX.` / 8 4 # @     @ # # $ $ # # # # # # # $ @ $ UXUXUXUXUXUXUXUXUXUXUXUXUXUXUXUXUXUXUXUXUXUXUXUXUXUXUXUXUXUXUXUXUXUXUXUXUXUXUXUXsX+XOXo.| ^ 9 8 5 5 6 4 4 # # # # 4 5 8 9 ~ ^ ^ ) ` X.o.qXuXuXUXUXUXUXUXUXUXUXUXUXUXUXUXUXUXUXUXUXUXUXUXUXUXUXUXUX",
"UXUXUXUXUXhXdXeX..` / 0 5 4 # @ $ # # # # 4 4 6 6 6 # # $ @ # 4 6 UXUXUXUXUXUXUXUXUXUXUXUXUXUXUXUXUXUXUXUXUXUXUXUXUXUXUXUXUXUXUXUXUXUXUXUX5X7X$XXX} / 8 5 4 # # # $ $ $ $ $ $ $ $ # # 6 5 5 5 8 8 ~ ^ ' ) } `.{.UXUXUXUXUXUXUXUXUXUXUXUXUXUXUXUXUXUXUXUXUXUXUXUX",
"UXUXUXUXhXfXtXeXo. .` ^ ~ 0 5 5 5 5 8 0 ~ / ^ ^ ) ^ 9 q 4 $ # 4 5 8 UXUXUXUXUXUXUXUXUXUXUXUXUXUXUXUXUXUXUXUXUXUXUXUXUXUXUXUXUXUXUXUXUXUXUX>X-X{.i.U 1 # @ @ % +       % %   +     @ @ $ $ # # # w 6 5 6 5 L f.(.[.UXUXUXUXUXUXUXUXUXUXUXUXUXUXUXUXUXUXUXUXUXUXUX",
"UXUXUXhXgXyXeXO.o.X. .` ) ^ / / / ^ )  ...O.qXeXwXqXo.` 0 4 # 4 5 8 ^ X.eXgXkXCXAXAXAXUXUXUXUXUXUXUXUXUXUXUXUXUXUXUXUXUXUXUXUXUXUXUXUXUXUX}.).u.q.j O                                   @ $ $ $ $ $ $ @ $ 2 v e.).|.$XUXUXUXUXUXUXUXUXUXUXUXUXUXUXUXUXUXUXUXUXUX",
"UXUXtXyXwXO.o.X. ._ ` ) ^ ^ ) ) ` `  .o.qXyXfXhXhXhXgXrXX./ 8 4 4 5 0 ) ..qXyXfXhXVXCXAXSXSXUXUXUXUXUXUXUXUXUXUXUXUXUXUXUXUXUXUXUXUXUXUXUXu.t.0.UXUXUXUXUXUXUXUXUXUXUXUXUXUXUXUXUXUXUXUXUX@ - u u - @ UXUXUXUX0.g.(.).UXUXUXUXUXUXUXUXUXUXUXUXUXUXUXUXUXUXUXUXUX",
"UXUX+.o.X. .` ) ^ / ~ 9 9 / ^ ) ` `  .o.eXdXkXZXCXCXZXhXuX ./ 5 # # 6 8 / ` X.O.wXdXhXZXFXAXDXDXUXUXUXUXUXUXUXUXUXUXUXUXUXUXUXUXUXUXUXUXUX9.9.UXUXUXUXUXUXUXUXUXUXUXUXUXUXUXUXUXUXUXUXUXUXUXUXl l UXUXUXUXUXUXUXe.e.e.UXUXUXUXUXUXUXUXUXUXUXUXUXUXUXUXUXUXUXUXUX",
"-XoXz.` ^ Q 8 8 5 5 5 5 5 8 0 ~ ^ ^ ` X.O.yXfXkXjXjXhXzX9X| / q w # # ; 5 8 ~ )  .O.wXdXfXhXjXCXAXUXUXUXUXUXUXUXUXUXUXUXUXUXUXUXUXUXUXUXUXUXUXUXUXUXUXUXUXUXUXUXUXUXUXUXUXUXUXUXUXUXUXUXUXUXUXUXUXUXUXUXUXUXUXUXUXUXUXUXUXUXUXUXUXUXUXUXUXUXUXUXUXUXUXUXUXUXUXUX",
"|._.E m 5 4 # # $ $ # # # 4 5 8 0 ~ ^ ` X.O.wXtXdXdXiX+XOXOX} ( P 1 $ @ $ # 5 8 ~ ^  .o.qXwXtXlXIXIXUXUXUXUXUXUXUXUXUXUXUXUXUXUXUXUXUXUXUXUXUXUXUXUXUXUXUXUXUXUXUXUXUXUXUXUXUXUXUXUXUXUXUXUXUXUXUXUXUXUXUXUXUXUXUXUXUXUXUXUXUXUXUXUXUXUXUXUXUXUXUXUXUXUXUXUXUXUX",
").g.U 1 @ @       @ $ $ $ # # 4 5 8 0 / ^ `  .o.O.OX@X%X;X2X2X;XXXL $ + @ $ # 4 5 8 9 / ) #.@..X%X;X7X5XUXUXUXUXUXUXUXUXUXUXUXUXUXUXUXUXUXUXUXUXUXUXUXUXUXUXUXUXUXUXUXUXUXUXUXUXUXUXUXUXUXUXUXUXUXUXUXUXUXUXUXUXUXUXUXUXUXUXUXUXUXUXUXUXUXUXUXUXUXUXUXUXUXUXUXUX",
"i.t.h O . . . . .   + @ @ @ @ $ # 4 5 8 0 9 / )  .c.oX-X<X5X6X>X'.L $ + @ $ # # # 4 6 5 0 ~ ( a.g.}.,X4X6XUXUXUXUXUXUXUXUXUXUXUXUXUXUXUXUXUXUXUXUXUXUXUXUXUXUXUXUXUXUXUXUXUXUXUXUXUXUXUXUXUXUXUXUXUXUXUXUXUXUXUXUXUXUXUXUXUXUXUXUXUXUXUXUXUXUXUXUXUXUXUXUXUXUXUX",
"u.q.j O . UXUXUXUX              @ $ # 4 6 5 5 0 / } XX$X1X6X>X|./.L # @ @ $ # # # # # 4 5 0 m U q.i.}.:X7X5XUXUXUXUXUXUXUXUXUXUXUXUXUXUXUXUXUXUXUXUXUXUXUXUXUXUXUXUXUXUXUXUXUXUXUXUXUXUXUXUXUXUXUXUXUXUXUXUXUXUXUXUXUXUXUXUXUXUXUXUXUXUXUXUXUXUXUXUXUXUXUXUXUXUX",
"9.c j O UXUXUXUXUXUXUXUXUX. . .     @ $ # # w 4 5 I f.(.}.$X{.i.K f $ % @ @ $ $ $ $ $ # # 4 7 j c 0.g.}.,X7X6XUXUXUXUXUXUXUXUXUXUXUXUXUXUXUXUXUXUXUXUXUXUXUXUXUXUXUXUXUXUXUXUXUXUXUXUXUXUXUXUXUXUXUXUXUXUXUXUXUXUXUXUXUXUXUXUXUXUXUXUXUXUXUXUXUXUXUXUXUXUXUXUXUX",
"l l UXUXUXUXUXUXUXUXUXUXUXUX. . . .   @ $ # # # # 2 v r.u.i.e.;.k : @       @ @ @ @ @ @ $ # ; u l ;.0.g. X:X>XUXUXUXUXUXUXUXUXUXUXUXUXUXUXUXUXUXUXUXUXUXUXUXUXUXUXUXUXUXUXUXUXUXUXUXUXUXUXUXUXUXUXUXUXUXUXUXUXUXUXUXUXUXUXUXUXUXUXUXUXUXUXUXUXUXUXUXUXUXUXUXUXUX",
"UXUXUXUXUXUXUXUXUXUXUXUXUXUXUXUXUXUXUXUXUXUXUXUXUXUXUXUX9.9.;.UXUXUXUXUXUXUXUXUXUXUXUXUXUXUXUXUXUXUXUXUXg.(.(.UXUXUXUXUXUXUXUXUXUXUXUXUXUXUXUXUXUXUXUXUXUXUXUXUXUXUXUXUXUXUXUXUXUXUXUXUXUXUXUXUXUXUXUXUXUXUXUXUXUXUXUXUXUXUXUXUXUXUXUXUXUXUXUXUXUXUXUXUXUXUXUXUX",
"UXUXUXUXUXUXUXUXUXUXUXUXUXUXUXUXUXUXUXUXUXUXUXUXUXUXUXUXl l l UXUXUXUXUXUXUXUXUXUXUXUXUXUXUXUXUXUXUXUXUXe.e.e.UXUXUXUXUXUXUXUXUXUXUXUXUXUXUXUXUXUXUXUXUXUXUXUXUXUXUXUXUXUXUXUXUXUXUXUXUXUXUXUXUXUXUXUXUXUXUXUXUXUXUXUXUXUXUXUXUXUXUXUXUXUXUXUXUXUXUXUXUXUXUXUXUX"
};
