/* XPM */
static const char *bos2a4[] = {
/* columns rows colors chars-per-pixel */
"128 128 249 2 ",
"   c #0D0D0D",
".  c #1C160E",
"X  c #141414",
"o  c #1A1513",
"O  c #1B1B1B",
"+  c #181916",
"@  c #0E1415",
"#  c #3A0A0A",
"$  c #2C1B0D",
"%  c #25180D",
"&  c #331C0D",
"*  c #231D1B",
"=  c #271B16",
"-  c #381716",
";  c #2C0A0A",
":  c #13270C",
">  c #1B2419",
",  c #1A3913",
"<  c #15300E",
"1  c #282419",
"2  c #342312",
"3  c #3C2B15",
"4  c #392716",
"5  c #22371A",
"6  c #30290E",
"7  c #1C1F20",
"8  c #1D2021",
"9  c #232323",
"0  c #2C2C2C",
"q  c #282827",
"w  c #372A28",
"e  c #2E3131",
"r  c #333333",
"t  c #3C3C3C",
"y  c #383837",
"u  c #34322D",
"i  c #201F20",
"p  c #4C0101",
"a  c #450807",
"s  c #550101",
"d  c #5A0404",
"f  c #461717",
"g  c #591919",
"h  c #4E180A",
"j  c #620101",
"k  c #6B0000",
"l  c #680C0C",
"z  c #730101",
"x  c #7B0404",
"c  c #681717",
"v  c #771717",
"b  c #46240B",
"n  c #572708",
"m  c #432B16",
"M  c #44321A",
"N  c #4B351B",
"B  c #4C371B",
"V  c #533A1E",
"C  c #58381B",
"Z  c #533011",
"A  c #662904",
"S  c #742C00",
"D  c #772C00",
"F  c #7B3302",
"G  c #773708",
"H  c #71370F",
"J  c #472827",
"K  c #483725",
"L  c #583C22",
"P  c #463B39",
"I  c #573938",
"U  c #562B2A",
"Y  c #6B302B",
"T  c #1E4316",
"R  c #234C19",
"E  c #244717",
"W  c #394515",
"Q  c #28551D",
"!  c #34551E",
"~  c #2B5D20",
"^  c #3B5B20",
"/  c #2E6222",
"(  c #326926",
")  c #37752B",
"_  c #49531A",
"`  c #744711",
"'  c #5B4224",
"]  c #584839",
"[  c #48433A",
"{  c #644425",
"}  c #6A4828",
"|  c #734D2B",
" . c #794E2B",
".. c #79512E",
"X. c #6F5534",
"o. c #696828",
"O. c #3C4141",
"+. c #444444",
"@. c #4B4B4B",
"#. c #494745",
"$. c #564A47",
"%. c #535353",
"&. c #5B5B5B",
"*. c #585858",
"=. c #4E5150",
"-. c #675749",
";. c #665959",
":. c #724E4A",
">. c #706354",
",. c #585865",
"<. c #5C6363",
"1. c #636363",
"2. c #6C6C6C",
"3. c #686867",
"4. c #6E7273",
"5. c #737373",
"6. c #7B7B7B",
"7. c #787778",
"8. c #746A69",
"9. c #3C3E40",
"0. c #8B0101",
"q. c #850505",
"w. c #940101",
"e. c #9A0404",
"r. c #8F1515",
"t. c #A40101",
"y. c #AB0101",
"u. c #AA0B0B",
"i. c #B30101",
"p. c #BC0101",
"a. c #B80A0A",
"s. c #AC1A1A",
"d. c #823C04",
"f. c #823E09",
"g. c #8D2E2E",
"h. c #AD2B2B",
"j. c #CB0101",
"k. c #C50404",
"l. c #D30101",
"z. c #DC0202",
"x. c #CA1717",
"c. c #E30101",
"v. c #EB0303",
"b. c #F70202",
"n. c #EB1616",
"m. c #D32E2E",
"M. c #E82727",
"N. c #8D4B0B",
"B. c #884307",
"V. c #95550D",
"C. c #874A16",
"Z. c #975812",
"A. c #8E5110",
"S. c #9D6416",
"D. c #966C1C",
"F. c #A46C19",
"G. c #A46817",
"H. c #AB751D",
"J. c #B07C1F",
"K. c #875934",
"L. c #8E5B2D",
"P. c #98643A",
"I. c #976C28",
"U. c #AB7826",
"Y. c #A87333",
"T. c #8D5050",
"R. c #B04E4E",
"E. c #92714E",
"W. c #A76D42",
"Q. c #B57548",
"!. c #A67242",
"~. c #867977",
"^. c #8E716C",
"/. c #AF6D6D",
"(. c #A25F60",
"). c #D55252",
"_. c #C5756C",
"`. c #3E8532",
"'. c #47963A",
"]. c #418934",
"[. c #52AE46",
"{. c #5CC150",
"}. c #948A34",
"|. c #B78826",
" X c #BC912B",
".X c #AE8E32",
"XX c #BBA437",
"oX c #C3982D",
"OX c #C49D31",
"+X c #C18F28",
"@X c #CBA939",
"#X c #D3B33E",
"$X c #D1AE3C",
"%X c #968A56",
"&X c #AF8F51",
"*X c #948B73",
"=X c #AA916E",
"-X c #BCA466",
";X c #D6BA44",
":X c #C5AF46",
">X c #C78153",
",X c #DCC449",
"<X c #DECD54",
"1X c #E2CC4D",
"2X c #E9D855",
"3X c #F1E65C",
"4X c #F4EC63",
"5X c #FDFB6A",
"6X c #F4F169",
"7X c #6161A0",
"8X c #2E2EB9",
"9X c #7D8282",
"0X c #848484",
"qX c #8B8C8C",
"wX c #878888",
"eX c #978A87",
"rX c #939393",
"tX c #9B9B9B",
"yX c #969999",
"uX c #92918F",
"iX c #A59997",
"pX c #AC9689",
"aX c #B0A595",
"sX c #9EA4A4",
"dX c #A3A3A3",
"fX c #ACACAC",
"gX c #A8A8A6",
"hX c #B3B3B3",
"jX c #BBBCBC",
"kX c #B7B9B9",
"lX c #B2AFAD",
"zX c #9B9BAB",
"xX c #C4B9B1",
"cX c #C28B8B",
"vX c #C5C1BD",
"bX c #BCC1C2",
"nX c #C3C3C3",
"mX c #CBCCCC",
"MX c #C6C7C7",
"NX c #D3D3D3",
"BX c #DBDBDB",
"VX c #CFD0D0",
"CX c #E4E4E4",
"ZX c #ECECEC",
"AX c #F0F0F0",
"SX c #DEE0E1",
"DX c #9494C4",
"FX c None",
"GX c black",
/* pixels */
"FXFXFXFXFXFXFXFXFXFXFXFXFXFXFXFXFXFXFXFXFXFXFXFXFXFXFXFXFXFXFXFXFXFXFXk k k z q.w.y.p.j.l.c.v.v.x.g.*.<.<.3.2.7.7.7.7.7.6.0XwXrXtXdXgXgXgXgXgXgXgXdXtXtXrX0XT.Y z z x 0.w.t.i.j.z.z.FXFXFXFXFXFXFXFXFXFXFXFXFXFXFXFXFXFXFXFXFXFXFXFXFXFXFXFXFXFXFXFXFXFXFXFXFXFX",
"FXFXFXFXFXFXFXFXFXFXFXFXFXFXFXFXFXFXFXFXFXFXFXFXFXFXFXFXFXFXFXFXFXFXFXs d j k z q.0.e.t.y.p.j.j.a.g.g.T.T.T.^.7.6.7.7.6.0XwXrXtXdXgXfXhXhXhXhXhXhXhXhXfXgXtX~.T.g.Y v v q.0.w.t.i.i.FXFXFXFXFXFXFXFXFXFXFXFXFXFXFXFXFXFXFXFXFXFXFXFXFXFXFXFXFXFXFXFXFXFXFXFXFXFX",
"FXFXFXFXFXFXFXFXFXFXFXFXFXFXFXFXFXFXFXFXFXFXFXFXFXFXFXFXFXFXFXFXFXp p p p p s s s d j k k z 0.e.y.a.x.n.n.x.R.^.9X9X6.0XwXrXtXfXhXhXjXnXMXmXNXNXNXNXNXmXmXnXhXiXeXeX^.:.Y d s j z q.w.y.k.z.c.FXFXFXFXFXFXFXFXFXFXFXFXFXFXFXFXFXFXFXFXFXFXFXFXFXFXFXFXFXFXFXFXFX",
"FXFXFXFXFXFXFXFXFXFXFXFXFXFXFXFXFXFXFXFXFXFXFXFXFXFXFXFXFXFXFXFX:.I U U U J f f # # f f f g c v r.t.p.l.v.v.m.R.(.^.~.wXrXtXgXhXjXjXnXMXNXBXBXCXCXCXCXCXBXBXVXnXkXgXyX~.;.I U J g c z 0.e.i.p.j.FXFXFXFXFXFXFXFXFXFXFXFXFXFXFXFXFXFXFXFXFXFXFXFXFXFXFXFXFXFXFXFX",
"FXFXFXFXFXFXFXFXFXFXFXFXFXFXFXFXFXFXFXFXFXFXFXFXFX#.@.&.2.0XqXyXuX0X~.5.3.*.P u 0 0 u r P #.$.$.I c x e.p.l.v.v.m.R.~.wXyXdXfXjXjXjXnXMXNXBXCXZXZXZXZXZXZXCXBXNXMXjXfXtX0X5.1.*.#.J f s j z 0.i.j.z.FXFXFXFXFXFXFXFXFXFXFXFXFXFXFXFXFXFXFXFXFXFXFXFXFXFXFXFXFXFX",
"FXFXFXFXFXFXFXFXFXFXFXFXFXFXFXFXFXFXFXFXFXFXFX1.1.1.5.0XrXtXfXhXhXfXgXtXqX6.3.*.@.#.+.O.O.+.@.%.$.I Y v q.t.j.c.n.m.R./.eXdXhXjXnXxXnXMXNXBXCXZXAXAXAXAXZXZXCXBXNXMXhXgXyXwX7.1.%.#.J f h d k 0.t.p.l.FXFXFXFXFXFXFXFXFXFXFXFXFXFXFXFXFXFXFXFXFXFXFXFXFXFXFXFXFX",
"FXFXFXFXFXFXFXFXFXFXFXFXFXFXFXFXFXFXFXt +.@.*.2.6.qXtXfXjXmXNXNXNXmXnXhXfXtXwX6.4.1.*.#.t t +.@.*.&.;.I c z e.k.c.v.n.m./.iXfXjXjXjXnXMXNXBXCXZXZXAXZXAXAXZXZXCXBXmXjXfXtXqX6.2.&.%.#.P J a p d z w.k.j.s.Y #.FXFXFXFXFXFXFXFXFXFXFXFXFXFXFXFXFXFXFXFXFXFXFXFXFX",
"FXFXFXFXFXFXFXFXFXFXFXFXFXFXFXFXFX+.#.%.*.1.5.0XyXfXjXmXNXBXCXCXCXBXNXMXhXfXtXqX0X7.1.*.#.+.+.#.@.*.&.*.$.Y v w.i.l.v.n.m.)._.lXjXjXjXMXmXNXBXCXZXZXZXZXZXZXCXCXBXmXjXhXdXyX0X7.3.&.%.@.P w - a s z e.i.u.s.g.Y I FXFXFXFXFXFXFXFXFXFXFXFXFXFXFXFXFXFXFXFXFXFXFX",
"FXFXFXFXFXFXFXFXFXFXFXFXFXFXFXFX+.#.%.1.5.6.wXtXfXjXmXBXCXZXZXZXZXCXNXmXjXfXdXyXqX0X5.1.*.#.+.t +.=.*.1.1.;.I c q.i.l.v.b.n.).cXkXbXjXMXmXNXBXCXCXZXZXZXZXZXCXCXBXmXjXhXgXtXqX6.5.1.&.*.#.t u f h d z 0.y.j.k.g.$.@.FXFXFXFXFXFXFXFXFXFXFXFXFXFXFXFXFXFXFXFXFXFX",
"FXFXFXFXFXFXFXFXFXFXFXFXFXFX0 y +.@.&.2.6.wXyXdXfXjXmXBXCXZXAXZXCXBXmXnXjXfXgXtXrXwX7.2.&.%.#.t 9.#.%.&.1.1.;.:.g.s.p.z.b.n.).pXhXkXjXMXmXNXBXBXCXZXZXZXZXZXCXBXBXmXnXhXfXdXrX0X7.2.1.*.=.#.+.#.I U g k w.p.x.g.8.<.&.#.FXFXFXFXFXFXFXFXFXFXFXFXFXFXFXFXFXFXFXFX",
"FXFXFXFXFXFXFXFXFXFXFXFXFX0 r y #.%.1.2.6.wXrXtXfXhXnXmXBXCXCXCXBXmXnXjXhXfXgXtXyXwX6.2.1.*.#.t t t #.=.*.1.4.7.T.g.e.p.c.n.m._.aXlXjXMXmXNXNXBXCXCXZXZXZXCXCXBXBXNXMXjXhXgXyX0X7.5.2.1.*.@.#.=.%.I f d z t.a.h.(.^.;.#.+.FXFXFXFXFXFXFXFXFXFXFXFXFXFXFXFXFXFXFX",
"FXFXFXFXFXFXFXFXFXFXFX9 q r y +.#.%.*.1.2.7.0XqXrXtXdXfXjXnXMXMXnXjXhXhXfXfXgXtXrX0X7.2.1.*.#.t y y y #.*.1.5.7.8.Y x e.j.v.n.M.)._.lXbXMXmXNXBXBXCXCXCXCXCXCXBXBXNXmXnXhXfXtXwX6.7.2.1.&.%.#.+.t w - p k 0.y.x.x.h.g.$.O.y r FXFXFXFXFXFXFXFXFXFXFXFXFXFXFXFXFX",
"FXFXFXFXFXFXFXFXFXFXFXq q r y +.#.#.@.%.*.1.2.7.7.6.0XqXtXdXgXfXfXfXfXfXgXgXdXtXqX6.5.2.&.*.#.t y r r t @.&.2.7.8.:.v r.a.z.b.b.n.).aXkXbXmXNXNXBXBXBXBXBXBXBXBXBXNXmXnXhXfXtXwX6.7.2.1.&.%.#.t r w - f l q.t.j.c.x.g.$.O.r 0 q FXFXFXFXFXFXFXFXFXFXFXFXFXFXFXFX",
"FXFXFXFXFXFXFXFXFXFXFX0 0 r y y y y t t +.#.%.*.1.2.2.7.7.0XqXyXtXdXdXtXtXyXyXqX0X7.2.1.&.*.#.t y r r y #.*.1.2.5.8.8.T.s.j.c.b.n.).iXfXkXnXmXNXNXNXNXNXNXNXNXNXNXmXMXjXhXgXyX0X7.2.1.&.*.%.#.t y t #.$.Y v w.p.z.x.g.#.t e q q FXFXFXFXFXFXFXFXFXFXFXFXFXFXFXFX",
"FXFXFXFXFXFXFXFXFXFXq q 0 r y y +.+.#.#.#.#.#.#.=.*.&.1.1.2.7.6.0XwXwXwX0X0X0X6.7.2.1.1.&.*.#.t y r r y +.#.*.1.4.7.7.T.s.p.l.c.x.R.eXdXlXjXMXmXmXNXNXNXNXNXNXNXmXmXxXhXfXsXrX0X7.2.1.*.%.@.#.t y +.%.*.I v 0.i.j.x.T.;.*.O.y 0 FXFXFXFXFXFXFXFXFXFXFXFXFXFXFXFX",
"FXFXFXFXFXFXFXFXO O i q q r t #.*.1.2.2.1.&.%.#.#.#.@.%.*.&.1.2.2.2.2.2.2.2.2.2.1.&.*.*.*.%.#.t y r r r y +.@.*.1.2.8.T.s.p.j.l.x.R.eXsXfXhXjXMXmXmXmXmXNXNXNXmXmXnXjXhXgXtXqX0X7.2.1.*.%.#.#.t y 9.#.$.Y v 0.t.p.h.(.eX9X1.#.r q O FXFXFXFXFXFXFXFXFXFXFXFXFXFX",
"FXFXFXFXFXFXFXFXO O 9 0 y #.&.4.0XyXtXtXyXwX7.2.*.%.@.@.@.%.*.*.*.*.*.*.*.*.&.&.*.*.%.%.=.#.+.y y r r y y +.#.%.&.3.8.T.s.i.p.k.s.R.eXtXgXfXhXjXnXnXnXMXmXmXmXmXMXjXhXfXdXyXwX6.5.1.&.%.#.+.t y y y t P U q.w.t.y.h.(.eX9X1.#.r 9 O FXFXFXFXFXFXFXFXFXFXFXFXFXFX",
"FXFXFXFXFXFXFXFXO O q y @.1.6.yXfXnXmXmXMXjXfXyX6.1.*.@.#.#.#.#.#.@.@.@.@.%.*.*.%.@.#.#.#.+.t y y y y y +.#.#.%.<.4.7.T.h.i.i.y.s.T.eXtXdXfXfXhXjXjXjXjXjXnXnXnXjXhXfXdXtXqX0X6.5.2.1.*.@.+.y r r e e u c e.y.t.w.r.T.8.1.@.y q 9 O FXFXFXFXFXFXFXFXFXFXFXFXFXFX",
"FXFXFXFXFXFXFXFXO 9 0 t @.&.5.0XtXfXjXjXnXnXjXhXdXqX7.3.*.@.+.t t O.+.+.#.#.@.%.@.#.#.+.O.t t t t t t t +.%.1.6.rXsXgX/.h.i.t.w.r.T.eXyXtXtXdXfXhXhXhXhXjXjXjXjXjXhXfXtXyXqXqXrXyXyXyXqX7.&.#.y 0 q q 0 c e.i.e.x l U P P u w 1 1 FXFXFXFXFXFXFXFXFXFXFXFXFXFXFX",
"FXFXFXFXFXFXFXFXq q 0 y +.#.@.*.2.6.wXrXtXfXjXjXjXhXtX0X5.&.#.t y y y t +.#.#.#.#.#.#.+.t t +.#.+.+.+.#.@.1.0XgXjXMXxXcXh.i.e.q.v T.eXtXrXqXyXdXfXfXhXhXhXhXhXhXhXfXdXtXrXuXyXgXhXjXjXfXrX7.*.O.0 q q w c e.y.w.k s h & 2 & $ $ FXFXFXFXFXFXFXFXFXFXFXFXFXFXFXFX",
"FXFXFXFXFXFXFXFXO O i 9 q q q e y +.#.*.1.7.wXtXfXfXfXtXqX7.1.=.+.y y y t t +.+.+.#.#.9.t t #.@.@.#.#.&.5.0XqXrXrXwX7.T.s.t.0.z v ^.gXfXyX0XwXyXtXgXfXfXfXfXfXfXfXdXtXyXyXtXtXdXtXrX6.2.<.&.=.O.e J v r.e.e.0.z s a h m m 2 & & FXFXFXFXFXFXFXFXFXFXFXFXFXFXFXFX",
"FXFXFXFXFXFXFXFXX X X X o o o o o o O 9 r +.*.2.0XyXtXtXyXwX7.1.%.+.y y y y y y t t O.t t #.%.*.*.#.@.2.rXtX0X1.%.P J g x 0.z k Y ^.xXjXtX0X0XqXtXtXdXgXgXgXgXgXdXtXrXqXtXdXtXwX5.*.P w J P P P J c u.k.i.0.k s p h C } L M 4 2 FXFXFXFXFXFXFXFXFXFXFXFXFXFXFXFX",
"FXFXFXFXFXFXFXFXFXFX* 2 2 2 2 2 % % . o O 9 0 t @.1.5.6.0X0X7.4.1.*.#.t r 0 0 0 0 0 r y +.@.&.1.&.#.#.2.yXtX4.t w g l x z k d s Y ^.hXjXtX0X0XwXrXyXtXtXtXtXtXtXtXrXwXwXyXtX0X<.+.J g l q.r.r.r.r.q.e.w.x j p # # m } K. .L M 3 FXFXFXFXFXFXFXFXFXFXFXFXFXFXFXFX",
"FXFXFXFXFXFXFXFXFXFXFXM M N K N m 2 $ = * O O * q y +.%.1.2.2.2.2.1.*.#.t y r 0 0 0 y +.%.&.1.1.*.+.t 1.wXqX&.q ; j 0.q.k s p a U ^.gXfXyX0X0X0XwXqXrXrXrXrXrXrXrXwX0X0X0X0X2.O.* # k w.t.y.y.y.t.0.z j s a a & & M | K.K.} V N FXFXFXFXFXFXFXFXFXFXFXFXFXFXFXFX",
"FXFXFXFXFXFXFXFXFX .{ N N {  . .{ B M M M 3 2 = * O q e y #.%.*.1.2.2.1.&.%.#.+.+.#.%.1.2.5.2.*.#.e 0 #.2.5.=.q $ p k k s p f J $.7.tXtXwX7.7.7.6.0X0X0X0XwXwXwX0X6.7.5.2.3.%.e o ; p j k z z k k j s p h Z Z m 4 M } K.K. .{ V m 2 FXFXFXFXFXFXFXFXFXFXFXFXFXFX",
"FXFXFXFXFXFXFXFX.. .{ L L  .P.P...' ' } | { N 4 2 = O * 1 q y +.*.1.2.5.5.2.1.&.&.1.2.5.7.5.&.#.y q q t *.&.@.y w f a p a f J $.1.6.rXqX6.5.2.5.7.7.7.6.6.0X0X0X0X7.5.2.1.*.#.e * % ; # # a a # # # # # b C ' N 4 m L  .K.K...{ m 2 FXFXFXFXFXFXFXFXFXFXFXFXFXFX",
"FXFXFXFXFXFXFXFXK...} { { K.Q.Q.K.} | P.P.K.{ B M 3 4 1 % O 1 q y @.&.2.7.6.7.7.7.7.7.5.2.*.+.r 0 0 r t #.%.%.%.+.u = = = w #.2.6.0X0X6.7.2.2.2.2.4.7.7.7.7.6.6.6.7.5.2.1.*.@.t r q = = = = * = = * * = J L { N 2 2 M L  .P.P. .V 3 FXFXFXFXFXFXFXFXFXFXFXFXFXFX",
"FXFXFXFXFXFXFXFX.. . .| ..P.Q.Q.P.| ..W.Q.W. .' ' { L m $ . o O q r +.*.1.2.5.5.5.2.1.&.@.t 0 9 9 0 y +.#.@.*.*.%.O.r 0 e y %.2.7.7.5.2.2.1.1.;.1.1.2.5.5.5.5.7.7.7.2.2.1.*.@.#.+.y 0 q q q q q q 9 9 9 w L L V M 3 3 M { K.P.K.' N FXFXFXFXFXFXFXFXFXFXFXFXFXFX",
"FXFXFXFXFXFXFXFX} |  .K.P.W.Q.Q.K. .K.Q.>X!...{  .K...L 4 $ % . O * q r t #.#.#.#.#.t y 0 q O O i 0 y +.#.@.@.%.=.@.#.#.#.#.%.*.&.1.&.&.*.%.*.*.*.1.1.1.1.1.2.2.2.2.1.1.*.%.@.@.#.#.+.t y y r 0 q 9 i * 1 3 N L ' V m 2 V ..K.K.} { FXFXFXFXFXFXFXFXFXFXFXFXFXFX",
"FXFXFXFXFXFXFX{ { {  .P.P.W.P.P.K...P.Q.Q.W. .} K.P.P.} m 2 2 2 = . O O q q 0 r 0 0 q 9 O O O O q r t +.#.#.#.+.+.+.+.#.#.#.#.#.#.#.#.#.#.#.@.%.*.*.*.*.*.*.&.&.&.&.*.*.@.#.#.#.#.+.t y r 0 q q 9 O O O = 1 3 L { { M 2 M {  ... .} C FXFXFXFXFXFXFXFXFXFXFXFXFX",
"FXFXFXFXFXFX} { ' ' | P.P.P.K.....K.P.Q.Q.P.} { K.W.P.| N M N B 3 $ . o o O O O O O O O X X O q 0 y y t +.+.y r y y +.#.#.#.#.#.+.+.t O.+.#.#.#.@.@.@.%.%.%.%.%.%.@.#.#.+.y y y y y y r 0 q q 9 O O X X . 1 4 B { L M 3 3 B ' } | } B 2 $ FXFXFXFXFXFXFXFXFXFXFX",
"FXFXFXFXFX} { ' V V } P.P.K. .| K.P.W.W.P.K.} } K.P.P.} M M ' { V 4 % . o o o o o X X X X X O 9 q 0 r r 0 q 9 9 y 1.0XrXyXyXrXqXwX0X0X2.#.y r y t +.#.#.#.#.#.#.#.+.+.t y e r y t %.1.2.2.1.@.r O X X X = 2 M B V V M m 3 4 3 B C C m & % FXFXFXFXFXFXFXFXFXFXFX",
"FXFXFXFXFX{ ' L B B { K.P.K.} | P.Q.Q.P.K. .| | K.P.K.L m M { | L m 2 % % . . . o X X X X X X O O 9 q q 0 e q r *.tXmXCXCXCXBXBXNXNXmXdX1.y q 0 r y y y y y y y y y y y q q 0 t %.7.tXfXgXyX7.#.9 X X + 1 M V B B K K K N 3 3 K ' ' K 3 4 FXFXFXFXFXFXFXFXFXFXFX",
"FXFXFXFXFXV V B M M ' ..K. .' } K.W.W.K.| } |  .....} N 4 m ' { V 4 $ $ $ $ % o X X X X X X X X X X 9 #.2.wXrXyXfXmXBXCXBXBXNXNXNXNXmXhXyX7.%.y q q 0 r r y y y r r e q O O r *.6.yXdXgXtXqX7.*.y q 1 1 2 M L [ [ =.&.3.8.5.~.eXpXpXeX*X0XqXyXFXFXFXFXFXFXFXFXFX",
"FXFXFXFXFXB N M M M L | ..} V ' K.P.P. .{ { |  .} ' B 3 2 3 V L M $ % $ 2 $ . X X O O O O O 9 q q q t 2.fXNXCXCXCXBXNXmXMXjXjXjXjXjXjXjXjXfX7.t O O 9 q q 0 0 0 0 q q 9 O O t 5.tXdXtXqX0X5.1.*.#.t 4 6 2 M K ] -.>.^.~.eXdXhXbXmXmXMXjXfXiXeX/.FXFXFXFXFXFXFXFX",
"FXFXFXFXFXM M M m M V } } ' N V  .P.K.{ V L } | ' M 4 2 2 3 N B 3 $ . . % . X X X O 9 q r +.*.2.7.0XrXfXjXmXNXmXmXMXjXjXhXhXhXhXhXhXhXhXjXfX6.t O X O O O 9 9 9 9 O O 9 r +.&.6.rXrXwX7.2.*.@.#.+.r 1 1 1 u I Y h.h.m.m.R.(.7.wXyXtXuX9X^.R.m.m.n.b.FXFXFXFXFXFX",
"FXFXFXFXFX3 m m 3 3 N L L V m N { ..| V M V { { B 2 $ 2 3 m M M 4 $ % o X X X X O 9 q y #.&.7.rXgXhXjXjXhXhXfXfXgXgXdXdXdXtXdXdXdXdXtXdXdXyX5.+.q q r y t #.#.+.t y 0 r +.*.2.7.6.6.5.1.*.#.t y r q = % 9 y I r.k.v.b.b.x.g.&.4.0X0X5.;.:.s.l.c.c.c.v.FXFXFXFXFX",
"FXFXFX$ $ 2 3 4 4 2 3 m m 3 2 3 B C V m 4 m V V M 2 2 m V B 3 2 2 2 $ % X X X O i q r t #.*.2.7.0XqXrXyXyXrXqXwXwXwXwXwX0X0X0X0X0X0X0X7.2.1.*.#.@.1.7.qXdXfXfXgXyX7.&.@.@.%.*.1.1.1.*.%.#.y r 0 q 1 % % > q J r.z.b.b.b.m.(.qXsXkXkXsX0XT.g.t.i.k.l.z.v.b.FXFXFX",
"FXFXFX1 4 K ] ] ] ] $.-.-.-.-.-.-.>.-.] [ [ ] ' M 2 2 M V B 4 $ $ 2 2 * X X + O 9 q r y +.@.*.&.1.1.1.2.5.5.2.2.2.2.5.5.2.2.2.2.2.2.1.*.@.#.@.*.2.0XdXjXNXCXCXBXMXdX9X1.*.@.@.%.%.%.#.+.y r q q 9 * = % O 8 f r.c.b.b.v.m./.gXbXVXmXjXtX^.T.v q.t.i.j.c.v.b.FXFX",
"FXFXFXy #.;.7.qXuXtXgXlXjXvXMXMXvXhXgXuX~.5.3.*.P 2 & 3 M m 2 $ $ FXFXO O + X X O 9 q 0 y y t +.#.#.#.#.@.=.@.@.@.%.*.*.*.*.*.*.*.%.@.#.#.@.*.1.7.qXdXkXmXBXBXNXjXgXwX4.&.#.#.#.#.#.+.t y 0 q 9 O O 1 1 > O - r.c.b.b.z.m./.iXhXbXnXhXtX~.;.I c x w.i.l.c.b.b.b.",
"FXFX@.*.1.7.wXrXrXtXdXfXkXnXMXmXMXbXkXfXsXrX[.2.$.P w w K 3 2 & $ FXFXO O O X X O O 9 q q q 0 r r r r y y y y y t t +.+.+.+.+.+.t y y t #.%.1.2.7X7X7XDXDXnXMXjXlXpX/.T.:.#.O.9.t t y y 0 q 9 O O O O O 8 8 - r.z.b.z.k.h.(.qXyXsXdXtXqX7.&.#.J g l 0.i.l.v.b.b.",
"r t *.5.6.6.5.2.1.1.1.2.7.7.0X0XqXyXtXfXfXtXqX7.1.*.=.@.+.u 4 & $ FXFXO O O X X X O O O O 9 q q q q q q q 0 0 r r r r r r r r 0 q q q r #.*.1.2.4.8X8X8X7XzXgXsXiX_.M.x.g.I y r r r r 0 q 9 O O 9 O O X O 8 J r.l.c.p.e.g.:.5.7.7.7.7.5.1.=.t r 0 f l w.i.l.v.b.",
"@.*.1.7.7.3.*.*.>.>.%X%X=X=X%X%X=X=X=XeXrXyXtXyX0X4.1.1.&.$.K & FXFXFXFXO O X X X X X X X O O 9 9 q q q q q q q q q q q q q 9 9 9 q 0 y #.%.&.1.,.7X8X8X7X7X0X9X^.R.x.k.r.J e 0 q q q q O O O O O O + o - g r.u.j.j.t.x c I *.%.=.@.@.#.+.y 0 q 9 = f z e.k.z.c.",
"5.5.2.2.&.@.+.X.}.:X<X3X6X3X2X<X,X;X&XE.8.wXfXhXtX0X7.7.7.7.FXFXFXFXFXFXFXFXX X X X X X X X O O O 9 9 9 9 9 9 9 q q 9 9 O O O O 9 q y t #.#.%.*.*.*.,.,.<.1.1.<.;.Y r.q.c w 0 9 O O O O O X X X X X + = c u.l.l.k.y.0.j f J t t y r e q q 9 O O O = # d q.y.k.l.",
"5.2.&.@.#.] X.}.:X1X3X5X5X5X3X2X1X,X@X.X%X=XlXjXgXuX0X6.6.6.FXFXFXFXFXFXFXFXFXFXX X X X X X X X X + O O O X X X X X O X X X X X O 9 q r y y y t t [ [ [ +.#.+.+.P U g g f q 9 O X X X X X X X X X @ @ = l p.c.l.y.q.l f - w y y t y y 0 q 8 O + X o # p k w.y.p.",
"1.&.#.y K o..X@X,X2X4X6X5X4X2X2X,X;X@XOXXX-XaXgXgXtXqX6.5.2.FXFXFXFXFXFXFXFXFXFXFXX X X X X X X O O O O O O O O 9 q q q O O X X O 9 q r y y y y t t t [ +.#.#.+.+.+.P P r 0 q O O O O O O X X X X X O - v i.l.i.0.l f w e y +.@.*.*.%.#.t 0 9 + X o ; p j x w.e.",
"#.@.] X.L.I.|.OX#X1X2X4X4X3X2X,X$XOX X|.U.Y.!.E.pXgXtX6.1.*.FXFXFXFXFXFXFXFXFX  X O O 9 q q 0 r y y t +.#.%.&.1.5.0X0X7.&.#.y r y #.&.2.2.7.7.0X0XwXuXrXtXtXyXrXwXwX0X7.1.%.#.t y t #.#.+.y q 8 X - l q.y.i.y.w.k d J +.=.<.2.0XrXrXwX7.1.#.y 9 O o ; p s k x 0.",
"e y } D.H.H.H.|.oX$X;X1X1X,X;X@X XJ.F.S.Z.N.B.L.=XlXdX7.%.#.FXFXFXFXFXFXFXFX    X O q 0 r t #.@.%.*.&.2.7.0XyXgXjXmXNXjXyX5.*.#.@.2.0XyXtXgXfXjXMXmXNXBXCXCXBXNXMXjXhXgXqX7.1.*.@.*.2.2.1.@.t q = d t.j.k.t.0.k d f I *.4.0XtXhXnXnXhXtX0X1.#.r 8 o ; # s j k z ",
"8 q V ` Z.Z.V.Z.F.J.|.+XoX|.J.F.S.V.N.N.N.d.F C.E.aXtX2.#.X.}.;XFXFXFXFXFXFX  X X O q 0 y t #.*.*.1.2.7.0XqXdXhXnXNXBXjXyX5.*.#.#.&.7.wXyXdXfXhXjXmXNXBXCXCXBXNXmXjXhXdXqX7.1.@.#.@.&.1.*.#.P g x e.i.p.t.x j h J P %.2.0XdXhXmXNXNXnXfXrX5.*.t q * ; a p s j k ",
"O 1 m H f.B.` C.C.L.I.Y..XY.Y.Y.P.L.L.C.C.G D H E.iXrX<.[ X.}.$X#XFXFXFXFXFXX X O O q 0 y t #.*.*.1.2.7.0XrXdXhXnXNXNXhXqX2.@.t y @.1.5.6.wXqXyXtXgXhXjXnXMXnXhXfXgXtXwX7.1.*.+.y t @.%.+.y J v t.y.t.w.z d a w y #.&.5.qXgXjXMXmXmXjXgXwX2.*.O.0 9 - a p s s s ",
"8 1 b A G H ' ] >.^.*XpXaXaXxXxXaXpX*X^.>. .H H E.eXwX&.y ' I.|.oXFXFXFXFXFXX X O 9 q 0 y t #.%.*.&.2.7.0XrXdXhXnXmXmXhXwX1.#.r 0 y #.@.*.*.1.1.2.7.6.0XwXqXwX0X6.7.5.1.*.#.t r 0 r t +.y e J l 0.w.q.k d - w u t #.*.2.6.rXdXfXfXfXtX0X5.&.#.y 0 * - a p p s s ",
"8 1 4 n Z K +.%.2.0XtXhXMXNXSXSXBXmXkXyX6.-.L Y >.eX0X>.] { Z.F.F.FXFXFXFXFXX X O 9 q 0 r y +.#.%.*.1.2.7.0XrXdXfXjXjXdX7.*.t q 9 q 0 r r y y y t +.#.@.@.%.%.@.#.#.#.t y 0 q 9 9 q e r e q - g z z d a - q 0 y +.#.*.1.5.0XqXyXtXrX0X2.&.@.t r q * - a p p p p ",
"O O 1 1 w y #.*.5.qXfXnXNXCXZXZXZXSXMXdX0X;.P P &.6.*XE.I.S.A.N.N.FXFXFXFXFXX X O O q q 0 r y t #.#.%.*.1.2.7.0XwXyXyX0X1.#.r O X X O O O O O O O O O 9 9 9 9 9 8 O O O O O O X X O q q q q - h d d # = 9 0 y t +.#.%.&.2.7.0XqXqX0X7.1.%.+.r q 9 * ; a p p FXFX",
"+ O O 9 0 y #.&.7.qXfXnXNXCXCXCXCXBXnXtX6.&.+.9.*.5.^.!.F.Z.N.d.F FXFXFXFXFX  X X O O 9 q q q 0 r r y t t #.@.*.*.1.1.*.#.y q O O O 9 q r y y t +.#.#.#.#.#.#.+.t y y 0 q 9 O O X O O 9 9 9 = - # # = O q r y t +.#.@.*.1.2.7.7.7.5.1.*.#.y 0 q O O $ # p FXFXFX",
"X X O i q y #.*.2.0XtXhXnXVXNXNXmXjXfXqX5.*.+.+.*.2.8.K.C.B.F S S FXFXFXFXFX      X X O O O O 9 9 9 9 q q 0 0 r r y y r 0 q q 9 q r t @.1.5.6.0XqXtXgXfXfXfXgXtXwX6.5.1.%.+.r q O O 9 9 9 O O o o o o O q r y t +.#.#.@.*.1.1.1.1.*.@.+.y r q 9 O O o FXFXFXFXFX",
"X X X O 9 r +.%.1.5.0XtXfXhXjXjXhXdXqX7.1.@.t t =.1.>. .G S n Z L -.FXFXFXFXFX    X X O 9 q 0 y +.#.%.&.1.2.2.2.2.2.1.&.*.@.+.y y y #.*.2.7.wXtXgXhXMXNXBXBXNXnXhXtXwX7.&.#.y r 0 y #.#.t 0 9 + X X X O 9 q r r y y t +.@.*.1.1.*.%.+.y 0 q 9 O O X X FXFXFXFXFX",
"FXFXFXX O q y #.%.&.2.7.wXyXtXtXrX0X7.1.%.+.y y +.%.-.Y H n 4 w +.&.2.FXFXFXFXFXFXO O 9 q y @.1.7.qXtXfXjXMXmXNXmXMXjXhXtXwX5.*.@.#.#.@.*.1.7.0XtXfXjXmXBXBXBXmXhXdXwX5.*.+.y y #.&.7.0X2.#.0 O X X X X O 9 q q q 0 y 9.%.1.2.2.1.*.+.e q 9 O O X X X FXFXFXFXFX",
"FXFXFXX X 9 q y t #.%.&.1.2.5.5.2.1.*.@.+.y q q y +.[ K b & = q #.1.7.FXFXFXFXFXq 9 9 q y @.2.0XtXfXjXmXBXCXZXZXZXCXBXNXmXjXdXwX5.&.@.#.#.@.*.2.7.wXtXfXjXnXjXhXtXwX7.&.#.y t %.2.0XdXgX0X*.y q X X X X O 9 q 0 r t #.*.5.0XrXqX0X2.*.+.r q O O X FXFXFXFXFXFXFX",
"FXFXFXX X O 9 q 0 y t +.#.#.#.#.#.+.+.y y q 9 O 0 y y 0 1 O O q #.1.7.FXFXFXy y r q q r +.*.7.yXgXhXnXNXBXCXZXZXZXCXCXBXBXNXnXfXyX7.*.#.t t O.#.*.1.5.6.qXtXyXwX7.1.*.#.y y #.1.wXdXkXhXqX1.t q O X X X O 9 q r t @.&.5.0XtXfXdXrX6.1.@.y 0 q O FXFXFXFXFXFXFXFX",
"FXFXFXFXX X O O 9 q q 0 0 r r r r 0 0 q q O X O q e r e 0 q q q y #.%.FXFXFX#.+.y 0 q r t %.2.0XyXdXfXjXMXNXBXBXBXBXNXNXmXMXjXhXdXwX5.&.#.t y y y #.%.&.1.2.1.&.*.#.y y r t *.7.tXfXfXdX6.%.y 9 X X X O i q 0 r t #.%.&.2.7.7.5.2.*.#.t 0 q O O FXFXFXFXFXFXFXFX",
"FXFXFXFXFXFXX X X O O O 9 9 9 9 9 9 O O O O + O 9 q e y t y y r r 0 0 FXFXFX*.@.+.r q 0 y +.%.1.5.6.wXyXsXfXhXjXjXhXhXfXfXfXgXdXtXrX0X5.*.#.y 0 q r y +.+.+.+.t y 0 q q r +.&.7.qXrXqX6.&.t q O X X X O 9 q e e r y t [ +.#.+.[ t r e q 9 > > > FXFXFXFXFXFXFXFX",
"FXFXFXFXFXFXFXX X X X X O O O O O + X X X O q q 9 O q y #.@.@.#.y q O FXFXFX&.*.#.y 0 q q q r t #.@.*.1.3.2.5.7.7.7.7.6.6.0X0X0X0X0X6.5.1.%.+.r q q q q 0 r 0 0 q 9 O q r #.%.*.&.*.%.#.y 9 O X X X + O > > > , 5 5 5 5 5 5 5 5 5 5 5 5 5 5 5 5 FXFXFXFXFXFXFXFX",
"FXFXFXFXFXFXFXFXX X X X X X O O O X X O O q 0 r q 9 q y #.%.%.@.t q O FXFXFX1.*.@.t 0 q O O O 9 q q e y y t 9.+.+.#.#.@.%.*.*.&.1.1.2.2.1.*.#.r q O O O O 9 9 9 i O O 9 0 y t y r 0 q 8 O + X X X + > > , , T T , , < : : : : : < , , E Q ~ / ( FXFXFXFXFXFXFXFX",
"FXFXFXFXFXFXFXFXFXFXX X X X O O O O 9 q 0 0 q 0 r y y y y t #.#.+.FXFXFXFXFX2.1.*.#.r q O X X X + O O O O i i i 8 8 9 9 q 0 r y t #.@.%.@.#.t 0 9 O X X X X X X X + O O 8 9 9 i O + + + + : : : : < , E ~ / ( ( / Q T < : : : : < , E Q ( `.'.'.FXFXFXFXFXFXFXFX",
"FXFXFXFXFXFXFXFXFXFXFXX X X O O O O q q r r r r y t t y y y y y y FXFXFXFXFX5.2.1.%.t q O X @ X o % $ $ $ $ $ $ $ $ $ & 2 2 1 * 9 0 r y y y r q O O X X X X X X X o = 2 2 2 2 $ $ $ $ $ 1 , , , , T R / ) ].'.'.].) Q T < : : < < T R ( `.'.[.[.FXFXFXFXFXFXFXFX",
"FXFXFXFXFXFXFXFXFXFXFXFXFXFXFXFXX X O O 9 0 t +.t y y y t y q 9 9 FXFXFXFXFX7.5.2.&.@.y O X @ X $ b n A A A A H G G G G G H b = + O 8 9 q q q 8 O + X X X + + X o & n A H G H A A A A n M E R R R Q / ) ].[.[.[.[.'.) R T , < , , R / ) '.[.[.{.FXFXFXFXFXFXFXFX",
"FXFXFXFXFXFXFXFXFXFXFXFXFXFXFXFXFXX X X O q y t y y y y r 0 9 O FXFXFXFXFXFX5.5.2.2.&.+.q * = & b A S D F d.B.N.V.V.V.Z.Z.A.` C M M B N M m 2 * + X X o = & 2 2 b n S F d.d.d.F S S A Z _ ! Q W 3 W ! ( ].[.[.[.[.'.) ~ R , , , T R / ) '.[.[.[.FXFXFXFXFXFXFXFX",
"FXFXFXFXFXFXFXFXFXFXFXFXFXFXFXFXFXFXFXX X O 9 0 y t y q O + FXFXFXFXFXFXFXFX1.1.2.5.2.*.+.u Z A A S S F d.B.N.V.Z.F.H.H.H.H.F.F.D.F.D.S.A.H Z $ X @ X = b A S G G G f.f.F F S S S n 6 , E R W b h h 3 ! ) `.'.'.'.].) / R , , , , R ~ ) `.'.[.[.FXFXFXFXFXFXFXFX",
"FXFXFXFXFXFXFXFXFXFXFXFXFXFXFXFXFXFXFXFXX X O q y t y q X FXFXFXFXFXFXFXFXFX%.*.1.5.7.2.&.$.L S S S S F f.N.A.Z.G.H.J.|.|.|. XoXOXOXoX|.H.Z.` Z b & & b A F d.d.d.d.d.F F S S S S b < < , E W ` C.` _ Q ~ ) ) `.`.) ) / Q E , , T R ~ ( ) ) `.].FXFXFXFXFXFXFXFX",
"FXFXFXFXFXFXFXFXFXFXFXFXFXFXFXFXFXFXFXFXFXFXFXFXFXFXFXFXFXFXFXFXFXFXFXFXFXFX+.#.*.2.6.6.7.>.| G S S S F f.B.N.Z.G.F.J.|. XOX@X#X;X;X;X@X XJ.S.N.G D S S G f.d.F S S S S S S S FXFXFX: : < , _ }.XX}.o.R T ~ ( ) ) ) ( / Q R T T T R Q / ( ( ( ( FXFXFXFXFXFXFXFX",
"FXFXFXFXFXFXFXFXFXFXFXFXFXFXFXFXFXFXFXFXFXFXFXFXFXFXFXFXFXFXFXFXFXFXFXFXFXFXy t %.2.6.wXwX~.K.G F S S S F f.N.Z.G.F.J. XOX#X;X,X1X1X1X,X$XoX|.F.Z.B.F S F F F S S S S S S S FXFXFXFX: : : < _ }.XX}._ , , R / ( ) ) ( / Q R E E R R Q / / Q Q Q FXFXFXFXFXFXFXFX",
"FXFXFXFXFXFXFXFXFXFXFXFXFXFXFXFXFXFXFXFXFXFXFXFXFXFXFXFXFXFXFXFXFXFXFXFXFXFXq r #.1.7.qXrX*XE.C.d.F S S S F B.V.S.F.J. X@X;X,X2X2X2X2X2X1X;X@X XH.V.F S S S S S S S S S FXFXFXFXFXFX: : : < W o.|.}.o.E E R Q / ( ( ( / Q R E R R Q ~ / / Q R R FXFXFXFXFXFXFXFX",
"FXFXFXFXFXFXFXFXFXFXFXFXFXFXFXFXFXFXFXFXFXFXFXFXFXFXFXFXFXFXFXFXFXFXFXFXFXFXO q y %.2.0XyXeXE.A.B.F S S S S d.N.Z.G.J.|.OX$X,X2X3X4X4X4X4X3X1X#X XF.N.F S S S S FXFXFXFXFXFXFXFXFXFXFXFX: < W o.|. X.X}.o.^ R Q ~ / ~ Q Q R E R R Q ~ / / ~ FXFXFXFXFXFXFXFXFXFX",
"FXFXFXFXFXFXFXFXFXFXFXFXFXFXFXFXFXFXFXFXFXFXFXFXFXFXFXFXFXFXFXFXFXFXFXFXFXFXO O 0 +.&.7.rXeX%XP.Z.f.S S S S F B.A.S.H.|. X@X#X1X2X4X5X5X5X5X3X1X$X|.V.d.F S S FXFXFXFXFXFXFXFXFXFXFXFXFXFX< 6 ` F.oX;X,X}.^ T T R R R R R E E R R Q Q ~ / FXFXFXFXFXFXFXFXFXFXFX",
"FXFXFXFXFXFXFXFXFXFXFXFXFXFXFXFXFXFXFXFXFXFXFXFXFXFXFXFXFXFXFXFXFXFXFXFXFXFXFXFX0 y @.2.0XtXaXpX%XL.f.S S S F B.N.V.G.J.|.OX$X;X2X4X5X5X5X5X3X1X$X|.S.N.B.FXFXFXFXFXFXFXFXFXFXFXFXFXFXFXFX: 6 Z A.J.$X;X}._ , , T R R R R E E R R Q Q Q Q FXFXFXFXFXFXFXFXFXFXFX",
"FXFXFXFXFXFXFXFXFXFXFXFXFXFXFXFXFXFXFXFXFXFXFXFXFXFXFXFXFXFXFXFXFXFXFXFXFXFXFXFXFX0 y %.7.rXfXhXpX!.A.d.F F F f.B.N.Z.F.|.oX@X$X,X2X6X5X5X5X3X1X$X XF.Z.V.FXFXFXFXFXFXFXFXFXFXFXFXFXFXFXFX: 6 n G S. X@X}.o.! E E T R R R T T E R R R R R FXFXFXFXFXFXFXFXFXFXFX",
"FXFXFXFXFXFXFXFXFXFXFXFXFXFXFXFXFXFXFXFXFXFXFXFXFXFXFXFXFXFXFXFXFXFXFXFXFXFXFXFXFX* q 9.*.7.yXgXpX&XF.V.B.F F F d.N.Z.F.J.|. XOX#X1X2X4X5X5X3X1X#XoXJ.F.V.N.B.FXFXFXFXFXFXFXFXFXFXFXFXFXFXFXFXA S N.F.|. X.X}.o.E < , T T T T T T T T , , FXFXFXFXFXFXFXFXFXFXFX",
"FXFXFXFXFXFXFXFXFXFXFXFXFXFXFXFXFXFXFXFXFXFXFXFXFXFXFXFXFXFXFXFXFXFXFXFXFXFXFXFXFXX O 0 #.<.6.rXpX=X&XY.Z.B.F S F f.N.Z.F.H.|. XOX#X,X2X3X3X2X1X;XOX|.F.V.B.B.FXFXFXFXFXFXFXFXFXFXFXFXFXFXFXFXFXS f.V.F.|.@XXX}._ _ _ _ _ W W W W W 5 , < FXFXFXFXFXFXFXFXFXFXFX",
"FXFXFXFXFXFXFXFXFXFXFXFXFXFXFXFXFXFXFXFXFXFXFXFXFXFXFXFXFXFXFXFXFXFXFXFXFXFXFXFXFXX O 9 r #.1.7.uXiXaX=XI.N.d.S S S G B.V.G.H.U.|.oX@X#X;X,X,X,X#XOX|.F.V.N.B.FXFXFXFXFXFXFXFXFXFXFXFXFXFXFXFXFXFXFXB.A.S.J.|.|..X}.U.D.Z.` ` ` ` ` ` FXFXFXFXFXFXFXFXFXFXFXFXFX",
"FXFXFXFXFXFXFXFXFXFXFXFXFXFXFXFXFXFXFXFXFXFXFXFXFXFXFXFXFXFXFXFXFXFXFXFXFXFXFXFXFXO 9 9 q r #.&.7.rXdXpX=X!.L.N.f.F F F B.N.V.S.F.H.|. XoX@X@X@X@X XU.S.N.d.F FXFXFXFXFXFXFXFXFXFXFXFXFXFXFXFXFXFXFXFXB.A.G.J. XoXoX+XJ.G.V.N.B.B.N.FXFXFXFXFXFXFXFXFXFXFXFXFXFX",
"FXFXFXFXFXFXFXFXFXFXFXFXFXFXFXFXFXFXFXFXFXFXFXFXFXFXFXFXFXFXFXFXFXFXFXFXFXFXFXFXFXy r q 9 q e +.*.5.wXtXdXaX&XY.G.A.B.F G G d.B.N.V.S.F.U.J.|.|.J.H.G.V.f.F S FXFXFXFXFXFXFXFXFXFXFXFXFXFXFXFXFXFXFXFXFXFXFXFXFXFXFXFXFXFXFXFXFXFXFXFXFXFXFXFXFXFXFXFXFXFXFXFXFX",
"FXFXFXFXFXFXFXFXFXFXFXFXFXFXFXFXFXFXFXFXFXFXFXFXFXFXFXFXFXFXFXFXFXFXFXFXFXFXFXFXFX#.#.y 0 q q r t *.2.0XyXiXpX=X&XY.Z.N.d.F F F F f.B.N.V.Z.S.S.Z.V.N.f.F S S FXFXFXFXFXFXFXFXFXFXFXFXFXFXFXFXFXFXFXFXFXFXFXFXFXFXFXFXFXFXFXFXFXFXFXFXFXFXFXFXFXFXFXFXFXFXFXFXFX",
"FXFXFXFXFXFXFXFXFXFXFXFXFXFXFXFXFXFXFXFXFXFXFXFXFXFXFXFXFXFXFXFXFXFXFXFXFXFXFXFXFX*.*.@.#.t 0 q 0 t %.1.7.wXtXgXaX&XU.F.Z.C.G F S S S F f.B.B.B.B.F F S S S S FXFXFXFXFXFXFXFXFXFXFXFXFXFXFXFXFXFXFXFXFXFXFXFXFXFXFXFXFXFXFXFXFXFXFXFXFXFXFXFXFXFXFXFXFXFXFXFXFX",
"FXFXFXFXFXFXFXFXFXFXFXFXFXFXFXFXFXFXFXFXFXFXFXFXFXFXFXFXFXFXFXFXFXFXFXFXFXFXFXFXFX*.&.1.1.*.t q q r +.*.2.6.rXsXgXaX-X-X=X=XW.C.d.F F F D D D F S S S S S S H X.FXFXFXFXFXFXFXFXFXFXFXFXFXFXFXFXFXFXFXFXFXFXFXFXFXFXFXFXFXFXFXFXFXFXFXFXFXFXFXFXFXFXFXFXFXFXFXFX",
"FXFXFXFXFXFXFXFXFXFXFXFXFXFXFXFXFXFXFXFXFXFXFXFXFXFXFXFXFXFXFXFXFXFXFXFXFXFXFXFXFX%.*.2.7.2.#.0 q 0 y @.1.7.0XrXdXlXxXMXmXxX=XY.Z.A.C.C.C.H H H H H H G G H } -.1.3.FXFXFXFXFXFXFXFXFXFXFXFXFXFXFXFXFXFXFXFXFXFXFXFXFXFXFXFXFXFXFXFXFXFXFXFXFXFXFXFXFXFXFXFXFXFX",
"FXFXFXFXFXFXFXFXFXFXFXFXFXFXFXFXFXFXFXFXFXFXFXFXFXFXFXFXFXFXFXFXFXFXFXFXFXFXFXFXFX#.@.&.2.1.#.r q 0 y #.&.2.7.0XyXgXhXjXjXhXaX=X=X=X=XpXpXpX=X=X^.^.^.E.>.:.-.$.@.@.FXFXFXFXFXFXFXFXFXFXFXFXFXFXFXFXFXFXFXFXFXFXFXFXFXFXFXFXFXFXFXFXFXFXFXFXFXFXFXFXFXFXFXFXFXFX",
"FXFXFXFXFXFXFXFXFXFXFXFXFXFXFXFXFXFXFXFXFXFXFXFXFXFXFXFXFXFXFXFXFXFXFXFXFXFXFXFXFXy t #.*.%.+.r 0 q r t %.1.5.6.wXtXdXdXtXtXtXdXfXhXjXnXnXnXjXlXgXtXqX*X5.1.%.+.y r FXFXFXFXFXFXFXFXFXFXFXFXFXFXFXFXFXFXFXFXFXFXFXFXFXFXFXFXFXFXFXFXFXFXFXFXFXFXFXFXFXFXFXFXFXFX",
"FXFXFXFXFXFXFXFXFXFXFXFXFXFXFXFXFXFXFXFXFXFXFXFXFXFXFXFXFXFXFXFXFXFXFXFXFXFXFXFXFXq 0 y t t y 0 q 9 q 0 t %.1.7.0XuXrXqX0X6.0XwXrXyXtXtXyXrXwX6.5.2.1.*.@.+.r q 9 O FXFXFXFXFXFXFXFXFXFXFXFXFXFXFXFXFXFXFXFXFXFXFXFXFXFXFXFXFXFXFXFXFXFXFXFXFXFXFXFXFXFXFXFXFXFX",
"FXFXFXFXFXFXFXFXFXFXFXFXFXFXFXFXFXFXFXFXFXFXFXFXFXFXFXFXFXFXFXFXFXFXFXFXFXFXFXFXFXO 9 q 0 r y y y q q q 0 y @.1.2.7.7.5.2.1.1.1.2.2.2.2.1.&.*.%.@.@.#.#.#.#.t r 0 0 FXFXFXFXFXFXFXFXFXFXFXFXFXFXFXFXFXFXFXFXFXFXFXFXFXFXFXFXFXFXFXFXFXFXFXFXFXFXFXFXFXFXFXFXFXFX",
"FXFXFXFXFXFXFXFXFXFXFXFXFXFXFXFXFXFXFXFXFXFXFXFXFXFXFXFXFXFXFXFXFXFXFXFXFXFXFXFXFXX O 9 0 t #.*.%.#.t r q q 0 y +.#.@.@.#.+.t y t t 9.t t t +.@.*.&.1.2.7.6.7.2.&.@.+.y FXFXFXFXFXFXFXFXFXFXFXFXFXFXFXFXFXFXFXFXFXFXFXFXFXFXFXFXFXFXFXFXFXFXFXFXFXFXFXFXFXFXFXFX",
"FXFXFXFXFXFXFXFXFXFXFXFXFXFXFXFXFXFXFXFXFXFXFXFXFXFXFXFXFXFXFXFXFXFXFXFXFXFXFXFXFXO O q r t #.@.@.+.y q O + O O 9 q 0 0 0 0 0 0 0 r y y y +.@.&.2.6.qXtXfXhXhXdXqX5.*.#.t FXFXFXFXFXFXFXFXFXFXFXFXFXFXFXFXFXFXFXFXFXFXFXFXFXFXFXFXFXFXFXFXFXFXFXFXFXFXFXFXFXFXFX",
"FXFXFXFXFXFXFXFXFXFXFXFXFXFXFXFXFXFXFXFXFXFXFXFXFXFXFXFXFXFXFXFXFXFXFXFXFXFXFXFXFX9 q q 0 0 0 q q q 9 O X X X X X X O O O 9 0 y +.#.#.@.*.1.5.0XrXgXjXmXBXBXBXNXjXyX5.*.+.y 0 FXFXFXFXFXFXFXFXFXFXFXFXFXFXFXFXFXFXFXFXFXFXFXFXFXFXFXFXFXFXFXFXFXFXFXFXFXFXFXFXFX",
"FXFXFXFXFXFXFXFXFXFXFXFXFXFXFXFXFXFXFXFXFXFXFXFXFXFXFXFXFXFXFXFXFXFXFXFXFXFXFXFXFX9 9 9 q 9 9 9 q 0 r y y y 0 q 9 O O O O 9 r +.%.*.1.4.6.wXyXdXfXjXmXNXCXCXCXNXjXtX7.*.#.y r FXFXFXFXFXFXFXFXFXFXFXFXFXFXFXFXFXFXFXFXFXFXFXFXFXFXFXFXFXFXFXFXFXFXFXFXFXFXFXFXFX",
"FXFXFXFXFXFXFXFXFXFXFXFXFXFXFXFXFXFXFXFXFXFXFXFXFXFXFXFXFXFXFXFXFXFXFXFXFXFXFXFXFXX X X X O 9 0 y #.*.1.2.1.*.+.y 0 q 9 9 q y @.1.5.0XrXtXfXfXhXhXhXjXbXmXNXmXjXfXrX7.&.#.9.y FXFXFXFXFXFXFXFXFXFXFXFXFXFXFXFXFXFXFXFXFXFXFXFXFXFXFXFXFXFXFXFXFXFXFXFXFXFXFXFXFX",
"FXFXFXFXFXFXFXFXFXFXFXFXFXFXFXFXFXFXFXFXFXFXFXFXFXFXFXFXFXFXFXFXFXFXFXFXFXFXFXFXFXX X X O 9 q y t #.@.*.1.&.%.+.r q q 9 q r +.*.2.0XuXtXtXtXtXyXrXrXrXtXgXhXhXhXfXtXwX7.2.&.*.%.FXFXFXFXFXFXFXFXFXFXFXFXFXFXFXFXFXFXFXFXFXFXFXFXFXFXFXFXFXFXFXFXFXFXFXFXFXFXFXFX",
"FXFXFXFXFXFXFXFXFXFXFXFXFXFXFXFXFXFXFXFXFXFXFXFXFXFXFXFXFXFXFXFXFXFXFXFXFXFXFXFXFXX X O 9 q r y y y y +.@.@.+.y 0 q O 9 q y #.1.7.0XrXrXwX6.7.2.2.1.2.7.wXtXgXhXhXhXfXdXyX0X5.&.@.#.FXFXFXFXFXFXFXFXFXFXFXFXFXFXFXFXFXFXFXFXFXFXFXFXFXFXFXFXFXFXFXFXFXFXFXFXFXFX",
"FXFXFXFXFXFXFXFXFXFXFXFXFXFXFXFXFXFXFXFXFXFXFXFXFXFXFXFXFXFXFXFXFXFXFXFXFXFXFXFXFXFXX O O 9 q r t #.*.1.2.2.1.*.#.r q 9 q y #.<.2.7.7.7.2.1.&.1.1.2.7.0XyXfXjXMXmXmXMXjXhXdX0X2.*.%.FXFXFXFXFXFXFXFXFXFXFXFXFXFXFXFXFXFXFXFXFXFXFXFXFXFXFXFXFXFXFXFXFXFXFXFXFXFX",
"FXFXFXFXFXFXFXFXFXFXFXFXFXFXFXFXFXFXFXFXFXFXFXFXFXFXFXFXFXFXFXFXFXFXFXFXFXFXFXFXFXFXFXFXX O O q t *.2.6.0X0X6.2.*.t q q q r #.*.1.1.1.*.%.@.*.1.5.6.wXtXfXhXnXmXNXNXVXMXjXfXrX7.&.*.FXFXFXFXFXFXFXFXFXFXFXFXFXFXFXFXFXFXFXFXFXFXFXFXFXFXFXFXFXFXFXFXFXFXFXFXFXFX",
"FXFXFXFXFXFXFXFXFXFXFXFXFXFXFXFXFXFXFXFXFXFXFXFXFXFXFXFXFXFXFXFXFXFXFXFXFXFXFXFXFXFXFXFXO 9 q r y +.@.*.*.*.*.@.O.0 9 9 q 0 t #.%.@.#.@.%.*.1.5.6.0XwXrXtXdXfXfXhXhXhXfXdXrX0X2.*.#.t 0 FXFXFXFXFXFXFXFXFXFXFXFXFXFXFXFXFXFXFXFXFXFXFXFXFXFXFXFXFXFXFXFXFXFXFXFX",
"FXFXFXFXFXFXFXFXFXFXFXFXFXFXFXFXFXFXFXFXFXFXFXFXFXFXFXFXFXFXFXFXFXFXFXFXFXFXFXFXFXFXFXFXq q 0 r y y y t #.#.#.#.t r q 9 9 q r y t y y #.%.1.2.7.7.6.6.6.0XwXqXyXtXdXgXdXyXwX6.2.&.#.y r 0 FXFXFXFXFXFXFXFXFXFXFXFXFXFXFXFXFXFXFXFXFXFXFXFXFXFXFXFXFXFXFXFXFXFXFX",
"FXFXFXFXFXFXFXFXFXFXFXFXFXFXFXFXFXFXFXFXFXFXFXFXFXFXFXFXFXFXFXFXFXFXFXFXFXFXFXFXFXFXFXFXO O O q 0 t @.&.2.6.0X0X7.*.t 0 q 9 9 q q 0 r t @.*.&.*.*.&.1.2.5.7.0XyXdXfXjXjXhXfXtX0X5.*.#.y y FXFXFXFXFXFXFXFXFXFXFXFXFXFXFXFXFXFXFXFXFXFXFXFXFXFXFXFXFXFXFXFXFXFXFX",
"FXFXFXFXFXFXFXFXFXFXFXFXFXFXFXFXFXFXFXFXFXFXFXFXFXFXFXFXFXFXFXFXFXFXFXFXFXFXFXFXFXFXFXFXX X X O 0 +.%.1.5.0XqXqX6.&.t q 9 O X O O 9 q y #.@.#.+.+.#.*.3.5.0XqXtXgXhXjXxXjXhXdXqX7.1.#.y y FXFXFXFXFXFXFXFXFXFXFXFXFXFXFXFXFXFXFXFXFXFXFXFXFXFXFXFXFXFXFXFXFXFXFX",
"FXFXFXFXFXFXFXFXFXFXFXFXFXFXFXFXFXFXFXFXFXFXFXFXFXFXFXFXFXFXFXFXFXFXFXFXFXFXFXFXFXFXFXFXX X O 9 0 y t 9.t 9.#.#.+.0 i O X X X X + O q 0 r y r 0 y @.1.7.qXtXdXdXdXgXfXfXdXtXqX6.2.*.+.r 0 FXFXFXFXFXFXFXFXFXFXFXFXFXFXFXFXFXFXFXFXFXFXFXFXFXFXFXFXFXFXFXFXFXFXFX",
"FXFXFXFXFXFXFXFXFXFXFXFXFXFXFXFXFXFXFXFXFXFXFXFXFXFXFXFXFXFXFXFXFXFXFXFXFXFXFXFXFXFXFXFXX X O 9 q q 0 r y t #.@.#.y q O + X X X X O O 9 q q q 0 y %.2.*XwXrXrXqXwXqXrXyXyXrXwX0X5.*.+.r 0 FXFXFXFXFXFXFXFXFXFXFXFXFXFXFXFXFXFXFXFXFXFXFXFXFXFXFXFXFXFXFXFXFXFXFX",
"FXFXFXFXFXFXFXFXFXFXFXFXFXFXFXFXFXFXFXFXFXFXFXFXFXFXFXFXFXFXFXFXFXFXFXFXFXFXFXFXFXFXFXFXFXFXX X O O q t *.2.0XqX0X2.%.y 9 X   FXFXX X + O 9 q y #.&.5.7.5.2.1.1.1.2.6.wXyXtXtXrX0X2.@.y y FXFXFXFXFXFXFXFXFXFXFXFXFXFXFXFXFXFXFXFXFXFXFXFXFXFXFXFXFXFXFXFXFXFXFX",
"FXFXFXFXFXFXFXFXFXFXFXFXFXFXFXFXFXFXFXFXFXFXFXFXFXFXFXFXFXFXFXFXFXFXFXFXFXFXFXFXFXFXFXFXFXFXX X X O q #.1.0XyXtXrX7.*.t q X   FXFXX X X X O 0 t @.*.1.1.&.*.*.&.2.7.0XyXgXfXfXgXrX7.*.+.y FXFXFXFXFXFXFXFXFXFXFXFXFXFXFXFXFXFXFXFXFXFXFXFXFXFXFXFXFXFXFXFXFXFXFX",
"FXFXFXFXFXFXFXFXFXFXFXFXFXFXFXFXFXFXFXFXFXFXFXFXFXFXFXFXFXFXFXFXFXFXFXFXFXFXFXFXFXFXFXFXFXFXX X O q y @.1.5.6.0X7.1.#.y 9 X   FXFXX X X X O 0 t #.@.@.=.@.%.&.2.0XqXtXfXhXjXhXfXtX7.*.+.t FXFXFXFXFXFXFXFXFXFXFXFXFXFXFXFXFXFXFXFXFXFXFXFXFXFXFXFXFXFXFXFXFXFXFX",
"FXFXFXFXFXFXFXFXFXFXFXFXFXFXFXFXFXFXFXFXFXFXFXFXFXFXFXFXFXFXFXFXFXFXFXFXFXFXFXFXFXFXFXFXFXFX  X O 9 0 y #.=.*.*.%.+.y q O X FXFXFXX X X X O q r y t +.#.%.*.2.7.0XqXqXrXtXtXyXqX6.1.#.y y FXFXFXFXFXFXFXFXFXFXFXFXFXFXFXFXFXFXFXFXFXFXFXFXFXFXFXFXFXFXFXFXFXFXFX",
"FXFXFXFXFXFXFXFXFXFXFXFXFXFXFXFXFXFXFXFXFXFXFXFXFXFXFXFXFXFXFXFXFXFXFXFXFXFXFXFXFXFXFXFXFXFXX X X O O 9 q q e r r q 9 O FXFXFXFXFXX X X + O i q q r y #.*.1.5.7.6.7.5.5.7.6.7.2.&.#.y r 0 FXFXFXFXFXFXFXFXFXFXFXFXFXFXFXFXFXFXFXFXFXFXFXFXFXFXFXFXFXFXFXFXFXFXFX",
"FXFXFXFXFXFXFXFXFXFXFXFXFXFXFXFXFXFXFXFXFXFXFXFXFXFXFXFXFXFXFXFXFXFXFXFXFXFXFXFXFXFXFXFXFX#.y q 9 O O O O i q 0 r 0 0 0 FXFXFXFXFXFXFXX X X O O q 0 y #.*.1.1.&.*.*.*.1.6.yXyX0X2.%.t r 0 FXFXFXFXFXFXFXFXFXFXFXFXFXFXFXFXFXFXFXFXFXFXFXFXFXFXFXFXFXFXFXFXFXFXFX",
"FXFXFXFXFXFXFXFXFXFXFXFXFXFXFXFXFXFXFXFXFXFXFXFXFXFXFXFXFXFXFXFXFXFXFXFXFXFXFXFXFXFXFX*.*.%.#.t r q O O O 9 0 y +.#.#.#.FXFXFXFXFXFXFXFXX X X O 9 0 t #.@.%.#.y r y #.1.yXjXjXgX0X2.@.y y FXFXFXFXFXFXFXFXFXFXFXFXFXFXFXFXFXFXFXFXFXFXFXFXFXFXFXFXFXFXFXFXFXFXFX",
"FXFXFXFXFXFXFXFXFXFXFXFXFXFXFXFXFXFXFXFXFXFXFXFXFXFXFXFXFXFXFXFXFXFXFXFXFXFXFXFXFXFX#.@.%.%.@.+.y q O O O q t *.1.2.4.4.FXFXFXFXFXFXFXFXX X X O q r t +.O.y 0 q q y %.7.gXmXNXnXfX0X1.#.+.FXFXFXFXFXFXFXFXFXFXFXFXFXFXFXFXFXFXFXFXFXFXFXFXFXFXFXFXFXFXFXFXFXFXFX",
"FXFXFXFXFXFXFXFXFXFXFXFXFXFXFXFXFXFXFXFXFXFXFXFXFXFXFXFXFXFXFXFXFXFXFXFXFXFXFXFXFXt t +.#.#.#.t r q O O 9 r #.1.5.~.*X*XFXFXFXFXFXFXFXFXX X O O q r y y 0 q 9 O q t <.0XgXMXmXnXfXqX1.@.#.FXFXFXFXFXFXFXFXFXFXFXFXFXFXFXFXFXFXFXFXFXFXFXFXFXFXFXFXFXFXFXFXFXFXFX",
"FXFXFXFXFXFXFXFXFXFXFXFXFXFXFXFXFXFXFXFXFXFXFXFXFXFXFXFXFXFXFXFXFXFXFXFXOX.XX.#.r 0 q 0 r r r 0 q 9 O O 9 0 +.*.>.E.P.Y..XOXFXFXFXFXFXFXFXFXO O O 9 q q 9 O O 9 0 #.2.0XyXtXtXyXwX2.%.+.y FXFXFXFXFXFXFXFXFXFXFXFXFXFXFXFXFXFXFXFXFXFXFXFXFXFXFXFXFXFXFXFXFXFXFX",
"FXFXFXFXFXFXFXFXFXFXFXFXFXFXFXFXFXFXFXFXFXFXFXFXFXFXFXFXFXFXFXFXFXFXFX|.|.I.X.P e 8 O O 8 9 9 O O O O O O q r #.] | A.G.J. X XFXFXFXFXFXFXFXFXO O O O O O O 9 q y @.1.5.5.2.2.1.&.=.+.y r FXFXFXFXFXFXFXFXFXFXFXFXFXFXFXFXFXFXFXFXFXFXFXFXFXFXFXFXFXFXFXFXFXFXFX",
"FXFXFXFXFXFXFXFXFXFXFXFXFXFXFXFXFXFXFXFXFXFXFXFXFXFXFXFXFXFXFXFXFXZ.Z.A.B.H K 0 9 O X X X + X X X X X X X O 9 0 K Z G N.Z.F.F.FXFXFXFXFXFXFXFXX X X X X X O q r t #.#.#.+.t y t t t y y y FXFXFXFXFXFXFXFXFXFXFXFXFXFXFXFXFXFXFXFXFXFXFXFXFXFXFXFXFXFXFXFXFXFXFX",
"FXFXFXFXFXFXFXFXFXFXFXFXFXFXFXFXFXFXFXFXFXFXFXFXFXFXFXFXFXFXFXFXFXN.N.d.S n 3 q i + o % $ $ % X X X X X X X O O 2 n S d.B.N.N.FXFXFXFXFXFXFXFX  X O O 9 9 9 q y y y y r r y t #.%.*.%.%.%.FXFXFXFXFXFXFXFXFXFXFXFXFXFXFXFXFXFXFXFXFXFXFXFXFXFXFXFXFXFXFXFXFXFXFX",
"FXFXFXFXFXFXFXFXFXFXFXFXFXFXFXFXFXFXFXFXFXFXFXFXFXFXFXFXFXFXFXFXFXF F F FXFXFXFXFXFXFXn A A n FXFXFXFXFXFXFXFXFXFXFXFXFXF F F FXFXFXFXFXFXFXFXFXFXy t t y y y r r q q e +.*.2.0XrXrXwX0X0XFXFXFXFXFXFXFXFXFXFXFXFXFXFXFXFXFXFXFXFXFXFXFXFXFXFXFXFXFXFXFXFXFXFXFX",
"FXFXFXFXFXFXFXFXFXFXFXFXFXFXFXFXFXFXFXFXFXFXFXFXFXFXFXFXFXFXFXFXFXS S FXFXFXFXFXFXFXFXFXD D FXFXFXFXFXFXFXFXFXFXFXFXFXFXFXS FXFXFXFXFXFXFXFXFXFXFX7.2.1.&.%.#.t y 0 q y *.7.yXfXjXjXlXdXqXFXFXFXFXFXFXFXFXFXFXFXFXFXFXFXFXFXFXFXFXFXFXFXFXFXFXFXFXFXFXFXFXFXFXFX",
"FXFXFXFXFXFXFXFXFXFXFXFXFXFXFXFXFXFXFXFXFXFXFXFXFXFXFXFXFXFXFXFXFXFXFXFXFXFXFXFXFXFXFXFXFXFXFXFXFXFXFXFXFXFXFXFXFXFXFXFXFXFXFXFXFXFXFXFXFXFXFXwXqXrXyXqX0X5.1.%.+.y r t 1.qXfXnXmXmXjXgX0X1.=.FXFXFXFXFXFXFXFXFXFXFXFXFXFXFXFXFXFXFXFXFXFXFXFXFXFXFXFXFXFXFXFXFX",
"FXFXFXFXFXFXFXFXFXFXFXFXFXFXFXFXFXFXFXFXFXFXFXFXFXFXFXFXFXFXFXFXFXFXFXFXFXFXFXFXFXFXFXFXFXFXFXFXFXFXFXFXFXFXFXFXFXFXFXFXFXFXFXFXFXFXFXFXFXFX0X0X0XqXrXqX0X5.1.%.+.y 0 t &.0XsXhXjXlXpX=X%X%X%XFXFXFXFXFXFXFXFXFXFXFXFXFXFXFXFXFXFXFXFXFXFXFXFXFXFXFXFXFXFXFXFXFX",
"FXFXFXFXFXFXFXFXFXFXFXFXFXFXFXFXFXFXFXFXFXFXFXFXFXFXFXFXFXFXFXFXFXFXFXFXFXFXFXFXFXFXFXFXFXFXFXFXFXFXFXFXFXFXFXFXFXFXFXFXFXFXFXoX&X=XiXyXqX0X7.7.7.7.7.5.2.1.*.#.y 0 q r @.2.0XuXuX*XP.F. X;X1XFXFXFXFXFXFXFXFXFXFXFXFXFXFXFXFXFXFXFXFXFXFXFXFXFXFXFXFXFXFXFXFXFX",
"FXFXFXFXFXFXFXFXFXFXFXFXFXFXFXFXFXFXFXFXFXFXFXFXFXFXFXFXFXFXFXFXFXFXFXFXFXFXFXFXFXFXFXFXFXFXFXFXFXFXFXFXFXFXFXFXFXFXFXFXFX#XoX|.Y.%X*X9X5.2.&.*.%.%.%.%.%.@.+.y e q 9 q t %.&.1.3.:.` N.H.OX#X1X2XFXFXFXFXFXFXFXFXFXFXFXFXFXFXFXFXFXFXFXFXFXFXFXFXFXFXFXFXFXFXFX",
"FXFXFXFXFXFXFXFXFXFXFXFXFXFXFXFXFXFXFXFXFXFXFXFXFXFXFXFXFXFXFXFXFXFXFXFXFXFXFXFXFXFXFXFXFXFXFXFXFXFXFXFXFXFXFXFXFXFXFXFX;X@X XF.L.>.3.1.%.#.t r 0 r y y y y r q q 9 O i q y t O.P K A G N.F.|.#X1X2XFXFXFXFXFXFXFXFXFXFXFXFXFXFXFXFXFXFXFXFXFXFXFXFXFXFXFXFXFXFX",
"FXFXFXFXFXFXFXFXFXFXFXFXFXFXFXFXFXFXFXFXFXFXFXFXFXFXFXFXFXFXFXFXFXFXFXFXFXFXFXFXFXFXFXFXFXFXFXFXFXFXFXFXFXFXFXFXFXFXFXFXoX XH.Z.C.} $.+.y 0 9 O O O 9 q q q 9 8 O O X O O 9 q q q m n S d.N.F. X$X;XFXFXFXFXFXFXFXFXFXFXFXFXFXFXFXFXFXFXFXFXFXFXFXFXFXFXFXFXFXFX",
"FXFXFXFXFXFXFXFXFXFXFXFXFXFXFXFXFXFXFXFXFXFXFXFXFXFXFXFXFXFXFXFXFXFXFXFXFXFXFXFXFXFXFXFXFXFXFXFXFXFXFXFXFXFXFXFXFXFXFXFXH.F.S.N.` L y 0 9 O X X X X O O O O * = = * o X X O O O * 2 n S F d.V.H.|. XFXFXFXFXFXFXFXFXFXFXFXFXFXFXFXFXFXFXFXFXFXFXFXFXFXFXFXFXFXFX",
"FXFXFXFXFXFXFXFXFXFXFXFXFXFXFXFXFXFXFXFXFXFXFXFXFXFXFXFXFXFXFXFXFXFXFXFXFXFXFXFXFXFXFXFXFXFXFXFXFXFXFXFXFXFXFXFXFXFXFXFXA.A.N.FXFXFXFXFXFXFXFXFXFXFXFXFXFXFXb n n b FXFXFXFXFXFXFXFXFXFXFXFXFXV.Z.Z.FXFXFXFXFXFXFXFXFXFXFXFXFXFXFXFXFXFXFXFXFXFXFXFXFXFXFXFXFXFX",
"FXFXFXFXFXFXFXFXFXFXFXFXFXFXFXFXFXFXFXFXFXFXFXFXFXFXFXFXFXFXFXFXFXFXFXFXFXFXFXFXFXFXFXFXFXFXFXFXFXFXFXFXFXFXFXFXFXFXFXFXB.B.B.FXFXFXFXFXFXFXFXFXFXFXFXFXFXFXFXS S S FXFXFXFXFXFXFXFXFXFXFXFXFXB.B.B.FXFXFXFXFXFXFXFXFXFXFXFXFXFXFXFXFXFXFXFXFXFXFXFXFXFXFXFXFXFX"
};
