/* XPM */
static const char *bos2c6[] = {
/* columns rows colors chars-per-pixel */
"128 128 252 2 ",
"   c #1D170D",
".  c #141414",
"X  c #1A1613",
"o  c #1D1914",
"O  c #1C1C1C",
"+  c #161819",
"@  c #0F0F10",
"#  c #380808",
"$  c #241A0D",
"%  c #2D1B0D",
"&  c #271709",
"*  c #311D0C",
"=  c #3C1B0B",
"-  c #271C17",
";  c #361915",
":  c #2D0909",
">  c #34230E",
",  c #2B2217",
"<  c #342312",
"1  c #3A2513",
"2  c #3C2B15",
"3  c #382919",
"4  c #2E2310",
"5  c #1C1E20",
"6  c #1E2021",
"7  c #232323",
"8  c #2C2C2C",
"9  c #282827",
"0  c #372928",
"q  c #393329",
"w  c #333434",
"e  c #3C3C3C",
"r  c #383836",
"t  c #2D3032",
"y  c #4B0202",
"u  c #470706",
"i  c #520101",
"p  c #5B0101",
"a  c #5E0D0D",
"s  c #461818",
"d  c #571616",
"f  c #4A190C",
"g  c #640101",
"h  c #6D0000",
"j  c #650B0B",
"k  c #740101",
"l  c #7B0101",
"z  c #780B0B",
"x  c #771818",
"c  c #681615",
"v  c #4A240B",
"b  c #592607",
"n  c #432E19",
"m  c #432B15",
"M  c #45321A",
"N  c #4A351B",
"B  c #473519",
"V  c #523A1E",
"C  c #52351C",
"Z  c #532B16",
"A  c #672A05",
"S  c #742B00",
"D  c #742900",
"F  c #6B360A",
"G  c #7B3302",
"H  c #793706",
"J  c #773B15",
"K  c #6A3816",
"L  c #482827",
"P  c #552929",
"I  c #463727",
"U  c #5B3D21",
"Y  c #563A23",
"T  c #463A37",
"R  c #593534",
"E  c #672828",
"W  c #673534",
"Q  c #773737",
"!  c #7A2727",
"~  c #764A18",
"^  c #5C4122",
"/  c #554225",
"(  c #514838",
")  c #624324",
"_  c #6D4A29",
"`  c #694727",
"'  c #734C2A",
"]  c #7A4B29",
"[  c #7B522E",
"{  c #76512D",
"}  c #7C5533",
"|  c #6B5136",
" . c #67532C",
".. c #373748",
"X. c #282873",
"o. c #3E4242",
"O. c #444444",
"+. c #4B4C4C",
"@. c #494747",
"#. c #564A48",
"$. c #4D5252",
"%. c #535353",
"&. c #5B5B5C",
"*. c #585756",
"=. c #585249",
"-. c #655A56",
";. c #6E514C",
":. c #6F6457",
">. c #5C6363",
",. c #646464",
"<. c #6B6B6B",
"1. c #686767",
"2. c #756A67",
"3. c #6F7274",
"4. c #737373",
"5. c #7C7C7C",
"6. c #777777",
"7. c #78746D",
"8. c #555762",
"9. c #840101",
"0. c #8A0404",
"q. c #940101",
"w. c #9C0101",
"e. c #960A0A",
"r. c #871515",
"t. c #961515",
"y. c #A40101",
"u. c #AA0101",
"i. c #A20B0B",
"p. c #B30101",
"a. c #BA0303",
"s. c #A91515",
"d. c #B81616",
"f. c #823C05",
"g. c #823B05",
"h. c #893939",
"j. c #8E2A2A",
"k. c #B32B2B",
"l. c #C30101",
"z. c #CC0101",
"x. c #C60B0C",
"c. c #DC0000",
"v. c #D50505",
"b. c #D01515",
"n. c #E30101",
"m. c #EB0303",
"M. c #F60202",
"N. c #EB1616",
"B. c #D02D2D",
"V. c #E82727",
"C. c #864207",
"Z. c #894609",
"A. c #8D4A0B",
"S. c #86440A",
"D. c #904E0D",
"F. c #93530E",
"G. c #99580E",
"H. c #9A5B12",
"J. c #945713",
"K. c #884F16",
"L. c #9E6417",
"P. c #92691E",
"I. c #A46A18",
"U. c #AA741D",
"Y. c #B17C1F",
"T. c #875933",
"R. c #88532A",
"E. c #946239",
"W. c #9B663B",
"Q. c #96702C",
"!. c #AC7823",
"~. c #B17E21",
"^. c #A26D35",
"/. c #8E4C4B",
"(. c #AD5050",
"). c #A86C41",
"_. c #B77649",
"`. c #A7754B",
"'. c #857A79",
"]. c #906F69",
"[. c #B06C6C",
"{. c #8B6D54",
"}. c #D45454",
"|. c #C76A6B",
" X c #C27D4F",
".X c #7C847E",
"XX c #B78625",
"oX c #BE922B",
"OX c #AE8D37",
"+X c #96843A",
"@X c #C2972D",
"#X c #C39B32",
"$X c #CAA637",
"%X c #D3B43E",
"&X c #AD8B51",
"*X c #948674",
"=X c #AB957A",
"-X c #AF9372",
";X c #A39558",
":X c #D7BA42",
">X c #C9BA4C",
",X c #DDC549",
"<X c #DCD45B",
"1X c #E3CC4D",
"2X c #E9D856",
"3X c #F0E45C",
"4X c #F4EB64",
"5X c #FCF969",
"6X c #FFFE71",
"7X c #28289C",
"8X c #64648E",
"9X c #1D1DC7",
"0X c #7E8283",
"qX c #838383",
"wX c #8C8C8C",
"eX c #888787",
"rX c #948B8A",
"tX c #8F9191",
"yX c #939393",
"uX c #9B9B9B",
"iX c #989897",
"pX c #8E8E91",
"aX c #A69A99",
"sX c #B0928B",
"dX c #A9A299",
"fX c #B6A994",
"gX c #9CA2A2",
"hX c #A3A3A3",
"jX c #ACACAC",
"kX c #A7A9A8",
"lX c #B6AAAA",
"zX c #B4B4B4",
"xX c #BBBCBC",
"cX c #B8B8B7",
"vX c #AFB3B2",
"bX c #9C9EA0",
"nX c #C5A6A4",
"mX c #BDC3C3",
"MX c #C3C4C4",
"NX c #CBCBCB",
"BX c #C7CACA",
"VX c #D3D3D3",
"CX c #DBDBDB",
"ZX c #DED5D5",
"AX c #CFD2D2",
"SX c #E3E3E3",
"DX c #ECECEC",
"FX c #F0F0F0",
"GX c #DEE0E0",
"HX c #C4C2BF",
"JX c None",
"KX c black",
/* pixels */
"JXJXJXJXJXJXJXJXJXJXJXJXJXJXJXJXJXJXJXJXJXJXJXJXJXJXJXJXJXJXJXJXJXJXJXc.c.z.a.u.w.9.l k k x ;.'.tXiXuXhXhXhXhXhXhXhXhXhXuXiXwXeXqX5.6.6.6.6.3.1.>.>.*.;.k.n.M.n.v.z.a.u.w.9.l h h g JXJXJXJXJXJXJXJXJXJXJXJXJXJXJXJXJXJXJXJXJXJXJXJXJXJXJXJXJXJXJXJXJXJXJXJXJXJX",
"JXJXJXJXJXJXJXJXJXJXJXJXJXJXJXJXJXJXJXJXJXJXJXJXJXJXJXJXJXJXJXJXJXJXJXp.p.u.w.q.0.x ! ! j./.].iXhXjXzXzXzXzXzXzXzXzXjXkXhXuXiXwXeX5.6.6.5.6.]./././.h.j.d.z.z.l.p.y.w.q.9.k h g p p JXJXJXJXJXJXJXJXJXJXJXJXJXJXJXJXJXJXJXJXJXJXJXJXJXJXJXJXJXJXJXJXJXJXJXJXJXJX",
"JXJXJXJXJXJXJXJXJXJXJXJXJXJXJXJXJXJXJXJXJXJXJXJXJXJXJXJXJXJXn.c.z.p.w.9.k g p p E ;.2.'.rXaXlXxXBXNXVXVXVXVXVXNXBXMXxXcXzXjXhXiXwXeXqX0X0X'.(.B.N.b.b.x.p.w.q.l h g g p p p i i y y y y JXJXJXJXJXJXJXJXJXJXJXJXJXJXJXJXJXJXJXJXJXJXJXJXJXJXJXJXJXJXJXJXJXJXJXJX",
"JXJXJXJXJXJXJXJXJXJXJXJXJXJXJXJXJXJXJXJXJXJXJXJXJXJXJXJXJXz.l.p.y.q.l j d L P R ;.6.tXhXzXMXNXVXCXSXSXSXSXSXSXCXVXBXMXxXcXzXkXuXyXwXqX'.].(.B.N.m.c.l.u.t.x E d s s s = # = s s P P R R ;.JXJXJXJXJXJXJXJXJXJXJXJXJXJXJXJXJXJXJXJXJXJXJXJXJXJXJXJXJXJXJXJXJXJXJX",
"JXJXJXJXJXJXJXJXJXJXJXJXJXJXJXJXJXJXJXJXJXJXJXJXJXJXJXc.z.a.q.l g p u L T %.-.2.qXiXhXzXMXNXCXSXDXDXDXDXDXDXSXSXVXBXMXxXxXcXzXhXiXwX'.(.B.N.m.c.l.y.9.c W #.#.O.T e w 0 0 w T %.,.4.'.qXrXiXyXeX6.,.%.@.O.JXJXJXJXJXJXJXJXJXJXJXJXJXJXJXJXJXJXJXJXJXJXJXJXJXJXJX",
"JXJXJXJXJXJXJXJXJXJXJXJXJXJXJXJXJXJXJXJXJXJXJXJXJXJXv.l.u.q.k p u s L T +.>.3.qXyXhXzXMXNXCXSXDXDXDXFXFXFXDXDXSXVXBXMXxXMXxXvXkXaX[.(.B.N.m.v.u.q.x E R #.%.$.O.o.o.o.O.@.%.,.6.wXiXhXjXzXzXjXhXiXeX6.1.,.,.JXJXJXJXJXJXJXJXJXJXJXJXJXJXJXJXJXJXJXJXJXJXJXJXJXJX",
"JXJXJXJXJXJXJXJXJXJXJXJXJXJXJXJXJXJXJXJXJXJX@.W j.x.z.y.l g i u s T @.$.&.1.6.wXiXkXzXMXVXCXSXDXDXDXDXFXFXDXSXCXVXBXMXxXxXxXzXaX[.}.N.M.n.z.y.l c R =.&.*.+.@.e e @.%.&.<.6.eXiXhXzXMXBXVXVXVXBXxXzXhXyXqX4.,.+.O.e JXJXJXJXJXJXJXJXJXJXJXJXJXJXJXJXJXJXJXJXJXJX",
"JXJXJXJXJXJXJXJXJXJXJXJXJXJXJXJXJXJXJXJXT Q j.t.s.p.y.l p u s 0 T @.%.&.,.4.qXyXuXjXcXBXVXSXSXDXDXDXDXDXDXDXSXCXVXBXMXxXxXlXsX}.B.N.M.c.a.w.r.E W *.&.&.%.@.O.O.@.%.,.4.5.wXiXhXzXMXNXCXSXSXSXSXCXNXxXjXiXeX6.1.&.%.@.@.JXJXJXJXJXJXJXJXJXJXJXJXJXJXJXJXJXJXJXJX",
"JXJXJXJXJXJXJXJXJXJXJXJXJXJXJXJXJXJXJX$.#.j.d.z.a.q.l g u s 0 e @.%.&.,.<.6.wXiXhXvXxXBXVXCXSXSXDXDXDXDXDXSXCXVXNXMXMXxXcXlX|.V.M.M.c.a.q.c W ;.,.,.&.%.@.e ..@.%.,.<.5.wXiXbXkXzXMXVXCXSXDXDXDXSXCXNXxXjXuXwXqX6.,.*.@.O.JXJXJXJXJXJXJXJXJXJXJXJXJXJXJXJXJXJXJX",
"JXJXJXJXJXJXJXJXJXJXJXJXJXJXJXJXJX@.$.>.1./.d.l.w.k a P R T O.@.+.&.,.1.4.5.wXuXkXzXxXBXVXCXSXSXDXDXDXDXSXSXCXVXNXBXMXxXvXdX}.N.M.n.l.s.h.;.-.,.,.&.%.@.O.e O.+.&.1.6.eXyXiXhXjXzXxXBXVXSXDXFXFXDXGXVXMXzXhXiXwXqX4.,.%.@.e 8 JXJXJXJXJXJXJXJXJXJXJXJXJXJXJXJXJX",
"JXJXJXJXJXJXJXJXJXJXJXJXJXJXJXJXo.@.*.2.].(.d.u.9.p s R +.$.+.@.%.&.1.<.6.qXyXhXjXcXMXNXVXCXSXSXDXDXDXSXSXCXCXVXNXMXxXlXdX[.}.N.m.z.y.j./.7.4.1.&.%.@.O.e e O.$.&.1.6.eXyXuXhXkXzXcXxXMXVXSXSXSXCXVXMXzXkXhXiXwX5.4.,.*.@.e w 8 JXJXJXJXJXJXJXJXJXJXJXJXJXJXJXJX",
"JXJXJXJXJXJXJXJXJXJXJXJXJXJX8 r o.+.;.k.B.b.a.w.k i u 0 e O.@.+.&.,.<.4.6.eXiXhXzXxXBXVXCXCXSXSXSXSXSXSXCXCXVXAXBXmXcXsX}.V.N.m.c.u.9.! ;.6.6.1.&.@.e r r e @.%.&.1.6.qXwXuXhXkXjXzXzXcXMXMXMXMXxXzXhXiXiXwXeX5.4.,.&.%.@.O.e w 9 7 JXJXJXJXJXJXJXJXJXJXJXJXJXJX",
"JXJXJXJXJXJXJXJXJXJXJXJXJXJX8 w o.@.Q d.n.v.u.9.j d s 0 8 e @.%.&.,.1.4.5.wXiXhXzXxXBXVXVXCXCXCXCXCXCXCXCXVXVXBXMXxXlX|.V.M.M.n.l.t.x Q :.6.3.,.%.O.r w w e @.%.&.,.<.6.wXiXuXhXhXkXjXjXjXjXkXhXiXyXwXqX6.6.<.,.&.%.+.@.@.O.e r 9 9 JXJXJXJXJXJXJXJXJXJXJXJXJXJX",
"JXJXJXJXJXJXJXJXJXJXJXJXJXJX9 8 r O.Q d.c.z.w.z E #.#.O.r e @.%.*.&.,.<.6.qXyXhXjXcXMXNXVXVXVXVXVXVXVXVXVXVXNXMXxXvXaX[.V.M.n.z.d.h.{.2.4.2.,.*.@.e w w w e @.%.&.,.1.6.qXwXyXiXiXuXhXhXuXiXyXeX5.6.4.1.,.&.%.@.O.e e e e e e r 8 8 JXJXJXJXJXJXJXJXJXJXJXJXJXJX",
"JXJXJXJXJXJXJXJXJXJXJXJXJX9 w e $.-./.k.z.a.q.z W -.*.@.e e @.+.%.*.&.1.6.qXwXuXkXzXxXMXNXVXVXVXVXVXVXVXVXNXMXxXzXkXaX[.B.n.c.l.s./.7.6.3.,.&.+.O.e w w r e @.%.&.&.,.1.4.5.qXqXeXwXwXwXeXqX6.4.1.,.&.&.%.@.@.@.@.@.@.@.O.e e w 8 9 9 JXJXJXJXJXJXJXJXJXJXJXJXJX",
"JXJXJXJXJXJXJXJXJXJXJX+ 7 8 O.&.5.rX[.k.a.u.q.z E #.@.o.e e O.@.+.*.&.1.6.qXwXiXhXjXzXMXBXNXVXVXVXNXNXBXBXMXHXcXjXgXyX[.B.v.z.a.s.h.2.<.,.&.%.@.e r w w r e @.+.*.&.&.&.,.,.1.1.1.<.<.<.1.1.,.,.&.*.+.+.@.@.+.&.,.,.1.,.&.+.e r 8 9 7 O + JXJXJXJXJXJXJXJXJXJXJX",
"JXJXJXJXJXJXJXJXJXJXJX+ 7 8 O.&.5.wX].k.u.y.w.0.E T e r r r e O.@.%.&.,.<.6.eXyXuXhXzXcXMXBXBXBXBXMXMXMXMXxXcXzXkXgXrX[.k.l.l.p.s.h.2.<.>.%.@.O.e r w w r e O.@.+.%.%.%.*.&.&.&.&.&.*.*.*.*.*.%.$.+.@.+.*.,.4.eXyXiXuXiXwX6.,.+.e t 9 O + JXJXJXJXJXJXJXJXJXJXJX",
"JXJXJXJXJXJXJXJXJXJXJX+ O 9 r @.>.<.;.j.q.w.u.w.x L t t 8 w r e @.*.,.1.4.6.qXwXiXhXkXzXxXMXMXMXxXxXcXcXcXzXzXkXhXgXrX].k.u.p.p.s./.'.4.,.*.@.@.O.e e r r e e O.@.@.@.@.%.*.*.%.+.+.+.+.@.@.@.@.@.+.%.,.6.tXhXzXMXBXNXMXzXuXeX<.*.e 8 7 + JXJXJXJXJXJXJXJXJXJXJX",
"JXJXJXJXJXJXJXJXJXJXJXJX- , 0 q T ( R c k q.p.u.x 0 9 9 8 r O.*.<.eXiXiXiXyXwXwXyXuXhXzXcXxXxXcXcXzXzXzXzXjXhXuXiXiXrX].j.q.y.p.d.[.aXkXiXqX<.*.@...e e e e e e e O.@.@.+.%.+.@.@.@.O.O.e e O.@.*.,.6.wXuXzXxXMXMXMXxXzXhXwX6.,.%.O.w 9 7 JXJXJXJXJXJXJXJXJXJXJX",
"JXJXJXJXJXJXJXJXJXJXJXJXJXJX* * < < = u g 9.y.u.x L 9 9 9 e %.<.wXkXcXxXzXjXiXyXyXiXhXkXzXzXcXzXzXzXzXjXkXhXiXwXtXiXyX].! l q.u.k.|.lXMXmXjXtX1.%.@.@.O.O.O.O.e e o.@.@.@.@.@.@.O.e e e e e @.*.1.qXiXjXcXxXcXjXhXiXwX8X<.&.+.@.O.e w 9 9 JXJXJXJXJXJXJXJXJXJXJX",
"JXJXJXJXJXJXJXJXJXJXJXJXJXJX* < m m v u i h 9.q.e.e.x L 8 r +.*.>.<.6.wXuXhXuXiXiXiXiXhXkXjXjXjXjXjXjXkXhXiXwXeXyXkXjX'.Q h 9.y.s./.7.0XwXyXwXeX6.,.+.@.@.+.@.O.e e O.@.@.O.O.e e e r e O.+.&.4.eXiXkXjXkXhXyX5.1.&.+.O.e w 8 9 9 9 7 O O JXJXJXJXJXJXJXJXJXJXJX",
"JXJXJXJXJXJXJXJXJXJXJXJXJXJX1 n U ` K f u i g l y.l.a.x L T T T I 0 q %.<.qXiXhXuXyXwXiXhXhXhXhXhXhXhXhXiXyXeXqXiXcXMXsXQ g k 9.0.c L T +.&.5.iXiX6.*.@.%.&.*.@.e e e e e e e r r r e ..+.&.4.eXiXuXuXiXwX4.&.@.r 9 O X X X X X X X X . . JXJXJXJXJXJXJXJXJXJXJX",
"JXJXJXJXJXJXJXJXJXJXJXJXJXJXn V _ T.' Z = # y p k q.q.e.r.r.t.t.r.z c L T *.5.iXiXwXwXyXiXuXuXiXuXuXuXiXyXwXeXeXiXzXxXrXQ i p h k k z d ; r >.yXuX6.%.@.*.,.,.%.@.e w 8 8 8 8 8 w e @.%.&.<.6.5.qX5.4.,.*.O.w 9 O X   $ $ - , , < , - JXJXJXJXJXJXJXJXJXJXJXJXJX",
"JXJXJXJXJXJXJXJXJXJXJXJXJXN V ) [ T.[ V < * u u i p h 9.w.u.u.u.y.q.l u - w >.qXwXqXqXwXyXyXyXyXyXyXyXwXwXeXqXqXyXkXjXrXW u u i g l 9.h # - +.qXyX<.O.e %.,.,.,.*.@.r 8 8 8 8 w e @.*.,.1.<.<.1.,.*.@.e 8 7 O o o - % < m B N N M M N JXJXJXJXJXJXJXJXJXJXJXJXJX",
"JXJXJXJXJXJXJXJXJXJXJX< 2 C ) ' T.T.' C 1 2 Z Z f y i p g h k k h g i # X 9 @.,.<.4.6.5.eXwXwXwXeXeXeXqX5.5.6.6.qXiXbXqX-.L s u i g h p # 7 O.<.4.%.w 8 ( *.,.4.4.,.*.@.O.O.@.+.&.,.<.<.1.&.%.@.e w 9 - - - < 3 M B B N ^ ' { ` N N U ' { JXJXJXJXJXJXJXJXJXJXJX",
"JXJXJXJXJXJXJXJXJXJXJX< m U ' T.T.{ ) B 1 M U U Z f # # # # u u # # # : - 9 o.%.&.,.<.6.5.qXqXqX5.5.5.6.6.4.<.<.6.wXyXqX<.%.T s u u u s 0 w @.&.&.@.8 9 w O.*.<.6.6.1.,.&.&.,.1.4.4.4.1.&.@.e 8 7 - o - - 1 M U _ _ ) ^ { E.W.T.U V ) ' { JXJXJXJXJXJXJXJXJXJXJX",
"JXJXJXJXJXJXJXJXJXJXJX2 B ` E.E.[ ^ N 1 < M U ) I 3 - - - - - - - - - 7 8 e @.*.,.1.4.6.5.5.5.6.6.6.6.4.1.1.1.<.4.5.qXqX5.2.%.q - - - 0 T +.%.%.+.O.r 8 9 8 e %.,.4.6.6.6.6.6.5.6.3.,.%.e 8 7 o $ $ < 2 M N ^ T.W.W.[ ` [ )._.W._ ^ ` { [ JXJXJXJXJXJXJXJXJXJXJX",
"JXJXJXJXJXJXJXJXJXJXJXN V { E.E._ N 2 2 n N U Y I 9 7 7 9 9 9 9 9 9 8 r e @.+.*.&.,.<.4.6.6.6.4.4.4.4.1.,.,.&.,.1.<.4.6.6.4.&.o.t 8 w e +.*.*.+.@.O.e w 9 7 9 e @.&.,.<.3.4.4.<.1.&.@.r 9 O X   $ 1 C ) ^ ^ _ E._._.T._ T._. X).T.' ' { { JXJXJXJXJXJXJXJXJXJXJX",
"JXJXJXJXJXJXJXJXJXJXJX) ` [ T.T.U 2 2 V ^ U C n 3 - O 7 9 8 w r r e e @.@.+.+.%.&.>.,.1.<.<.1.,.,.,.,.,.&.*.*.%.*.&.&.,.&.&.%.@.@.@.@.@.+.%.+.+.@.@.e w 7 + + 7 8 r e @.@.@.@.@.O.r 9 7 o o $ $ < N ' T.[ _ _ W. X_.E.' T.)._._.W.T.[ ' _ JXJXJXJXJXJXJXJXJXJXJX",
"JXJXJXJXJXJXJXJXJXJXC ` ' { { ` N 1 2 U ` U M < - o + O 7 9 9 8 w r e O.@.@.@.@.+.%.&.&.&.&.&.&.&.&.&.&.*.%.+.@.@.@.@.@.@.@.@.@.@.@.@.O.O.O.@.@.@.O.e r 9 O + + O 7 9 8 8 w 8 9 9 , O o $ 4 < < 2 U T.W.T._ _ W._._.W.[ T.E.W.).).E.[ _ ) ) JXJXJXJXJXJXJXJXJXJX",
"JXJXJXJXJXJXJXJX& * m ) ' _ ^ V n 1 n U ) V 2 4 o X X + O 6 9 9 8 w r e e e e e e @.@.+.+.%.%.%.%.%.%.+.+.@.@.@.O.O.e ..O.O.@.@.@.@.O.e r w r e O.O.e r 8 9 O + X + O O O O O + X X   $ 2 N V M M ) E.).E._ ` T._._.W.T.T.[ T.E.W.W.[ ^ ^ ) ` _ JXJXJXJXJXJXJXJX",
"JXJXJXJXJXJXJXJX& * m V ^ V m 2 2 n B V Y V M 2 , X . @ + 9 @.&.1.<.1.*.O.r w 8 w e ..O.O.@.@.@.@.@.@.O.o.e w w O.,.5.eXwXwXyXiXiXiXwX<.@.9 7 9 8 w w 8 9 7 O X . . X o o o X       $ < N ) ) N n U T.).E.' _ [ W.).).W.T.{ ' T.W.W.{ Y V ^ ) ` JXJXJXJXJXJXJXJX",
"JXJXJXJXJXJXJXJX< < n Y / N 2 1 n M B M M N V N 3 o . . + e 1.wXhXkXbX5.&.O.w 9 9 w r e e e e e e e e r w 8 9 w *.yXMXVXVXVXCXSXSXSXVXkX1.e 9 8 8 8 9 9 7 O + X . .             $ $ % 1 Y _ _ C m C { E.T.' _ ' T.E.)._.W.{ _ [ E.E._ N N Y ^ ^ JXJXJXJXJXJXJXJX",
"JXJXJXJXJXJXJX&.@.( =.:.2.2.-.#.I n > > 4 2 N N 2 4 , 9 r +.<.eXiXhXhXiXeX,.e O + 9 8 w w r r r w w 8 9 9 8 @.1.wXjXBXVXVXVXVXCXCXSXSXNXzXiXyXwX6.%.9 X X X X . . . X o     $ % % % % < N ) ) N 1 n ) ' { ' ' _ ' T.W.).E._ ^ _ T.T.` N M N V V JXJXJXJXJXJXJXJX",
"JXJXJXJXJX].7.2.&.&.3.tXaXiXqX<.=.I q q q I B M 1 4 3 r @.*.,.<.5.wXiXhXuXqX+.9 + 7 9 9 8 8 8 8 9 9 9 O + w 1.uXcXxXxXxXxXxXxXxXMXBXVXCXSXSXSXCXcXqX@.9 9 9 9 O + + + O o   $ % < % $ $ 2 V V M < 2 N ^ ` ' ' ` ) _ T.W.T.) V ) { { ) B M M N N JXJXJXJXJXJXJXJX",
"JXJXJXH.I.OX;X;X:.%.4.kXxXuX4.&.1.7.'.eX*X:.I 4 & $ , q O.@.+.*.,.6.qXyXiXeX,.@.r 9 O O 7 7 7 7 O + + X X w <.hXxXcXzXzXzXzXzXzXzXzXxXMXBXNXVXNXMXjXiXeX5.4.&.@.r 8 7 O o   $ 4 4 % $ $ 2 N N n < < 1 n V _ ' ) V ^ [ E.T.^ N V _ _ U M 2 M M M JXJXJXJXJXJXJXJX",
"JXJXJXJ.I.XX$XOX| +.4.zXBXiX&.@.,.wXhXzXjXeX=.q , $ - 9 r e e O.+.&.<.6.5.6.<.&.@.r 9 w e O.@.@.O.e r 9 9 e ,.yXhXhXuXuXhXhXhXuXhXhXhXhXhXkXjXzXzXcXcXzXkXiXqX,.@.e 8 7 - o $ $ 4 $ $ $ < n M n 2 < 4 < M ) _ V M N ` [ _ V M N U U C n 2 n n n JXJXJXJXJXJXJXJX",
"JXJXJXA.J.U.XXQ.| =.6.vXxXwX@.r @.,.6.wXiXiXwX7.#.,   - 9 9 9 t e @.*.,.,.,.&.*.+.+.&.4.wXhXjXjXhXiXqX1.%.@.%.,.<.6.5.qXeXeXeXeXeXwXwXwXwXwXwXyXiXiXyXwXeX5.<.&.+.o.w 9 7 O o   $ $ % < < < 2 N V B 1 > n V U N 2 n V ^ Y M 2 n N N n 2 2 2 2 3 < 4 JXJXJXJXJXJX",
"JXJXJXg.S.G.I.P.| *.6.uXhX6.e 9 9 e @.&.3.eXyXwX1.( 9 , 7 O O 7 8 e @.+.%.%.+.@.%.&.4.yXzXNXCXSXVXMXkXwX4.&.+.@.+.*.,.,.1.<.<.1.<.<.4.<.<.1.<.4.4.<.1.,.,.&.&.+.@.e w 9 7 O o X   $ % < > 4 < B V N 1 * 1 M N n 1 1 2 M n 1 < 1 1 1 1 < < 1 1 < 4 4 4 JXJXJXJXJX",
"JXJXJXS G f.A.K.| -.4.qXqX&.r 7 O 7 9 8 e +.,.4.3.1.%.r 7 X X + 7 8 e O.@.@.@.@.%.1.5.yXhXcXMXNXMXzXgXtX5.<.&.+.@.@.+.$.*.*.*.*.*.*.*.%.%.+.+.+.+.+.@.@.@.@.O.e r w 8 9 O X . . .   % * * % < 2 M n < * < 2 n 1 * % > 4 < < < < < < < < = * * % % % % JXJXJXJXJX",
"JXJXJXD S F K { :.6.6.<.,.%.O.e e O.e e e e @.+.&.,.*.O.8 O X X O 9 t r e e e O.$.8X8X8XpXuXkXjXdXsX[.[.'.<.&.$.@.e r e e O.O.O.O.O.O.e e e e e r r w w w w w 9 9 9 9 7 + X . . . X $ % % % * < 1 < * * 3 q T T T T ( ( =.=.-.-.-.-.-.=.=.#.( I < % & JXJXJXJXJX",
"JXJXJXS A Z I *.5.yX0X&.@.+.&.<.5.wXeX6.,.+.e 8 w r e e e 8 O X + 7 9 8 w w r ..X.9X9X7X8X6..X'.[.B.V.k./.,.*.+.e 8 7 7 9 8 w w w w w w w w 8 8 9 9 9 9 9 9 9 7 O O O + X X . . . . JXJX* % % * * * % < q @.*.&.1.4.'.wXiXkXzXcXcXcXjXdXiXrX'.-.I * & JXJXJXJXJX",
"JXJXJX/.;.( ( %.5.yX5.*.@.&.5.iXjXxXzXhXeX1.@.w 9 9 9 8 w 8 7 X + 7 7 9 9 9 8 t X.7X7X7X8.>.>.-./.d.z.s.Q $.@.e w 9 O O O 7 7 9 9 9 9 9 9 9 9 9 9 9 9 9 7 7 O + X X X X X . . . . JXJXJXJX, , 3 0 0 q I W h.h.(.(.(.].6.0XtXiXgXuXaXsX[.|.|.(./.R q w JXJXJXJXJX",
"JXJXJXiXeX1.@.+.1.5.4.*.*.<.iXzXBXCXVXxXhXeX,.@.r 9 O O O O JXJXJXO O O O O 7 9 t ....@.@.@.@.@.W r.e.x R e w 8 9 9 7 6 O O O O O 7 7 9 7 7 7 7 7 7 7 7 O O + X X . . X . . . JXJXJXJXJXJX8 t r T @.+.#.h.b.M.M.m.b.j.@.+.$.&.&.&.;.j.d.x.N.b.k.Q =.@.e e JXJXJX",
"JXJXJXuXwX<.+.@.&.1.,.%.*.<.yXkXxXBXMXzXuXqX,.+.e 9 O + + + JXJXJX. . X X X + O 7 8 w r r r w w L d d s 0 9 7 O + + X X X X X . X X X X X X X X X X + X X X . . . . . . . . JXJXJXJXJX9 9 8 w e e o.o.#.j.b.M.M.M.b.h.-.,.3.6.0XqX].h.y.a.z.n.b.k.j.W 0 9 JXJXJX",
"JXJXJXwXqX1.*.+.%.*.+.@.+.,.5.rXuXhXgXiXeX3.&.@.r 9 7 O O O JXJXJX+ + + + + O 7 9 w e e O.O.e e e T r r w 8 9 9 7 6 O + + X X + + O 7 7 O O O O O + + + + + + + X X . . JXJXJXJXJXJX7 9 9 8 w r e e e R j.b.M.M.n.b.(.rXuXkXzXMXMXlX[.j.i.a.z.n.m.v.r.; O JXJXJX",
"JXJXJX6.4.2.,.&.@.e r r e +.,.4.6.6.4.1.,.%.@.e 8 9 O O JXJXe @.+.+.@.O.e e O.+.&.<.5.qXwXwXyXiXiXyXtXwXeX5.6.<.1.,.&.+.e w w e +.,.6.5.4.1.,.,.&.%.@.@.O.O.e e w 9 7 O JXJXJXJXJXJXO 7 7 9 8 r T R j.s.x.n.m.c.l.k.[.lXmXNXVXGXSXZXnXsX(.k.a.z.c.z.r.L 0 d e.u.",
"JXJXJX,.,.<.4.,.O.9 O 7 9 e @.%.%.+.@.@.e e w 9 7 O + JXJXJX@.@.&.1.<.&.%.%.&.4.eXdXzXxXMXNXCXSXSXCXVXNXMXxXzXkXuXiXwX4.*.@.@.&.6.gXMXMXzXhXuXiXtXqX4.1.,.,.&.%.@.r 9 7 JXJXJXJXJXJX- O 6 9 8 r T Q d.n.M.n.v.p.w.j.[.cXNXVXCXSXSXSXSXVXnX(.e.p.z.x.r.R P x w.u.",
"JXJXJX%.&.,.<.&.e O @ . + 7 t w e o.e r t 9 9 7 O O + JXJXJXe O.%.,.,.%.@.+.&.4.eXuXjXcXMXVXCXSXSXCXVXNXMXcXjXhXiXwXqX1.+.O.O.%.<.iXxXMXzXhXuXiXwXqX6.1.,.&.*.@.e w 9 O JXJXJXJXq.j ; O 5 7 9 t e W s.c.n.z.a.w.l ! ].aXzXcXxXMXNXAXAXBXsX/.e.y.a.a.r.T T c 0.w.",
"JXJXJXO.@.*.>.%.r , % 4 3 q I I r r t 9 7 6 O + + + + JXJXJXw r O.+.+.O.e e +.,.6.eXiXhXkXzXxXMXMXxXzXkXhXiXyXwXqX6.,.%.O.r e @.,.wXzXcXjXhXiXyXeX6.4.,.&.*.@.e r 9 7 + JXJXJXw.q.k d ; - 7 9 0 P ! s.z.z.p.w.l j E :.qXtXiXuXhXhXkXvXkX'.h.0.q.u.u.r.E P c l 9.",
"JXJXJX8 r o.@.( U F ~ P.Q.+XOXQ. .9 O + O O + + + JXJXJXJXJX9 8 r e e r 8 8 e @.*.,.<.6.6.qXwXwXwXeX5.6.<.,.,.&.*.%.@.e w 8 w O.&.wXjXzXjXhXiXyXwX5.4.,.&.$.@.e w 9 O + JXJXJXl l 9.0.z d - ; c s.x.z.z.p.w.z c P @.*.,.<.4.6.6.5.qXqX'.:.! k l q.w.e.e.0.z h g ",
"JXJXJX8 t t r I ~ J.U.@X%X1X1X>X+X ./ I I 2 1 ; JXJXJXJXJXJX9 9 8 w w 9 7 7 9 8 r e O.@.@.+.+.%.%.+.@.@.e e r r w w 8 9 7 7 9 e *.6.iXiXiXwXeXqX6.<.,.&.+.@.e w 9 7 O + JXJXJXp g l q.q.z s a e.l.z.l.p.q.l j L T O.@.+.%.*.&.,.,.,.,.&.#.E g h k 9.q.w.q.k p i ",
"JXJXJXe e t 9 M ~ U.@X:X2X3X4X4X<X>X$XOX!.K.F A JXJXJXJXJXJX7 9 9 9 9 6 + X + + + O O O 7 7 7 7 7 7 O O O O + + + + + + X + 9 w @.&.1.1.,.&.&.&.*.+.@.O.e r t 9 9 O + X JXJXJXy y p h k l 9.0.w.u.y.q.9.h p u ; 0 t r e O.@.%.&.-.&.*.@.T s i p g g h h g p y y ",
"JXJXJXw t 0 < Z ~ U.@X%X1X2X4X4X3X1X:X$XXXL.S.S D JXJXJXJXJXO 7 7 7 7 + X + O 7 9 8 w r e O.@.@.@.@.@.@.O.e e e w 9 9 O + + O 9 8 r e e e r r r w 8 9 9 9 7 7 O O X . @ JXJXJXJXy y i p h l 9.9.l k h g i u s 0 w e @.+.&.1.6.qXwXwX0X4.-.R s u i i i i y y y y ",
"JXJXJX+ - = b H A.H.!.oX$X%X,X:X:X$XoX!.L.A.H S S JXJXJXJXJXO O 7 7 7 O O 7 8 e +.&.<.6.eXiXhXjXjXjXhXuXyXwXqX6.,.*.O.r 9 7 O O 7 7 7 7 7 7 7 7 7 O + + + o X X X . @ @ JXJXJXJXJXJXy y y i i i i i y u s 0 e O.+.&.1.6.wXhXcXBXVXVXBXcXiX<.O.L u y y y y JXJXJX",
"JXJXJX= f b D G C.F.L.U.XXoX#X#XoXXXI.J.Z.H G S S JXJXJXJXJX7 9 e @.@.e 8 8 r @.&.<.eXiXkXxXNXCXCXVXBXcXkXuXwXqX<.&.@.e r r e @.+.*.&.,.,.1.1.,.,.&.%.@.O.e 8 9 O X . . JXJXJXJXJXJXJX# # # : : : : : : ; w e @.*.,.6.eXuXzXMXVXCXCXVXMXhX4.@.0 ; : # # JXJXJXJX",
"JXJXJXA D D S G H S.D.H.I.I.Y.Y.U.L.F.f.G S S S JXJXJXJXJXJXw e &.6.qX1.@.e e O.%.1.qXiXzXMXVXCXCXVXMXzXuXwX6.1.&.+.@.@.@.*.1.qXiXkXcXMXBXNXNXBXMXzXhXiXqX<.*.e 8 7 O + JXJXJXJXJXJXJXJXJXX . . . X X O 7 9 r O.%.>.<.5.wXuXkXzXxXxXcXkXwX,.e 9 O X @ JXJXJXJXJX",
"JXJXJXS S S S S G G f.Z.D.G.H.H.G.D.S.G S S S JXJXJXJXJXJXJX@.*.6.uXhXwX4.*.O.e O.*.<.qXiXkXcXMXxXzXuXwX5.<.&.%.@.@.@.*.<.qXiXzXMXVXCXSXDXDXDXDXSXVXMXzXhXwX4.*.e 8 9 7 9 r JXJXJXJXJXJXJXJX. . . . . + O 7 9 w e @.*.,.<.6.5.eXwXwXqX6.&.O.9 O + JXJXJXJXJXJXJX",
"JXJXJXS S S S S S S G g.C.C.C.S.S.C.g.G S S JXJXJXJXJXJXJXJX%.,.eXjXcXkXwX4.+.e r O.%.,.6.eXyXiXyXeX6.,.*.@.O.e e @.*.<.wXhXxXNXCXCXSXSXDXDXDXSXCXVXMXcXjXiX0X,.@.r 9 9 8 e e JXJXJXJXJXJXJXJX. . . . . X + O 7 9 8 e O.@.+.%.*.&.*.+.e w 7 X . JXJXJXJXJXJXJXJX",
"JXJXJXS S S S S S S S G G G G G G G G S S S JXJXJXJXJXJXJXJX@.*.6.iXjXkXuXqX&.O.r w r O.%.&.,.1.,.&.*.@.e r r e @.&.<.eXiXjXcXMXNXVXVXCXCXCXCXVXBXxXzXhXiXeX4.&.O.w 9 9 w r e JXJXJXJXJXJXJXJXJXJX. . . . X X + O 7 9 9 8 w r r r w 9 7 O + JXJXJXJXJXJXJXJXJXJX",
"JXJXJXS S S S S S S S S S S S S S S S S S S JXJXJXJXJXJXJXJXw e *.6.wXyXyX0X,.@.r 9 9 9 r e O.O.O.O.e r 8 8 r O.*.1.5.wXiXhXhXkXkXjXzXzXcXcXzXjXhXiXwXqX6.,.*.@.r 8 9 8 r e O.JXJXJXJXJXJXJXJXJXJXJX. . . . X X + + + + O 7 7 7 7 O + X . JXJXJXJXJXJXJXJXJXJXJX",
"JXJXJXS S S S S S D D D D D S S S S S S JXJXJXJXJXJXJXJXJXJXO 7 w O.+.*.&.&.%.@.r 9 O 7 9 8 8 t 8 9 9 9 9 8 e +.&.3.5.qXqXqXqXqX5.5.5.6.6.6.6.3.1.,.&.%.@.O.r 8 9 9 9 w O.@.%.JXJXJXJXJXJXJXJXJXJXJXJXJX. . . X X X X X X X X X X X X JXJXJXJXJXJXJXJXJXJXJXJXJX",
"JXJXJXA A A F F J J ] R.] J F A A A A JXJXJXJXJXJXJXJXJXJXJX. X + O 9 9 w r e e w 7 O O O 7 7 7 7 O + O 7 8 e %.&.,.1.1.,.&.&.*.%.+.@.@.O.O...e e r w 8 9 7 O + O 7 8 e @.*.&.JXJXJXJXJXJXJXJXJXJXJXJXJXJX. . . . . . . . . . . . . JXJXJXJXJXJXJXJXJXJXJXJXJXJX",
"JXJXJX* 3 L T =.:.].*XsXrX].#.I 0 3 3 JXJXJXJXJXJXJXJXJXJXJXJXJX. . + + O O 7 7 7 O + + + X X X X X X + 7 9 e @.+.%.+.@.O.r w 8 9 9 7 6 6 6 6 6 O O O + + X X X + 7 8 e +.&.,.JXJXJXJXJXJXJXJXJXJXJXJXJXJXJXJXJXJXJXJXJXJXJXJXJXJXJXJXJXJXJXJXJXJXJXJXJXJXJXJXJX",
"JXJX+ O 7 w O.&.4.wXhXcXcXiX<.$.O.e r JXJXJXJXJXJXJXJXJXJXJXJXJXJX% % % % % < < < < % $ . . . . . . X + O 9 8 r e e r 8 7 , , < < * % % % % % % % % % $ o . @ @ X 9 r @.*.,.,.JXJXJXJXJXJXJXJXJXJXJXJXJXJXJXJXJXJXJXJXJXJXJXJXJXJXJXJXJXJXJXJXJXJXJXJXJXJXJXJXJX",
"+ O O 6 9 r O.%.,.6.yXjXcXkXtX5.1.&.*.JXJXJXJXJXJXJXJXJXJXJXJXJXJXA A A A A F F F A b = o . X + + X . X + O 7 9 9 9 7 O + o 1 F F H F F F F F A A A A v * X @ @ + 8 O.*.,.,.1.JXJXJXJXJXJXJXJXJXJXJXJXJXJXJXJXJXJXJXJXJXJXJXJXJXJXJXJXJXJXJXJXJXJXJXJXJXJXJXJXJX",
"+ + + O 7 8 e @.&.<.qXuXhXgXyXqX4.,.*.@.JXJXJXJXJXJXJXJXJXJXJXJXJXS S S S G G g.g.g.G b v 1 1 < % o . @ . O , 2 n N N N B N ~ K.G.H.G.G.F.D.C.g.G G S A v = % - 9 e *.,.,.,.,.JXJXJXJXJXJXJXJXJXJXJXJXJXJXJXJXJXJXJXJXJXJXJXJXJXJXJXJXJXJXJXJXJXJXJXJXJXJXJXJXJX",
"+ + + X + 7 8 O.*.1.6.qXqX5.6.1.&.%.O.r 9 9 JXJXJXJXJXJXJXJXJXJXJXJXJXS S S S S G g.g.C.H H H A v % . @ . - v F K.H.P.I.P.P.U.U.U.U.U.I.I.H.D.Z.g.G S S D A Z I e $.1.3.1.,.&.JXJXJXJXJXJXJXJXJXJXJXJXJXJXJXJXJXJXJXJXJXJXJXJXJXJXJXJXJXJXJXJXJXJXJXJXJXJXJXJXJX",
"+ + + X X + 7 8 e @.%.*.&.*.+.@.O.e w 9 7 O O JXJXJXJXJXJXJXJXJXJXJXJXJXS S S S G H g.g.g.g.g.G A v = = 1 v F F.I.XX@X#X#X@X@XoXXXXX~.U.I.H.F.A.C.G S S S S K ( *.1.6.6.,.*.$.JXJXJXJXJXJXJXJXJXJXJXJXJXJXJXJXJXJXJXJXJXJXJXJXJXJXJXJXJXJXJXJXJXJXJXJXJXJXJXJXJX",
"+ + O O O + X + 7 9 w w r e e r w 9 9 7 O O O + JXJXJXJXJXJXJXJXJXJXJXJXJXJXS S S S S S S G H g.H S S H H Z.H.U.XX$X%X:X:X:X$X$XoXXX~.U.I.H.F.Z.f.G S S S S ] :.4.5.5.6.&.@.O.JXJXJXJXJXJXJXJXJXJXJXJXJXJXJXJXJXJXJXJXJXJXJXJXJXJXJXJXJXJXJXJXJXJXJXJXJXJXJXJXJX",
"+ 7 w @.@.w O 9 e +.@.e e %.1.,.+.w 8 e e w 9 + + JXJXJXJXJXJXJXJXJXJXJXJXJXJXJXS S S S S S G G G S G f.F.I.~.oX$X:X,X1X1X1X,X%X$XoX~.U.I.H.D.f.G S S S S H R.].eXeXqX4.*.O.r JXJXJXJXJXJXJXJXJXJXJXJXJXJXJXJXJXJXJXJXJXJXJXJXJXJXJXJXJXJXJXJXJXJXJXJXJXJXJXJXJX",
"X 9 O.,.1.@.9 w *.4.,.@.O.<.iXiX,.e r +.*.@.9 + X JXJXJXJXJXJXJXJXJXJXJXJXJXJXJXJXS S S S S S S S S G A.I.XX$X:X,X1X2X2X2X2X1X:X$XoXXXU.I.G.Z.H S S S G g.S.T.].tXpX5.1.+.r 8 JXJXJXJXJXJXJXJXJXJXJXJXJXJXJXJXJXJXJXJXJXJXJXJXJXJXJXJXJXJXJXJXJXJXJXJXJXJXJXJXJX",
"+ 7 r +.+.r 7 9 O.%.@.r r *.6.6.%.8 8 e @.e 7 X . JXJXJXJXJXJXJXJXJXJXJXJXJXJXJXJXJXJXJXJXS S S S G C.L.XX$X,X2X3X4X4X4X3X2X,X%X$XoXXXI.H.A.f.G S S S G f.D.W.*XiXwX4.&.e 9 7 JXJXJXJXJXJXJXJXJXJXJXJXJXJXJXJXJXJXJXJXJXJXJXJXJXJXJXJXJXJXJXJXJXJXJXJXJXJXJXJXJX",
"+ O 9 w w 9 + O 9 r w 9 9 e +.+.r 7 7 9 8 9 + X . JXJXJXJXJXJXJXJXJXJXJXJXJXJXJXJXJXJXJXJXJXS S G g.A.U.$X,X3X5X6X6X6X5X3X1X:X$XoXXXY.I.G.Z.G G S S S H K.Q.`.=XyX0X,.@.r 7 + JXJXJXJXJXJXJXJXJXJXJXJXJXJXJXJXJXJXJXJXJXJXJXJXJXJXJXJXJXJXJXJXJXJXJXJXJXJXJXJXJX",
"+ O 9 w w 9 O , 9 w 8 7 7 8 e e 9 + X + O O + + + JXJXJXJXJXJXJXJXJXJXJXJXJXJXJXJXJXJXJXJXJXJXJXg.A.H.!.$X,X3X5X6X6X6X4X2X,X%X$XoX~.I.H.D.S.H G S S G R.`.=XdXaXwX3.%.e w JXJXJXJXJXJXJXJXJXJXJXJXJXJXJXJXJXJXJXJXJXJXJXJXJXJXJXJXJXJXJXJXJXJXJXJXJXJXJXJXJXJXJX",
"+ O 9 8 8 9 O 7 9 8 9 7 O 9 8 8 7 X . . . X + + JXJXJXJXJXJXJXJXJXJXJXJXJXJXJXJXJXJXJXJXJXJXJXJXJXH.I.XX$X,X3X5X6X5X5X3X,X%X$X@XXXU.L.F.Z.g.H G G g.A.W.=XzXvXiX5.&.O.w JXJXJXJXJXJXJXJXJXJXJXJXJXJXJXJXJXJXJXJXJXJXJXJXJXJXJXJXJXJXJXJXJXJXJXJXJXJXJXJXJXJXJXJX",
"JXJX7 7 7 O O O O 7 7 O O O 7 O + X . . . X JXJXJXJXJXJXJXJXJXJXJXJXJXJXJXJXJXJXJXJXJXJXJXJXJXZ.F.L.Y.oX$X,X3X5X5X5X3X1X%X$XoXXX~.I.H.D.f.G G H C.F.L.^.=XkXbXqX,.@.8 7 JXJXJXJXJXJXJXJXJXJXJXJXJXJXJXJXJXJXJXJXJXJXJXJXJXJXJXJXJXJXJXJXJXJXJXJXJXJXJXJXJXJXJXJX",
"JXJXJX+ + + + + + + + + + + + + X X . . . JXJXJXJXJXJXJXJXJXJXJXJXJXJXJXJXJXJXJXJXJXJXJXJXJXC.Z.F.I.~.@X%X,X2X3X3X2X1X:X$XoXXXY.I.H.F.S.G S G f.F.I.OX;X=XiXeX1.@.r 7 X JXJXJXJXJXJXJXJXJXJXJXJXJXJXJXJXJXJXJXJXJXJXJXJXJXJXJXJXJXJXJXJXJXJXJXJXJXJXJXJXJXJXJXJX",
"JXJXJXJXJXJXJXJXJXJXJXJXJXJXJXJXJXJXJXJXJXJXJXJXJXJXJXJXJXJXJXJXJXJXJXJXJXJXJXJXJXJXJXJXJXJXC.Z.F.I.~.@X%X:X,X,X,X%X$X@XXX~.U.I.H.Z.H S S S g.A.L.&XsXdXyXqX1.+.r 9 + X JXJXJXJXJXJXJXJXJXJXJXJXJXJXJXJXJXJXJXJXJXJXJXJXJXJXJXJXJXJXJXJXJXJXJXJXJXJXJXJXJXJXJXJX",
"JXJXJXJXJXJXJXJXJXJXJXJXJXJXJXJXJXJXJXJXJXJXJXJXJXJXJXJXJXJXJXJXJXJXJXJXJXJXJXJXJXJXJXJXJXJXH g.Z.H.U.XX#X$X$X$X#XoXXXY.I.L.J.D.Z.H G G f.Z.J.W.&X=XaXiX0X,.+.r 9 7 O O JXJXJXJXJXJXJXJXJXJXJXJXJXJXJXJXJXJXJXJXJXJXJXJXJXJXJXJXJXJXJXJXJXJXJXJXJXJXJXJXJXJXJXJX",
"JXJXJXJXJXJXJXJXJXJXJXJXJXJXJXJXJXJXJXJXJXJXJXJXJXJXJXJXJXJXJXJXJXJXJXJXJXJXJXJXJXJXJXJXJXJXS G g.A.H.I.Y.XXXXXX!.U.I.H.F.Z.g.G G G C.A.L.!.&XsXdXuXwX6.&.@.r 9 7 9 8 w JXJXJXJXJXJXJXJXJXJXJXJXJXJXJXJXJXJXJXJXJXJXJXJXJXJXJXJXJXJXJXJXJXJXJXJXJXJXJXJXJXJXJXJX",
"JXJXJXJXJXJXJXJXJXJXJXJXJXJXJXJXJXJXJXJXJXJXJXJXJXJXJXJXJXJXJXJXJXJXJXJXJXJXJXJXJXJXJXJXJXJXD S G g.Z.F.H.L.I.L.H.D.Z.g.G G G S G C.G.I.&X;X=XdXiXwX4.&.@.w 9 9 8 r O.@.JXJXJXJXJXJXJXJXJXJXJXJXJXJXJXJXJXJXJXJXJXJXJXJXJXJXJXJXJXJXJXJXJXJXJXJXJXJXJXJXJXJXJXJX",
"JXJXJXJXJXJXJXJXJXJXJXJXJXJXJXJXJXJXJXJXJXJXJXJXJXJXJXJXJXJXJXJXJXJXJXJXJXJXJXJXJXJXJXJXJXJXS S S S S G C.Z.Z.Z.C.H G S S G H S.F.L.!.&X=XdXdXwX5.1.*.O.w 9 8 e O.+.*.&.JXJXJXJXJXJXJXJXJXJXJXJXJXJXJXJXJXJXJXJXJXJXJXJXJXJXJXJXJXJXJXJXJXJXJXJXJXJXJXJXJXJXJXJX",
"JXJXJXJXJXJXJXJXJXJXJXJXJXJXJXJXJXJXJXJXJXJXJXJXJXJXJXJXJXJXJXJXJXJXJXJXJXJXJXJXJXJXJXJXJX;.J S D D D S S S S S S S G G g.A.W.&X-X-X=XfXfXhXiXqX<.&.@.r 9 9 r %.,.,.&.&.JXJXJXJXJXJXJXJXJXJXJXJXJXJXJXJXJXJXJXJXJXJXJXJXJXJXJXJXJXJXJXJXJXJXJXJXJXJXJXJXJXJXJXJX",
"JXJXJXJXJXJXJXJXJXJXJXJXJXJXJXJXJXJXJXJXJXJXJXJXJXJXJXJXJXJXJXJXJXJXJXJXJXJXJXJXJXJXJXJX,.-._ K H H H J J J J J f.K.K.J.J.^.-XcXNXBXMXcXhXiXeX6.1.%.e w 9 9 e ,.6.<.&.*.JXJXJXJXJXJXJXJXJXJXJXJXJXJXJXJXJXJXJXJXJXJXJXJXJXJXJXJXJXJXJXJXJXJXJXJXJXJXJXJXJXJXJXJX",
"JXJXJXJXJXJXJXJXJXJXJXJXJXJXJXJXJXJXJXJXJXJXJXJXJXJXJXJXJXJXJXJXJXJXJXJXJXJXJXJXJXJXJXJX+.=.=.;.;.{.{.].].*X=X=XsXsX=X=X-X=XdXzXxXxXcXjXuXwX5.4.,.+.e 8 9 8 O.&.<.,.%.@.JXJXJXJXJXJXJXJXJXJXJXJXJXJXJXJXJXJXJXJXJXJXJXJXJXJXJXJXJXJXJXJXJXJXJXJXJXJXJXJXJXJXJXJX",
"JXJXJXJXJXJXJXJXJXJXJXJXJXJXJXJXJXJXJXJXJXJXJXJXJXJXJXJXJXJXJXJXJXJXJXJXJXJXJXJXJXJXJXJXw e +.&.<.5.wXiXhXjXcXMXMXMXHXzXjXhXuXiXuXhXhXuXwXqX6.,.*.@.w 8 9 w e $.*.+.e e JXJXJXJXJXJXJXJXJXJXJXJXJXJXJXJXJXJXJXJXJXJXJXJXJXJXJXJXJXJXJXJXJXJXJXJXJXJXJXJXJXJXJXJX",
"JXJXJXJXJXJXJXJXJXJXJXJXJXJXJXJXJXJXJXJXJXJXJXJXJXJXJXJXJXJXJXJXJXJXJXJXJXJXJXJXJXJXJXJX- 9 w e @.%.&.1.3.6.eXtXiXuXuXiXyXwXqX5.qXwXyXyXwX6.1.*.@.w 9 7 9 8 r e e r 8 9 JXJXJXJXJXJXJXJXJXJXJXJXJXJXJXJXJXJXJXJXJXJXJXJXJXJXJXJXJXJXJXJXJXJXJXJXJXJXJXJXJXJXJXJX",
"JXJXJXJXJXJXJXJXJXJXJXJXJXJXJXJXJXJXJXJXJXJXJXJXJXJXJXJXJXJXJXJXJXJXJXJXJXJXJXJXJXJXJX8 8 w e O.@.@.+.+.+.%.*.&.,.1.<.1.1.,.,.,.,.<.6.6.4.,.*.O.w 9 9 9 w e e r 8 9 7 O JXJXJXJXJXJXJXJXJXJXJXJXJXJXJXJXJXJXJXJXJXJXJXJXJXJXJXJXJXJXJXJXJXJXJXJXJXJXJXJXJXJXJXJX",
"JXJXJXJXJXJXJXJXJXJXJXJXJXJXJXJXJXJXJXJXJXJXJXJXJXJXJXJXJXJXJXJXJXJXJXJXJXJXJXJXJXe e @.&.,.6.5.6.3.,.&.*.+.@.e e e O.e e e e O.@.@.+.@.@.e w 9 9 8 e @.+.*.+.O.w 9 O X JXJXJXJXJXJXJXJXJXJXJXJXJXJXJXJXJXJXJXJXJXJXJXJXJXJXJXJXJXJXJXJXJXJXJXJXJXJXJXJXJXJXJXJX",
"JXJXJXJXJXJXJXJXJXJXJXJXJXJXJXJXJXJXJXJXJXJXJXJXJXJXJXJXJXJXJXJXJXJXJXJXJXJXJXJXe O.+.1.eXuXjXzXjXhXyXqX4.,.%.O.e r r w 8 8 8 8 8 8 8 9 7 O + X + 9 r O.@.+.@.e r 9 O + JXJXJXJXJXJXJXJXJXJXJXJXJXJXJXJXJXJXJXJXJXJXJXJXJXJXJXJXJXJXJXJXJXJXJXJXJXJXJXJXJXJXJXJX",
"JXJXJXJXJXJXJXJXJXJXJXJXJXJXJXJXJXJXJXJXJXJXJXJXJXJXJXJXJXJXJXJXJXJXJXJXJXJX8 w e +.1.wXzXNXCXCXCXAXMXjXiXeX6.1.&.%.@.@.O.e w 9 O + + + X X X . X + 7 7 9 9 9 8 8 9 9 7 JXJXJXJXJXJXJXJXJXJXJXJXJXJXJXJXJXJXJXJXJXJXJXJXJXJXJXJXJXJXJXJXJXJXJXJXJXJXJXJXJXJXJXJX",
"JXJXJXJXJXJXJXJXJXJXJXJXJXJXJXJXJXJXJXJXJXJXJXJXJXJXJXJXJXJXJXJXJXJXJXJXJXJX8 r O.%.<.yXcXVXSXSXSXCXNXxXzXhXiXwXqX6.,.&.*.@.e 9 O + + + O 9 9 w r r r 8 9 7 6 7 9 7 7 7 JXJXJXJXJXJXJXJXJXJXJXJXJXJXJXJXJXJXJXJXJXJXJXJXJXJXJXJXJXJXJXJXJXJXJXJXJXJXJXJXJXJXJXJX",
"JXJXJXJXJXJXJXJXJXJXJXJXJXJXJXJXJXJXJXJXJXJXJXJXJXJXJXJXJXJXJXJXJXJXJXJXJXJXe e @.&.<.wXhXcXBXVXNXMXcXzXzXzXjXkXhXiXeX6.1.&.@.r 9 9 9 9 w e $.,.1.,.&.$...t 7 O X X X X JXJXJXJXJXJXJXJXJXJXJXJXJXJXJXJXJXJXJXJXJXJXJXJXJXJXJXJXJXJXJXJXJXJXJXJXJXJXJXJXJXJXJXJX",
"JXJXJXJXJXJXJXJXJXJXJXJXJXJXJXJXJXJXJXJXJXJXJXJXJXJXJXJXJXJXJXJXJXJXJXJXJX+.*.&.1.6.eXiXhXzXzXzXkXuXyXyXyXiXiXuXuXiXyXwX5.<.*...w 9 9 9 w e +.&.,.&.%.@.e r 8 7 O X X . JXJXJXJXJXJXJXJXJXJXJXJXJXJXJXJXJXJXJXJXJXJXJXJXJXJXJXJXJXJXJXJXJXJXJXJXJXJXJXJXJXJXJXJX",
"JXJXJXJXJXJXJXJXJXJXJXJXJXJXJXJXJXJXJXJXJXJXJXJXJXJXJXJXJXJXJXJXJXJXJX@.+.&.<.5.yXuXkXzXzXzXkXuXwX6.<.,.1.<.6.5.eXwXyXtXwX6.,.@.r 9 7 7 9 r O.@.+.@.e r e e w 8 7 O X . JXJXJXJXJXJXJXJXJXJXJXJXJXJXJXJXJXJXJXJXJXJXJXJXJXJXJXJXJXJXJXJXJXJXJXJXJXJXJXJXJXJXJXJX",
"JXJXJXJXJXJXJXJXJXJXJXJXJXJXJXJXJXJXJXJXJXJXJXJXJXJXJXJXJXJXJXJXJXJXJX%.*.,.5.iXjXcXMXBXNXMXxXjXuXwX6.<.1.,.&.,.,.4.5.qXeX5.,.+.e 8 9 8 ( %.,.<.<.,.&.+.e w 9 7 O + X JXJXJXJXJXJXJXJXJXJXJXJXJXJXJXJXJXJXJXJXJXJXJXJXJXJXJXJXJXJXJXJXJXJXJXJXJXJXJXJXJXJXJXJXJX",
"JXJXJXJXJXJXJXJXJXJXJXJXJXJXJXJXJXJXJXJXJXJXJXJXJXJXJXJXJXJXJXJXJXJXJX%.&.<.wXhXzXMXNXVXVXAXMXcXjXuXwXqX6.1.&.%.+.*.,.<.6.6.,.+.e 8 9 r %.1.6.qXeX0X4.&.@.8 7 + X X JXJXJXJXJXJXJXJXJXJXJXJXJXJXJXJXJXJXJXJXJXJXJXJXJXJXJXJXJXJXJXJXJXJXJXJXJXJXJXJXJXJXJXJXJXJX",
"JXJXJXJXJXJXJXJXJXJXJXJXJXJXJXJXJXJXJXJXJXJXJXJXJXJXJXJXJXJXJXJXJXJXe @.*.,.6.wXuXkXzXzXzXvXkXhXiXyXwXeXqX6.1.&.*.%.%.&.,.,.*.O.w 9 7 9 e @.*.&.&.*.+.@.e w 9 9 , O JXJXJXJXJXJXJXJXJXJXJXJXJXJXJXJXJXJXJXJXJXJXJXJXJXJXJXJXJXJXJXJXJXJXJXJXJXJXJXJXJXJXJXJXJXJX",
"JXJXJXJXJXJXJXJXJXJXJXJXJXJXJXJXJXJXJXJXJXJXJXJXJXJXJXJXJXJXJXJXJXw e @.&.1.6.eXiXuXhXhXuXiXyXwXeXqX5.5.6.6.<.,.&.+.@.@.+.+.O.w 9 7 7 8 e @.@.@.@.e r w r w 8 9 9 7 JXJXJXJXJXJXJXJXJXJXJXJXJXJXJXJXJXJXJXJXJXJXJXJXJXJXJXJXJXJXJXJXJXJXJXJXJXJXJXJXJXJXJXJXJXJX",
"JXJXJXJXJXJXJXJXJXJXJXJXJXJXJXJXJXJXJXJXJXJXJXJXJXJXJXJXJXJXJXJXJXr O.*.<.qXiXhXzXcXcXzXhXiXwX5.6.<.,.,.&.&.&.&.*.@.e e e r 8 9 9 9 r +.<.eXeX8X4.,.%.O.w 9 O O + + JXJXJXJXJXJXJXJXJXJXJXJXJXJXJXJXJXJXJXJXJXJXJXJXJXJXJXJXJXJXJXJXJXJXJXJXJXJXJXJXJXJXJXJXJXJX",
"JXJXJXJXJXJXJXJXJXJXJXJXJXJXJXJXJXJXJXJXJXJXJXJXJXJXJXJXJXJXJXJXJXr O.&.6.wXuXjXcXxXxXzXjXuXyXeX6.1.&.%.O.e @.+.@.O.e w 9 7 O + O 9 r %.6.wXwXqX6.1.&.@.w 7 + X . . JXJXJXJXJXJXJXJXJXJXJXJXJXJXJXJXJXJXJXJXJXJXJXJXJXJXJXJXJXJXJXJXJXJXJXJXJXJXJXJXJXJXJXJXJXJX",
"JXJXJXJXJXJXJXJXJXJXJXJXJXJXJXJXJXJXJXJXJXJXJXJXJXJXJXJXJXJXJXJXJXw e %.1.6.wXiXuXhXkXkXhXhXhXuXyXqX<.%.e 8 w r r r w 9 O X X X X + O 9 e @.@.O.e e e e w 9 O X . . JXJXJXJXJXJXJXJXJXJXJXJXJXJXJXJXJXJXJXJXJXJXJXJXJXJXJXJXJXJXJXJXJXJXJXJXJXJXJXJXJXJXJXJXJXJX",
"JXJXJXJXJXJXJXJXJXJXJXJXJXJXJXJXJXJXJXJXJXJXJXJXJXJXJXJXJXJXJXJXJXw e %.1.5.wXwXiXiXyXwXwXwXrXyXwXqX6.&.e 8 9 9 9 9 9 7 + . . . X O 9 w O.+.@.e r w 8 9 9 7 O + X JXJXJXJXJXJXJXJXJXJXJXJXJXJXJXJXJXJXJXJXJXJXJXJXJXJXJXJXJXJXJXJXJXJXJXJXJXJXJXJXJXJXJXJXJXJXJX",
"JXJXJXJXJXJXJXJXJXJXJXJXJXJXJXJXJXJXJXJXJXJXJXJXJXJXJXJXJXJXJXJXJXe @.,.5.wXiXuXiXwXqX4.1.,.,.1.<.6.4.,.+.e 8 7 O O O O JXJX@ . O w @.,.qXwXwX6.&.O.9 O + X X JXJXJXJXJXJXJXJXJXJXJXJXJXJXJXJXJXJXJXJXJXJXJXJXJXJXJXJXJXJXJXJXJXJXJXJXJXJXJXJXJXJXJXJXJXJXJXJXJX",
"JXJXJXJXJXJXJXJXJXJXJXJXJXJXJXJXJXJXJXJXJXJXJXJXJXJXJXJXJXJXJXJXJXe +.1.wXhXjXjXkXiXwX6.<.,.&.*.&.,.,.&.%.@.w 9 O + + X JXJXJX. O r %.<.wXuXiXeX<.+.w 7 + X . JXJXJXJXJXJXJXJXJXJXJXJXJXJXJXJXJXJXJXJXJXJXJXJXJXJXJXJXJXJXJXJXJXJXJXJXJXJXJXJXJXJXJXJXJXJXJXJXJX",
"JXJXJXJXJXJXJXJXJXJXJXJXJXJXJXJXJXJXJXJXJXJXJXJXJXJXJXJXJXJXJXJXJXO.%.4.yXhXzXcXzXjXhXiXeX6.,.*.+.+.$.+.+.@.e 9 7 + X . JXJXJX. O 8 @.&.4.qXqX6.,.%.e 9 O X . JXJXJXJXJXJXJXJXJXJXJXJXJXJXJXJXJXJXJXJXJXJXJXJXJXJXJXJXJXJXJXJXJXJXJXJXJXJXJXJXJXJXJXJXJXJXJXJXJX",
"JXJXJXJXJXJXJXJXJXJXJXJXJXJXJXJXJXJXJXJXJXJXJXJXJXJXJXJXJXJXJXJXJXe @.&.6.wXiXiXiXiXyXwXwX5.<.&.%.@.O.O.O.e r 9 7 O X X JXJXJXJX+ 9 w e +.&.&.%.@.e w 9 + . @ JXJXJXJXJXJXJXJXJXJXJXJXJXJXJXJXJXJXJXJXJXJXJXJXJXJXJXJXJXJXJXJXJXJXJXJXJXJXJXJXJXJXJXJXJXJXJXJXJX",
"JXJXJXJXJXJXJXJXJXJXJXJXJXJXJXJXJXJXJXJXJXJXJXJXJXJXJXJXJXJXJXJXJXt e @.&.1.6.5.5.6.4.6.5.6.6.1.&.@.e r w 8 9 9 7 O O + JXJXJXJXJXO 7 9 8 w w 9 9 7 O + + X X JXJXJXJXJXJXJXJXJXJXJXJXJXJXJXJXJXJXJXJXJXJXJXJXJXJXJXJXJXJXJXJXJXJXJXJXJXJXJXJXJXJXJXJXJXJXJXJXJX",
"JXJXJXJXJXJXJXJXJXJXJXJXJXJXJXJXJXJXJXJXJXJXJXJXJXJXJXJXJXJXJXJXJXw e +.,.6.yXiXwX4.,.&.&.&.,.,.&.+.O.r 8 9 7 7 7 O JXJXJXJXJXJXJX8 8 8 8 8 9 7 O + + O 7 9 w O.JXJXJXJXJXJXJXJXJXJXJXJXJXJXJXJXJXJXJXJXJXJXJXJXJXJXJXJXJXJXJXJXJXJXJXJXJXJXJXJXJXJXJXJXJXJXJXJX",
"JXJXJXJXJXJXJXJXJXJXJXJXJXJXJXJXJXJXJXJXJXJXJXJXJXJXJXJXJXJXJXJXJXe @.&.5.uXcXMXhX5.&.@.e e @.*.*.+.@.e 8 7 O O + JXJXJXJXJXJXJXJX@.@.@.@.e w 9 O + + 7 8 e @.+.*.*.JXJXJXJXJXJXJXJXJXJXJXJXJXJXJXJXJXJXJXJXJXJXJXJXJXJXJXJXJXJXJXJXJXJXJXJXJXJXJXJXJXJXJXJXJXJX",
"JXJXJXJXJXJXJXJXJXJXJXJXJXJXJXJXJXJXJXJXJXJXJXJXJXJXJXJXJXJXJXJXJX@.&.5.hXxXVXVXzXwX,.@.w 8 r O.@.@.@.e w 9 O + X JXJXJXJXJXJXJXJX3.3.<.,.&.@.w 7 O O 7 w o.@.$.%.%.@.@.JXJXJXJXJXJXJXJXJXJXJXJXJXJXJXJXJXJXJXJXJXJXJXJXJXJXJXJXJXJXJXJXJXJXJXJXJXJXJXJXJXJXJXJX",
"JXJXJXJXJXJXJXJXJXJXJXJXJXJXJXJXJXJXJXJXJXJXJXJXJXJXJXJXJXJXJXJXJX%.,.eXkXxXBXBXzXyX3.+.w 9 9 w e O.O.e r 9 7 X . JXJXJXJXJXJXJXJX*X*X'.6.1.%.r 9 O O 7 t e O.@.@.@...e e JXJXJXJXJXJXJXJXJXJXJXJXJXJXJXJXJXJXJXJXJXJXJXJXJXJXJXJXJXJXJXJXJXJXJXJXJXJXJXJXJXJXJX",
"JXJXJXJXJXJXJXJXJXJXJXJXJXJXJXJXJXJXJXJXJXJXJXJXJXJXJXJXJXJXJXJXJXO.%.1.qXyXuXuXiXwX6.*.r 9 7 7 9 8 w w 8 9 7 JXJXJXJXJXJXJXJX#XoXOX^.{.:.&.+.w 9 O O O 9 8 w w w 8 9 9 w O.;.+XoXJXJXJXJXJXJXJXJXJXJXJXJXJXJXJXJXJXJXJXJXJXJXJXJXJXJXJXJXJXJXJXJXJXJXJXJXJXJXJX",
"JXJXJXJXJXJXJXJXJXJXJXJXJXJXJXJXJXJXJXJXJXJXJXJXJXJXJXJXJXJXJXJXJXe e +.&.,.1.<.4.4.1.*.e 8 7 O + O 7 7 7 7 JXJXJXJXJXJXJXJXJXoXXXU.J.~ | @.e 9 O + + + O O 7 7 6 O + O 8 e | Q.!.XXJXJXJXJXJXJXJXJXJXJXJXJXJXJXJXJXJXJXJXJXJXJXJXJXJXJXJXJXJXJXJXJXJXJXJXJXJXJX",
"JXJXJXJXJXJXJXJXJXJXJXJXJXJXJXJXJXJXJXJXJXJXJXJXJXJXJXJXJXJXJXJXJXr r e e e e e O.@.@.@.O.r 9 O + X X X X X JXJXJXJXJXJXJXJXJXI.L.D.H F I 8 7 O X X X X X X X X + . . + 6 8 I K S.D.J.H.JXJXJXJXJXJXJXJXJXJXJXJXJXJXJXJXJXJXJXJXJXJXJXJXJXJXJXJXJXJXJXJXJXJXJXJX",
"JXJXJXJXJXJXJXJXJXJXJXJXJXJXJXJXJXJXJXJXJXJXJXJXJXJXJXJXJXJXJXJXJX*.*.*.*.+.O.e w w w e e e 8 9 7 7 7 + X @ JXJXJXJXJXJXJXJXJXA.Z.g.S b 1 , O X . . . . . . o % % $ X X O 7 3 b D g.Z.A.D.JXJXJXJXJXJXJXJXJXJXJXJXJXJXJXJXJXJXJXJXJXJXJXJXJXJXJXJXJXJXJXJXJXJXJX",
"JXJXJXJXJXJXJXJXJXJXJXJXJXJXJXJXJXJXJXJXJXJXJXJXJXJXJXJXJXJXJXJXJXwXwXyXyXwX6.&.@.w 9 9 w w r r e e O.e JXJXJXJXJXJXJXJXJXJXJXG G G JXJXJXJXJXJXJXJXJXJXJXJXJXb A b JXJXJXJXJXJXJXJXG G G JXJXJXJXJXJXJXJXJXJXJXJXJXJXJXJXJXJXJXJXJXJXJXJXJXJXJXJXJXJXJXJXJXJXJX",
"JXJXJXJXJXJXJXJXJXJXJXJXJXJXJXJXJXJXJXJXJXJXJXJXJXJXJXJXJXJXJXJXwXhXvXcXxXzXuXqX&.e 9 9 r e @.%.&.,.<.6.JXJXJXJXJXJXJXJXJXJXJXS S JXJXJXJXJXJXJXJXJXJXJXJXJXJXJXS JXJXJXJXJXJXJXJXJXJXS JXJXJXJXJXJXJXJXJXJXJXJXJXJXJXJXJXJXJXJXJXJXJXJXJXJXJXJXJXJXJXJXJXJXJXJX",
"JXJXJXJXJXJXJXJXJXJXJXJXJXJXJXJXJXJXJXJXJXJXJXJXJXJXJXJXJXJX+.&.6.uXzXBXAXBXzXiX<.@.w w O.+.&.<.5.wXyXyXwXwXJXJXJXJXJXJXJXJXJXJXJXJXJXJXJXJXJXJXJXJXJXJXJXJXJXJXJXJXJXJXJXJXJXJXJXJXJXJXJXJXJXJXJXJXJXJXJXJXJXJXJXJXJXJXJXJXJXJXJXJXJXJXJXJXJXJXJXJXJXJXJXJXJXJX",
"JXJXJXJXJXJXJXJXJXJXJXJXJXJXJXJXJXJXJXJXJXJXJXJXJXJXJXJXJXJX;X;X;X-X=XfXcXcXhXwX1.@.w w e +.&.<.5.wXyXwXeXeXeXeXJXJXJXJXJXJXJXJXJXJXJXJXJXJXJXJXJXJXJXJXJXJXJXJXJXJXJXJXJXJXJXJXJXJXJXJXJXJXJXJXJXJXJXJXJXJXJXJXJXJXJXJXJXJXJXJXJXJXJXJXJXJXJXJXJXJXJXJXJXJXJXJX",
"JXJXJXJXJXJXJXJXJXJXJXJXJXJXJXJXJXJXJXJXJXJXJXJXJXJXJXJXJXJX2X,X#X!.W.].rXtXeX4.&.e 9 8 r O.%.&.1.4.6.6.6.6.6.5.eXyXiX=X&X#X@XJXJXJXJXJXJXJXJXJXJXJXJXJXJXJXJXJXJXJXJXJXJXJXJXJXJXJXJXJXJXJXJXJXJXJXJXJXJXJXJXJXJXJXJXJXJXJXJXJXJXJXJXJXJXJXJXJXJXJXJXJXJXJXJXJX",
"JXJXJXJXJXJXJXJXJXJXJXJXJXJXJXJXJXJXJXJXJXJXJXJXJXJXJXJX2X1X:X$XY.F.~ | :.1.>.*.O.8 7 9 8 r O.@.+.%.*.%.%.*.&.,.3.8XqX*X^.~.oX$XJXJXJXJXJXJXJXJXJXJXJXJXJXJXJXJXJXJXJXJXJXJXJXJXJXJXJXJXJXJXJXJXJXJXJXJXJXJXJXJXJXJXJXJXJXJXJXJXJXJXJXJXJXJXJXJXJXJXJXJXJXJXJXJX",
"JXJXJXJXJXJXJXJXJXJXJXJXJXJXJXJXJXJXJXJXJXJXJXJXJXJXJX2X1X:X@XU.F.H A Y T o.e r 8 7 O O 9 9 8 r r r r w 8 w e @.%.>.1.:.R.L.XX$X:XJXJXJXJXJXJXJXJXJXJXJXJXJXJXJXJXJXJXJXJXJXJXJXJXJXJXJXJXJXJXJXJXJXJXJXJXJXJXJXJXJXJXJXJXJXJXJXJXJXJXJXJXJXJXJXJXJXJXJXJXJXJXJX",
"JXJXJXJXJXJXJXJXJXJXJXJXJXJXJXJXJXJXJXJXJXJXJXJXJXJXJX:X%X#XU.F.f.G A m 0 9 9 9 O + X + O 6 7 7 9 9 7 - O O 7 9 w ..@.| ~ F.I.XX@XJXJXJXJXJXJXJXJXJXJXJXJXJXJXJXJXJXJXJXJXJXJXJXJXJXJXJXJXJXJXJXJXJXJXJXJXJXJXJXJXJXJXJXJXJXJXJXJXJXJXJXJXJXJXJXJXJXJXJXJXJXJXJX",
"JXJXJXJXJXJXJXJXJXJXJXJXJXJXJXJXJXJXJXJXJXJXJXJXJXJXJXoXXXY.H.C.G S A v - O O + + X X o - - - O + + + X X X X + 7 8 r Y J Z.H.I.U.JXJXJXJXJXJXJXJXJXJXJXJXJXJXJXJXJXJXJXJXJXJXJXJXJXJXJXJXJXJXJXJXJXJXJXJXJXJXJXJXJXJXJXJXJXJXJXJXJXJXJXJXJXJXJXJXJXJXJXJXJXJXJX",
"JXJXJXJXJXJXJXJXJXJXJXJXJXJXJXJXJXJXJXJXJXJXJXJXJXJXJXH.J.J.F.JXJXJXJXJXJXJXJXJXJXJXJXv b b v JXJXJXJXJXJXJXJXJXJXJXJXJXJXJXD.F.F.JXJXJXJXJXJXJXJXJXJXJXJXJXJXJXJXJXJXJXJXJXJXJXJXJXJXJXJXJXJXJXJXJXJXJXJXJXJXJXJXJXJXJXJXJXJXJXJXJXJXJXJXJXJXJXJXJXJXJXJXJXJXJX",
"JXJXJXJXJXJXJXJXJXJXJXJXJXJXJXJXJXJXJXJXJXJXJXJXJXJXJXC.C.C.JXJXJXJXJXJXJXJXJXJXJXJXJXJXS S JXJXJXJXJXJXJXJXJXJXJXJXJXJXJXJXJXC.C.JXJXJXJXJXJXJXJXJXJXJXJXJXJXJXJXJXJXJXJXJXJXJXJXJXJXJXJXJXJXJXJXJXJXJXJXJXJXJXJXJXJXJXJXJXJXJXJXJXJXJXJXJXJXJXJXJXJXJXJXJXJXJX"
};
