/* XPM */
static const char *bos2b4[] = {
/* columns rows colors chars-per-pixel */
"128 128 247 2 ",
"   c #141414",
".  c #1C1A13",
"X  c #1C1C1C",
"o  c #171716",
"O  c #101112",
"+  c #380D0D",
"@  c #241C19",
"#  c #311A0F",
"$  c #2B230E",
"%  c #2B2517",
"&  c #342A14",
"*  c #3B2E16",
"=  c #362A1A",
"-  c #3C2E16",
";  c #1C1E21",
":  c #1F2122",
">  c #242424",
",  c #2B2B2B",
"<  c #282726",
"1  c #352A27",
"2  c #38332A",
"3  c #2D3132",
"4  c #333333",
"5  c #3C3C3C",
"6  c #383737",
"7  c #2D2E30",
"8  c #480505",
"9  c #580202",
"0  c #471A1A",
"q  c #591515",
"w  c #680303",
"e  c #7C0202",
"r  c #750404",
"t  c #691919",
"y  c #781717",
"u  c #462B18",
"i  c #43321A",
"p  c #4B371B",
"a  c #54391C",
"s  c #52290C",
"d  c #6A2804",
"f  c #742B01",
"g  c #742900",
"h  c #7B3402",
"j  c #793607",
"k  c #763A16",
"l  c #68340F",
"z  c #462828",
"x  c #473726",
"c  c #553D21",
"v  c #463A37",
"b  c #553131",
"n  c #6F3330",
"m  c #784517",
"M  c #6E4517",
"N  c #5C4222",
"B  c #594729",
"V  c #48443B",
"C  c #57493C",
"Z  c #5C5432",
"A  c #674726",
"S  c #764A28",
"D  c #79522D",
"F  c #7B5634",
"G  c #695130",
"H  c #756131",
"J  c #5B401F",
"K  c #3D3F41",
"L  c #3F4041",
"P  c #444444",
"I  c #4B4C4C",
"U  c #484747",
"Y  c #564C48",
"T  c #595449",
"R  c #535354",
"E  c #5B5B5B",
"W  c #585858",
"Q  c #4D4F51",
"!  c #734949",
"~  c #685B4A",
"^  c #635957",
"/  c #75544B",
"(  c #6A635A",
")  c #766755",
"_  c #75694F",
"`  c #565669",
"'  c #5D6162",
"]  c #636363",
"[  c #6B6B6C",
"{  c #686868",
"}  c #766A67",
"|  c #78746B",
" . c #6D7172",
".. c #737474",
"X. c #7B7C7C",
"o. c #777878",
"O. c #6E6E71",
"+. c #8B0000",
"@. c #840404",
"#. c #950101",
"$. c #9C0101",
"%. c #980A0A",
"&. c #921515",
"*. c #A50101",
"=. c #AB0000",
"-. c #A20808",
";. c #B30202",
":. c #BC0303",
">. c #AF1818",
",. c #833D05",
"<. c #823D08",
"1. c #903333",
"2. c #AD2727",
"3. c #C70101",
"4. c #D40000",
"5. c #DB0101",
"6. c #E80303",
"7. c #F40404",
"8. c #EC1B1B",
"9. c #D72E2E",
"0. c #E23030",
"q. c #864207",
"w. c #8A4608",
"e. c #8D4A0B",
"r. c #874407",
"t. c #914E0B",
"y. c #94520D",
"u. c #9B5A0D",
"i. c #955610",
"p. c #9B5D13",
"a. c #955915",
"s. c #875016",
"d. c #9E6216",
"f. c #89621E",
"g. c #A56C1A",
"h. c #A46817",
"j. c #AA731C",
"k. c #AC771D",
"l. c #B47C1C",
"z. c #8C5B35",
"x. c #855733",
"c. c #915E37",
"v. c #854F2B",
"b. c #97633A",
"n. c #90702E",
"m. c #AA7925",
"M. c #B17E21",
"N. c #A26E38",
"B. c #8E4F4A",
"V. c #AA5757",
"C. c #936E4F",
"Z. c #A86C42",
"A. c #AB7245",
"S. c #B67549",
"D. c #A67D5E",
"F. c #857C79",
"G. c #90766A",
"H. c #AD776F",
"J. c #CE5252",
"K. c #C37C4E",
"L. c #C46868",
"P. c #B48324",
"I. c #B98B27",
"U. c #BE932C",
"Y. c #B08D35",
"T. c #A99338",
"R. c #C2982E",
"E. c #C49C32",
"W. c #CDAC3A",
"Q. c #C9A436",
"!. c #D2B23D",
"~. c #D9B93F",
"^. c #CEAB38",
"/. c #948A52",
"(. c #B0934E",
"). c #B8A756",
"_. c #928877",
"`. c #A99072",
"'. c #B3A279",
"]. c #CB8456",
"[. c #D7BB44",
"{. c #C7AF4B",
"}. c #C2AB6A",
"|. c #DCC348",
" X c #D6C556",
".X c #E2CC4D",
"XX c #E0C548",
"oX c #E5D252",
"OX c #EBDB57",
"+X c #E6D251",
"@X c #EEE15A",
"#X c #F2E65D",
"$X c #D4CD6E",
"%X c #F4EB62",
"&X c #FDFA6C",
"*X c #F8F467",
"=X c #FCFC73",
"-X c #E8E375",
";X c #E9DA60",
":X c #2B2BAC",
">X c #777787",
",X c #4949AB",
"<X c #4A4ACB",
"1X c #7E8082",
"2X c #838484",
"3X c #8B8B8B",
"4X c #888888",
"5X c #968B87",
"6X c #939394",
"7X c #9C9C9C",
"8X c #989897",
"9X c #929290",
"0X c #A89B99",
"qX c #AD9289",
"wX c #AAA49B",
"eX c #B5A88F",
"rX c #9899A7",
"tX c #9EA1A2",
"yX c #A3A3A3",
"uX c #ABACAC",
"iX c #A7A8A8",
"pX c #B5ACA8",
"aX c #ADB4B4",
"sX c #B4B4B4",
"dX c #BBBCBC",
"fX c #B7B8B7",
"gX c #B6B3AC",
"hX c #C3B9B4",
"jX c #C3AC8D",
"kX c #CDCA92",
"lX c #CDC6B2",
"zX c #E7E0A7",
"xX c #BCC1C2",
"cX c #C4C4C4",
"vX c #CBCBCB",
"bX c #C9C8C6",
"nX c #D3D3D3",
"mX c #DBDBDB",
"MX c #D6DBDB",
"NX c #CDD0D2",
"BX c #E3E3E3",
"VX c #EBEBEB",
"CX c #F0F0F0",
"ZX c #DDE0E2",
"AX c #AEAEC3",
"SX c None",
"DX c black",
/* pixels */
"SXSXSXSXSXSXSXSXSXSXSXSXSXSXSXSXSXSXSXSXSXSXSXSXSXSXSXSXSXSXSXSXSXSXSXSXSXSXSXSXSXSX=.=.=.=.=.*.*.=.;.3.4.5.5.5.5.6.6.7.7.7.6.>.1.W ' '  .X.4X8XyXaXdXdXcXbXbXbXbXbXbXNXnXNXbXcXdXsXiX5XV.1.+.@.e e e e e +.#.*.;.3.4.5.5.SXSXSXSXSXSXSXSXSXSXSXSXSXSXSXSXSXSXSX",
"SXSXSXSXSXSXSXSXSXSXSXSXSXSXSXSXSXSXSXSXSXSXSXSXSXSXSXSXSXSXSXSXSXSXSXSXSXSXSXSXSX*.$.$.#.+.+.+.+.+.#.$.=.=.=.=.;.:.3.4.4.4.4.>.2.1.B.B.B.V.H.8XiXaXdXhXbXbXbXbXbXbXbXvXnXnXvXbXcXdXsXyXqXV.B.1.1.1.1.n n y @.@.+.$.*.=.;.=.SXSXSXSXSXSXSXSXSXSXSXSXSXSXSXSXSXSX",
"SXSXSXSXSXSXSXSXSXSXSXSXSXSXSXSXSXSXSXSXSXSXSXSXSXSXSXSXSXSXSXSXSXSXSX*.*.*.*.*.*.$.#.+.e w 9 9 9 9 9 w w w w w r e +.#.#.#.$.=.:.3.5.6.6.9.J.qXyXaXfXdXbXbXbXbXbXbXbXvXnXnXnXnXvXvXbXbXcXhXhXpXpX0X5X2X} / n q 9 9 w w e #.=.:.4.5.6.SXSXSXSXSXSXSXSXSXSXSXSXSX",
"SXSXSXSXSXSXSXSXSXSXSXSXSXSXSXSXSXSXSXSXSXSXSXSXSXSXSXSXSXSXSXSXSXSXn n 1.1.1.1.B.B.B.B.B.! ! ! ! / / ! ! ! ! ! ! n n n n n n &.%.=.3.5.6.8.0.J.L.qXpXaXdXxXcXbXbXbXvXvXnXnXnXMXMXMXMXMXmXZXZXMXNXcXfXiX6XF.} Y b b z 0 q w e #.$.=.:.3.4.SXSXSXSXSXSXSXSXSXSXSX",
"SXSXSXSXSXSXSXSXSXSXSXSXSXSXSXSXSXSXSXSXSXSXSXSXSXSXSXSXSXSXSXSXU U R E { ..F.3X9X6X6X6X8X8X0XyXuXaXuXiX0X8X8X6X9X2XF...[ ] ^ b t r @.*.:.4.6.7.8.J.H.0XiXaXfXdXbXbXvXnXnXnXMXmXBXBXBXBXVXVXVXVXBXMXvXdXuX7X3XX.O.^ R P z 0 8 9 w e +.=.3.4.SXSXSXSXSXSXSXSXSXSX",
"SXSXSXSXSXSXSXSXSXSXSXSXSXSXSXSXSXSXSXSXSXSXSXSXSXSXSX[ E R U U R W ]  .1X3X6X7XyXiXuXaXsXdXdXbXNXnXnXNXbXcXdXsXuXtX6X3X1Xo.[ ^ Y b t y @.$.3.5.6.8.9.J.L.qXuXfXxXbXvXnXnXnXmXBXBXVXVXVXVXCXCXVXVXBXnXbXdXuX7X3XX.[ ' R P v z 0 8 9 w e #.=.3.4.SXSXSXSXSXSXSXSX",
"SXSXSXSXSXSXSXSXSXSXSXSXSXSXSXSXSXSXSXSXSXSXSXSXSX[ ] E W R I R E ] o.4X6X7XyXiXuXsXdXcXbXbXvXnXmXBXBXBXmXMXvXbXdXuXyX7X6X4X2X..] W v z q w #.;.4.6.7.7.0.L.qXwXsXhXbXvXnXnXmXBXVXVXVXVXVXVXVXVXVXBXMXbXdXuXyX6X4Xo.{ E W I P v 0 8 8 9 w +.*.3.4.5.SXSXSXSXSXSX",
"SXSXSXSXSXSXSXSXSXSXSXSXSXSXSXSXSXSXSXSX6X6X3X4Xo.E U P U R E ] [ o.4X6XyXuXuXsXsXfXdXcXbXvXnXMXBXBXVXVXBXBXnXvXcXdXuXyX7X7X9X2X..] W U v z t r #.:.5.6.7.8.0.J.qXpXdXcXbXnXMXmXBXBXVXVXVXVXVXVXBXBXnXbXdXaXyX7X3XX...[ ] W R U 6 1 = 8 8 w e $.=.3.4.6.SXSXSXSX",
"SXSXSXSXSXSXSXSXSXSXSXSXSXSXSXSXSXSXSX7X7X6X6X3XX.E U 6 P W ] [ o.2X3X7XyXuXaXsXsXsXdXcXbXvXnXMXBXBXBXBXBXBXMXvXbXdXuXyXyX7X6X4XX.[ ] W I P b n y %.:.5.6.7.7.0.L.0XaXxXbXvXnXnXMXmXBXBXBXBXBXBXBXMXnXbXdXsXuX7X6X4XX...[ ] W Q U 5 2 z 0 q w r +.=.3.5.6.SXSXSX",
"SXSXSXSXSXSXSXSXSXSXSXSXSXSXSXSX7X7XyXyXyXyX7X6X4X[ R U U W ] [ o.2X3X7XyXuXuXuXuXsXsXdXcXvXnXMXmXZXBXBXmXMXnXbXcXsXuX7X7X6X4X2XX...] E W W ] ] / 1.>.:.4.6.7.0.L.0XuXfXdXbXbXvXnXnXMXmXmXmXmXmXMXnXvXbXcXsXuXyX8X4XX.o.[ ] ] W I U U I Y b z q w +.=.3.3.SXSXSX",
"SXSXSXSXSXSXSXSXSXSXSXSXSXSXSXyX7X7X7XyXyX6X4X..] W I U R E ] ..X.2X4X6X7XyXyXyXuXuXuXsXsXcXbXvXnXnXnXnXvXbXbXdXsXuXyX7X6X4X4XX.o.[ [ ] E ]  .o.} B.&.#.;.5.6.8.0.J.L.qXgXdXcXbXbXvXnXnXnXnXnXnXnXvXbXcXdXsXuXyX6X3X2XX...[ ] E W I I I U v z 8 9 e $.;.3.4.SXSX",
"SXSXSXSXSXSXSXSXSXSXSXSXSXuXuXyX7X7X7X7X6XX.E 5 4 6 P I W ] [ ..X.X.4X3X6X7X7X7X7X7X0XyXyXuXsXdXdXdXdXdXdXsXsXuXuXyX7X6X4X4XX.X...[ [ ] ] [ ..X.} ! t r $.3.5.6.7.8.0.L.0XaXdXcXbXbXbXbXbXbXbXbXbXbXcXdXsXuXyX7X6X4X4XX.o.[ [ ] W Q U 5 6 1 # 8 9 w +.*.3.5.6.7.",
"SXSXSXSXSXSXSXSXSXSXSXSXSXuXuXuXuXyX7X6X2X[ I 6 , 6 U R W ] [ ....o.X.X.4X4X4X3X3X6X6X6X7X7XyXyXuXuXuXuXyXyXyXyXyX7X6X6X4X4XX.o.[ [ ] ] ] ] ] ] ^ ^ ! n 1.>.4.6.7.7.0.J.qXiXaXxXbXbXbXbXbXbXbXbXbXcXdXdXsXuXyX7X6X4X2XX...[ ] E W R U 5 6 4 v b b t r #.;.4.6.6.",
"SXSXSXSXSXSXSXSXSXSXSXSXSXuXuXuXuXyX7X4X[ W U 6 4 6 U R W ] [ [ [ [ [ [ ..o.X.X.X.2X4X4X3X3X6X6X7X7X8X7X6X7X7X7X7X6X6X3X4X2XX.o.[ ] ] ] ] E R I Q '  .G.B.2.:.4.6.6.9.V.5XtXuXfXdXcXbXbXbXbXbXcXcXdXdXsXuXyX7X6X3X4XX.o.[ ] W W R I U 5 6 L I W ^ n y +.=.3.5.6.",
"SXSXSXSXSXSXSXSXSXSXuXuXsXsXsXyX6XX.[ ] W U 5 6 4 6 U I R W E E E E ] ] ] ] [ [ [ o.X.X.2X4X4X4X3X6X6X6X6X3X3X3X4X4X2X2XX.X.o.[ ] ' E ] ] E R U I E [ } B.2.:.3.4.5.9.V._.8XtXuXsXdXxXcXcXcXcXxXdXdXsXuXyX7X6X6X4X2XX.o.[ ] W R I U U 5 6 5 U R Y n y +.$.;.3.4.",
"SXSXSXSXSXSXSXSXSXSXuXuXsXuXyX3X[ R U P P 5 6 , 4 6 5 U U Q R R R R R W W W W E ] ] [ [ ..o.X.X.2X2X4X4X4X2X2XX.X.X.o.....[ [ ] ' E W E E W I U U W { } B.2.;.:.3.3.2.V.F.6X7XyXuXsXsXdXdXdXdXdXfXsXuXyX7X6X6X4X4XX.X...[ ] W R U U 5 6 6 6 K P v t y +.$.=.;.;.",
"SXSXSXSXSXSXSXSXSXSXsXsXuX7X4X[ U , , , 4 7 , < , , 6 5 P U U U U U U U U I I I R R W W E ] [ [ ....o.o.o.......[ [ [ ] ] ] E E W W W R I U P 5 U W [ } B.2.;.;.;.;.2.B.F.9X8X7XyXiXuXuXuXuXuXuXuXuXuXyX7X6X4X4XX.X...[ ] ] W I U 5 6 4 4 3 3 4 z t %.*.*.$.#.#.",
"SXSXSXSXSXSXSXSXSXSXdXuX7XX.W 5 < o o , 6 6 , < > < , 4 6 5 5 P P P P 5 5 5 P P U U R W ] [ o.X.X.X.X.X.o...[ ] W W W W R R R I I I U U K 6 4 4 L E X.F.V.2.;.=.*.%.1.B.F.9X6X6X6X7XyXyXyXyXyXyXyXyXyX7X6X3X4X2XX.o.[ [ ] E W I P 6 4 4 , , 3 , z t %.=.=.$.+.+.",
"SXSXSXSXSXSXSXSXSXSXcXuX4XR , o   o > 6 U U 6 < X ; < , , , 4 6 6 6 6 6 4 4 6 5 U R E [ X.3X8X7XyXyX7X6X4XX.[ W U P P 5 5 5 5 5 6 6 6 6 4 , < < 6 ' 2X5XV.2.:.*.#.e n B.4X6X3X4X4X3X7XyXyXyXyXyXyXyX7X6X3X4X4X4X1XX.o.[ [ ] W R U 6 6 4 4 , 3 , z t %.=.=.$.+.+.",
"SXSXSXSXSXSXSXSXSXSXcXuXX.P X < P W ] ] W I 6 > o o X > > > < , , , , , , 6 P I ] o.4X7XuXsXxXbXbXbXbXcXsXyX4X[ W U 6 4 4 , , , , < , , , , , , 4 U ' ] B.>.=.$.@.r n G.0XuX7X4X2X4X7X7XyXyX7X7X7X7X7X6X3X4X4X4X4X3X6X6X8X6X3XX.[ W U 6 , < , , 1 t %.;.*.+.e r ",
"SXSXSXSXSXSXSXSXSXSXsXyXX.U 6 R 4XyXyX2X] U , X o o o X X X X > > < , , 4 P W [ X.6XuXsXcXbXnXnXMXmXmXMXnXdXyX4X[ W U 5 6 4 , , < > < , , 4 , , , 4 4 z t @.+.@.w w n H.hXcXiX3X4X4X6X7X7X7X7X7X7X7X7X6X3X4X4X3X6XyXuXsXdXdXsX7X2X[ R 5 , < < 1 0 y %.=.#.e w 9 ",
"SXSXSXSXSXSXSXSXSXSX7X7X4XX.o.4XyXuX6X[ P , X o o o X > > < < , 4 6 6 P U W ] o.2X4X3X6X7X7XwXyXuXuXuXuXuXyX7X7X6X3X4X2Xo.] W R U P P P P 6 3 < < 0 q y r r r w 9 9 n G.sXdXiX3X4X4X6X7X7X7X7X7X7X7X6X3X4X4X6X7X7XyX0X7X4X..{ ' E R U 5 3 1 t &.%.%.$.+.e 9 9 8 ",
"SXSXSXSXSXSXSXSXSXSX2X4X6X7XyX7X8X4Xo.W 5 , X o o o X > < , , 6 6 P U I R W ] ] ] ] E E E E ] ] [ [ [ [ [ o.X.4X6X7XyXyX7X3X2Xo.[ ] W R U 5 3 > # q r +.e w 9 8 8 0 n F.uXaXtX4X2X4X3X6X6X6X6X6X6X6X3X4X2X4X6X7X7X9XX.{ Y v 1 1 z b b v z t &.:.3.*.@.w 9 9 8 8 ",
"SXSXSXSXSXSXSXSXSXSX[ [ X.4X3XX.] I R E ] W 5 >     o X > < , 4 6 5 5 5 5 6 6 6 4 , , , < , , , , , 7 4 6 6 P U W ] ..X.4X4X4X4XX...] W U 6 , > @ 8 w w w 9 8 8 0 v ^ F.8X7X6XX.o.X.2X4X4X4X4X4X4X4X2XX.o.X.4X6X4X[ I 2 0 t r @.%.%.%.%.%.%.#.+.@.w 9 8 8 SXSXSX",
"SXSXSXSXSXSXSXSXSXSXU R ] ..o.] P 4 U [ 4X2X] 6 < X o o o X > < , , , , < > % @ . . .     . . .     . . @ % % < 7 6 U R E ] [ [ [ ] W P 6 4 3 4 7 0 0 8 8 8 + z v W [ 2X9X3X2Xo...o.X.1X2X2XX.2X2X2XX.o.[ ..X.X...Q , @ + w +.#.$.*.*.*.$.+.e w 9 8 8 8 SXSXSXSX",
"SXSXSXSXSXSXSXSXSXSX, 4 U W ] W P 5 R X.7X7X2X] U 6 > o   o o o o o o o o . % % & & $ & & = = = & $ & = = = = = = % < < , 3 4 6 6 4 , < > , 5 U I v 1 @ @ @ 1 v E o.1X2X2XX.o.O.[ ..o.X.X.X.X.X.X.X.X.o...[ [ ] W 5 > . + 8 9 9 9 w 9 9 9 9 9 8 8 8 SXSXSXSXSXSX",
"SXSXSXSXSXSXSXSXSXSXX < 6 U W R U U ] 4XyXyX3X[ W P , > X . . . . . . . . @ $ = * - i p p p p p p p p p p p p p i = % % % % % % % % 1 , 7 6 U R R U L 6 6 6 P I ] [ ....[ [ [ [ [ [ [ [ [ [ [ ..o.o.o...[ ] ] W I 5 , @ @ + + + + + + + + + + + + + SXSXSXSXSXSX",
"SXSXSXSXSXSXSXSXSXSX, , 6 P I R W E o.6XyXyX4X] R U 5 4 1 % $ $ $ & & & & & = * i p c N N N N N A S A A N N A A A c p i i i p i i - x V U I I I I I R R R W W W R R R W W E E ] ] ] ] ] ] ] ] ] [ [ [ ] ] ] E W R U 6 4 , > @ @ @ > > < > > > > @ @ SXSXSXSXSXSX",
"SXSXSXSXSXSXSXSXSXSXI I U P U W [ 2X6XyXyX7XX.] I K 6 7 1 = & & & * * & = = - p p p c N A D F F D S D x.z.z.x.D S D D S A N a p p p x v V P P P P P U P P P U U U U U I Q R W W W W W W W W W W W E W W W R I U U K 6 6 , < > : : : : : : : X X o o SXSXSXSXSXSX",
"SXSXSXSXSXSXSXSXSXSX[ ] W U U E 2X7XyXyX7X4X[ W P 4 , > % % & & * * * * = * i x c c c N D b.Z.b.x.D x.Z.S.S.N.x.x.z.b.b.z.G N N N A B C U I R W W W R I I U U U P P P U U U U I I I I I I I I I I I U U U P 5 6 6 6 6 6 5 5 5 6 6 4 , > X o o o   SXSXSXSXSXSXSX",
"SXSXSXSXSXSXSXSXSXSXE W R U I ] 2X6X6X3XX.[ W P 4 < X X . $ $ & * i i * * i p c N N N A F b.Z.b.z.x.b.S.].].A.c.z.N.S.S.N.x.S A S D / G.4X8XiXsXsXsXuXuXyXyX6XX.R 6 , 7 6 6 5 P P P P P P P P P P P P 5 5 6 4 , , 4 6 U ] X.4X4XX...W 6 X   O SXSXSXSXSXSXSXSXSX",
"SXSXSXSXSXSXSXSXSXSXU U I R W ] o.X.X.[ E I 5 4 < X o   . . $ & * i i i i p a N A N N A x.N.A.Z.c.z.b.S.].].S.b.c.Z.K.K.A.c.D D v.c.C.qXgXbXnXBXBXBXmXMXMXMXbXyXo.I 6 4 , , 4 6 6 6 6 6 6 6 6 6 6 6 6 6 4 , < > < 6 R [ 4X7XuXuXyX9X..U , X SXSXSXSXSXSXSXSXSXSX",
"SXSXSXSXSXSXSXSXSXSX5 P I W E ] E W W I U 6 , X o o     . @ $ & * i i i i p a A A A A A x.Z.S.A.b.z.b.S.].].A.b.c.Z.K.K.A.c.x.x.c.Z.D.qXpXdXbXbXbXbXbXbXbXbXcXfXuX6X..I , X > , , , 4 4 4 4 4 4 4 4 4 , , < o o , I X.6X7XyX7X6X4XX.[ W U 5 SXSXSXSXSXSXSXSXSXSX",
"SXSXSXSXSXSXSXSXSXSX6 6 U R W R I P 5 6 4 , X o         . @ $ & * i i - i p c A A A A A x.Z.S.A.b.z.b.S.].].A.b.c.Z.K.K.A.b.x.x.b.Z.D.`.wXuXsXsXsXdXdXdXdXdXsXdXdXuX4XW , o o X > > < < < < < < , , < < > > > , P ] 4X7X7X6X4XX.[ ] W I U U SXSXSXSXSXSXSXSXSXSX",
"SXSXSXSXSXSXSXSXSXSX, 4 6 P U P 5 6 4 , > o o o     SXSXSX$ $ & * i i - i p c A A A A A x.Z.S.A.b.z.b.S.].].A.c.c.Z.K.K.A.b.x.x.b.Z.D._.5X6X7XyXuXuXuXuXuXuXuXuXyX7XX.R , o o X > > < , < < < < < < > X X , 5 R ] o.2X4X4XX...] W U P 5 6 6 SXSXSXSXSXSXSXSXSXSX",
"SXSXSXSXSXSXSXSXSXSX, , 4 6 6 6 4 , < X o o o   SXSXSXSXSX$ $ & * i i i i i a N N N N A F b.A.N.c.x.b.A.K.S.Z.z.z.N.S.K.Z.z.D D x.b.C.G.X.1X4X3X6X6X6X6X6X6X3X4XX.o.] I 5 5 U W ] ..X.X.X.o.[ ] R P 6 6 6 5 U W ] [ [ [ ] W I U 5 6 4 4 6 SXSXSXSXSXSXSXSXSXSXSX",
"SXSXSXSXSXSXSXSXSXSX< < , , , , > X o o o   SXSXSXSXSXSXSX$ $ & * i i i * i p p a a a N D z.b.b.x.x.z.N.A.A.b.x.x.b.A.A.b.x.S S S D / ) { [ ..o.o.o.o.o.o...[ ] W I I I W ] X.7XuXcXnXMXMXvXdXyX2X[ W I U I R W W W R U P 6 4 , < < > SXSXSXSXSXSXSXSXSXSXSXSXSX",
"SXSXSXSXSXSXSXSXSXSXX > > > > X o o o       SXSXSXSXSXSXSX$ $ $ & & = = = * * - i p a N A G D F z.b.b.c.z.z.c.c.c.z.z.x.x.v.D G B C V Y W W W E E E E E W W W I U I Q E [ X.9XyXdXvXmXBXBXnXbXaX6XX.{ W I U U I I U U 5 6 , , < > X X SXSXSXSXSXSXSXSXSXSXSXSXSX",
"SXSXSXSXSXSXSXSXSXSXo o o o o o o           SXSXSXSXSXSXSX$ $ $ $ $ $ $ & & & & * p a a a a c A x.b.z.D A S x.b.b.x.A A A D D G v 6 6 5 U U U U U U U U P P 5 P U R W ] ..>X4XrXrXAXcXvXvXcXsXwX5XG.) T U P P P P 5 5 6 4 , < > X X o SXSXSXSXSXSXSXSXSXSXSXSXSX",
"SXSXSXSXSXSXSXSXSXSXSXSXo o o o         SXSXSXSXSXSXSXSXSX$ $ $ $ $ $ $ $ $ $ $ & * i p i i i a A S S A J A S x.x.D A N A A S B x 7 , 3 6 6 6 6 6 6 4 4 , , , 6 U R E { O.>X,X<X<X<XrXaXaXuX0XH.J.9.2.n v 5 6 6 6 6 4 4 , > X X X SXSXSXSXSXSXSXSXSXSXSXSXSXSXSX",
"SXSXSXSXSXSXSXSXSXSXSXSXSX            SXSXSXSXSXSXSXSXSXSX$ $ = 2 v V V C Y T T ~ ( ) ) ) ( ( ) ) ) _ _ ~ ~ F D S A a p a N N x 1 > > > < < < < < < > > < < , 6 U R E ( { ` :X:X:X,X>X3X3X3XF.V.9.5.:.&.b 4 3 , , , , < > X o o SXSXSXSXSXSXSXSXSXSXSXSXSXSXSXSX",
"SXSXSXSXSXSXSXSXSXSXSXSXSXSXSXSXSXSXSXSXSXSXSXSXSXSXSXSXSX$ & v W .._.3X9X7XiXsXdXcXbXbXbXbXlXdXgXpXiXwX8X_.) G a p p i p a a i = @ X > > > > X X X X > < 4 6 5 U I R W W E ` ` ` ` { [ [ ] ^ n &.-.%.t 2 , < > X X X X o o o o SXSXSXSXSXSXSXSXSXSXSXSXSXSXSXSX",
"SXSXSXSXSXSXSXSXSXSXSXSXSXSXSXSXSXSXSXSXSXSXSXSXSXSXSXSX} T Y R ] ..F._.`.'.jXkXzXzXzXzXzXzXzXkXjXeX'.`.`.G.G.) ) ( ~ T C C V V V U R ] [ ] W U 6 , X o X < , 6 6 6 5 K P P V V P U U U U U P b t t q 0 < > X o o o o o         SXSXSXSXSXSXSXSXSXSXSXSXSXSXSXSX",
"SXSXSXSXSXSXSXSXSXSXSXSXSXSXSXSXSXSXSXSXSXSXSXSXSXSXuXyX7X4XX.[ ( W ~ n.m.U.Q.[. XoXOXOXOX.X[.{.U.P.m.p.a.z.C.5X8X8X9X2X..^ W E [ 2X7XsXbXdXyX2X] P < o o > , , 4 6 6 6 6 6 6 6 5 5 K P P P v v v v 6 7 , > X o o o o o o o o o SXSXSXSXSXSXSXSXSXSXSXSXSXSXSXSX",
"SXSXSXSXSXSXSXSXSXSXSXSXSXSXSXSXSXSXSXSXSXSXSXSX8X6X6X6X8X7X8X_.C.n.n.P.U.^.|.+X@X#X#X%X#X#XOX.X!.E.I.j.d.d.b.C.G.G.F.X.o.o...o.X.4X7XsXbXxXyX4X[ I 6 4 5 R E ] [ [ ..X.X.2X4X4X3X9X6X6X3X4X4X2X1Xo.[ E Q U 5 6 6 5 U U 5 6 4 , SXSXSXSXSXSXSXSXSXSXSXSXSXSXSXSX",
"SXSXSXSXSXSXSXSXSXSXSXSXSXSXSXSXSXSXSXSXSXSX6X6X6X6X3X3X6X8XqX`.(.P.I.R.!.|.OX%X&X&X=X=X=X=X&X%X.X[.Q.U.P.g.u.e.s.D ~ ]  .X.2XX.X.X.4X7XuXyX6XX.] W U U E o.3X6X7XyXuXsXdXbXvXnXMXmXBXBXMXnXbXcXdXuX7X4Xo.] W R R E [ [ ] R U P SXSXSXSXSXSXSXSXSXSXSXSXSXSXSXSX",
"SXSXSXSXSXSXSXSXSXSXSXSXSXSXSXSXSXSXSXSX7X6X4X4X3X7XuXpXqX`.A.N.m.M.I.R.Q.[..X@X%X&X&X&X&X*X%XoX|.W.E.U.P.g.u.e.r.S ~ E ' ] [ { ] [ X.6XyX7X4X..] I U U W [ X.3X6XyXuXsXdXcXbXnXMXZXBXBXmXnXbXxXsXuX7X4Xo.] R U U R E ] W U P 5 SXSXSXSXSXSXSXSXSXSXSXSXSXSXSXSX",
"SXSXSXSXSXSXSXSXSXSXSXSXSXSXSXSXSXSXSX6X6X6X3X3X6XiXsXpX`.N.a.u.h.j.M.P.U.Q.!.|.oXOX#X#X@XOX.X[.Q.R.I.P.k.h.y.w.m A T R R R R Q I R ] X.4X4Xo.] W U 6 6 P W ] ..X.4X4X6X6X7XyXuXsXdXcXcXdXsXuXyX7X6X2Xo.] W U 6 6 P I I U 5 6 4 SXSXSXSXSXSXSXSXSXSXSXSXSXSXSXSX",
"SXSXSXSXSXSXSXSXSXSXSXSXSXSXSXSXSXSXSX2X4X9XyXsXsXiX6X_.C.v.e.t.y.p.h.j.M.I.R.Q.W.W.!.!.W.W.Q.E.U.P.k.j.h.i.w.h l c C Q I U U L 6 6 U W ] ] W U 5 6 , , 4 5 U I R W W E ] [ [ o.X.2X4X4X2XX.o...[ ] E R U 6 4 , , 4 5 5 6 4 , , SXSXSXSXSXSXSXSXSXSXSXSXSXSXSXSX",
"SXSXSXSXSXSXSXSXSXSXSXSXSXSXSXSXSXSX2XX.X.3XuXdXdXtXX.{ ) C.C.Z.Z.Z.N.g.h.h.g.j.M.P.P.P.I.I.I.P.M.j.h.p.i.e.,.h l n T W R U U U U U I R R I P 6 , < > X > < , , , , , 4 6 6 6 5 P U U U U U P P 5 5 6 4 , < > X > < , , , < > > SXSXSXSXSXSXSXSXSXSXSXSXSXSXSXSX",
"SXSXSXSXSXSXSXSXSXSXSXSXSXSXSXSX8X8X3X2XX.4XyXsXuX6X..] o.5XwXpXpXwX`.C.a.e.w.e.y.i.p.h.g.k.k.j.h.p.i.t.w.,.h f k G ~ ] E R Q E ..X.X.[ E I 5 4 < X o o o o o o o o o o X X X X X X > X X X X X X X o o o o o o o X > < > > X X SXSXSXSXSXSXSXSXSXSXSXSXSXSXSXSX",
"SXSXSXSXSXSXSXSXSXSXSXSXSXSXSXSXkXkXeXeX8X6X6X6X6X3X3X4X3X4X6XiXxXvXhXeX`.C.v.<.h ,.e.y.i.p.p.p.i.t.w.,.h j m D / ~ ^ E R I W ..6XuXyX6XX.[ E R P 6 , > > > < , 6 P U I R W W E ] ] ] ] E W R U U L 6 7 < > o o o o X > < < > > > SXSXSXSXSXSXSXSXSXSXSXSXSXSXSX",
"SXSXSXSXSXSXSXSXSXSXSXSXSXSXSXSX*X*X-XkXgXtX4X..o.3XyXiX9X| } 2XaXvXnXbXgXqXC.S j h ,.q.r.r.r.r.q.q.,.j j S / } ..] W I U U W X.uXbXvXdXyX6X4XX.[ W U 6 6 6 5 I E [ X.4X6XyXuXsXdXdXcXdXsXyX7X3X2Xo.] I 5 4 , < < , 4 6 5 5 5 6 , , < SXSXSXSXSXSXSXSXSXSXSXSXSX",
"SXSXSXSXSXSXSXSXSXSXSXSXSXSXOXOXOXOX$XjXwX6X>XO.[  .X.F.B.1.2.1.B.F.4X8XtX6XF./ G k j h h h h h h h m x.C.G.} [ ] R P 5 P I ] 4XsXnXnXbXdXsXuXyX6XX.] W U U U I W [ o.4X6XyXsXbXvXMXmXmXnXbXsXyX6XX.] I 6 4 6 U R ] X.4X4X4XX.[ R 5 6 SXSXSXSXSXSXSXSXSXSXSXSXSX",
"SXSXSXSXSXSXSXSXSXSXSXSXSX+X.X.X X{.).`._.X.o.o... . .} B.2.>.&.n U W  .2X2Xo.] T C l d d g f f k k x.G._.2X .W U 5 4 4 5 I ] 2XyXdXbXcXdXdXsXsXuX8X4X..E I U U U R E [ X.3XyXsXcXvXnXMXnXcXsX7X4X..W 5 4 6 I [ 4X7XsXcXbXcXsX6X..W U SXSXSXSXSXSXSXSXSXSXSXSXSX",
"SXSXSXSXSXSXSXSXSXSX|.[.!.!.W.{.}.eX_.} R R ] X.6XyXsXuX5XB.n n ( O...[ [ ] W I P 6 2 u s d f S B.G.F.F.X.[ W P 6 , < < , 5 R [ 2X6XtXyXyXuXuXuXuXyX6X4X .W U 5 6 5 P U W ] o.4X6XyXuXsXuX7X3XX.] R 5 4 4 U [ 6XuXcXnXMXMXnXcXyX2X] W SXSXSXSXSXSXSXSXSXSXSXSXSX",
"SXSXSXSXSXSXSXSXSXT.Q.Q.Q.).(.`._.2XO.Q 6 P E X.7XsXcXdX7X..E '  .X...] R U P 5 5 P U I C A S B.G.2X1X .E I 5 4 < X X X > , 6 U W ]  .o.X.4X3X6X6X6X3X2X[ W U 5 6 4 4 4 6 U R ] [ X.2X2XX...] W P 6 , 4 6 R X.7XsXcXbXbXdXsXyX3Xo.] W I SXSXSXSXSXSXSXSXSXSXSXSX",
"SXSXSXSXU U U U T z.m.Y.(.`._.F.] R P 5 6 U W ..2X6X7X7X6X2Xo.[ { ' W I P 5 5 P I ] X.2X2XF.| | [ ] W U 5 4 , > X o o X : > , 7 6 6 P U R W E ] ] ] ] ] E W I P 6 4 , , , , 6 U I R R R I U P 6 , < , 6 I ] X.6X7X7X6X3X2Xo.[ E R U U K 5 6 SXSXSXSXSXSXSXSXSXSX",
"SXSXE W W W W W ^ ~ H z._ | o. .[ ] W W R R W ] [ ..X.X.o.O.{ E W I I R W W W E ] [ o.X.X...[ ] R U 5 3 < ; X o @ = p B G G H H H H Z V 7 7 3 6 5 K L P P P 5 6 4 , < > > > , 4 6 6 6 6 4 , , > X X , 5 Q ' [ o.X.o.[ ] W I U 5 6 6 5 P U I SXSXSXSXSXSXSXSXSXSX",
"[ [ [ ] ] [ o.X.o.{ R U U Q E ..4X7X6X2X[ ] W R I R W W R I U U U U W ] o.X.X...[ ] W I U U U P 6 4 , < % X X % 2 G n.U.Q.W.{.[.[.{.T.G = X X % > < < < , , , < > X o o o X > > < < < < > > X o o X , 6 U R W W W R U U 5 6 4 , < , 6 Q ] [ SXSXSXSXSXSXSXSXSXSX",
"3X3X4XX.X.2X6X7X7X>X] R W ] ..3XuXdXsXyX4X..E U 5 6 6 6 L U Q R W E ' ] ] ] ] E W I U 5 6 4 , < > > % i a M S H /.T.|.+XOX@X@X@XOX.X{.T.n.H G A M J a s * % X o o o o o o o o o o o o o o o o o X > , 6 L P U U P 5 4 7 , > : ; X < 5 ] 2X3XSXSXSXSXSXSXSXSXSXSX",
"uXyX7X3X4X3XyXsXuX3X[ E ] ..4XtXsXcXdXyX3X..W P 4 , , 4 P E } | | | } E I U P U P P 5 6 , > X X @ % i M a.k.U.W.|.OX%X&X&X=X=X*X%X@XoX|.[.W.R.P.g.p.t.j s #   O         o o o o o o o o o o o o X < , , 4 4 4 4 4 2 2 2 1 = % % % , I o.7XuXSXSXSXSXSXSXSXSXSXSX",
"uXyX6X4Xo.X.3X7X6XX.] W W { o.4X6X7X8X4Xo.] U 6 7 6 P W | (.).{.).(.C._ T U U U P 6 4 , > X @ = p M s.d.P.R.!..XOX#X&X&X=X=X=X=X&X*X#XOX|.!.E.I.k.h.y.j s #   O     o o o o X > < < < < < > ; ; ; ; ; ; : : ; ; 1 B H n.f.f.D A x v E 4XuXdXSXSXSXSXSXSXSXSXSXSX",
"7X6X4X..] ] ..2XX.[ R U U Q W ( [ [ [ ] W I L 6 5 T ) /.).{.|.~.Q.I.n.F C V V V 5 6 7 , > ; % i M a.j.I.E.!.|.oX@X#X*X&X&X&X&X*X*X%X@X.X[.Q.U.M.g.p.t.j s #   O     o o o > , 4 6 P U U v x 1 = = = = = = - - x B n.Y.Q.^.E.I.n.H R O.6XsXbXSXSXSXSXSXSXSXSXSXSX",
"X.o.[ W U I W ] ] W U 5 6 6 6 6 5 5 5 6 6 5 P Q ( /.(.).Q.E.U.M.h.i.e.j l l u 1 , 4 6 4 , > < i M a.k.R.W.[..XoXOX@X@X@X#X#X@XOXoX.X|.!.Q.U.P.g.p.y.e.j s #   O     o o o < 4 P R ] O.| _ S m m m m s.f.f.n.m.T.E.{.|..X+X.X|.)./.| 1XyXcXnXSXSXSXSXSXSXSXSXSXSX",
"[ [ E I 5 5 U W W R U 5 4 , > > > < , 4 K I ~ _ /.(.Y.R.I.j.d.y.w.,.j m S A b v 6 6 6 6 2 x a M s.d.M.E.!.|..X.XoXoXoXoXoXoX.X|.[.!.^.E.U.P.g.p.t.w.q.j s #   O     o o X , 5 R [ 2X6X8XG.c.e.e.y.p.h.k.P.R.^.~.XX.XOXOX#X#X@X X(.G._.iXlXNXSXSXSXSXSXSXSXSXSXSX",
"[ [ E I 5 5 P U I I U U 6 , X o o > 3 U E ) /.T.Y.P.j.d.p.y.w.,.h j S / | | { W I L 6 2 c M s.d.g.k.I.Q.!.[.[.[.[.[.[.[.[.[.[.!.W.E.U.I.P.j.d.e.q.,.h d s #   O     o X < 6 I ] 2XtXsXgX`.b.e.w.t.p.h.M.U.Q.W.!.|..XoXOX%X*X*XoXQ.Y.(.eXfXcXSXSXSXSXSXSXSXSXSXSX",
"] E W U 5 6 6 5 K U U U 6 , > X X > 2 C F b.N.m.j.p.t.w.,.q.<.k l c G ( .. .] R U 6 7 2 a m p.g.M.I.R.W.[.[.[.[.[.!.!.W.Q.Q.R.U.I.M.j.g.d.i.w.,.h h f d s #       o o > , 6 R [ 4XuXcXlXqXb.e.w.t.p.g.P.R.Q.W.!.|..XoX@X%X&X*XOX[.Q.).'.wXuXSXSXSXSXSXSXSXSXSXSX",
"I I U P 6 6 4 4 4 6 5 5 6 , < > > < x A s.a.t.r.m j f f d SXSXSXP U I W E W I 5 4 , < 1 p m p.j.P.R.Q.!.[.[.[.[.!.W.Q.R.I.P.k.j.h.p.i.t.w.q.j f g g g d s #     o o X < , 5 R [ 4XuXbXbXeXZ.e.q.t.p.g.P.U.Q.W.[.|..XoXOX%X&X&X%X+X[.{.'.8X8XrXSXSXSXSXSXSXSXSXSX",
"6 6 6 6 6 6 4 , , , 4 4 , , < < > > % i p a p u u u # # # SXSXSXK L P I I U 5 4 , > ; % p m p.j.I.R.^.!.[.[.!.W.Q.R.U.P.k.j.h.p.y.e.e.w.q.,.h f g g g SX# .   o o o X > , 6 I ] 4XuXbXlXqXb.<.,.e.p.g.P.R.Q.W.[.|..XoXOX%X&X&X%XoX[.).`.4X9XiXbXBXSXSXSXSXSXSXSX",
", , 4 6 6 6 , , < < < < < < < > X X X X > > > > X o o   SXSXSXSX6 6 6 K P 5 6 , < ; X % u m i.j.P.U.Q.W.W.W.Q.R.U.P.M.j.h.p.i.y.e.w.q.q.,.,.h f g SXSXSXSX    o o o X > < 6 U ] X.yXdXhX`.z.j h r.i.h.M.U.E.W.[.|..XoXOX%X&X&X%XOX|.)./.G.5XuXvXmXBXSXSXSXSXSXSX",
"SXSXSX, , , < < > > X X X X X X X o o o o o o o o o SXSXSXSXSXSX4 4 6 6 6 6 4 , > X o @ u l e.p.j.P.I.I.I.I.I.P.M.k.h.d.p.y.e.w.w.q.,.h h f f f g SXSXSXSXO   o o o X > < 4 P W ..6XuXpX`.x.j h ,.e.i.h.M.U.Q.!.|..XoXOX%X&X&X*X#XoX{.Y.N.D.eXlXMXZXSXSXSXSXSXSX",
"SXSXSXSX> > > > > X X o o o o o o o o o           SXSXSXSXSXSXSX, , , , , , , < X o   . # l q.y.p.h.g.g.j.j.j.j.g.h.p.y.e.w.q.q.,.,.h h f g g g f h SXSXSX    o o o X > < 4 L R [ 3XyXwXG.x.j f h q.t.p.g.P.U.W.[.|..XoX@X%X*X*X#XOX[.U.j.N.'.hXbXNXSXSXSXSXSXSX",
"SXSXSXSXSXSXX X X X o o o o o o o o o         SXSXSXSXSXSXSXSXSX< < < < < < > X o o   . u l q.w.e.e.y.i.p.p.d.d.p.y.e.w.w.r.q.,.h f f f g g g g f h SXSXSX    o o o X > < 4 5 R ] 2X7X0XG.v.j f h q.e.y.p.g.P.R.Q.!.[.|..XOXOX@X@XOX[.E.P.Y.`.wXsXaXSXSXSXSXSXSX",
"SXSXSXSXSXSXSXSXo o o o o o               SXSXSXSXSXSXSXSXSXSX6 6 6 6 5 P P U I W ' ] ( / m h ,.,.q.w.e.t.y.y.y.t.e.w.q.,.,.h h f f g g g g g g g SXSXSXSX    o o o o X < , 5 U ' X.9X5XG.S f g h h r.e.p.h.k.P.U.E.Q.!.[.|..XoXoX.X[.E.I.Y.`.5X7XrXSXSXSXSXSXSX",
"SXSXSXSXSXSXSXSXSXSXSXSXSXSXSXSXSXSXSXSXSXSXSXSXSXSXSXSXSX6 5 P U R W W ] [ X.4X7XfXbXlXqXB.k j h q.q.r.w.w.w.w.r.r.q.,.h h f g f g g g g g g SXSXSXSXSXSX        o o o > , 6 U W  .4X5XG.v.j f g f h w.i.d.g.k.P.I.U.E.W.!.[.[.[.[.^.R.P.N.D._.4X4XSXSXSXSXSXSX",
"SXSXSXSXSXSXSXSXSXSXSXSXSXSXSXSXSXSXSXSXSXSXSXSXSXSXSXSXSX, , 4 6 5 P U I W ] o.4XyXsXdXpXqXD.C.v.j h h h h h h h h h h h f g g g g f g g g SXSXSXSXSXSXSXSXSX      o o X < , 5 I { X.3X5X_.D.C.v.j h ,.e.y.p.h.j.k.P.I.R.Q.W.W.W.^.E.U.P.N.C.| o.o.SXSXSXSXSXSX",
"SXSXSXSXSXSXSXSXSXSXSXSXSXSXSXSXSXSXSXSXSXSXSXSXSXSXSXSXSXX > > < , 4 6 5 U R E [ X.4X6XiXsXgXqXC.v.j f f g g g g g g g g g g g g g g g g g SXSXSXSXSXSXSXSXSXSX  o o o o > , 6 U E o.3XyXfXfXqXB.j f h ,.w.t.i.p.h.g.k.P.I.U.R.R.U.I.P.m.N.C.) [ { SXSXSXSXSXSX",
"SXSXSXSXSXSXSXSXSXSXSXSXSXSXSXSXSXSXSXSXSXSXSXSXSXSXSXSXSX, , 4 6 5 U W ] [ X.4X4X2XX.X.2X3X6X8XqX`.D.x.j d d g g g g g g g g g g g g g SXSXSXSXSXSXSXSXSXSXSXSX    o o o : < 7 5 R ] X.8XaXgXqXB.j g g h h q.w.e.y.y.i.d.h.g.j.j.j.j.g.h.f.F ~ W W SXSXSXSXSXSX",
"SXSXSXSXSXSXSXSXSXSXSXSXSXSXSXSXSXSXSXSXSXSXSXSXSXSXSXSXSX6 5 P U R E [ X.3X7XuXuX7X4XX...[ [ 1X8XyXqXC.v.S S v.v.v.x.x.v.v.v.S m k k A SXSXSXSXSXSXSXSXSXSXSXSX    o o o X > , 6 U W [ 4XtXwX_.z.j g g g f h ,.,.,.,.q.w.t.i.i.i.y.y.y.y.s.G C U U SXSXSXSXSXSX",
"SXSXSXSXSXSXSXSXSXSXSXSXSXSXSXSXSXSXSXSXSXSXSXSXSXSXSXSXSXP P U I W ] o.4X6XuXdXdXsXuX6X2X[ ' ' { ..o.F._.5X0XwXpXhXhXhXhXpX0X5XF.} ( ( E E SXSXSXSXSXSXSXSXSXSX        o o X < 4 5 I ] X.6X8XG.x.j g g g f f f f f f h h r.w.w.e.w.r.,.j l a x 6 4 SXSXSXSXSXSX",
"SXSXSXSXSXSXSXSXSXSXSXSXSXSXSXSXSXSXSXSXSXSXSXSXSXSXSXSXSX6 6 P U R E [ X.4X7XuXsXuXuX7X4X[ E W R W E { ..1X3X8XtXyXiXiXiXtX8X4Xo.{ E R I I SXSXSXSXSXSXSXSXSXSXSX        o o > , 6 P W [ 2X3X_.C.x.S k f g g g g g g g f h h h h h h h g d u 1 , , SXSXSXSXSXSX",
"SXSXSXSXSXSXSXSXSXSXSXSXSXSXSXSXSXSXSXSXSXSXSXSXSXSXSXSXSX, , 4 6 5 U W ] [ X.2X4X3X3X4XX.[ ] W R U U 5 5 5 P U I R W W W E E W R I U P 5 5 SXSXSXSXSXSXSXSXSXSXSXSXSX    o o o > , 6 U W  .2X3X9X5XG.x.k g g g f f f f f j j j f f f f g d u = < : SXSXSXSXSXSX",
"SXSXSXSXSXSXSXSXSXSXSXSXSXSXSXSXSXSXSXSXSXSXSXSXSXSXSXSXSXSX< , 4 6 5 U I W W ] ] [ [ [ ] E W I U 5 6 , , , 6 5 U E [ X.4X3X6X6X6X6X4X4XX...] I SXSXSXSXSXSXSXSXSXSXSX      o o o > , 6 U W ] ..1X2XF.G.B.B./ B.B.C.C.D.D.D.D.D.C.C.F G c a u 1 SXSXSXSXSXSXSXSX",
"SXSXSXSXSXSXSXSXSXSXSXSXSXSXSXSXSXSXSXSXSXSXSXSXSXSXSXSXSXSXSXSX, , 4 6 6 5 P U U U I U U U P 6 6 4 , , 4 5 U W [ 4XyXfXbXvXnXnXMXnXnXbXsX7XX.W U 5 SXSXSXSXSXSXSXSXSX          o o > , 6 P U R E ] [ o.F._._._.3X8XiXsXhXbXbXhXuX8XF.( I v 5 SXSXSXSXSXSXSXSXSX",
"SXSXSXSXSXSXSXSXSXSXSXSXSXSXSXSXSXSXSXSXSXSXSXSXSXSXSXSXSXSXSXSX> > < , 4 6 6 6 5 5 5 5 6 4 , , , , 4 5 U E ..4X6X7XyXyXuXuXuXuXuXuXiXyX6X4XX.[ E U 6 , SXSXSXSXSXSXSXSXSX      o o o X > < , 5 I W E E E E E ' ] [ o.1X3X6X8X6X4XX.{ R P 6 4 4 SXSXSXSXSXSXSXSX",
"SXSXSXSXSXSXSXSXSXSXSXSXSXSXSXSXSXSXSXSXSXSXSXSXSXSXSXSXSXSXSXSXo X X < , , 4 4 6 6 6 4 , < < < < , 6 I ] ..4X6X6X3X2XX.X.X.2X4X4X3X3X4X4X4X3X6X4X[ W U P SXSXSXSXSXSXSXSXSX          o o o > , K U U K 6 6 5 P U I W E [ o.X.X.X.o.[ ' R U 5 6 4 4 SXSXSXSXSXSX",
"SXSXSXSXSXSXSXSXSXSXSXSXSXSXSXSXSXSXSXSXSXSXSXSXSXSXSXSXSXSXSXSXSXSXSXo o X > < , , , , < > < , 4 6 U W [ [ [ ] E W I R E ..2X6XyXuXsXdXdXbXbXvXbXsX7X4Xo.W U SXSXSXSXSXSXSX          o o > , , , , , , , 6 5 U W { X.3X7XuXsXdXdXdXsXyX6X2X] I P 5 SXSXSXSXSXSX",
"SXSXSXSXSXSXSXSXSXSXSXSXSXSXSXSXSXSXSXSXSXSXSXSXSXSXSXSXSXSXSXSXSXSXSXSX  o o X X X X X X > < , 6 P I W E W I P 5 5 U I E [ X.3X6XyXuXdXcXbXvXvXbXdXuX6Xo.W P 6 SXSXSXSXSXSXSX      o o X > < > X X > , 6 P R ] o.4X7XuXdXbXvXnXnXvXbXdXuX6Xo.W U P SXSXSXSXSXSX",
"SXSXSXSXSXSXSXSXSXSXSXSXSXSXSXSXSXSXSXSXSXSXSXSXSXSXSXSXSXSXSXSXSXSXSXSXSXSXo o o o o o o X < , 6 P U U P P 6 6 P R ] ..o.o...[ ] ] [ X.3X6X6X6X4X2XX.[ W U 5 6 SXSXSXSXSXSXSXSXSXo o o o o o o X < , 6 U W [ 4X7XyXuXsXsXdXfXsXaXuX7X6X4Xo.] W U 5 6 4 SXSXSXSX",
"SXSXSXSXSXSXSXSXSXSXSXSXSXSXSXSXSXSXSXSXSXSXSXSXSXSXSXSXSXSXSXSXSXSXSXSXSXSXSXSX      o o X > , 4 6 6 4 , , 6 5 U W [ [ [ E W R R W ] X.3X6X7X7X7X7X6X3X4XX.[ ] ] SXSXSXSXSXSXSXSXSXo o o X > , 4 6 P I W [ 2X6X7X7X7X7X7X7X8X7X7X6X3X2Xo.[ W U 5 6 , < < SXSXSX",
"SXSXSXSXSXSXSXSXSXSXSXSXSXSXSXSXSXSXSXSXSXSXSXSXSXSXSXSXSXSXSXSXSXSXSXSXSXSXSXSXSXSX  o o o X X > < > X X < 4 P U R W W U 5 5 U W [ X.3X7XuXsXdXbXbXvXbXcXsXyX3Xo.] W SXSXSXSXSXSXSXo o > , 6 L U R E ] ..X.2X4X4X2XX.o.o.X.2X4X6X6X6X4XX.[ W U 6 , > X o SXSXSX",
"SXSXSXSXSXSXSXSXSXSXSXSXSXSXSXSXSXSXSXSXSXSXSXSXSXSXSXSXSXSXSXSXSXSXSXSXSXSXSXSXSXSXSXo o o o o o o o o o > 4 5 P P P P U I W ] [ X.X.F.2X4X4X6X7XyXyXuXyX7X6X4XX.X.o.SXSXSXSXSXSXSX> < , 4 5 U R W ] [ [ ..[ [ [ [ ..X.4X7XuXsXdXcXdXsXyX3XX.] I 5 , < > SXSXSX",
"SXSXSXSXSXSXSXSXSXSXSXSXSXSXSXSXSXSXSXSXSXSXSXSXSXSXSXSXSXSXSXSXSXSXSXSXSXSXSXSXSXSXSXSXSX          o o o > , 4 6 6 4 6 I ] ..o.o.o.[ ] W W E ] ..X.4X4X4XX.X.X.4X4X3XSXSXSXSXSXSXSX, 4 4 6 6 P U R W W W W W W ] [ X.6XuXbXnXBXBXmXnXbXdXuX6Xo.] U 6 , , SXSXSX",
"SXSXSXSXSXSXSXSXSXSXSXSXSXSXSXSXSXSXSXSXSXSXSXSXSXSXSXSXSXSXSXSXSXSXSXSXSXSXSXSXSXSXSXSXSXSXSX      o o o X > < , 4 6 P R E ] E R U 5 6 6 U E o.3X7XuXsXsXuXyX6X2X..[ SXSXSXSXSXSXSX4 4 4 4 6 6 5 P P 5 6 P U W [ 4XyXsXbXnXmXMXnXbXdXsXyX6XX.] R 5 4 , < SXSXSX",
"SXSXSXSXSXSXSXSXSXSXSXSXSXSXSXSXSXSXSXSXSXSXSXSXSXSXSXSXSXSXSXSXSXSXSXSXSXSXSXSXSXSXSXSXSXSXSXSX    o o o o o o > , 5 U U I U 5 4 , , 6 P W ..4X7XuXdXdXdXsXuX6XX.] W R SXSXSXSXSXSX, , , , , , 4 4 4 , , 6 R [ 4XyXdXbXbXbXbXcXdXsXsXuXyX6XX.[ W U 6 4 , SXSXSX",
"SXSXSXSXSXSXSXSXSXSXSXSXSXSXSXSXSXSXSXSXSXSXSXSXSXSXSXSXSXSXSXSXSXSXSXSXSXSXSXSXSXSXSXSXSXSXSXSXSXSXSXo o o   o o , 6 6 6 , , < > , 5 W o.4X3X6X6X6X3X4X4X2XX.o...[ E R U P SXSXSXSX< < > > : > > < , 4 6 R [ 3XyXuXsXsXuX7X7XyXsXdXbXbXcXsXyX6XX.] R U P SXSXSX",
"SXSXSXSXSXSXSXSXSXSXSXSXSXSXSXSXSXSXSXSXSXSXSXSXSXSXSXSXSXSXSXSXSXSXSXSXSXSXSXSXSXSXSXSXSXSXSXSXSXSXSXSX        o > , , < X X > , 6 U ] ..X.o...[ ] ] E W W W W W R I U P P SXSXSXSXX X o o o X > , 4 5 I E o.4X6X7X7X7X7X7X7XuXdXvXnXvXbXsXyX3XX.] R U 5 SXSXSX",
"SXSXSXSXSXSXSXSXSXSXSXSXSXSXSXSXSXSXSXSXSXSXSXSXSXSXSXSXSXSXSXSXSXSXSXSXSXSXSXSXSXSXSXSXSXSXSXSXSXSXSXSXSXSX    o o X X X o > , 5 I I I U P 6 4 4 6 5 P U U U P 6 4 4 6 6 5 SXSXSXSXo o     o X , 6 P I W ] [ [ ..o.X.4X7XuXcXvXnXnXvXcXsX7X2X[ W U 6 4 4 SXSXSX",
"SXSXSXSXSXSXSXSXSXSXSXSXSXSXSXSXSXSXSXSXSXSXSXSXSXSXSXSXSXSXSXSXSXSXSXSXSXSXSXSXSXSXSXSXSXSXSXSXSXSXSXSXSXSXSXSX  o o o o X < , 5 P 5 6 , > X X < 6 U W ] [ [ ] I 5 6 4 4 , SXSXSXSX    o o X < , 6 P I R W W W E [ X.4X7XuXsXsXuXyX7X6X4XX.] W U 6 4 , , SXSXSX",
"SXSXSXSXSXSXSXSXSXSXSXSXSXSXSXSXSXSXSXSXSXSXSXSXSXSXSXSXSXSXSXSXSXSXSXSXSXSXSXSXSXSXSXSXSXSXSXSXSXSXSXSXSXSXSXSXSXSX  o o > < , , , , X o o o > 4 U ] X.6XyXuX7XX.] U 6 , < SXSXSXSX  o o X > , 4 6 5 5 P P U U W [ 2X6X6X6X6X3X2XX.o.o.o.[ ] W U L 6 4 4 SXSXSX",
"SXSXSXSXSXSXSXSXSXSXSXSXSXSXSXSXSXSXSXSXSXSXSXSXSXSXSXSXSXSXSXSXSXSXSXSXSXSXSXSXSXSXSXSXSXSXSXSXSXSXSXSXSXSXSXSXSXSXSXSXo X > > X X o o o X < 6 U [ 3XyXdXbXbXdXyX4X] U 4 , SXSXSXSXSXSXo X > < , , , , 4 6 P U W ] ..X.o.....X.4X6X7XyXyXyX6X4XX.[ W R I SXSXSX",
"SXSXSXSXSXSXSXSXSXSXSXSXSXSXSXSXSXSXSXSXSXSXSXSXSXSXSXSXSXSXSXSXSXSXSXSXSXSXSXSXSXSXSXSXSXSXSXSXSXSXSXSXSXSXSXSXSXSXSXSXSXo o o o o   o o > , P W X.7XsXcXbXbXdXiX3X..R 6 , SXSXSXSXSXSXSXo o X > < < < , 4 P I W W E E E ] [ X.7XuXdXbXbXcXsXyX6XX.[ ] E SXSXSX",
"SXSXSXSXSXSXSXSXSXSXSXSXSXSXSXSXSXSXSXSXSXSXSXSXSXSXSXSXSXSXSXSXSXSXSXSXSXSXSXSXSXSXSXSXSXSXSXSXSXSXSXSXSXSXSXSXSXSXSXSXSXo o o         o X , 6 I ] X.3X7XyXyX6X2X[ W P , < SXSXSXSXSXSXSXo o o o X > , 4 6 U I R I U R E ..4X6XyXsXdXdXsXyX6X2X..] W W R SXSXSX",
"SXSXSXSXSXSXSXSXSXSXSXSXSXSXSXSXSXSXSXSXSXSXSXSXSXSXSXSXSXSXSXSXSXSXSXSXSXSXSXSXSXSXSXSXSXSXSXSXSXSXSXSXSXSXSXSXSXSXSXSXSX< , , , , < > X > < 3 6 U W ] [ [ [ ] W U 6 , < > < SXSXSXSXSXSX  o o o o > , 6 5 P U U U U R ] X.3X6X6X6X6X4X2X..] W U U P P P SXSXSX",
"SXSXSXSXSXSXSXSXSXSXSXSXSXSXSXSXSXSXSXSXSXSXSXSXSXSXSXSXSXSXSXSXSXSXSXSXSXSXSXSXSXSXSXSXSXSXSXSXSXSXSXSXSXSXSXSXSXSXSXSXSXU U R W E W U 6 , , , , , 6 6 6 6 6 4 , < > X X > , 6 5 SXSXSXSX  o o o o > , 6 6 6 6 5 U R E [ X.X.o.[ W R U P 6 4 , < , , , , SXSXSX",
"SXSXSXSXSXSXSXSXSXSXSXSXSXSXSXSXSXSXSXSXSXSXSXSXSXSXSXSXSXSXSXSXSXSXSXSXSXSXSXSXSXSXSXSXSXSXSXSXSXSXSXSXSXSXSXSXSXSXSXSX[ [ [ ......[ E R U 6 4 , < < > > > > > > > > % > < , 6 5 5 5 SXSXo o o X > < , , 4 6 6 P I W ] ] ] ] W U 5 6 5 5 6 4 < > > > > > SXSXSX",
"SXSXSXSXSXSXSXSXSXSXSXSXSXSXSXSXSXSXSXSXSXSXSXSXSXSXSXSXSXSXSXSXSXSXSXSXSXSXSXSXSXSXSXSXSXSXSXSXSXSXSXSXSXSXP U I W ] ..X.4X4X4XX.o.....[ ] R P 6 , > > < , 4 6 6 5 6 6 4 6 6 P U U U U U SXSXSX> < < > < , 6 P U W E E W U 5 6 6 6 P W ] ] R P 4 , > X o SXSXSX",
"SXSXSXSXSXSXSXSXSXSXSXSXSXSXSXSXSXSXSXSXSXSXSXSXSXSXSXSXSXSXSXSXSXSXSXSXSXSXSXSXSXSXSXSXSXSXSXSXSXSXSXSXSXI W ] [ ..X.2X4X6X6X4X2Xo.o.o...] W P 6 4 4 6 U W { o.2X4X2Xo.[ ] ] ] [ O...o.1XSXSXSXX > > > < , 6 U I I I U 5 6 7 4 5 U ] 2X6X6XX.] W U 4 SXSXSXSXSX",
"SXSXSXSXSXSXSXSXSXSXSXSXSXSXSXSXSXSXSXSXSXSXSXSXSXSXSXSXSXSXSXSXSXSXSXSXSXSXSXSXSXSXSXSXSXSXSXSXSXSXSXV P I ] ..X.2X2X2X4X2X2XX...[ [ [ ] E I 5 6 5 U R ] X.5XwXgXlXlXgXwX9X4XX.F.3X8XwXwXSXSXSXo X X > < 4 5 U U U 6 4 , < , 6 I ] 2XyXsXsX7X2X..[ SXSXSXSXSXSX",
"SXSXSXSXSXSXSXSXSXSXSXSXSXSXSXSXSXSXSXSXSXSXSXSXSXSXSXSXSXSXSXSXSXSXSXSXSXSXSXSXSXSXSXSXSXSXSXSXSXU.n.G V U R ] [ [ ] ] E W W I U U U U U K 6 4 4 L I E ~ / b.(.}.$X$XkXkX$X`.| ( C./.(.(.SXSXSXo o : < , 6 5 U P 6 , > X X , 5 E X.6XyXsXuX6XX.[ [ SXSXSXSXSXSX",
"SXSXSXSXSXSXSXSXSXSXSXSXSXSXSXSXSXSXSXSXSXSXSXSXSXSXSXSXSXSXSXSXSXSXSXSXSXSXSXSXSXSXSXSXSXSXSXSXI.P.n.G V 6 K U U U P 5 6 6 4 , , , < < < < < < , 5 U T G m q.p.P.^..X#X&X$X/.~ C G f.j.l.SXSXSX  o X < , 4 6 6 6 , > X X < 4 I [ 4X6X7X7X3XX.] W W SXSXSXSXSXSX",
"SXSXSXSXSXSXSXSXSXSXSXSXSXSXSXSXSXSXSXSXSXSXSXSXSXSXSXSXSXSXSXSXSXSXSXSXSXSXSXSXSXSXSXSXSXM.k.j.h.i.m a 2 , , 3 , , < < > > : X o o o o o o o X > 7 6 v c l h e.h.P.!.OX*X$X/.V 2 a s.d.h.SXSXSXO o o X < , , , , < > < , 6 U ] X.3X6X4XX.[ W U P P SXSXSXSXSXSX",
"SXSXSXSXSXSXSXSXSXSXSXSXSXSXSXSXSXSXSXSXSXSXSXSXSXSXSXSXSXSXSXSXSXSXSXSXSXSXSXSXSXSXSXSXSXh.h.p.y.q.l u 1 < > < > X o o o o o o o           o o ; < 4 6 x l j ,.e.d.I.[.OX X/.Z = s m e.t.SXSXSX  o o o X X > > < < , , 6 U R ] ..o.o.[ E R U 5 6 6 SXSXSXSXSXSX",
"SXSXSXSXSXSXSXSXSXSXSXSXSXSXSXSXSXSXSXSXSXSXSXSXSXSXSXSXSXSXSXSXSXSXSXSXSXSXSXSXSXSXSXSXSXe.e.e.SXSXSXSXSXSXSXSXSXSXSXSXSXSXSXSXSXSXSXSXSXSXSXSXSXSXSXSXSXSXSXSXf h a.I.!.|.SXSXSXd f f h SXSXSX: > X o o o X > < , 4 6 P U I I I I U U P 5 6 6 6 6 SXSXSXSXSXSX",
"SXSXSXSXSXSXSXSXSXSXSXSXSXSXSXSXSXSXSXSXSXSXSXSXSXSXSXSXSXSXSXSXSXSXSXSXSXSXSXSXSXSXSXSXSXSXSXSXSXSXSXSXSXSXSXSXSXSXSXSXSXSXSXSXSXSXSXSXSXSXSXSXSXSXSXSXSXSXSXSXSXf y.g.P.I.SXSXSXSXSXSXSXSXV 6 7 , > X o o X > , 4 5 P U U P 5 6 , , < < < < < , , SXSXSXSXSXSX",
"SXSXSXSXSXSXSXSXSXSXSXSXSXSXSXSXSXSXSXSXSXSXSXSXSXSXSXSXSXSXSXSXSXSXSXSXSXSXSXSXSXSXSXSXSXSXSXSXSXSXSXSXSXSXSXSXSXSXSXSXSXSXSXSXSXSXSXSXSXSXSXSXSXSXSXSXSXSXSXSXSXSXSXp.d.d.SXSXSXSXSXSXSXR I U 5 4 , > X o X > < 4 5 P P 5 6 , < > X X X X X X X X SXSXSXSXSXSX",
"SXSXSXSXSXSXSXSXSXSXSXSXSXSXSXSXSXSXSXSXSXSXSXSXSXSXSXSXSXSXSXSXSXSXSXSXSXSXSXSXSXSXSXSXSXSXSXSXSXSXSXSXSXSXSXSXSXSXSXSXSXSXSXSXSXSXSXSXSXSXSXSXSXSXSXSXSXSXSXSXSXSXSXSXSXSXSXSXSXSXSX] [ [ [ E I 5 4 < X o o X > < , 4 4 , , 4 4 6 5 U U P 6 , , < SXSXSXSXSXSX",
"SXSXSXSXSXSXSXSXSXSXSXSXSXSXSXSXSXSXSXSXSXSXSXSXSXSXSXSXSXSXSXSXSXSXSXSXSXSXSXSXSXSXSXSXSXSXSXSXSXSXSXSXSXSXSXSXSXSXSXSXSXSXSXSXSXSXSXSXSXSXSXSXSXSXSXSXSXSXSXSXSXSXSXSXSXSXSXSXSX] [ [ o.X.X...] I 5 , > X X X X > < , , 6 5 U R E [ X.2XX.[ W I U SXSXSXSXSXSX",
"SXSXSXSXSXSXSXSXSXSXSXSXSXSXSXSXSXSXSXSXSXSXSXSXSXSXSXSXSXSXSXSXSXSXSXSXSXSXSXSXSXSXSXSXSXSXSXSXSXSXSXSXSXSXSXSXSXSXSXSXSXSXSXSXSXSXSXSXSXSXSXSXSXSXSXSXSXSXSXSXSXSXSXSXSXSXSX] [ [ o.X.4X4X4XX.[ W U 6 , < < < < , 4 5 U W ] ..X.3XyXsXxXdXiX8X3X4XSXSXSXSXSXSX",
"SXSXSXSXSXSXSXSXSXSXSXSXSXSXSXSXSXSXSXSXSXSXSXSXSXSXSXSXSXSXSXSXSXSXSXSXSXSXSXSXSXSXSXSXSXSXSXSXSXSXSXSXSXSXSXSXSXSXSXSXSXSXSXSXSXSXSXSXSXSXSXSXSXSXSXSXSXSXSXSXSXSXSXSXSXSX[ ] ] [ ..o.X.X.X...] W U 5 6 , , , 4 6 U W ] X.4X7XyXsXfXlXlXlXlXkXkXkXSXSXSXSXSXSX",
"SXSXSXSXSXSXSXSXSXSXSXSXSXSXSXSXSXSXSXSXSXSXSXSXSXSXSXSXSXSXSXSXSXSXSXSXSXSXSXSXSXSXSXSXSXSXSXSXSXSXSXSXSXSXSXSXSXSXSXSXSXSXSXSXSXSXSXSXSXSXSXSXSXSXSXSXSXSXSXSX6 5 I ] o.X...{ ] W W R W E E W R U P 5 6 4 , , 6 U W [ 2X6XyXsXdXhXpX'.(.{. X-X=X=XSXSXSXSXSXSX",
"SXSXSXSXSXSXSXSXSXSXSXSXSXSXSXSXSXSXSXSXSXSXSXSXSXSXSXSXSXSXSXSXSXSXSXSXSXSXSXSXSXSXSXSXSXSXSXSXSXSXSXSXSXSXSXSXSXSXSXSXSXSXSXSXSXSXSXSXSXSXSXSXSXSXSXSXSXSXSXD A B C ~ ] { ] E W U 5 6 6 5 P 5 6 6 4 4 , , < , 4 5 R ] ..2X3X7XyXiX`.A.g.l.E.XXOX#X*XSXSXSXSXSX",
"SXSXSXSXSXSXSXSXSXSXSXSXSXSXSXSXSXSXSXSXSXSXSXSXSXSXSXSXSXSXSXSXSXSXSXSXSXSXSXSXSXSXSXSXSXSXSXSXSXSXSXSXSXSXSXSXSXSXSXSXSXSXSXSXSXSXSXSXSXSXSXSXSXSXSXSXSXk.j.d.y.r.M B V U I I U 5 4 , < < < < < < > > X X o X > , 6 P U W E [ ..o.) x.s.y.j.U.W..X#X&X&XSXSXSX",
"SXSXSXSXSXSXSXSXSXSXSXSXSXSXSXSXSXSXSXSXSXSXSXSXSXSXSXSXSXSXSXSXSXSXSXSXSXSXSXSXSXSXSXSXSXSXSXSXSXSXSXSXSXSXSXSXSXSXSXSXSXSXSXSXSXSXSXSXSXSXSXSXSXSXSXk.g.d.p.y.w.h l u 1 , 3 6 6 , < X X o o o o o o o o o o o o X > , 4 6 5 P Q R Y A j ,.e.p.m.Q.|.OX@XSXSXSX",
"SXSXSXSXSXSXSXSXSXSXSXSXSXSXSXSXSXSXSXSXSXSXSXSXSXSXSXSXSXSXSXSXSXSXSXSXSXSXSXSXSXSXSXSXSXSXSXSXSXSXSXSXSXSXSXSXSXSXSXSXSXSXSXSXSXSXSXSXSXSXSXSXSXSXj.g.d.y.w.,.h f s # . o X < < > X o o o o                   o o o X > < , 7 6 v x a d h h ,.i.m.E.!.[.SXSXSX",
"SXSXSXSXSXSXSXSXSXSXSXSXSXSXSXSXSXSXSXSXSXSXSXSXSXSXSXSXSXSXSXSXSXSXSXSXSXSXSXSXSXSXSXSXSXSXSXSXSXSXSXSXSXSXSXSXSXSXSXSXSXSXSXSXSXSXSXSXSXSXSXSXSXSXy.y.y.e.SXSXSXSXSXSXSXSXSXSXSXSXSXSXSXSXSXSXSXSXSXSXSXSXSXSXSXSXSXSXSXSXSXu s s l l SXSXSXSXSXh.j.m.m.SXSXSX",
"SXSXSXSXSXSXSXSXSXSXSXSXSXSXSXSXSXSXSXSXSXSXSXSXSXSXSXSXSXSXSXSXSXSXSXSXSXSXSXSXSXSXSXSXSXSXSXSXSXSXSXSXSXSXSXSXSXSXSXSXSXSXSXSXSXSXSXSXSXSXSXSXSXq.q.q.q.SXSXSXSXSXSXSXSXSXSXSXSXSXSXSXSXSXSXSXSXSXSXSXSXSXSXSXSXSXSXSXSXSXSXSXg g g SXSXSXSXSXSXSXp.p.p.SXSXSX"
};
