/* XPM */
static const char *bos2h2[] = {
/* columns rows colors chars-per-pixel */
"128 128 256 2 ",
"   c #0C1908",
".  c #1B170C",
"X  c #141414",
"o  c #1C1C1C",
"O  c #181818",
"+  c #0E1012",
"@  c #271A0C",
"#  c #241C18",
"$  c #38130E",
"%  c #14290D",
"&  c #1A3813",
"*  c #14270E",
"=  c #28231A",
"-  c #382816",
";  c #302D10",
":  c #242424",
">  c #2B2B2B",
",  c #292726",
"<  c #342B25",
"1  c #38352A",
"2  c #333333",
"3  c #3B3B3B",
"4  c #383837",
"5  c #2C302F",
"6  c #1E1F22",
"7  c #470505",
"8  c #570605",
"9  c #481616",
"0  c #541816",
"q  c #670607",
"w  c #7A0606",
"e  c #711717",
"r  c #432C17",
"t  c #45321B",
"y  c #4B351B",
"u  c #54381D",
"i  c #52260C",
"p  c #732B00",
"a  c #7A2B00",
"s  c #7A3403",
"d  c #6B300C",
"f  c #492727",
"g  c #483724",
"h  c #593C23",
"j  c #443B37",
"k  c #583131",
"l  c #663636",
"z  c #742F2B",
"x  c #244A19",
"c  c #27551E",
"v  c #374C19",
"b  c #2A5B21",
"n  c #394936",
"m  c #2E6324",
"M  c #336927",
"N  c #37772C",
"B  c #377E31",
"V  c #1D4417",
"C  c #484F19",
"Z  c #744616",
"A  c #5B4225",
"S  c #48443A",
"D  c #594939",
"F  c #54522F",
"G  c #624424",
"H  c #6A4828",
"J  c #744D2B",
"K  c #794D2B",
"L  c #7C522E",
"P  c #77522B",
"I  c #6F5335",
"U  c #736A32",
"Y  c #51702F",
"T  c #3D3E41",
"R  c #3E4142",
"E  c #434343",
"W  c #4B4B4B",
"Q  c #484747",
"!  c #564946",
"~  c #545454",
"^  c #5B5B5B",
"/  c #595756",
"(  c #50514D",
")  c #675849",
"_  c #665A57",
"`  c #72504B",
"'  c #53714F",
"]  c #6D6656",
"[  c #646464",
"{  c #6B6B6C",
"}  c #676868",
"|  c #756A68",
" . c #737373",
".. c #7C7C7C",
"X. c #787777",
"o. c #72736C",
"O. c #5E6062",
"+. c #453F45",
"@. c #840303",
"#. c #990202",
"$. c #901A1A",
"%. c #A70202",
"&. c #B80303",
"*. c #AE1616",
"=. c #823C05",
"-. c #823C18",
";. c #892626",
":. c #983737",
">. c #90302F",
",. c #AA3636",
"<. c #C90404",
"1. c #D60606",
"2. c #E70303",
"3. c #F80101",
"4. c #E71616",
"5. c #D72E2E",
"6. c #894709",
"7. c #914E0D",
"8. c #985A13",
"9. c #8E5312",
"0. c #9B6217",
"q. c #9D600D",
"w. c #A36818",
"e. c #AA741D",
"r. c #B0721D",
"t. c #885934",
"y. c #925E36",
"u. c #8D4B28",
"i. c #98643A",
"p. c #8F6D2D",
"a. c #A3693E",
"s. c #AC7A28",
"d. c #A34B37",
"f. c #A23C43",
"g. c #8D4F4C",
"h. c #AA4646",
"j. c #B5504F",
"k. c #8C734C",
"l. c #A66C42",
"z. c #B77649",
"x. c #AE744A",
"c. c #847976",
"v. c #906E67",
"b. c #A96B6B",
"n. c #C65A5A",
"m. c #D64F4F",
"M. c #C27B4D",
"N. c #D16B6B",
"B. c #E87272",
"V. c #F25656",
"C. c #3E8633",
"Z. c #438835",
"A. c #46963A",
"S. c #51812E",
"D. c #629A3C",
"F. c #519548",
"G. c #4DA542",
"H. c #51AD46",
"J. c #56B74B",
"K. c #5BB754",
"L. c #70A268",
"P. c #5CC853",
"I. c #5CCA54",
"U. c #64D85B",
"Y. c #66CC55",
"T. c #68E05F",
"R. c #6AE763",
"E. c #71F168",
"W. c #6CC766",
"Q. c #938C38",
"!. c #B78726",
"~. c #AF9035",
"^. c #B2A23A",
"/. c #C49B32",
"(. c #C2982D",
"). c #CAA638",
"_. c #D5B53D",
"`. c #D3AF3B",
"'. c #978D4F",
"]. c #AF944A",
"[. c #BAAA48",
"{. c #968B72",
"}. c #AD946E",
"|. c #B6B079",
" X c #8EB34B",
".X c #CA8354",
"XX c #D58A57",
"oX c #D18D4C",
"OX c #E89557",
"+X c #D8BB44",
"@X c #CDAE51",
"#X c #C8B36A",
"$X c #E3BC50",
"%X c #8BF267",
"&X c #AAE863",
"*X c #DDC549",
"=X c #D2CD58",
"-X c #E2CA4A",
";X c #E8D856",
":X c #E8D350",
">X c #EDE25D",
",X c #F3E65C",
"<X c #E4D86C",
"1X c #F4EC65",
"2X c #FAF669",
"3X c #F5F470",
"4X c #D0DE6A",
"5X c #7E7E81",
"6X c #7E8282",
"7X c #838383",
"8X c #8C8C8C",
"9X c #898787",
"0X c #948886",
"qX c #939393",
"wX c #9B9B9C",
"eX c #989798",
"rX c #90918E",
"tX c #AC9390",
"yX c #B3AD94",
"uX c #9DA3A2",
"iX c #A4A4A4",
"pX c #ACACAC",
"aX c #A7A8A8",
"sX c #B5A9A8",
"dX c #B3B3B3",
"fX c #BCBCBC",
"gX c #B8B8B7",
"hX c #B2B3AE",
"jX c #9AA29D",
"kX c #F18888",
"lX c #C5BAB9",
"zX c #C5A4A4",
"xX c #CE9F92",
"cX c #D4CB8E",
"vX c #CCC6B5",
"bX c #E8E09D",
"nX c #BDBDC1",
"mX c #BFC1C2",
"MX c #C4C4C4",
"NX c #CBCBCB",
"BX c #C9C8C8",
"VX c #D5C9C7",
"CX c #D3D3D3",
"ZX c #DBDBDB",
"AX c #D9D7D5",
"SX c #D0D1D0",
"DX c #EDEBD4",
"FX c #E3E3E3",
"GX c #EBEBEB",
"HX c #E6E7E8",
"JX c #F0F0F0",
"KX c #E0D9D9",
"LX c #C1BEC1",
"PX c None",
"IX c black",
"UX c #B67E81",
/* pixels */
"PXPXPXPXPXPXPXPXPXPXPXPXPXPXPXPXPXPXPXPXPXPXPXPXPXPXPXPXPXPXPXPXPXPXPXPXPXPXPXPXPXPXPXPXPXPXdXdXgXgXpXwX8X..} ~ R z &.2.2.<.&.%.#.@.@.w PXPXPXPXPXPXPXPXPXPXPXPXPXPX3.3.3.3.2.1.<.&.%.%.#.#.PXPXPX/ [ X.9X8XeXwXiXpXgXfXMXBXBXMXfXaXeXeXPXPXPXPXPXPXPXPXPXPXPXPX",
"PXPXPXPXPXPXPXPXPXPXPXPXPXPXPXPXPXPXPXPXPXPXPXPXPXPXPXPXPXPXPXPXPXPXPXPXPXPXPXPXPXPXPXPXPXMXMXMXfXfXpXeX0Xv.g.>.z $.&.<.&.%.#.;.>.>.:.g.PXPXPXPXPXPXPXPXPXPXPXPXPXPX3.3.2.2.<.&.%.#.@.@.@.w 8 PXQ / [ X.9XqXwXiXaXdXfXMXNXCXCXCXNXfXdXaXeXPXPXPXPXPXPXPXPXPXPXPX",
"PXPXPXPXPXPXPXPXPXPXPXPXPXPXPXPXPXPXPXPXPXPXPXPXPXPXPXPXPXPXPXPXPXPXPXPXPXPXPXPXPXeXwXpXMXNXCXCXBXfXiX8Xb.5.4.2.1.<.%.#.@.q z v.0XeXwXaXdXgXpXiXeX7X .[ / W ! ;.2.3.3.2.<.&.#.@.q 8 8 8 8 7 $ , 3 ~ [ X.9XeXiXpXdXfXMXCXCXZXFXFXHXFXCXfXiX9X .[ [ PXPXPXPXPXPXPX",
"PXPXPXPXPXPXPXPXPXPXPXPXPXPXPXPXPXPXPXPXPXPXPXPXPXPXPXPXPXPXPXPXPXPXPXPXPXPXPXPX8XwXpXfXNXCXCXCXmXpXtXj.5.4.3.1.&.#.;.z l ` v.wXgXmXBXNXBXMXfXgXiXeX9XX.| ` ;.*.1.2.<.&.#.w e z l k k f - $ # > 3 / [  .7XeXiXdXfXmXBXCXZXFXHXGXJXGXFXNXpXqXX.[ / Q PXPXPXPXPXPX",
"PXPXPXPXPXPXPXPXPXPXPXPXPXPXPXPXPXPXPXPXPXPXPXPXPXPXPXPXPXPXPXPXPXPXPXPXPXPXPXX.8XaXMXNXCXCXNXfXaX0Xj.4.2.1.<.%.@.z ` X.9XeXpXLXCXZXFXFXFXZXCXMXgXaXwXqXc.h.4.1.<.&.#.@.q 8 k _ o.{ [ ( 4 > > 2 E / [ { ..8XiXpXfXMXMXBXCXFXHXGXGXGXFXCXgXeX..[ ~ E 4 PXPXPXPXPX",
"PXPXPXPXPXPXPXPXPXPXPXPXPXPXPXPXPXPXPXPXPXPXPXPXPXPXPXPXPXPXPXPXPXPXPXPXPXPXPX7XqXdXBXCXCXMXdXeX.._ :.1.<.$.z ` ` v.qXiXdXfXMXBXCXZXHXHXFXZXNXMXdXiXiXaXsXtXb.j.g.z q 8 0 k _ X.9X6X .^ Q 4 2 4 Q / O.} X.9XeXiXpXgXfXMXCXZXFXHXHXFXZXBXdXeXX.[ W Q 3 PXPXPXPXPX",
"PXPXPXPXPXPXPXPXPXPXPXPXPXPXPXPXPXPXPXPXPXPXPXPXPXPXPXPXPXPXPXPXPXPXPXPXPXPX .X.8XaXfXfXdXiXqXX.[ ( z $.$.l /  .rXiXgXMXMXMXMXfXMXCXFXFXFXZXBXfXpXaXdXfXfXgXaXrX ./ f 9 k _ ..qXwXqX..} ~ E 4 4 E W / ^ } X.8XeXwXiXpXfXMXCXZXZXZXZXCXMXpXqXX.[ ~ W E PXPXPXPXPX",
"PXPXPXPXPXPXPXPXPXPXPXPXPXPXPXPXPXPXPXPXPXPXPXPXPXPXPXPXPXPXPXPXPXPXPXPXPX/ ^ } X.8XqX9XX.X.X. . .} _ l ! ] ..eXpXfXMXMXMXfXdXaXpXMXCXZXZXCXMXfXfXMXMXBXMXfXpXiXeX7X_ ! ~ { 8XaXgXiX8XX.^ W 4 2 2 3 Q W ^ [  ...9X8XeXiXpXfXMXMXBXBXMXgXiX8XX.[ / W 4 , o PXPXPX",
"PXPXPXPXPXPXPXPXPXPXPXPXPXPXPXPXPXPXPXPXPXPXPXPXPXPXPXPXPXPXPXPXPXPXPXPXX.{ } [ ^ [ [ [ [ } X...7X.. .O.} 9XiXdXfXfXfXfXfXfXgXdXgXMXCXZXZXNXfXgXfXMXMXMXfXdXaXpXgXiX7X . .7XwXfXBXfXwX7X[ W E 3 W / ^ ^ ^ ^ ^ [ }  .X.9X8XeXiXiXaXiXiXeX7XX.[ / W 3 2 : O X PXPX",
"PXPXPXPXPXPXPXPXPXPXPXPXPXPXPXPXPXPXPXPXPXPXPXPXPXPXPXPXPXPXPXPXPXPXqXeXwXeX9X} / W W / { ..qXeXqX8X7X..8XdXBXMXfXgXdXdXfXMXBXNXCXZXFXZXCXBXfXgXgXfXgXdXpXaXaXgXMXfXaXeXeXeXdXNXCXMXaX9X[ W Q W } 8XqX8XX.[ / ( ~ ^ [ } {  .X.7X7XX.{ [ / W Q 3 2 , : O X X PXPX",
"PXPXPXPXPXPXPXPXPXPXPXPXPXPXPXPXPXPXPXPXPXPXPXPXPXPXPXPXPXPXPXPXPXPX9XqXpXfXaX8X .^ / { 8XwXiXiX9X .X.8XiXBXZXCXBXfXgXgXgXfXMXCXZXFXFXZXCXMXgXpXpXpXgXfXMXMXMXBXBXMXfXdXiXeXpXNXZXNXgX8X^ E 4 Q } 8XiXaXiXqX..{ [ ^ / / / / ^ [ [ [ ^ W E 4 2 > : o O X X X PXPX",
"PXPXPXPXPXPXPXPXPXPXPXPXPXPXPXPXPXPXPXPXPXPXPXPXPXPXPXPXPXPXPXPXPXPX .9XpXBXMXdXeX..X.qXdXfXfXiX .~ ^ ..wXfXCXCXCXNXMXfXdXpXfXBXCXZXZXCXBXfXdXaXaXdXfXCXZXCXSXMXgXdXdXdXuXeXiXBXZXCXfX8X/ 2 > 2 ~ X.eXgXMXfXpXeX7X .[ ^ ^ ^ ^ [ [ [ [ ^ W E 4 2 , : : O X X PXPX",
"PXPXPXPXPXPXPXPXPXPXPXPXPXPXPXPXPXPXPXPXPXPXPXPXPXPXPXPXPXPXPXPXPXPX^  .eXfXMXMXgXiXeXpXMXBXMXiX} 4 2 E ^  .qXdXBXCXNXMXdXaXpXfXMXNXCXMXfXpXaXaXgXMXCXZXCXfXiX7X} [ { ..8XiXfXCXZXCXMXqX/ 2 : : 2 W  .eXgXMXMXfXgXpXaXiXiXwXwXiXiXiXeX8X7XX.{ [ ^ / W 4 > : o O ",
"PXPXPXPXPXPXPXPXPXPXPXPXPXPXPXPXPXPXPXPXPXPXPXPXPXPXPXPXPXPXPXPXPXPXQ / X.eXpXgXgXpXpXmXCXCXBXiX[ , X X : 2 ~ ..pXMXNXBXfXpXpXdXfXMXMXgXiXiXaXdXBXZXZXCXgX8X[ E , : 2 W ..aXMXCXCXNXfX8X/ 2 = o # > W { 8XiXdXfXMXNXCXCXCXCXCXCXCXCXBXfXaXwXeX8X7XX.[ W 4 , o O ",
"PXPXPXPXPXPXPXPXPXPXPXPXPXPXPXPXPXPXPXPXPXPXPXPXPXPXPXPXPXPXPXPXPXPX2 3 / } X.9XqXeXaXMXZXZXNXiX^ : X X X O , W X.wXMXCXMXgXdXgXgXfXgXiXeXiXdXMXCXZXBXiX..( > o X O o 2 { iXMXMXMXfXiX7X/ 4 < - = = > T ~ } ..qXiXgXMXCXAXZXFXFXFXZXCXMXdXwXqX8X..X.[ W 2 : o O ",
"PXPXPXPXPXPXPXPXPXPXPXPXPXPXPXPXPXPXPXPXPXPXPXPXPXPXPXPXPXPXPXPXPXPX> 2 4 E W / } 9XiXMXZXZXMXiX{ E , o X + O > ~ 7XfXCXCXBXMXMXMXMXfXgXaXdXMXCXFXFXgXX.W , X + X o , W 7XgXMXfXgXaXeXX.( j g y - = = < 1 S W [ X.8XeXiXdXgXgXdXpXiXwXrX7XX.} [ ^ / W 2 : o O O ",
"PXPXPXPXPXPXPXPXPXPXPXPXPXPXPXPXPXPXPXPXPXPXPXPXPXPXPXPXPXPXPXPXPXPXPXPX: : : > W  .eXfXCXNXdXwXrX..^ 2 : o : > W X.dXCXFXFXFXFXFXZXZXCXNXCXCXZXFXZXiX^ > 6 o o : 4 / X.iXBXNXfXaXiXeX .W j h G u t t y g 1 5 4 Q / ^ [ { { } [ / W 3 2 2 2 > > > , : o X X X X ",
"PXPXPXPXPXPXPXPXPXPXPXPXPXPXPXPXPXPXPXPXPXPXPXPXPXPXPXPXPXPXPXPXPXPXPXPXg g = = 4 [ qXdXMXgXeXqXiXdXwXX.[ / ~ [ X.eXMXZXHXGXGXGXGXHXHXFXZXZXCXCXZXCXdX7X[ ~ W ~ [ X.qXpXfXBXMXdXiXeX8Xo.) D A G H J P K H h g < > 5 4 3 T 3 3 2 , = # # O o O O O O X X X X X X ",
"PXPXPXPXPXPXPXPXPXPXPXPXPXPXPXPXPXPXPXPXPXPXPXPXPXPXPXPXPXPXPXPXPXPXPXPXK H g = 4 ^ 7XwXaXeX..5XpXCXCXfXaXeXqXwXpXfXBXZXFXGXGXGXGXGXGXFXZXNXfXfXMXNXBXfXpXeX8XqXiXdXnXMXfXdXaXiXeX8X..v.k.t.H A L l.x.a.y.L H g < : , > > , , : # # @ @ @ . . X X X X X X PXPXPX",
"PXPXPXPXPXPXPXPXPXPXPXPXPXPXPXPXPXPXPXPXPXPXPXPXPXPXPXPXPXPXPXPXPXPXPXPXH H G A D _ { 9XqX9X} { eXMXCXCXCXMXfXfXgXiXeXwXMXFXGXGXGXGXFXZXMXiX.. .eXMXCXZXCXBXMXfXfXdXaXeX9XX.7XqXqX..[ ] y.t.H G i..XM.i.t.i.l.y.H g g g g h g - - - - - @ . . . . . . X PXPXPXPX",
"PXPXPXPXPXPXPXPXPXPXPXPXPXPXPXPXPXPXPXPXPXPXPXPXPXPXPXPXPXPXPXPXPXPXPXPXA G K t.t.) / { .. ./ ^ ..iXgXMXMXBXMXfXpX8X{ { wXCXHXGXGXGXFXMXwXX.^ / 7XgXNXZXZXCXNXfXpXeX6X} / W [ 7X8X{ ( D L t.L L l..Xz.i.t.x..Xz.y.K J P P K H A u u y - ; @ @ @ @ @ . PXPXPXPXPX",
"PXPXPXPXPXPXPXPXPXPXPXPXPXPXPXPXPXPXPXPXPXPXPXPXPXPXPXPXPXPXPXPXPXPXA G G H t.a.k.D j ~ [ ^ E E ^ X...9X8XqXeXiXiX9X^ ^ 8XMXFXHXJXJXZXiX[ / { 7XeXiXdXgXgXaXeX8XX.} ^ W E E / X.7XO.E j H t.l.z.x.l.y.t.y.z.XXz.t.L i.z.i.L J L t.H u t - - ; @ @ PXPXPXPXPXPXPX",
"PXPXPXPXPXPXPXPXPXPXPXPXPXPXPXPXPXPXPXPXPXPXPXPXPXPXPXPXPXPXPXPXPXPXG H L t.i.l.t.g , 4 W Q 2 2 Q / ^ ^ / _ _  .9X..} { eXMXZXFXHXHXCXeX^ ~ { 7X7X7Xc.c.v.| _ ! ! j f f 1 j /  .X.] D A H y.M.XXz.y.t.i.l..XXXz.t.t.x..Xx.L K y.i.K y t y y - ; @ PXPXPXPXPXPXPX",
"PXPXPXPXPXPXPXPXPXPXPXPXPXPXPXPXPXPXPXPXPXPXPXPXPXPXPXPXPXPXPXPXPXPXH L i.z.z.i.J - O : 2 2 , , 4 Q Q E j 9 9 k _ { ..qXaXfXNXZXZXCXfXeX ._ ^ / ~ W j f 9 9 7 7 7 7 7 9 f E / [ | ] t.t.t.i.oXOXM.y.i.z.XXXX.Xz.i.i.z.M.l.L K y.i.H r r h h r @ @ PXPXPXPXPXPXPX",
"PXPXPXPXPXPXPXPXPXPXPXPXPXPXPXPXPXPXPXPXPXPXPXPXPXPXPXPXPXPXPXPXPXPXG L x..Xz.t.A - o : 2 5 , : , > 2 2 < $ 7 9 f k ` ] 0XiXgXfXfXaXqX| ` l k f f 9 9 7 $ $ 7 $ $ 7 f l ! / / ^ / ) L t.i.z.XXOXM.i.i.XXOX.Xl.l.x.z.z.z.a.y.t.t.t.H u u G h r @ @ PXPXPXPXPXPXPX",
"PXPXPXPXPXPXPXPXPXPXPXPXPXPXPXPXPXPXPXPXPXPXPXPXPXPXPXPXPXPXPXPXPXPXG L x.XXz.t.h < , 4 E Q 3 2 : o > E j 9 7 7 7 8 8 0 ` c.qXwXqX.._ l 0 q q q q 8 7 7 7 7 7 7 7 k | 7XX.[ / W S j A L a.z.XXXXz.a.z.OXOXz.y.l..XXXz.i.i.a.i.L H G G G A u - @ . PXPXPXPXPXPXPX",
"PXPXPXPXPXPXPXPXPXPXPXPXPXPXPXPXPXPXPXPXPXPXPXPXPXPXPXPXPXPXPXPXPXPXt.i.z..Xz.i.I j 4 ( } X.X.[ E 5 W  .| k 7 8 q e e ;.z l ` X. .` z z ;.;.:.:.;.e q 8 7 7 7 k v.0XeXqXX.~ 3 2 > - y K x.M.z.x.z.oXXXOXoXa.t.l.OXOXa.P t.l.i.H y h J H u - ; PXPXPXPXPXPXPXPXPX",
"PXPXPXPXPXPXPXPXPXPXPXPXPXPXPXPXPXPXPXPXPXPXPXPXPXPXPXPXPXPXPXPXPXPXa.a.x.z.z.x.k.D W } 8XiXpXwX{ ~ { wXtXg.z e ;.>.h.j.:.;.z ` ` z ;.:.h.j.n.j.,.;.e q 8 0 l v.aXgXpXqX[ 3 > , = = - K z.M.i.i.z.OXOX.Xz.a.a.z.XXoXi.H L i.y.h r h K G r @ PXPXPXPXPXPXPXPXPXPX",
"PXPXPXPXPXPXPXPXPXPXPXPXPXPXPXPXPXPXPXPXPXPXPXPXPXPXPXPXPXPXPXPXPXPXz.l.y.t.l.M.x.) / ..aXBXZXNXwXX.8XhXlXlXsXb.f.,.n.B.N.j.:.z z :.h.n.B.B.N.n.h.;.w q e v.sXdXdXaXeX7X/ > = - t - r K z.z.t.H i.XX.Xi.y.z.XXoXz.i.t.P L t.L G u A G u - @ PXPXPXPXPXPXPXPXPXPX",
"PXPXPXPXPXPXPXPXPXPXPXPXPXPXPXPXPXPXPXPXPXPXPXPXPXPXPXPXPXPXPXPXPXPXa.i.L K i.M.x.) ~ ..pXNXFXZXfXwXeXiXfXAXAXtX:.,.n.B.B.B.j.>.>.j.N.B.B.B.n.h.>.$.;.>.b.sXBXfXwX8X..{ W > = - - - t H i.a.L G t.z.l.L J a.XXM.y.K L t.L H H G G A u t ; . PXPXPXPXPXPXPXPXPXPX",
"PXPXPXPXPXPXPXPXPXPXPXPXPXPXPXPXPXPXPXPXPXPXPXPXPXPXPXPXPXPXPXPXPXPXL L K L a.z.l.I Q { eXfXCXZXBXdXeX9XqXgXlXb.>.;.h.N.kXkXN.j.j.N.kXkXN.j.,.;.w w g.zXVXMXpXeX..{ [ ^ W E 4 - - - t h K L J H t.i.y.H G t.l.i.H A L y.K h h H J h r - PXPXPXPXPXPXPXPXPXPXPXPX",
"PXPXPXPXPXPXPXPXPXPXPXPXPXPXPXPXPXPXPXPXPXPXPXPXPXPXPXPXPXPXPXPXPXPXA H L y.a.a.i.I D ] 7XiXMXCXNXfXqX} } qXpXtXb.b.h.h.N.kXB.n.n.B.kXB.j.:.;.;.:.b.tXVXNXaX8X8XqX8XX.[ } { o.o.] D - r y u h G H J H G G L y.L h u H L G r t G H u - @ PXPXPXPXPXPXPXPXPXPXPXPX",
"PXPXPXPXPXPXPXPXPXPXPXPXPXPXPXPXPXPXPXPXPXPXPXPXPXPXPXPXPXPXPXPXPXPXy G t.a.i.t.L L L ] { 9XaXMXNXMX8X/ W  .eXfXCXzXb.,.n.B.B.n.n.B.B.n.,.;.;.:.tXCXZXfXiX7X .8XpXdXeX8XqXwXpXfXpX| g - g g h A u u u G H J J G y y u h y - r h G t @ . PXPXPXPXPXPXPXPXPXPXPXPX",
"PXPXPXPXPXPXPXPXPXPXPXPXPXPXPXPXPXPXPXPXPXPXPXPXPXPXPXPXPXPXPXPXPXPXPXH i.i.L h G t.i.` / { 8XaXMXMXeXO.W ^ X.iXMXVXlXxXN.n.n.j.j.n.n.,.;.>.b.zXVXNXfXqX..X...7X8XeXaXfXMXCXCXNXfXwX9X0XwX{.) t ; ; r u H h u y y t r r r r r t t - PXPXPXPXPXPXPXPXPXPXPXPXPXPX",
"PXPXPXPXPXPXPXPXPXPXPXPXPXPXPXPXPXPXPXPXPXPXPXPXPXPXPXPXPXPXPXPXPXPXPXPXt.L h - y L y.I Q ~  .8XdXfXiXX.[ / ^ X.iXMXFXKXtX,.>.,.h.h.h.:.:.b.lXFXNXpX8XX.{ X.6X..7XeXfXZXHXHXFXNXfXdXpXfXBXhXc.) D S D ` ` A - - r r - @ - t t - - @ PXPXPXPXPXPXPXPXPXPXPXPXPXPX",
"PXPXPXPXPXPXPXPXPXPXPXPXPXPXPXPXPXPXPXPXPXPXPXPXPXPXPXPXPXPXPXPXPXPXPXPXu y r @ - u H A 4 E /  .eXdXdXwX..~ E / ..aXCXVXb.$.@.;.>.;.>.b.zXVXCXMXuX.. .X.X.[ [ 7XaXBXZXFXFXFXZXNXfXiX9XX. .{.iXgXvXfXlXlXtX] - @ - - @ @ - y t ; @ @ PXPXPXPXPXPXPXPXPXPXPXPXPXPX",
"PXPXPXPXPXPXPXPXPXPXPXPXPXPXPXPXPXPXPXPXPXPXPXPXPXPXPXPXPXPXPXPXPXPXPXPXc.] ) ! D h y - < 2 Q O.9XiXdXdXqX^ 3 W { qXfXlXtXg.>.e e :.b.zXAXZXfXiXqX9X9X8X7X{ [ 7XhXBXNXNXCXNXBXMXdX8X{ } { 9XsXVXDXDXDXDXvX{.) ! ! j - @ - t t ; @ PXPXPXPXPXPXPXPXPXPXPXPXPXPXPX",
"PXPXPXPXPXPXPXPXPXPXPXPXPXPXPXPXPXPXPXPXPXPXPXPXPXPXPXPXPXPXPXPXpXMXZXFXCXMXgXiXc.D - ; = < j /  .8XiXgXiX{ W ~ } 5XwXgXNXVXtXz z tXVXZXNXdXrX7XwXfXfXiXeX9X..9XeXwXwXiXpXgXgXaXeX..{ 8XgXvXcX=X<X3X3X1X<XcXhXaXeXX.S # @ - - PXPXPXPXPXPXPXPXPXPXPXPXPXPXPXPXPX",
"PXPXPXPXPXPXPXPXPXPXPXPXPXPXPXPXPXPXPXPXPXPXPXPXPXPXPXPXPXPXMXdXaXaXdXfXfXdXiX8X..} ) ! S S 3 W [ ..eXpXiXX./ W ~ ^  .qXMXFXVXtXtXlXFXCXpX8X .{ 7XuXyXyX#X|.|.|.|.|.0X8XqXwXeX8X8XrXeXyXcXcX<X;X,X2X2X2X1XbXbXcX|.{.) 4 < - PXPXPXPXPXPXPXPXPXPXPXPXPXPXPXPXPXPX",
"PXPXPXPXPXPXPXPXPXPXPXPXPXPXPXPXPXPXPXPXPXPXPXPXPXPXPXMXBXCXNXfXiX8X{...7X7X} ~ ^ X.9X..} / E E ~ } 9XwXeX..[ W j E ~  .iXNXFXFXFXFXCXgXqXX.[ [ [ o.}.=X>X1X2X1X;X=X}.c...9X9X7X8XpXvXcX#X-X>X3X2X2X2X2X3X1X;X*X`.~.k.) ( PXPXPXPXPXPXPXPXPXPXPXPXPXPXPXPXPXPXPX",
"PXPXPXPXPXPXPXPXPXPXPXPXPXPXPXPXPXPXPXPXPXPXPXPXPXMXNXCXZXCXNXfXiX7X[ [ 8XwXX.W E ^ { { [ ^ W Q W / { 9X8XX.[ ~ Q ~ { 8XiXfXCXFXFXCXfXdXiXrXX.{ k.].@X>X2X2X2X2X,X*X].k.] } 6XaXgXyX#X@X+X*X;X1X2X2X2X2X1X,X;X-X_.).~.'.U 1 PXPXPXPXPXPXPXPXPXPXPXPXPXPXPXPXPXPX",
"PXPXPXPXPXPXPXPXPXPXPXPXPXPXPXPXPXPXPXPXPXPXPXPXMXMXCXZXZXCXMXdXeXX./ [ wXfXeX^ W [ { } _ ^ ~ W E E / { X. .[ / W ^ ..eXeXuXgXNXNXdXwXwXwXqXc.v.].@X-X,X2X2X2X1X:X_.!.e.y.| rXfXvX}.s.!.).+X*X:X,X2X1X>X;X;X;X-X+X`.).!.P y = PXPXPXPXPXPXPXPXPXPXPXPXPXPXPXPXPX",
"PXPXPXPXPXPXPXPXPXPXPXPXPXPXPXPXPXPXPXPXPXPXaXgXBXCXZXCXNXMXpXqXX.[ ^  .aXBXpX9X8XiXdXqX{ ^ ~ Q 4 5 3 ~ ^ ^ ^ W Q W ^ { X.7XeXgXdX8X{ [ [ _ t.p.!.)._.*X:X:X-X+X).!.q.8.}.hXdXwX{.k.0.w.!.!.).`.+X-X-X-X*X*X*X+X`./.!.w.9.d i PXPXPXPXPXPXPXPXPXPXPXPXPXPXPXPXPX",
"PXPXPXPXPXPXPXPXPXPXPXPXPXPXPXPXPXPXPXPXPXdXfXMXNXCXNXfXdXiX8X .^ [ ..qXiXdXdXpXfXNXBXuXX._ ` l f - < 4 E W W 3 2 E ^ X.7X8XeXwXeX..} [ [ ) u.8.e.!.(./././.!.s.w.8.i.x.tXlXgXwX0X{.].a.0.0.e.!.!./.).).).)././.!.s.0.7.=.s p PXPXPXPXPXPXPXPXPXPXPXPXPXPXPXPXPX",
"PXPXPXPXPXPXPXPXPXPXPXPXPXPXPXPXPXPXPXeXiXgXBXCXBXMXdXiXqXL.{ ^ ^ ..pXgXeX9XiXMXCXBXdXqXX.g.$.%.@.8 9 < > 2 2 : : Q ..iXfXfXaXqX9X9X8XqXeX{.y.7.0.e.s.e.w.8.7.6.s t.}.lXhXwXaXMXAXAXvX}.u.s 6.7.8.w.e.s.s.e.w.w.w.8.6.s p p p PXPXPXPXPXPXPXPXPXPXPXPXPXPXPXPXPX",
"PXPXPXPXPXPXPXPXPXPXPXPXPXPXPXPXPXPXX.8XeXpXLXMXdXwX8X..{ ^ ^ X.qXwXiXeX7X6XuXBXNXdXwXb.h.,.&.%.@.q 7 # o o : 4 / ..dXBXMXdXwX8X8XeXiXaXiX0Xv.k.p.0.8.7.6.=.s s t.v.0XiXaXaXfXZXHXSXpX0X` J H H Z 6.6.8.8.8.7.6.6.=.s p p p PXPXPXPXPXPXPXPXPXPXPXPXPXPXPXPXPXPX",
"PXPXPXPXPXPXPXPXPXPXPXPXPXPXPXPXPXo.X.L.8XwXiXjX8XX.[ ^ ~ W [ wXBXgX8X .c.0XtXsXsXqXv.,.1.<.%.@.q 8 $ # : 6 2 [ iXMXCXCXpX8X9X8XeXhXfXpXwXeXeX{.k.9.6.6.6.s s g.{.8X .} 8XfXCXZXNXiXc.| | } / Q h d s =.6.6.6.=.s p p p p PXPXPXPXPXPXPXPXPXPXPXPXPXPXPXPXPXPXPX",
"PXPXPXPXPXPXPXPXPXPXPXPXPXPXPXT.W.W.W.W.L.L.L.L.[ ( +.E ^ 9XiXaXpXdXgXsXN.m.m.m.m.,.,.*.%.#.@.q 0 f ! [ } ^ } eXNXCXMXiX7X[ [ X.eXgXBXMXgXaXeX7X| ` K s -.t.v.{.9XX.^ / ..iXpXwXc.j.,.:.` ( W Q j t i d s =.s s p p p PXPXPXPXPXPXPXPXPXPXPXPXPXPXPXPXPXPXPXPXPX",
"PXPXPXPXPXPXPXPXPXPXPXPXPXPXU.R.R.R.R.U.U.P.J.G.' S n n } iXfXpXeXpXlXkXV.3.3.2.<.&.%.#.w q 8 0 l [ 9XiXpXeXeXfXZXNXwX..} [ { 7XeXfXNXCXCXfXwX9X..o.) z K v.iXuX8X..} [ X.9X6X} ` ,.1.*.l R R 3 2 : - i d d d p p p PXPXPXPXPXPXPXPXPXPXPXPXPXPXPXPXPXPXPXPXPXPX",
"PXPXPXPXPXPXPXPXPXPXPXPXPXU.T.R.R.R.R.T.U.U.P.J.H.F.F.Z.' o.8XaXlXxXV.5.4.1.<.%.#.@.w q 8 9 f ! X.iXMXCXCXdXiXfXNXdXX.[ 7XiXdXgXfXMXBXCXZXCXMXiX8X ._ ) _ c.eXdXfXfXiX8XX.[ [ { } ` z l ! W 3 > : O O @ @ @ @ $ PXPXPXPXPXPXPXPXPXPXPXPXPXPXPXPXPXPXPXPXPXPXPXPX",
"PXPXPXPXPXPXPXPXPXPXPXPXR.R.U.U.I.I.U.U.U.U.U.I.P.J.J.H.F.' } uXBXkX5.<.&.%.$.>.z z 0 0 9 f j / 9XgXCXFXAXdXwXiXpXwX7X7XaXCXCXNXMXgXpXfXCXZXCXfXwX..} ^ O.{ 9XaXMXBXgXeX .~ W ^ ^ W 3 3 Q E 2 : O X X X + + + PXPXPXPXPXPXPXPXPXPXPXPXPXPXPXPXPXPXPXPXPXPXPXPXPX",
"PXPXPXPXPXPXPXI.Y.U.U.R.R.R.P.H.G.G.H.J.I.U.Y.P.J.J.H.H.G.A.F.jXgXUX>.@.q q g.0X0X| _ ! Q j 4 W X.iXfXSXMXiX9X7X8XwXdXMXCXZXCXMXaXeX8XwXdXMXNXBXdXqXX.^ ~ / [ 9XiXaXeX7X[ E 2 2 2 2 5 > > : o X X X X PXPXPXPXPXPXPXPXPXPXPXPXPXPXPXPXPXPXPXPXPXPXPXPXPXPXPXPXPX",
"PXPXPXPXPXPXU.P.P.I.U.U.Y.J.A.M m M C.G.J.P.P.J.H.G.G.H.G.A.F.L.iXtXb.g.g.` c.wXjXrXX.[ ( 3 2 3 ^ ..wXdXaX9X . .9XiXSXFXCXfXiX8X7X8XeXeXeXwXaXpXaXwX7X[ W Q W ^ X.X.{ ^ W 2 : : o : : 6 O X O O O X X PXPXPXPXPXPXPXPXPXPXPXPXPXPXPXPXPXPXPXPXPXPXPXPXPXPXPXPXPX",
"PXPXPXPXPXU.U.P.J.P.U.P.G.N x % * & b C.H.J.H.G.A.A.A.A.A.A.F.L.9XwXpXhXaXuXeXqXqXeXrX{ W 2 , > E ^ X.8X9X{ ^ { 8XdXCXCXpX7X[ / [ eXdXiX9X..7X9XqXeX9X} W 3 2 4 W W Q 4 2 : : o o o o o O : , 2 , : o PXPXPXPXPXPXPXPXPXPXPXPXPXPXPXPXPXPXPXPXPXPXPXPXPXPXPXPXPX",
"PXPXPXPXPXP.J.J.J.J.P.H.N x %     % c Z.H.H.A.Z.N m m M M B Z.F.F.L.6X9X8X8XqXeXwXeX8X[ Q > : : 2 Q ^ { { ^ / X.eXpXdXiXX.^ } 8XiXaXaXiXeX7X .}  .X. .[ ~ 4 , , > 2 > , : o : 2 2 > > 4 W / ^ ^ ~ E 2 , O PXPXPXPXPXPXPXPXPXPXPXPXPXPXPXPXPXPXPXPXPXPXPXPXPXPXPX",
"PXPXPXPXPXJ.J.J.J.J.J.A.m &     % V m A.H.G.C.M c V & x c N A.G.G.F.' O.{ X.8XiXuX8XX./ 4 , o o , 2 Q / / W W { 8XqX7X .[ [ 8XfXMXiX8X8X8X9X .[ O.^ ^ ^ W 4 : : : : , > , , 2 E W W W [ 6X8X8X9XX.[ W 2 : PXPXPXPXPXPXPXPXPXPXPXPXPXPXPXPXPXPXPXPXPXPXPXPXPXPXPX",
"PXPXPXI.U.U.U.P.J.K.J.A.b & % & c N Z.A.A.N c & % % & x M A.J.P.J.F.[ } 5XqXeXeX8XX.^ E , o X O o : 2 4 4 4 3 W ^ ^ W ^ 9XpXdXiX8X} ~ ~ ^ } ..7X{ / W Q 3 2 : : , > 2 E W ~ ~ W ~ } 7XeXaXdXpXiX8XX.^ E 2 PXPXPXPXPXPXPXPXPXPXPXPXPXPXPXPXPXPXPXPXPXPXPXPXPXPXPX",
"PXPXU.U.R.E.E.U.I.I.P.H.N c c m N C.C.N M m C C ; @ & b Z.J.U.U.U.K.F.{ L.8X8X7X .^ Q > o X O o , 2 2 2 2 3 E 3 3 3 E ^ qXfXaX7X[ ~ W ~ [  ...X.[ W E 4 2 2 2 4 Q ~ ^ [ } } [ ^ } 8XpXfXMXMXMXgXwX9X} W 3 2 PXPXPXPXPXPXPXPXPXPXPXPXPXPXPXPXPXPXPXPXPXPXPXPXPXPX",
"H.J.Y.R.E.E.E.R.U.U.I.J.G.A.A.A.C.N m x x C p.p.d 9 v Z.J.U.R.R.U.K.G.F.o. .} ^ W 4 , o X O : 2 W ^ / Q Q / / E 2 4 / { 7X8XX.~ W ^  .8XwXqX{ ~ W W 3 2 > 4 W ^ X.9XeXqX..[ [ X.qXdXBXCXCXCXBXfXiXrXX.^ Q 2 , : PXPXPXPXPXPXPXPXPXPXPXPXPXPXPXPXPXPXPXPXPXPXPXPX",
"N C.J.U.E.E.R.J.G.G.J.H.A.Z.B N S.D.Q.D.D.p.p.6.q 7 C G.I.R.E.E.R.P.A.B ' ~ Q 3 2 : o X X : 2 ~ X.8XX./ /  ...^ 3 4 W ~ / ~ Q 4 W  .eXwXqX..^ Q E T 4 2 4 ~ { 9XuXaXiXqXX.[  .qXdXBXZXFXFXZXNXfXaXqXX.^ W 2 : o PXPXPXPXPXPXPXPXPXPXPXPXPXPXPXPXPXPXPXPXPXPXPXPX",
"& c C.P.U.U.P.C.c m C.C.M m c b U [.:X>X<X].d 8 8 i Y K.R.E.E.E.U.J.Z.M n 4 2 , : O X PXPXPX/ } eXgXeX[ [ qXiX9X^ E 2 > , , > 2 ~ 9XiX8X} ~ W E 4 2 2 E ^ X.eXpXfXdXqXX.} } ..iXMXZXHXGXHXZXNXfXiX8X .^ E > 6 o PXPXPXPXPXPXPXPXPXPXPXPXPXPXPXPXPXPXPXPXPXPXPXPX",
"c m C.G.J.J.G.N c c c V & x Y Q.~.s.a.a.a.u.e e u.~. XT.E.E.E.U.P.G.N b 1 > , : O X X PXPXPX} ..pXBXiX . .iXMXaX..^ R 2 2 2 2 3 W } X.} W 3 2 2 , , E [ 8XaXfXMXfXwX .^ [ X.eXMXZXHXGXGXFXZXBXgXwX9X{ ~ 4 6 X - p.PXPXPXPXPXPXPXPXPXPXPXPXPXPXPXPXPXPXPXPXPXPXPX",
"M M N C.C.C.B M c c v ; ; C Q.@XoXu.e q 8 8 e u.oX;X&X%XE.E.R.P.H.Z.m x & : 6 O O X X PXPXPX .9XdXNXaXX.7XdXCXfXeXX.~ E W ~ / ^ ^ } { [ ^ ~ E 2 > 2 / 8XpXBXCXBXpX8X^ W [ qXgXCXHXGXGXHXFXCXMXaXeXX.[ Q 2 > 1 H !.(.PXPXPXPXPXPXPXPXPXPXPXPXPXPXPXPXPXPXPXPXPXPX",
"b b b b b c c & & C p.Q.^.[.].z.d.;.e e e e q -.@X3X&X%XR.R.U.J.A.N c & * O X X X X PXPXPXPX} X.iXfXiX7X8XfXCXMXiX9X[ / [ X.9XqXwXpXgXdXiXeX7X{ ^ /  .wXfXNXNXfXwX..^ ~ X.pXNXFXGXGXHXFXCXMXdXeX7X} ( 4 1 U ].^.!.!.PXPXPXPXPXPXPXPXPXPXPXPXPXPXPXPXPXPXPXPXPXPX",
"c c v ; ; v C C C U ~.`.$X@Xz.:.>.;.;.;.;.;.u.a.=X4X&XE.U.P.H.A.N c x & * X X X X PXPXPXPXPX/ } qXaXeX7X8XgXCXMXpX8X[ ^ } 9XeXaXfXCXZXCXBXdXeX7XX.X.qXdXMXBXfXiX9X .[ } eXMXFXHXGXHXFXZXBXgXwX9Xo.^ T : 1 Q.*X+X!.e.PXPXPXPXPXPXPXPXPXPXPXPXPXPXPXPXPXPXPXPXPXPX",
"PXPXd d s Z 0.~.^.).PXPXM.j.d.;.:.h.h.;.e y.@X4X&X%XR.U.J.A.N m c & % * X X X PXPXPXPXPXPXPXQ / X.eX8XX.7XpXBXMXpX8X^ W ^  .8XwXdXMXBXMXgXeX.. .7XeXdXMXBXMXaX9X[ ^  .qXgXZXHXGXGXFXCXBXfXiX8X .^ Q 5 o = U @X).s.0.PXPXPXPXPXPXPXPXPXPXPXPXPXPXPXPXPXPXPXPXPXPX",
"PXPXPXa =.7.r.).+XPXPXf.:.:.:.,.f.:.d.d.s.[.4X&X%XT.I.J.A.M c & % % *   X X PXPXPXPXPXPXPXPX2 W { 8X..} X.iXfXMXfXeX[ W W ^ { 7XqXiXiXiXqXX.^ ^ X.iXfXCXNXdX8X} W ~ X.iXMXFXHXHXFXCXMXgXwX8X .^ Q 2 1 F U ~.).!.w.7.PXPXPXPXPXPXPXPXPXPXPXPXPXPXPXPXPXPXPXPXPXPX",
"PXPXPXPXPXPXPXPXPXPXh.:.;.;.h.N.j.>.u.].>X4X%XR.U.P.H.Z.M x % *     PXPXPXPXPXPXPXPXPXPXPXPX> 3 [ 7XX.[ } qXdXBXBXaX .W E E W ^ }  .X. .[ / E Q  .iXMXCXBXwX .W 4 W ..pXNXFXFXFXCXMXdXwX7X{ ^ Q 2 , F ].*X+X/.s.8.6.PXPXPXPXPXPXPXPXPXPXPXPXPXPXPXPXPXPXPXPXPXPX",
"PXPXPXPXPXPXPXPXPXPXz ;.;.:.M.OXOXoX~.=X&X%XR.I.J.A.N b V %     PXPXPXPXPXPXPXPXPXPXPXPXPXPX: 2 ^ X. .^ [ ..wXfXBXdX7X^ T 5 2 4 E Q Q E 3 2 > 3 X.dXNXAXMXeX[ R 5 Q 9XfXCXZXZXNXvXhXwX9X} / Q 2 6 O A ^.*X_.!.w.7.6.PXPXPXPXPXPXPXPXPXPXPXPXPXPXPXPXPXPXPXPXPXPX",
"PXPXPXPXPXPXPXPXPXd e ;.d.z.@X=X>X;X4X&XU.Y.J.G.C.m x & *     PXPXPXPXPXPXPXPXPXPXPXPXPXPXPX: 2 / { } ^ [ { 7XiXgXpX8X{ W 2 , : : : : : : : 2 ~ 8XfXCXSXgX7X/ 3 1 ( rXvXCXZXCXfXaXeX8X ./ Q 2 , : < F ~.`./.s.0.6.=.PXPXPXPXPXPXPXPXPXPXPXPXPXPXPXPXPXPXPXPXPXPX",
"PXPXPXPXPXPXPXPX6.w.!./.@X$X4X&X%X%X%XY.H.A.B m x & %     PXPXPXPXPXPXPXPXPXPXPXPXPXPXPXPXPXPXPX^ [ [ [ [ [ } 7XeXiXeX8X{ W 2 : O O O X X 2 } eXgXBXNXfXeX} 3 A P k.yXMXSXNXMXpXeX8XX.[ W 2 6 = F Q.[.)./.!.w.7.=.s PXPXPXPXPXPXPXPXPXPXPXPXPXPXPXPXPXPXPXPXPXPX",
"PXPXPXPXPXPXPXd Z p.^.[.=X&X&XR.U.P.G.Z.N c x & % *       PXPXPXPXPXPXPXPXPXPXPXPXPXPXPXPXPXPXPX/ / [ } [ / ~ [ 7XqXwXeX9Xo._ F F F F y t ! 0XfXBXBXfXuX{.] I p.!.oXyXMXBXBXfXiX8XX.[ ( 4 5 1 F Q.*X-X).!.e.8.6.s p PXPXPXPXPXPXPXPXPXPXPXPXPXPXPXPXPXPXPXPXPXPX",
"PXPXPXPXPXPXPX; v M S.D.K.Y.J.G.C.M c x & % *   PXPXPXPXPXPXPXPXPXPXPXPXPXPXPXPXPXPXPXPXPXPXPXPXQ W ^ { } W E ~ } ..8XeXrX8X|.=X=X=X@X~.e.l.tXgXmXmXaX7Xo.'.[.).`.@XyXgXnXnXdXeX..[ ( 4 : S '.=X;X*X`.(.e.0.6.6.PXPXPXPXPXPXPXPXPXPXPXPXPXPXPXPXPXPXPXPXPXPXPXPX",
"PXPXPXPXPXPXPXPXV x c m N B N m c x & *       PXPXPXPXPXPXPXPXPXPXPXPXPXPXPXPXPXPXPXPXPXPXPXPXPX2 3 ~ [ [ Q 4 T ~ [ ..8X9X9X|.<X2X,X:X`.!.].}.iXpXaX8X} ] ].*X-X*X@XyXiXpXdXiX8X .( 3 S U '.=X1X>X+X/.!.w.7.=.s PXPXPXPXPXPXPXPXPXPXPXPXPXPXPXPXPXPXPXPXPXPXPXPX",
"PXPXPXPXPXPXPXPXPXPX% % & & & % % PXPXPXPXPXPXPXPXPXPXPXPXPXPXPXPXPXPXPXPXPXPXPXPXPXPXPXPXPXPXPX> 2 Q ^ ^ E 2 2 4 W [ X. . .}.=X:X-X+X(.!.a.{.8XqXqXX.~ ) ].:X:X*X@X{.9XqXiXeX..[ E 3 U =X1X,X;X*X).!.w.8.=.a p PXPXPXPXPXPXPXPXPXPXPXPXPXPXPXPXPXPXPXPXPXPXPXPX",
"PXPXPXPXPXPXPXPXPXPXPXPXPXPXPXPXPXPXPXPXPXPXPXPXPXPXPXPXPXPXPXPXPXPXPXPXPXPXPXPXPXPXPXPXPXPXPXPX: , 3 / _ I G t , 5 Q ^ O.} '.@X_.).!.!.e.i.v.{.5XX.o.'.].=X1X,X*X[.'.{  .7XX.[ / ] '.[.>X1X>X*X`.!.e.8.6.s p p PXPXPXPXPXPXPXPXPXPXPXPXPXPXPXPXPXPXPXPXPXPXPXPX",
"PXPXPXPXPXPXPXPXPXPXPXPXPXPXPXPXPXPXPXPXPXPXPXPXPXPXPXPXPXPXPXPXPXPXPXPXPXPXPXPXPXPXPXPXPXPXPXPX6 : 4 W ) p.8.Z g < 5 4 W / k.~.!.!.e.w.8.t.] { } O.k.].+X;X1X>X+X^.k.) _ [ ^ Q ! '.-X;X:X-X*X`.(.s.w.7.=.s p p PXPXPXPXPXPXPXPXPXPXPXPXPXPXPXPXPXPXPXPXPXPXPXPX",
"PXPXPXPXPXPXPXPXPXPXPXPXPXPXPXPXPXPXPXPXPXPXPXPXPXPXPXPXPXPXPXPXPXPXPXPXPXPXPXPXPXPXPXPXPXPXPXPXPXPX4 E I p.!.~.Q.U 1 6 > j I 0.e.w.w.8.7.K I ~ W Q I s./.+X*X_.(.e.9.Z I / W 4 S Q.+X-X_.)./.!.s.w.8.=.s p PXPXPXPXPXPXPXPXPXPXPXPXPXPXPXPXPXPXPXPXPXPXPXPXPXPX",
"PXPXPXPXPXPXPXPXPXPXPXPXPXPXPXPXPXPXPXPXPXPXPXPXPXPXPXPXPXPXPXPXPXPXPXPXPXPXPXPXPXPXPXPXPXPXPXPXPXPXPX4 D p./._.*X^.U g , , g Z 6.9.7.6.=.d D E 3 4 D p.~.[.#X@X[.].x.l.v.o.[ W ! p.).).(.!.s.e.w.8.6.s p PXPXPXPXPXPXPXPXPXPXPXPXPXPXPXPXPXPXPXPXPXPXPXPXPXPXPX",
"PXPXPXPXPXPXPXPXPXPXPXPXPXPXPXPXPXPXPXPXPXPXPXPXPXPXPXPXPXPXPXPXPXPXPXPXPXPXPXPXPXPXPXPXPXPXPXPXPXPXPX5 F p./.+X:X*X@XQ.F = = < t d s s p d k S 2 > S ] {.tXsXvXvXvXVXVXBXfXiX9Xo.k.!.!.!.e.w.0.8.6.=.s p PXPXPXPXPXPXPXPXPXPXPXPXPXPXPXPXPXPXPXPXPXPXPXPXPXPXPX",
"PXPXPXPXPXPXPXPXPXPXPXPXPXPXPXPXPXPXPXPXPXPXPXPXPXPXPXPXPXPXPXPXPXPXPXPXPXPXPXPXPXPXPXPXPXPXPXPXPXPXPX: g t.!.).+X-X_.).p.Q T R j k h h u h j 4 2 2 E ^ { 6XqXaXgXMXNXSXSXBXmXdXiX}.'.a.e.w.8.7.6.=.s a p PXPXPXPXPXPXPXPXPXPXPXPXPXPXPXPXPXPXPXPXPXPXPXPXPXPXPX",
"PXPXPXPXPXPXPXPXPXPXPXPXPXPXPXPXPXPXPXPXPXPXPXPXPXPXPXPXPXPXPXPXPXPXPXPXPXPXPXPXPXPXPXPXPXPXPXPXPXPXPXo - Z 0.s.~.).).].'.c. .} [ / W S 4 2 2 2 2 4 E W ~ / [  .9XqXeXiXaXdXfXMXMXdXwX{.i.8.7.6.s a p PXPXPXPXPXPXPXPXPXPXPXPXPXPXPXPXPXPXPXPXPXPXPXPXPXPXPXPXPX",
"PXPXPXPXPXPXPXPXPXPXPXPXPXPXPXPXPXPXPXPXPXPXPXPXPXPXPXPXPXPXPXPXPXPXPXPXPXPXPXPXPXPXPXPXPXPXPXPXPXPXPXX # - A U k.}.|.yXyXqX7X{ ^ W E 4 5 , : : : , , > 2 2 3 W / [ }  ...9XeXaXdXdXaXqXv.i.9.6.s p p PXPXPXPXPXPXPXPXPXPXPXPXPXPXPXPXPXPXPXPXPXPXPXPXPXPXPXPXPX",
"PXPXPXPXPXPXPXPXPXPXPXPXPXPXPXPXPXPXPXPXPXPXPXPXPXPXPXPXPXPXPXPXPXPXPXPXPXPXPXPXPXPXPXPXPXPXPXPXPXPXPXX X o , Q } 9XwXaXwX8XX.[ ~ Q 4 > : : o O O o o : : 2 4 Q ( ^ [ } { X...9XqXeXwXqX7X| L Z s p p PXPXPXPXPXPXPXPXPXPXPXPXPXPXPXPXPXPXPXPXPXPXPXPXPXPXPXPXPX",
"PXPXPXPXPXPXPXPXPXPXPXPXPXPXPXPXPXPXPXPXPXPXPXPXPXPXPXPXPXPXPXPXPXPXPXPXPXPXPXPXPXPXPXPXPXPXPXPXPXPXPXPXPX: , 4 W / O.[ ^ / ~ ~ ~ W E 2 : o O X O 6 , 2 Q ^ { 7XqXwXiXaXiXwX8XX.{ { { { } _ D g y PXPXPXPXPXPXPXPXPXPXPXPXPXPXPXPXPXPXPXPXPXPXPXPXPXPXPXPXPXPXPX",
"PXPXPXPXPXPXPXPXPXPXPXPXPXPXPXPXPXPXPXPXPXPXPXPXPXPXPXPXPXPXPXPXPXPXPXPXPXPXPXPXPXPXPXPXPXPXPXPXPXPXPXPXPX: : , > 5 2 2 E W [  .X.X.} ~ 2 : O X O : 2 W [ ..eXdXMXCXZXZXCXMXaX9X} / W W W Q 2 > , PXPXPXPXPXPXPXPXPXPXPXPXPXPXPXPXPXPXPXPXPXPXPXPXPXPXPXPXPXPXPX",
"PXPXPXPXPXPXPXPXPXPXPXPXPXPXPXPXPXPXPXPXPXPXPXPXPXPXPXPXPXPXPXPXPXPXPXPXPXPXPXPXPXPXPXPXPXPXPXPXPXPXPXPXPXo o O O O = 2 ^ ..iXfXMXfXiX7X/ 2 : X o > E ^ X.qXpXMXZXFXHXHXHXFXBXiX7X[ Q 4 2 > : o o PXPXPXPXPXPXPXPXPXPXPXPXPXPXPXPXPXPXPXPXPXPXPXPXPXPXPXPXPXPXPX",
"PXPXPXPXPXPXPXPXPXPXPXPXPXPXPXPXPXPXPXPXPXPXPXPXPXPXPXPXPXPXPXPXPXPXPXPXPXPXPXPXPXPXPXPXPXPXPXPXPXPXPXPXPXPXO X X X o 2 O.8XdXBXNXMXiX../ 2 : O o > 3 / { 9XiXfXCXFXHXHXHXFXCXgXwX6X[ ~ E 2 , = o PXPXPXPXPXPXPXPXPXPXPXPXPXPXPXPXPXPXPXPXPXPXPXPXPXPXPXPXPXPXPX",
"PXPXPXPXPXPXPXPXPXPXPXPXPXPXPXPXPXPXPXPXPXPXPXPXPXPXPXPXPXPXPXPXPXPXPXPXPXPXPXPXPXPXPXPXPXPXPXPXPXPXPXPXPXPXPXX X X o 2 / ..eXaXaXeX..[ E > : o o : 2 E / } 7XeXdXMXCXZXZXCXMXfXaXwX8XX.^ W 2 : : o O PXPXPXPXPXPXPXPXPXPXPXPXPXPXPXPXPXPXPXPXPXPXPXPXPXPXPXPXPX",
"PXPXPXPXPXPXPXPXPXPXPXPXPXPXPXPXPXPXPXPXPXPXPXPXPXPXPXPXPXPXPXPXPXPXPXPXPXPXPXPXPXPXPXPXPXPXPXPXPXPXPXPXPXPXPXPXX X o , 3 ~ [ { } ^ W E 4 > : o O o : > 4 W ^ { 9XeXiXpXpXpXaXiXeX8X7X .^ W 3 2 , : : PXPXPXPXPXPXPXPXPXPXPXPXPXPXPXPXPXPXPXPXPXPXPXPXPXPXPXPXPX",
"PXPXPXPXPXPXPXPXPXPXPXPXPXPXPXPXPXPXPXPXPXPXPXPXPXPXPXPXPXPXPXPXPXPXPXPXPXPXPXPXPXPXPXPXPXPXPXPXPXPXPXPXPXPXPXPXX X O o : > 2 2 4 2 2 4 3 2 , o X X O o : > 4 W / [  ...7X7X7X..X.{ [ ^ W Q 3 4 2 , : PXPXPXPXPXPXPXPXPXPXPXPXPXPXPXPXPXPXPXPXPXPXPXPXPXPXPXPXPX",
"PXPXPXPXPXPXPXPXPXPXPXPXPXPXPXPXPXPXPXPXPXPXPXPXPXPXPXPXPXPXPXPXPXPXPXPXPXPXPXPXPXPXPXPXPXPXPXPXPXPXPXPXPXPXPXPXPXX X X O O o : , 4 W ^ [ / 4 : O X X O o : , 2 3 Q ~ / ^ ^ ^ / ~ W Q E 3 4 2 2 > , : o O PXPXPXPXPXPXPXPXPXPXPXPXPXPXPXPXPXPXPXPXPXPXPXPXPXPXPX",
"PXPXPXPXPXPXPXPXPXPXPXPXPXPXPXPXPXPXPXPXPXPXPXPXPXPXPXPXPXPXPXPXPXPXPXPXPXPXPXPXPXPXPXPXPXPXPXPXPXPXPXPXPXPXPXPXPXPXX X X X X X : 3 / [ } ^ 3 : O X X o 6 : , 2 3 Q ~ ^ ^ ^ ^ ^ / / / / / ~ W E 4 > : : o PXPXPXPXPXPXPXPXPXPXPXPXPXPXPXPXPXPXPXPXPXPXPXPXPXPXPX",
"PXPXPXPXPXPXPXPXPXPXPXPXPXPXPXPXPXPXPXPXPXPXPXPXPXPXPXPXPXPXPXPXPXPXPXPXPXPXPXPXPXPXPXPXPXPXPXPXPXPXPXPXPXPXPXPXPXPXPXPXX X X X : 4 W / ~ W 2 : o O o : , 2 3 W / [ X.8XqXeXqX8X8X8XqXeXeXqX7X{ / 3 2 : : PXPXPXPXPXPXPXPXPXPXPXPXPXPXPXPXPXPXPXPXPXPXPXPXPXPXPX",
"PXPXPXPXPXPXPXPXPXPXPXPXPXPXPXPXPXPXPXPXPXPXPXPXPXPXPXPXPXPXPXPXPXPXPXPXPXPXPXPXPXPXPXPXPXPXPXPXPXPXPXPXPXPXPXPXPXPXPXPXPXX X X O , 2 4 4 4 2 2 : o o , 4 W [  ...qXaXfXMXMXMXfXfXfXfXgXpXwX9X} ~ 4 > : : PXPXPXPXPXPXPXPXPXPXPXPXPXPXPXPXPXPXPXPXPXPXPXPXPXPXPX",
"PXPXPXPXPXPXPXPXPXPXPXPXPXPXPXPXPXPXPXPXPXPXPXPXPXPXPXPXPXPXPXPXPXPXPXPXPXPXPXPXPXPXPXPXPXPXPXPXPXPXPXPXPXPXPXPXPXPXPXPXPXPXPXX X X O o : > 3 3 > : : > Q [ 7XeXiXfXNXZXFXFXFXFXZXNXMXdXwX7X[ W 4 > : o o PXPXPXPXPXPXPXPXPXPXPXPXPXPXPXPXPXPXPXPXPXPXPXPXPXPXPX",
"PXPXPXPXPXPXPXPXPXPXPXPXPXPXPXPXPXPXPXPXPXPXPXPXPXPXPXPXPXPXPXPXPXPXPXPXPXPXPXPXPXPXPXPXPXPXPXPXPXPXPXPXPXPXPXPXPXPXPXPXPXPXPXPXX X X O : , 2 4 2 > , , 2 W } ..eXaXMXCXFXFXFXCXMXdXeX9X{ ^ Q 2 > : : : o PXPXPXPXPXPXPXPXPXPXPXPXPXPXPXPXPXPXPXPXPXPXPXPXPXPXPX",
"PXPXPXPXPXPXPXPXPXPXPXPXPXPXPXPXPXPXPXPXPXPXPXPXPXPXPXPXPXPXPXPXPXPXPXPXPXPXPXPXPXPXPXPXPXPXPXPXPXPXPXPXPXPXPXPXPXPXPXPXPXPXPXPXPXX X O o : > 2 2 2 , : : > E / { 7XeXpXfXMXfXaXeX7X} ^ W 3 4 4 2 > , : : PXPXPXPXPXPXPXPXPXPXPXPXPXPXPXPXPXPXPXPXPXPXPXPXPXPXPX",
"PXPXPXPXPXPXPXPXPXPXPXPXPXPXPXPXPXPXPXPXPXPXPXPXPXPXPXPXPXPXPXPXPXPXPXPXPXPXPXPXPXPXPXPXPXPXPXPXPXPXPXPXPXPXPXPXPXPXPXPXPXPXPXPXPXPXPXX O : > 2 > : o O O o : 2 E W ^ } X...X.[ ^ W W Q W ~ ^ [ ^ W 3 2 : PXPXPXPXPXPXPXPXPXPXPXPXPXPXPXPXPXPXPXPXPXPXPXPXPXPXPX",
"PXPXPXPXPXPXPXPXPXPXPXPXPXPXPXPXPXPXPXPXPXPXPXPXPXPXPXPXPXPXPXPXPXPXPXPXPXPXPXPXPXPXPXPXPXPXPXPXPXPXPXPXPXPXPXPXPXPXPXPXPXPXPXPXPXPXPXPXX o > 2 , o O X X O o : , > 2 4 E Q Q 3 3 Q W ^ [ {  . .[ ~ 3 > : PXPXPXPXPXPXPXPXPXPXPXPXPXPXPXPXPXPXPXPXPXPXPXPXPXPXPX",
"PXPXPXPXPXPXPXPXPXPXPXPXPXPXPXPXPXPXPXPXPXPXPXPXPXPXPXPXPXPXPXPXPXPXPXPXPXPXPXPXPXPXPXPXPXPXPXPXPXPXPXPXPXPXPXPXPXPXPXPXPXPXPXPXPXPXPXPXPXPX> > , : o X X o : , > > , , , > 2 3 W [ ..8XqX9X} W 3 2 : : o PXPXPXPXPXPXPXPXPXPXPXPXPXPXPXPXPXPXPXPXPXPXPXPXPXPXPX",
"PXPXPXPXPXPXPXPXPXPXPXPXPXPXPXPXPXPXPXPXPXPXPXPXPXPXPXPXPXPXPXPXPXPXPXPXPXPXPXPXPXPXPXPXPXPXPXPXPXPXPXPXPXPXPXPXPXPXPXPXPXPXPXPXPXPXPXPXPXQ > : : o O X o , 2 Q / ~ Q 4 2 2 Q [ 7XwXaXiX8X{ ~ 4 2 2 , o O PXPXPXPXPXPXPXPXPXPXPXPXPXPXPXPXPXPXPXPXPXPXPXPXPXPXPX",
"PXPXPXPXPXPXPXPXPXPXPXPXPXPXPXPXPXPXPXPXPXPXPXPXPXPXPXPXPXPXPXPXPXPXPXPXPXPXPXPXPXPXPXPXPXPXPXPXPXPXPXPXPXPXPXPXPXPXPXPXPXPXPXPXPXPXPXPX^ W 2 o O X X O : 2 W } 8X8X..[ ~ W } wXMXNXMXwX[ Q 4 2 4 3 2 : X PXPXPXPXPXPXPXPXPXPXPXPXPXPXPXPXPXPXPXPXPXPXPXPXPXPXPX",
"PXPXPXPXPXPXPXPXPXPXPXPXPXPXPXPXPXPXPXPXPXPXPXPXPXPXPXPXPXPXPXPXPXPXPXPXPXPXPXPXPXPXPXPXPXPXPXPXPXPXPXPXPXPXPXPXPXPXPXPXPXPXPXPXPXPXpX9X[ ~ E 2 > : : o o , 3 } eXdXgXaX8XX.qXMXCXNXdX8X^ W W ~ Q 2 , o PXPXPXPXPXPXPXPXPXPXPXPXPXPXPXPXPXPXPXPXPXPXPXPXPXPXPXPX",
"PXPXPXPXPXPXPXPXPXPXPXPXPXPXPXPXPXPXPXPXPXPXPXPXPXPXPXPXPXPXPXPXPXPXPXPXPXPXPXPXPXPXPXPXPXPXPXPXPXPXPXPXPXPXPXPXPXPXPXPXPXPXPXPXPXgXaXqXX.} [ ^ ~ E 2 : : o > ^ 8XgXCXZXfXeXaXCXZXfXeX..} [ { } W : X PXPXPXPXPXPXPXPXPXPXPXPXPXPXPXPXPXPXPXPXPXPXPXPXPXPXPXPXPX",
"PXPXPXPXPXPXPXPXPXPXPXPXPXPXPXPXPXPXPXPXPXPXPXPXPXPXPXPXPXPXPXPXPXPXPXPXPXPXPXPXPXPXPXPXPXPXPXPXPXPXPXPXPXPXPXPXPXPXPXPXPXPXPXCXfXeX8XqXiXiXiXeX7X[ ~ Q 2 : : Q  .wXMXNXdXeXiXNXCXgXeXqXeX8XX.[ 3 o X PXPXPXPXPXPXPXPXPXPXPXPXPXPXPXPXPXPXPXPXPXPXPXPXPXPXPXPXPX",
"PXPXPXPXPXPXPXPXPXPXPXPXPXPXPXPXPXPXPXPXPXPXPXPXPXPXPXPXPXPXPXPXPXPXPXPXPXPXPXPXPXPXPXPXPXPXPXPXPXPXPXPXPXPXPXPXPXPXPXPXPXPXMXfXpXqX9XuXMXCXMXdXqX .^ W 3 , : 2 / X.iXdXeX7XeXfXMXiX8XeXaXwXX.~ 2 o X PXPXPXPXPXPXPXPXPXPXPXPXPXPXPXPXPXPXPXPXPXPXPXPXPXPXPXPXPX",
"PXPXPXPXPXPXPXPXPXPXPXPXPXPXPXPXPXPXPXPXPXPXPXPXPXPXPXPXPXPXPXPXPXPXPXPXPXPXPXPXPXPXPXPXPXPXPXPXPXPXPXPXPXPXPXPXPXPXPXPXPXCXgXwXqXeXiXfXZXZXMXiX7X^ Q 2 , : o > E ^ X.7XX.} X.wXiX8XX.7XeX8X[ E 2 PXPXPXPXPXPXPXPXPXPXPXPXPXPXPXPXPXPXPXPXPXPXPXPXPXPXPXPXPXPXPX",
"PXPXPXPXPXPXPXPXPXPXPXPXPXPXPXPXPXPXPXPXPXPXPXPXPXPXPXPXPXPXPXPXPXPXPXPXPXPXPXPXPXPXPXPXPXPXPXPXPXPXPXPXPXPXPXPXPXPXPXPXMXfXwX6X5XuXnXCXZXNXpX8X} W 2 , o O O : 2 E ~ ^ ~ W [ ..8XX.[ { .. .W 2 , PXPXPXPXPXPXPXPXPXPXPXPXPXPXPXPXPXPXPXPXPXPXPXPXPXPXPXPXPXPXPX",
"PXPXPXPXPXPXPXPXPXPXPXPXPXPXPXPXPXPXPXPXPXPXPXPXPXPXPXPXPXPXPXPXPXPXPXPXPXPXPXPXPXPXPXPXPXPXPXPXPXPXPXPXPXPXPXPXiXpXgXgXiXrXX.} X.aXSXAXSXdX8X} W 2 , : O X X : > 2 2 2 2 2 Q O.} ^ ~ / ^ ~ 4 : : PXPXPXPXPXPXPXPXPXPXPXPXPXPXPXPXPXPXPXPXPXPXPXPXPXPXPXPXPXPXPX",
"PXPXPXPXPXPXPXPXPXPXPXPXPXPXPXPXPXPXPXPXPXPXPXPXPXPXPXPXPXPXPXPXPXPXPXPXPXPXPXPXPXPXPXPXPXPXPXPXPXPXPXPXPXPX;X#X}.}.{.7X{ ^ ] k.].cXbXbXcX|.o.W 4 , 6 o o o o : > > : : : : > 3 Q E 4 4 3 2 : : 2 ^ PXPXPXPXPXPXPXPXPXPXPXPXPXPXPXPXPXPXPXPXPXPXPXPXPXPXPXPXPXPX",
"PXPXPXPXPXPXPXPXPXPXPXPXPXPXPXPXPXPXPXPXPXPXPXPXPXPXPXPXPXPXPXPXPXPXPXPXPXPXPXPXPXPXPXPXPXPXPXPXPXPXPXPXPX:X*X).s.p.I Q 4 2 H s.).;X3X>X+X~.I 2 : o O O : > 4 3 E 4 , o o o : 5 4 3 3 4 2 , : : E [  .PXPXPXPXPXPXPXPXPXPXPXPXPXPXPXPXPXPXPXPXPXPXPXPXPXPXPXPXPX",
"PXPXPXPXPXPXPXPXPXPXPXPXPXPXPXPXPXPXPXPXPXPXPXPXPXPXPXPXPXPXPXPXPXPXPXPXPXPXPXPXPXPXPXPXPXPXPXPXPXPXPX,X*X).!.w.6.d - : o # y 9.!.-X>X-X/.p.A : o X X PXPX[  .X...} Q > : : > Q ^ { X. .^ W 4 2 W [ 7XiXMXPXPXPXPXPXPXPXPXPXPXPXPXPXPXPXPXPXPXPXPXPXPXPXPXPXPXPX",
"PXPXPXPXPXPXPXPXPXPXPXPXPXPXPXPXPXPXPXPXPXPXPXPXPXPXPXPXPXPXPXPXPXPXPXPXPXPXPXPXPXPXPXPXPXPXPXPXPXPXPX+X).!.8.=.p i @ X + X r Z e./.).).!.9.t O X X o PXPXpXaXaXiX8X[ E 2 2 W } 8XiXgXaXqXX.^ W ~ [ 7XiXgXfXPXPXPXPXPXPXPXPXPXPXPXPXPXPXPXPXPXPXPXPXPXPXPXPXPXPX",
"PXPXPXPXPXPXPXPXPXPXPXPXPXPXPXPXPXPXPXPXPXPXPXPXPXPXPXPXPXPXPXPXPXPXPXPXPXPXPXPXPXPXPXPXPXPXPXPXPXPXPX0.0.PXPXPXPXPXPXPXPXPXPXPXPX9.9.9.PXPXPXPXPXPXPX7XwXfXNXMXdXeX ./ ~ ^  .wXfXCXAXCXMXiX..^ / ^ { 9XeXaXdXfXPXPXPXPXPXPXPXPXPXPXPXPXPXPXPXPXPXPXPXPXPXPXPXPX",
"PXPXPXPXPXPXPXPXPXPXPXPXPXPXPXPXPXPXPXPXPXPXPXPXPXPXPXPXPXPXPXPXPXPXPXPXPXPXPXPXPXPXPXPXPXPXPXPXPXPXPX=.PXPXPXPXPXPXPXPXPXPXPXPXPXPXp PXPXPXPXPXPXPX ...qXdXBXfXiX8X{ ^ ^ [ ..wXfXNXCXNXfXiX..[ ~ W / } ..eXaXhXbXPXPXPXPXPXPXPXPXPXPXPXPXPXPXPXPXPXPXPXPXPXPXPX",
"PXPXPXPXPXPXPXPXPXPXPXPXPXPXPXPXPXPXPXPXPXPXPXPXPXPXPXPXPXPXPXPXPXPXPXPXPXPXPXPXPXPXPXPXPXPXPXPXPXPXPXPXPXPXPXPXPXPXPXPXPXPXPXPXPXPXPXPXPXPXPXPXPXO.} X.8XuXaXwX9X{ ^ W ~ ^ { 8XiXdXfXdXwX9X{ / W E E ~ [ ..qXyX<X2XPXPXPXPXPXPXPXPXPXPXPXPXPXPXPXPXPXPXPXPXPXPX",
"PXPXPXPXPXPXPXPXPXPXPXPXPXPXPXPXPXPXPXPXPXPXPXPXPXPXPXPXPXPXPXPXPXPXPXPXPXPXPXPXPXPXPXPXPXPXPXPXPXPXPXPXPXPXPXPXPXPXPXPXPXPXPXPXPXPXPXPXPXPXPXX.5X8XeXiXaXiXeX7X{ ^ Q 3 E ~  .uXnXNXSXNXgXwX{ W 4 2 2 3 Q ~ [ {.=X>XPXPXPXPXPXPXPXPXPXPXPXPXPXPXPXPXPXPXPXPXPXPX",
"PXPXPXPXPXPXPXPXPXPXPXPXPXPXPXPXPXPXPXPXPXPXPXPXPXPXPXPXPXPXPXPXPXPXPXPXPXPXPXPXPXPXPXPXPXPXPXPXPXPXPXPXPXPXPXPXPXPXPXPXPXPXPXPXPXPXPXPXPXPX{.{.eXsXvXSXBXiX9X{ ^ W 4 2 3 ~ ..hXCXDXDXDXSXhXX.W 2 : : , > 5 4 U ~._.PXPXPXPXPXPXPXPXPXPXPXPXPXPXPXPXPXPXPXPXPXPX",
"PXPXPXPXPXPXPXPXPXPXPXPXPXPXPXPXPXPXPXPXPXPXPXPXPXPXPXPXPXPXPXPXPXPXPXPXPXPXPXPXPXPXPXPXPXPXPXPXPXPXPXPXPXPXPXPXPXPXPXPXPXPXPXPXPXPXPXPX;X<X4X4X#X#XcXvXMXwXX.[ / Q 2 2 (  .{.}.#X<XbX<X#X}.v.^ 3 : X O o o : A p.s.PXPXPXPXPXPXPXPXPXPXPXPXPXPXPXPXPXPXPXPXPXPX",
"PXPXPXPXPXPXPXPXPXPXPXPXPXPXPXPXPXPXPXPXPXPXPXPXPXPXPXPXPXPXPXPXPXPXPXPXPXPXPXPXPXPXPXPXPXPXPXPXPXPXPXPXPXPXPXPXPXPXPXPXPXPXPXPXPXPXPX;X>X1X2X1X*X/.].yXdXrX{ ^ W 3 > 2 ^ 7X{.].(.+X;X:X`.~.k.O.T o X X X X o y Z 7.PXPXPXPXPXPXPXPXPXPXPXPXPXPXPXPXPXPXPXPXPXPX",
"PXPXPXPXPXPXPXPXPXPXPXPXPXPXPXPXPXPXPXPXPXPXPXPXPXPXPXPXPXPXPXPXPXPXPXPXPXPXPXPXPXPXPXPXPXPXPXPXPXPXPXPXPXPXPXPXPXPXPXPXPXPXPXPXPX_.*X;X3X3X1X;X).e.x.tXwX6X[ W 3 2 , 2 ~ X.{.[.+X;X1X,X*X[.k.( 2 O X PXPXPXPXd s s PXPXPXPXPXPXPXPXPXPXPXPXPXPXPXPXPXPXPXPXPXPX",
"PXPXPXPXPXPXPXPXPXPXPXPXPXPXPXPXPXPXPXPXPXPXPXPXPXPXPXPXPXPXPXPXPXPXPXPXPXPXPXPXPXPXPXPXPXPXPXPXPXPXPXPXPXPXPXPXPXPXPXPXPXPXPXPXPX:X;X>X1X;X+X/.e.9.t.v...} W 4 , : o : T ^ k.].`.:X1X;X*X^.U 3 , O PXPXPXPXPXPXp p PXPXPXPXPXPXPXPXPXPXPXPXPXPXPXPXPXPXPXPXPXPX",
"PXPXPXPXPXPXPXPXPXPXPXPXPXPXPXPXPXPXPXPXPXPXPXPXPXPXPXPXPXPXPXPXPXPXPXPXPXPXPXPXPXPXPXPXPXPXPXPXPXPXPXPXPXPXPXPXPXPXPXPXPXPXPXPXPX3X3X>X*X).e.7.s s z ) / W 4 , O X X O , 4 D p.!.).+X_.).Q.A : O PXPXPXPXPXPXPXPXPXPXPXPXPXPXPXPXPXPXPXPXPXPXPXPXPXPXPXPXPXPXPX",
"PXPXPXPXPXPXPXPXPXPXPXPXPXPXPXPXPXPXPXPXPXPXPXPXPXPXPXPXPXPXPXPXPXPXPXPXPXPXPXPXPXPXPXPXPXPXPXPXPXPXPXPXPXPXPXPXPXPXPXPXPXPXPXPXPX;X-X`.!.0.Z i i i r 4 4 5 , : X PXPXX o : t Z 0.e.!.!.e.9.t O + PXPXPXPXPXPXPXPXPXPXPXPXPXPXPXPXPXPXPXPXPXPXPXPXPXPXPXPXPXPXPX",
"PXPXPXPXPXPXPXPXPXPXPXPXPXPXPXPXPXPXPXPXPXPXPXPXPXPXPXPXPXPXPXPXPXPXPXPXPXPXPXPXPXPXPXPXPXPXPXPXPXPXPXPXPXPXPXPXPXPXPXPXPXPXPXPXPX(.!.e.7.d - o O o : : : : o O PXPXPXPXPXX - d 6.7.8.8.6.d - X PXPXPXPXPXPXPXPXPXPXPXPXPXPXPXPXPXPXPXPXPXPXPXPXPXPXPXPXPXPXPXPX",
"PXPXPXPXPXPXPXPXPXPXPXPXPXPXPXPXPXPXPXPXPXPXPXPXPXPXPXPXPXPXPXPXPXPXPXPXPXPXPXPXPXPXPXPXPXPXPXPXPXPXPXPXPXPXPXPXPXPXPXPXPXPXPXPXPX8.8.8.PXPXPXPXPXPXPXPXPXPXPXPXPXPXPXPXPXPXPXPXPX=.s =.PXPXPXPXPXPXPXPXPXPXPXPXPXPXPXPXPXPXPXPXPXPXPXPXPXPXPXPXPXPXPXPXPXPXPXPX",
"PXPXPXPXPXPXPXPXPXPXPXPXPXPXPXPXPXPXPXPXPXPXPXPXPXPXPXPXPXPXPXPXPXPXPXPXPXPXPXPXPXPXPXPXPXPXPXPXPXPXPXPXPXPXPXPXPXPXPXPXPXPXPXPXPX6.6.6.PXPXPXPXPXPXPXPXPXPXPXPXPXPXPXPXPXPXPXPXPXp p p PXPXPXPXPXPXPXPXPXPXPXPXPXPXPXPXPXPXPXPXPXPXPXPXPXPXPXPXPXPXPXPXPXPXPXPX"
};
