/* XPM */
static const char *bos2d3[] = {
/* columns rows colors chars-per-pixel */
"128 128 245 2 ",
"   c #0C0D0D",
".  c #141414",
"X  c #1C1C1C",
"o  c #191816",
"O  c #13110F",
"+  c #231D16",
"@  c #371B1B",
"#  c #2E160B",
"$  c #2B230E",
"%  c #2D2512",
"&  c #2C261B",
"*  c #342A13",
"=  c #3B2D15",
"-  c #332C1C",
";  c #382618",
":  c #3B301A",
">  c #1D1D21",
",  c #242424",
"<  c #2B2B2B",
"1  c #272828",
"2  c #352C26",
"3  c #383328",
"4  c #2E3132",
"5  c #343434",
"6  c #3C3C3C",
"7  c #393835",
"8  c #2F2E30",
"9  c #1D2121",
"0  c #4B0504",
"q  c #520202",
"w  c #5C0202",
"e  c #580A0A",
"r  c #471818",
"t  c #581919",
"y  c #670303",
"u  c #770202",
"i  c #6E1717",
"p  c #452A16",
"a  c #44331A",
"s  c #4A361B",
"d  c #4D391D",
"f  c #423116",
"g  c #533C1E",
"h  c #5A3519",
"j  c #552B0E",
"k  c #682A06",
"l  c #742C01",
"z  c #792F00",
"x  c #7C3502",
"c  c #793707",
"v  c #653716",
"b  c #6B370E",
"n  c #452B27",
"m  c #443729",
"M  c #573D22",
"N  c #453C36",
"B  c #553932",
"V  c #6B312C",
"C  c #79461A",
"Z  c #764814",
"A  c #4B432C",
"S  c #5D4122",
"D  c #56472B",
"F  c #494439",
"G  c #564A3A",
"H  c #5B5536",
"J  c #634524",
"K  c #6D4A28",
"L  c #684727",
"P  c #744D2A",
"I  c #7B522E",
"U  c #76532C",
"Y  c #7D5633",
"T  c #685532",
"R  c #766935",
"E  c #5F491C",
"W  c #3D3E41",
"Q  c #3E4042",
"!  c #434343",
"~  c #4B4B4C",
"^  c #484747",
"/  c #554A45",
"(  c #585348",
")  c #545454",
"_  c #5B5B5B",
"`  c #595856",
"'  c #4E5052",
"]  c #665A49",
"[  c #71534E",
"{  c #676458",
"}  c #74684F",
"|  c #5E6061",
" . c #636363",
".. c #6C6C6C",
"X. c #686867",
"o. c #736A68",
"O. c #75726C",
"+. c #747474",
"@. c #7C7C7C",
"#. c #787878",
"$. c #6D6F71",
"%. c #5F5F60",
"&. c #8B0101",
"*. c #820404",
"=. c #9B0101",
"-. c #940404",
";. c #941717",
":. c #A80202",
">. c #B30101",
",. c #BC0000",
"<. c #AE1616",
"1. c #823C04",
"2. c #882828",
"3. c #B03030",
"4. c #C70101",
"5. c #D40000",
"6. c #DB0101",
"7. c #D80B0B",
"8. c #CF1818",
"9. c #E40000",
"0. c #EC0000",
"q. c #E40A0A",
"w. c #F00000",
"e. c #E41313",
"r. c #C52626",
"t. c #894608",
"y. c #894508",
"u. c #914E0C",
"i. c #94530E",
"p. c #9A5A0F",
"a. c #9B5C13",
"s. c #955713",
"d. c #8A4F12",
"f. c #9E6317",
"g. c #A46918",
"h. c #AB741C",
"j. c #AD781E",
"k. c #B17B1E",
"l. c #835631",
"z. c #855833",
"x. c #8C5C35",
"c. c #825D3E",
"v. c #925F38",
"b. c #8B5825",
"n. c #9B653C",
"m. c #966339",
"M. c #906D2E",
"N. c #AA7A25",
"B. c #A2693E",
"V. c #AD7924",
"C. c #8E5553",
"Z. c #B25151",
"A. c #8E724F",
"S. c #A96C42",
"D. c #AC7344",
"F. c #B77447",
"G. c #8E756C",
"H. c #AB6666",
"J. c #C27A4B",
"K. c #C77272",
"L. c #C44141",
"P. c #B58424",
"I. c #B98B28",
"U. c #BD922C",
"Y. c #B28F32",
"T. c #A98E36",
"R. c #C2992E",
"E. c #C2982D",
"W. c #C49C32",
"Q. c #C89C31",
"!. c #CDAB3A",
"~. c #C9A536",
"^. c #D2B23D",
"/. c #D9BA3E",
"(. c #D1AE39",
"). c #928952",
"_. c #AD924C",
"`. c #B7AA4D",
"'. c #918770",
"]. c #AB9570",
"[. c #B5A771",
"{. c #CCB445",
"}. c #D6BA42",
"|. c #D7BA44",
" X c #C8AF4B",
".X c #C4B678",
"XX c #DDC54A",
"oX c #DDC549",
"OX c #D6CE5A",
"+X c #E2CC4C",
"@X c #E1C748",
"#X c #E6D352",
"$X c #EBDA56",
"%X c #EADA57",
"&X c #E4D050",
"*X c #EEE25B",
"=X c #F2E65C",
"-X c #F6ED62",
";X c #FDFC6C",
":X c #F9F465",
">X c #FFFE72",
",X c #E8E76A",
"<X c #DBD16A",
"1X c #7F7F80",
"2X c #7E8283",
"3X c #848484",
"4X c #8C8C8C",
"5X c #898886",
"6X c #948C89",
"7X c #8E9192",
"8X c #949494",
"9X c #9B9B9B",
"0X c #999897",
"qX c #94928E",
"wX c #A59B90",
"eX c #B2A990",
"rX c #9DA1A2",
"tX c #A4A4A4",
"yX c #ABACAC",
"uX c #A7A7A8",
"iX c #B3B4B4",
"pX c #BBBBBB",
"aX c #B8B8B6",
"sX c #B0AFAE",
"dX c #9F9FA2",
"fX c #C2B987",
"gX c #C3B9B1",
"hX c #C78686",
"jX c #C8C2BB",
"kX c #CAC884",
"lX c #BBBDC2",
"zX c #BEC4C4",
"xX c #C4C4C4",
"cX c #CBCBCB",
"vX c #C7C7C7",
"bX c #D3D3D3",
"nX c #DBDBDB",
"mX c #D8D6D6",
"MX c #D1CFCD",
"NX c #E3E3E3",
"BX c #EBEBEB",
"VX c #E6EAEA",
"CX c #DCE0E0",
"ZX c None",
"AX c black",
/* pixels */
"ZXZXZXZXZXZXZXZXZXZXZXZXZXZXZXZXZXZXZXZXZXZXZXZXZXZXZXZXZXZXZXZXZXZXZXZXZXZXZXZXZXZXZXZXZXZXZXZXZXZXZXZXZXZXZXZXZX' ) _  .+.3X7XrXyXiXzXzXvXgXK.8.5.5.5.5.5.6.6.6.6.6.6.9.9.9.9.0.0.w.w.w.w.w.w.w.w.w.0.0.ZXZXZXZXZXZXZXZXZXZXZXZXZXZXZXZXZXZXZXZXZXZXZXZXZXZXZX",
"ZXZXZXZXZXZXZXZXZXZXZXZXZXZXZXZXZXZXZXZXZXZXZXZXZXZXZXZXZXZXZXZXZXZXZXZXZXZXZXZXZXZXZXZXZXZXZXZXZXZXZXZXZXZXZXZXQ ! ~ ) | o.G.H.H.K.K.K.hXhXK.L.8.,.>.>.>.>.>.>.>.>.>.>.>.,.,.4.4.4.5.5.5.5.6.6.9.0.0.w.0.9.ZXZXZXZXZXZXZXZXZXZXZXZXZXZXZXZXZXZXZXZXZXZXZXZXZXZX",
"ZXZXZXZXZXZXZXZXZXZXZXZXZXZXZXZXZXZXZXZXZXZXZXZXZXZXZXZXZXZXZXZXZXiXaXpXxXcXbXnXnXnXnXmXbXxXaXyXtX8X3X+. .) ! 7 5 5 7 ! ) [ 3.8.e.e.e.8.8.8.<.:.=.&.*.u u u u u u u u u *.&.*.&.-.=.:.:.:.>.>.4.5.5.9.0.9.6.5.5.9.0.w.ZXZXZXZXZXZXZXZXZXZXZXZXZXZXZXZXZXZXZXZXZX",
"ZXZXZXZXZXZXZXZXZXZXZXZXZXZXZXZXZXZXZXZXZXZXZXZXZXZXZXZXZXZXZXcXvXxXxXxXvXcXbXnXnXnXnXbXcXxXaXyXuX9X4X3XO.[ V i i i i V V 2.;.>.4.4.,.>.:.=.-.u u y i V V [ [ [ C.C.C.C.C.H.H.H.H.H.H.H.H.Z.Z.Z.Z.Z.Z.3.3.8.5.6.0.0.0.9.6.ZXZXZXZXZXZXZXZXZXZXZXZXZXZXZXZXZXZXZX",
"ZXZXZXZXZXZXZXZXZXZXZXZXZXZXZXZXZXZXZXZXZXZXZXZXZXZXZXxXxXvXbXbXbXbXbXcXcXcXbXbXnXnXbXbXcXxXpXiXyXuX9X8XG.C.<.>.:.:.=.=.-.-.-.&.&.&.u u u y y e q t / o.G.4X0XtXsXaXgXxXxXcXbXmXmXbXMXcXxXgXaXsXuX9XqXG.C.3.8.7.q.q.q.6.6.6.9.0.0.ZXZXZXZXZXZXZXZXZXZXZXZXZXZXZX",
"ZXZXZXZXZXZXZXZXZXZXZXZXZXZXZXZXZXZXZXZXZXZXZXZXZXaXxXvXcXbXnXNXNXNXnXbXcXcXbXbXbXbXbXbXbXbXbXcXvXxXiXuXqXG.C.2.;.&.&.&.*.u u u y e r r r r r n n / o.3X9XyXaXxXcXbXmXnXCXNXVXBXBXVXNXCXmXbXvXzXaXsXrX8X5XG.Z.Z.Z.Z.L.8.9.9.5.5.5.6.0.ZXZXZXZXZXZXZXZXZXZXZXZXZX",
"ZXZXZXZXZXZXZXZXZXZXZXZXZXZXZXZXZXZXZXZXZXZXZXZXiXiXpXxXbXnXNXVXNXnXnXbXcXvXcXbXbXbXbXnXnXnXnXnXnXbXxXiX9X2X ./ B i y y y w e q 0 @ , 1 < 5 7 ~ _ ..3X9XyXaXxXcXbXnXnXNXNXVXBXBXBXBXVXNXnXbXbXvXxXaXsXtX9X8X4X4X4X5XH.Z.8.7.4.4.4.5.9.9.ZXZXZXZXZXZXZXZXZXZXZXZX",
"ZXZXZXZXZXZXZXZXZXZXZXZXZXZXZXZXZXZXZXZXZXxXpXiXyXyXiXiXpXvXbXbXbXcXvXxXxXxXvXcXbXnXNXNXNXNXnXbXcXxXiXyX8X@. .) ! N n n @ @ @ @ @ + X , < 7 ~ | +.5X9XyXiXaXxXxXcXbXnXNXNXVXBXBXBXBXVXNXNXnXbXbXvXxXaXiXyXuXrX7X2X+.O.G.H.Z.r.7.5.4.,.>.ZXZXZXZXZXZXZXZXZXZXZXZX",
"ZXZXZXZXZXZXZXZXZXZXZXZXZXZXZXZXZXZXZXZXxXxXaXiXyXyXyXyXiXiXaXpXpXaXiXiXaXpXxXcXbXnXnXnXnXbXbXxXpXiXiXyX9X5X+. .' ! 7 4 < 1 , , , , , < 7 ~ _ +.5X9XuXyXiXaXaXxXxXcXbXnXNXNXNXNXNXNXNXNXnXnXbXbXcXxXpXiXiXyXyX9X1X..X.$...C.3.7.6.4.,.>.>.ZXZXZXZXZXZXZXZXZXZXZX",
"ZXZXZXZXZXZXZXZXZXZXZXZXZXZXZXZXZXZXbXbXvXlXaXiXyXyXyXyXyXuXuXuXuXuXuXuXyXyXaXxXvXvXvXxXxXpXaXiXiXiXiXaXiXuX8X@. .~ 5 < 1 , X X , 1 < 6 ~  .+.3X8XtXuXyXyXiXiXaXpXxXxXcXbXbXbXbXnXbXbXbXbXcXcXvXvXxXpXiXiXyXuX9X5X#.X.| ) V ;.>.5.6.6.5.4.>.>.ZXZXZXZXZXZXZXZXZX",
"ZXZXZXZXZXZXZXZXZXZXZXZXZXZXZXZXZXZXvXxXxXxXpXpXpXpXpXaXiXyXtX9X8X8X8X9X9XuXyXiXpXaXiXiXiXyXyXyXyXiXpXxXxXiXtX5XX.~ 5 < 1 X X o X 1 5 ! ) X.+.3X4X0X9XuXyXyXyXyXiXiXiXpXxXxXxXxXvXxXxXxXpXpXaXiXiXyXyXuXtXdX9X8X3X+. .) ^ B t i -.4.6.5.>.:.=.ZXZXZXZXZXZXZXZXZX",
"ZXZXZXZXZXZXZXZXZXZXZXZXZXZXZXZXZXZXaXaXpXxXvXcXbXbXbXvXpXyX9X8X4X4X4X8X8X9XtXuXyXuXtXtXtXuXyXyXyXiXxXvXxXiX9X3X .~ 5 < , o o o X 1 5 ! )  .+.#.@.3X8X9X9XtXtX9X9X9XtXtXuXyXyXiXiXiXyXyXuXtX9X8X4X4X5X5X5X5X3X@.+... .) ^ 7 5 2 t -.,.,.:.-.&.ZXZXZXZXZXZXZXZXZX",
"ZXZXZXZXZXZXZXZXZXZXZXZXZXZXZXZXaXaXaXpXxXbXnXnXnXbXxXyX9X3X#.+.+.@.3X4X8X8X8X8X9X9X9X9X8X8X8X8X8X8X9X9X9X4X@.X.) ! 5 1 o . . . X 1 5 6 ~ _  .X...+.@.3X4X4X8X4X3X3X@.@.@.@.3X3X3X3X3X3X@.#.+... . . . . . .X.X.X. ._ ~ ! 5 < 1 r *.>.4.,.>.>.>.:.ZXZXZXZXZXZXZX",
"ZXZXZXZXZXZXZXZXZXZXZXZXZXZXZXiXiXaXpXxXbXnXNXnXcXpX9X@.X._ ) )  .#.3X4X8X8X4X5X5X5X4X4X5X3X@.#.+.+.+...X. ._ ) ! 5 < , o . . . o 1 5 6 ~ ) _ _  . .X...+.+.+.+... . .X...+.+.+.+.#.@.@.#.+... .| _ ) ~ ~ ) ) ) _ ) ) ~ 6 5 4 1 r i -.>.4.5.5.>.:.:.ZXZXZXZXZXZX",
"ZXZXZXZXZXZXZXZXZXZXZXZXZXpXiXiXiXaXxXbXnXnXbXaX8X#._ ~ 6 ! ~ ) X.@.4X8X8X4X3X@.#.#.#.+.+.X. . ._ _ ) ) ) ~ ~ ! 7 5 < , X o . o X 1 5 6 ^ ~ ) _ _ _ _ ) ) ~ ~ ) ) _ ..3X9XuXiXaXpXxXxXxXxXpXiXyXtX8X@..._ ~ ^ ! ! ^ ^ ^ ^ Q 7 5 2 n t i :.4.4.>.:.=.ZXZXZXZXZXZX",
"ZXZXZXZXZXZXZXZXZXZXZXZXpXaXiXyXyXaXcXbXcXpXyX3X%.! < 1 1 5 ~  .#.5X8X8X4X3X#.+...X. . . ._ _ _ _ _ _ _ ) ) ~ ^ ! 7 4 1 9 X o X , < 5 5 6 ! ^ ~ ~ ~ ^ ! 6 6 6 ^ ) X.@.9XiXvXbXnXNXVXVXVXNXNXnXbXvXaXuX4X+. .~ ! 6 7 7 6 6 6 7 5 4 < 1 r *.:.>.:.=.=.ZXZXZXZXZXZX",
"ZXZXZXZXZXZXZXZXZXvXxXpXiXyXyXyXyXaXxXxXyX3X .~ 5 1 X o 1 6 _ +.5X9X9X8X3X#.+.X. ._ _ _  . ...+.@.3X3X@.#.+.X._ ) ^ 7 < , X X , , 1 < < < 5 5 5 5 5 5 7 6 ^ )  .+.3X8XuXiXlXxXvXcXcXcXcXvXxXxXxXpXiXyXtX8X3X.._ ~ 7 5 < < < < < 1 , , r u =.:.:.=.=.ZXZXZXZXZXZX",
"ZXZXZXZXZXZXZXZXxXxXxXpXiXiXyXyXyXyXyXtX3X_ 7 1 X . . X < ~ ..5X9XuXuX8X3X+.X. ._ _  .X.#.3X8X9X9X9X9X8X5X3X+.X._ ~ 6 < , X X , 1 1 1 < < < 5 5 5 6 ! ~ )  ...#.3X4X8X9X9X9X8X8X4X4X5X5X3X3X5X7X8X9X9X9X8X4X3X+. .) ^ 6 5 5 < < 1 , , r y &.-.=.=.=.ZXZXZXZXZXZX",
"ZXZXZXZXZXZXcXvXxXaXiXiXaXaXiXyXuX9X4X#._ 7 , o . o X < !  .5XuXiXiXyX8X3X.._ ) _  .#.4XtXiXpXpXiXyX9X8X5X3X#... .~ ! 5 , X X , 1 < < 5 5 5 7 ! ~ )  .+.#.3X3X3X3X3X@.#... .) ~ ! 7 5 5 5 7 ! ~ _ X.+.@.3X5X5X3X#.+. ._ ) ~ ! 7 4 , + @ e u &.-.=.=.ZXZXZXZXZXZX",
"ZXZXZXZXZXZXxXpXiXtX9X9XyXiXiXyX9X5X+._ ~ 7 < < < 5 ! )  .3XuXaXaXiXuX4X+. ._ _  .#.8XyXpXvXvXxXiXuX9X4X3X@.+..._ ~ W 4 , X o X , 1 < 5 5 7 ! ~ _  .+.#.@.@.+.+... ._ ( F N 3 3 2 - & & & - 2 3 N ^ )  ...+.+.+.+... ._ ) ~ 6 5 < 9 o # 0 y *.-.=.=.ZXZXZXZXZXZX",
"ZXZXZXZXZXZXiXyX9X3X+.3X8XuXuXtX8X@. .) ~ ~ ~ ) _  ...@.8XuXaXpXaXyX8X@. ._ ) _ ..5XyXpXxXxXxXiXyX9X8X3X@.+... .` ~ 6 < , o o o X , < 5 5 6 ^ ) _  .X.+... ._ ) ~ F 7 2 - * f s s a f a d M d a : 3 N ^ ) ) _ _ _ ) ) ~ ! 7 5 < , X o # 0 y u &.-.=.ZXZXZXZXZXZX",
"ZXZXZXZXiXuX9X4X#.X. .+.8XuXuXtX8X3X+.X.X...#.3X4X8X9XuXyXiXiXiXuX8X3X.._ ) )  .+.4XyXaXaXiXyXuX9X8X3X#.+.X. .) ~ 6 5 < , o . . o X , 1 < < 5 7 ! ~ ~ ) ' ~ ! 7 3 3 - - * f g J J M g M J K J g : * - 3 7 F ^ ^ ^ ! 6 7 5 < 1 , , 1 < @ r w y u &.&.ZXZXZXZXZXZX",
"ZXZXZXpXiXtX5X+. . . .@.9XyXyXyX9X8X3X3X3X4X9XtXyXiXiXiXiXyXyX9X8X@..._ ) ~ _  .#.4XtXyXyX9X9X8X5X3X#... ._ ) ~ 6 5 < 1 X o . . . o X X , , 1 1 < 8 5 7 7 5 8 2 2 : : : f g K Y I K S J U l.I J s = = = : 3 7 7 7 5 8 < 1 , , , < 5 7 n r e y u u u ZXZXZXZXZXZX",
"ZXZXZXvXpXtX@. . .+.3X9XyXaXaXiXuX9X8X8X8X9XtXuXyXyXyXuX9X8X4X3X#.X. .) ~ ~ _ ..@.4X8X9X8X4X3X@.#.+.X. ._ ) ~ ! 5 < 1 , X o o o o , 1 < < 1 , & & - - : : : : a M J J S M L z.n.n.l.K P z.m.x.K g s d d d a - - - - & % & & 8 5 7 7 5 2 r q w y y y ZXZXZXZXZXZX",
"ZXZXxXxXpXtX3X..+.5XtXiXpXxXpXiXuX9X8X4X4X4X4X4X8X4X5X3X@.#.+.X. ._ ) ~ ~ )  .+.3X3X5X3X3X#.+.X. . ._ ) ~ ^ W 5 < 1 X X X X X , 1 < 5 5 < < 1 & * = f a a a a g K l.z.I K I m.D.S.v.I I v.B.m.U S g J L J d : * = = * * % - 7 6 6 3 2 r 0 q w w y y ZXZXZXZXZXZX",
"iXiXaXaXiXuX8X5X8XuXiXaXpXaXiXuX9X4X3X+...X. . . . . . ._ _ _ ) ~ ~ ~ ~ )  ...#.3X@.+.$.X. ._ ) ) ~ ~ ~ ! 7 5 < , X X X , 1 < 5 5 5 5 5 < < 1 - : a d M M g g J z.n.B.v.l.x.S.F.F.B.x.x.n.S.n.Y J J U z.U S s a s d a : * - 3 7 n r e e w y y w w w ZXZXZXZXZXZX",
"aXaXaXiXiXyXtX9XtXyXiXyXuX9X8X3X#... . ._ _ _ _  . . .X. . ._ _ _ _ _  ...+.#.@.#.+. ._ ) ) ~ ~ ^ 6 7 5 5 < < < < < < 5 5 6 ! ! ! 7 5 < 1 , & - a d M J J S S P m.D.F.B.v.n.D.J.J.S.n.n.S.F.S.x.P P z.x.l.L d a d g d : * * ; p r e q w w w w w w ZXZXZXZXZXZXZX",
"lXpXaXiXyXyXuXuXtXtX9X8X3X#... ._ _ _ _  . .X...#.1X3X5X3X3X#.+.#.@.1X3X3X3X@.+... .) ~ ~ ^ ! 6 6 5 5 < < 5 5 7 6 ! ^ ~ ) ) ) ~ ^ 6 8 1 X o X % f g S J L L L I n.F.F.S.n.B.F.J.J.S.B.B.F.F.D.m.I I x.v.z.L d a d g s = * # 0 0 q q q q q q q ZXZXZXZXZXZXZXZXZX",
"pXaXiXiXyXuXtX9X8X5X@.+. ._ _  .X.+.3X4X8X8X8X9XtXuXuXuXtX9X8X4X4X4X5X3X3X@.+. ._ ~ ^ 6 7 5 5 7 6 ^ ~ ) _  .X.X.X. ._ ) ) ~ ~ ~ ^ 6 7 < 1 X + % : d S K K K K I n.D.F.S.n.n.F.J.J.S.n.n.S.F.S.x.I I x.m.z.L d a d d a * % # 0 q q q q q q ZXZXZXZXZXZXZXZXZXZXZX",
"iXiXiXyXtX9X4X3X#... ._ _ _ X.#.4X9XiXpXxXpXaXaXaXaXiXiXyXuX9X9X8X5X3X#.+. ._ ) ~ ! 6 7 7 7 6 ^ ~ _  .+.@.3X3X3X3X+... .) ) ) ) ) ) ) ~ ! 5 3 2 : s S K P K K I v.S.S.n.x.v.S.J.F.S.m.m.S.D.B.x.P P z.v.l.L s f a s f * % # # 0 0 q q q ZXZXZXZXZXZXZXZXZXZXZXZX",
"iXyXuX9X4X@... ._ _ _  .+.3X8XtXyXaXxXxXxXpXiXiXyXuXtX9X9X8X5X3X#... .) ~ ~ ^ ! ! ^ ~ ) _  .X.+.+.#.+.+...X. ._ _ _  .+.@.5X8X9X9X8X4X3X#.X._ F m s g L K L J P x.S.S.v.l.x.S.J.F.S.v.v.S.D.B.l.K K l.x.l.J s f f f = * % $ # # # # ZXZXZXZXZXZXZXZXZXZXZXZXZXZX",
"yXuX9X5X#. .) ~ ~ _  .#.4X9XyXyXiXiXiXiXyXtX9X8X5X3X3X@.@.#.#.+. .) ~ ! 7 7 7 7 W ^ ~ _  ...+.#.#.+.X._ ) ~ ^ ~ )  .#.8XyXaXxXxXpXiXuX9X8X5XO.( m a g J J J S K x.n.n.x.I l.B.F.F.B.x.x.n.S.n.Y L L I z.I J s : = = = * % + o . . ZXZXZXZXZXZXZXZXZXZXZXZXZXZXZX",
"9X8X5X+. .) ~ ~ ) ..3X4X8X9X8X8X4X5X3X3X#.+.X. . ._ _ _ _ _ ZXZX) ~ ^ ! 6 7 6 6 ! ! ! ^ ~ ) ) ~ ^ ! 6 7 7 6 ^ ) +.8XiXxXcXbXxXaXyX9X8X5X3X@...( m : s S J S S L z.n.n.z.P l.n.F.F.n.l.z.n.S.n.I J S K U K M a = = * * % $ + o . . ZXZXZXZXZXZXZXZXZXZXZXZXZXZXZX",
"4X5X#. .) ~ ~ )  .+.3X3X3X3X#.+...X.X.X. ._ ) ) ~ ~ ~ ~ ~ ZXZXZXZXZX^ 6 5 5 7 ! ^ ~ ) ) ) _ ) ^ 7 5 < < 5 5 ^  .4XiXbXnXbXcXpXyX9X8X3X3X@.+.X./ 3 = a g M g g J Y m.m.l.K I m.D.S.x.I I v.n.m.U S S J K J g f * * * % % + o o . ZXZXZXZXZXZXZXZXZXZXZXZXZXZXZXZX",
"3X@..._ ~ ~ _  ...+.+... . ._ _ ) ) ZXZXZXZXZXZXZXZXZXZXZXZXZXZXZXZXZXZX< < 5 6 ~  .+.3X3X@.+. .) ! 7 5 5 7 ^  .8XxXnXbXvXaXyX9X8X4X3X3X@.+.{ G 3 * : s d s d S I v.x.I L P x.B.n.l.K K l.m.x.K g g S J S s = * % $ $ o o . ZXZXZXZXZXZXZXZXZXZXZXZXZXZXZXZXZXZX",
"+... .) ~ ~ _  . .X.X. ._ ) ) ~ ZXZXZXZXZXZXZXZXZXZXZXZXZXZXZXZXZXZXZXZX< < 5 ! ) +.8XuXyXyXtX4X+. .) ^ 6 6 ^  .8XpXbXcXpXyXtX8X4X3X@.#.+..._ F : * = f a a a g K l.I K S J Y m.x.P S J P z.I J g d M S g a * * $ $ $ o . ZXZXZXZXZXZXZXZXZXZXZXZXZXZXZXZXZXZXZX",
" . ._ ) ~ ~ ) ) _ ZXZXZXZXZXZXZXZXZXZXZXZXZXZXZXZXZXZXZXZXZXZXZXZXZXZXZX< 5 7 ^ _ #.9XiXxXbXvXiX9X3X.._ ~ ^ ^ _ 3XiXxXxXiXuX9X8X3X@.+...X. .) F - $ * = = = = s S K K S g S P z.l.L g g L I P S s a d g d : * % $ $ $ ZXZXZXZXZXZXZXZXZXZXZXZXZXZXZXZXZXZXZXZXZX",
") ) ) ~ ~ ~ ~ ZXZXZXZXZXZXZXZXZXZXZXZXZXZXZXZXZXZXZXZXZXZXZXZXZXZXZXZXZXZXZX7 6 ~  .3XtXaXvXvXpXyX8X3X.._ ~ ! ) #.uXaXaXyXuX9X4X3X+... . ._ ) N - $ % * * * = f g J J M s M L I P S d d J K J M f = f a f = * $ $ $ $ ZXZXZXZXZXZXZXZXZXZXZXZXZXZXZXZXZXZXZXZXZX",
") ~ ~ ~ ^ ^ ZXZXZXZXZXZXZXZXZXZXZXZXZXZXZXZXZXZXZXZXZXZXZXZXZXZXZXZXZXZXZXZXZX5 7 ~  .#.8XtXuXtX8X3X#.X._ ^ 7 !  .5XtXyXyXtX8X5X#... ._ _ ) ~ N 2 - % * * * * = s g g s f s S L J g f a g S M s = * * = = * % % % % % ZXZXZXZXZXZXZXZXZXZXZXZXZXZXZXZXZXZXZXZXZX",
"ZXZXZXZXZXZXZXZXZXZXZXZXZXZXZXZXZXZXZXZXZXZXZXZXZXZXZXZXZXZXZXZXZXZXZXZXZXZXZXo , < 7 ^ ) _ _ _ ) ~ ! 6 5 < 1 < ^  .#.4X9X9X4X@... .) ) ~ ~ ~ ! F 7 2 - $ $ * * = f = = * = a d d f * = a d s = * * * * * $ % % 2 3 5 ZXZXZXZXZXZXZXZXZXZXZXZXZXZXZXZXZXZXZXZXZX",
"ZXZXZXZXZXZXZXZXZXZXZXZXZXZXZXZXZXZXZXZXZXZXZXZXZXZXZXZXZXZXZXZXZXZXZXZXZXZXZXo X 1 5 ! ) _  ._ ~ ! 6 5 5 < , 1 5 ^ _ +.5X4X3X+. ._ ' ~ ^ ! ~ ) _ ) F - $ $ $ : A ( ] ] ] ] ] ] ] ( G G G ( G G F A N m 3 - % & 2 5 7 ZXZXZXZXZXZXZXZXZXZXZXZXZXZXZXZXZXZXZXZXZX",
"ZXZXZXZXZXZXZXZXZXZXZXZXZXZXZXZXZXZXZXZXZXZXZXZXZXZXZXZXZXZXZXZXZXZXZXZXZXZXZX< 5 6 ~  .3XtXyX9X5X+.X._ ~ 6 5 < < 5 ! _ +.#.+.X. ._ ~ ^ ! 6 ~ X.@.#.( 3 $ # $ A O.9XpXvXcXvXaXuX9X0X0X8XqX6X5X'.#... ._ ^ 3 % $ ZXZXZXZXZXZXZXZXZXZXZXZXZXZXZXZXZXZXZXZXZXZXZXZX",
"ZXZXZXZXZXZXZXZXZXZXZXZXZXZXZXZXZXZXZXZXZXZXZXZXZXZXZXZXZXZXZXZXZXZXZXZXZXZXZX< 5 6 ~  .5XyXiXyX8X3X+. .) ^ 6 5 < < 5 ^ )  . ._ ) ~ ^ ! ! ~ _ +.3X5X#.{ { { { O.6XuXiXlXlXgXgXeXfXfXfXeX[.[.].'.A.A.o. .` ^ F N ZXZXZXZXZXZXZXZXZXZXZXZXZXZXZXZXZXZXZXZXZXZXZXZX",
"ZXZXZXZXZXZXZXZXZXZXZXZXZXZXZXZXZXZXZXZXZXZXZXZXZXZXZXZXZXZXZXZXZXZXZXZXZXZXZX1 < 5 6 ) ..3X8X5X@.+. .) ~ ^ 6 5 < < < 5 Q ^ ~ ~ ~ ^ ! ^ )  .$.+.@.5X8XtXsXpXjXaXdX5X@.#.@.'._.`.!.{.|.|.{.~.U.V.g.b.Y ] _ _ _ _ ZXZXZXZXZXZXZXZXZXZXZXZXZXZXZXZXZXZXZXZXZXZXZXZX",
"ZXZXZXZXZXZXZXZXZXZXZXZXZXZXZXZXZXZXZXZXZXZXZXZXZXZXZXZXZXZXZXZXZXZXZXZXZXZXZXZX< < < 5 ! ) _ ) ~ ~ ! 6 7 7 7 7 5 < < < 5 5 6 ^ ~ )  .+.3X8X9X9X8X4X4X8X9XsXlXaXeX).).)._._. X{.oX&X%X$X$X&XoX(.U.N.M.U T ] {  .ZXZXZXZXZXZXZXZXZXZXZXZXZXZXZXZXZXZXZXZXZXZXZXZX",
"ZXZXZXZXZXZXZXZXZXZXZXZXZXZXZXZXZXZXZXZXZXZXZXZXZXZXZXZXZXZXZXZXZXZXZXZXZXZXZXZXZXZXX , < 5 7 6 6 6 6 6 6 ! ! ! 6 7 5 < < < 5 ! ) ..5XtXaXxXxXaXuX9X5X3X3X8XwXeX[. X~.^.}.XX#X%X*X:X;X>X;X;X=X#X}.W.h.d.C T ` ` ZXZXZXZXZXZXZXZXZXZXZXZXZXZXZXZXZXZXZXZXZXZXZXZX",
"ZXZXZXZXZXZXZXZXZXZXZXZXZXZXZXZXZXZXZXZXZXZXZXZXZXZXZXZXZXZXZXZXZXZXZXZXZXZXZXZXZXZX< 5 ^ _ X.#.3X3X3X#.+.+... .) 6 8 < < < 5 ~  .3XuXpXbXNXnXvXiXyXsXiXsXeX[. X{.XX+X+X#X$X=X:X;X;X;X;X:X-X$XXX!.U.j.a.C L F ! ZXZXZXZXZXZXZXZXZXZXZXZXZXZXZXZXZXZXZXZXZXZXZXZX",
"ZXZXZXZXZXZXZXZXZXZXZXZXZXZXZXZXZXZXZXZXZXZXZXZXZXZXZXZXZXZXZXZXZXZXZXZXZXZXZXZXZXZX5 ! ) ..3X9XyXyXuX9X4X5X@...) 6 < 1 , < 7 ~  .5XuXpXcXbXbXvXpXaXlXpXaX[. X~./.+X#X#X#X$X*X-X:X:X-X-X*X#XXX^.R.P.h.a.C M 7 4 ZXZXZXZXZXZXZXZXZXZXZXZXZXZXZXZXZXZXZXZXZXZXZXZX",
"ZXZXZXZXZXZXZXZXZXZXZXZXZXZXZXZXZXZXZXZXZXZXZXZXZXZXZXZXZXZXZXZXZXZXZXZXZXZXZXZXZXZX5 7 ^ _ ..3X8X9X8X3X+.X. .) ~ 6 5 1 9 , 4 ^ _ #.7X9X9X9XtXiXpXaXtX4X'._.U.~.^.|.XXXXXXXXXX+X+X+X+X+XXXoX{.W.P.h.a.u.b s 2 1 ZXZXZXZXZXZXZXZXZXZXZXZXZXZXZXZXZXZXZXZXZXZXZXZX",
"ZXZXZXZXZXZXZXZXZXZXZXZXZXZXZXZXZXZXZXZXZXZXZXZXZXZXZXZXZXZXZXZXZXZXZXZXZXZXZXZXZXZX< 5 6 ~ )  .+.#.+.X.%.) ~ ! 6 7 6 G H R } ).).].].].'.).'.eXgXaXwXG.A.M.N.P.I.E.R.R.R.W.~.~.~.~.~.~.~.~.W.I.j.g.p.y.b p + o ZXZXZXZXZXZXZXZXZXZXZXZXZXZXZXZXZXZXZXZXZXZXZXZX",
"ZXZXZXZXZXZXZXZXZXZXZXZXZXZXZXZXZXZXZXZXZXZXZXZXZXZXZXZXZXZXZXZXZXZXZXZXZXZXZXZXZXZXZXZX5 7 6 ^ ) ) ) ) ~ ^ 6 7 8 5 F ).OX,X,X,X,XOX|. XU.Y._.eXjXgX].n.s.u.d.i.a.f.g.g.g.g.j.k.P.P.P.P.P.P.V.g.f.s.u.y.b p + . ZXZXZXZXZXZXZXZXZXZXZXZXZXZXZXZXZXZXZXZXZXZXZXZX",
"ZXZXZXZXZXZXZXZXZXZXZXZXZXZXZXZXZXZXZXZXZXZXZXZXZXZXZXZXZXZXZXZXZXZXZXZXZXZXZXZXZXZXZXZXZX1 < 5 5 6 6 7 7 5 5 < > > 7 ).,X>X;X;X=X&X/.!._._.[.gXMXjXeXA.c.z.Y c.A.A.A.A.A.m.b.i.u.u.i.p.a.a.a.s.i.u.y.c b D / _ 2XZXZXZXZXZXZXZXZXZXZXZXZXZXZXZXZXZXZXZXZXZXZXZX",
"ZXZXZXZXZXZXZXZXZXZXZXZXZXZXZXZXZXZXZXZXZXZXZXZXZXZXZXZXZXZXZXZXZXZXZXZXZXZXZXZXZXZXZXZXZXX , < 5 5 7 7 7 7 7 5 1 & A ).OX:X:X*X+X^.~.`.].eXiXxXbXxXuX5X@.@.3X5XqX0X0X0XqXG.C.C c c c c c y.y.y.y.1.x z K } G.0XsXxXvXZXZXZXZXZXZXZXZXZXZXZXZXZXZXZXZXZXZXZXZXZX",
"ZXZXZXZXZXZXZXZXZXZXZXZXZXZXZXZXZXZXZXZXZXZXZXZXZXZXZXZXZXZXZXZXZXZXZXZXZXZXZXZXZXZXZXZXZX5 6 ^ ) _ X.+.#.#.$.O.).).`.OX*X*X#XoX!.I.k.T.].aXxXlXaXyXtX9X9XyXaXxXvXvXvXxXpXyX6XG.} [ T L b x x x x x l z v } G.0XsXpXxXvXxXZXZXZXZXZXZXZXZXZXZXZXZXZXZXZXZXZXZXZX",
"ZXZXZXZXZXZXZXZXZXZXZXZXZXZXZXZXZXZXZXZXZXZXZXZXZXZXZXZXZXZXZXZXZXZXZXZXZXZXZXZXZXZXZXZXZX~ ~ _ ..3X9XyXiXyXdXeXkX,X:X=X%XXX^.W.I.N.g.D.eXgXxXiX9X8XtXsXgXbXNXVXNXNXnXbXxXaXuX0X3X+. .( M b k k l l k k v ] o.3X9XiXpXxXxXvXZXZXZXZXZXZXZXZXZXZXZXZXZXZXZXZXZXZX",
"ZXZXZXZXZXZXZXZXZXZXZXZXZXZXZXZXZXZXZXZXZXZXZXZXZXZXZXZXZXZXZXZXZXZXZXZXZXZXZXZXZXZXZXZXZX! ~ _ +.5XuXpXxXpXsXsXkX,X*X&X}.~.I.j.N.S.'.6XyXgXaX9X3X3XuXvXnXVXBXVXnXcXaXrX4X2X2X3X@.+. .` F m p k k k j a m N ^ _ #.8XyXaXxXvXZXZXZXZXZXZXZXZXZXZXZXZXZXZXZXZXZXZX",
"ZXZXZXZXZXZXZXZXZXZXZXZXZXZXZXZXZXZXZXZXZXZXZXZXZXZXZXZXZXZXZXZXZXZXZXZXZXZXZXZXZXZXZXZXZX5 7 ~ %.#.8XsXpXaXsXfX<XOXXX^.W.P.g.a.b.A.qXrXtXdX8X3X+.3XyXbXBXBXVXnXzXuX6XG.C.C.[ %._ _ _ ) ~ ! N M v h n 8 < < 4 ! _ +.8XyXzXvXZXZXZXZXZXZXZXZXZXZXZXZXZXZXZXZXZXZX",
"ZXZXZXZXZXZXZXZXZXZXZXZXZXZXZXZXZXZXZXZXZXZXZXZXZXZXZXZXZXZXZXZXZXZXZXZXZXZXZXZXZXZXZXZXZXX 1 < 6 ) $.4XeXfX<X<X&XXX}.~.I.j.p.u.b.A.wX9X3XX. . .+.5XiXbXVXNXnXzX9X+.C.3.8.8.2.n 5 7 6 ~ ) | %.( F N 7 5 < < < 5 ^ _ @.9XaXxXZXZXZXZXZXZXZXZXZXZXZXZXZXZXZXZXZXZX",
"ZXZXZXZXZXZXZXZXZXZXZXZXZXZXZXZXZXZXZXZXZXZXZXZXZXZXZXZXZXZXZXZXZXZXZXZXZXZXZXZXZXZXZXZXZXZX. X , 7 { ]..X<X&X@X/.!.E.k.g.f.b.x.A.G.5X3X .~ '  .3X9XpXnXNXnXcXiX7X..[ 2.<.;.i 2 1 1 < 7 )  .| ' ! F G T T T T R R A.'.wXuXiXZXZXZXZXZXZXZXZXZXZXZXZXZXZXZXZXZXZX",
"ZXZXZXZXZXZXZXZXZXZXZXZXZXZXZXZXZXZXZXZXZXZXZXZXZXZXZXZXZXZXZXZXZXZXZXZXZXZXZXZXZXZXZXZXZXZXZX> 9 3 R `.#X#XXX{.~.I.N.f.i.b.A.'.5X'.+. .) ~ ` +.9XiXvXbXnXcXpXyX8X@. ./ N 2 2 8 < < < 5 ^ ) ) ~ F H M.Y.W.!.{.{.{.{.`.].qX8XZXZXZXZXZXZXZXZXZXZXZXZXZXZXZXZXZXZX",
"ZXZXZXZXZXZXZXZXZXZXZXZXZXZXZXZXZXZXZXZXZXZXZXZXZXZXZXZXZXZXZXZXZXZXZXZXZXyXaXxXvXxXaXyXuX9X3X .) { '.[..X.X[.[.).A.c.A.A.G.'.6X7X7X4X3X+. ...3X9XiXpXxXxXaXyX9X5X+. .~ 6 4 < < 5 6 ~ ~ ~ ~ ( T R T.Y.}.+X$X*X*X$X&X X].'.#.ZXZXZXZXZXZXZXZXZXZXZXZXZXZXZXZXZXZX",
"ZXZXZXZXZXZXZXZXZXZXZXZXZXZXZXZXZXZXZXZXZXZXZXZXZXZXZXZXZXZXZXZXZXZXZXZXuXuXyXiXaXiXyXtX8X4X3X@.@.@.5X8X9XdXtX0X3X+.+.3X0X9X0X8X8XtXiXyX9X4X3X4X8X9XyXyXyXuX8X5X#. .) ~ 6 5 5 5 6 )  . .' ^ H M.Y.(.XX%X=X:X;X:X-X%X X).{ _ ZXZXZXZXZXZXZXZXZXZXZXZXZXZXZXZXZXZX",
"ZXZXZXZXZXZXZXZXZXZXZXZXZXZXZXZXZXZXZXZXZXZXZXZXZXZXZXZXZXZXZXZXZXZXyXtX9X8X8X5X3X3X@.#.+.+.........+.#.3X8XtXyXyXuXtX0X8X4X4X8X9XiXxXvXpXyX9X4X@.@.3X8X8X5X@.+. .) ^ 7 5 7 ~ _  . . .` Q 6 G M.~.@X$X-X;X>X>X;X:X%X`.A.( Q ZXZXZXZXZXZXZXZXZXZXZXZXZXZXZXZXZXZX",
"ZXZXZXZXZXZXZXZXZXZXZXZXZXZXZXZXZXZXZXZXZXZXZXZXZXZXZXZXZXZXZXZXyXuXtX8X3X+.X. ._ _  . .X.+.+.+.+.+...$.#.5XtXiXxXcXxXiX8X5X3X5X8XiXvXbXvXaXtX3XX. . .....X. .) ~ Q 6 6 ! )  .+.+. .) ^ F A T T.{.#X-X>X>X>X>X;X:X%X`.R 7 1 ZXZXZXZXZXZXZXZXZXZXZXZXZXZXZXZXZXZX",
"ZXZXZXZXZXZXZXZXZXZXZXZXZXZXZXZXZXZXZXZXZXZXZXZXZXZXZXZXZXZXyXuXtX9X4X+._ ~ ^ ^ ~ )  .+.3X8XtXtX9X8X4X3X3X4X0XuXpXbXbXxXiX9X3X+.#.8XiXpXiXtX4X+._ ~ ^ ! 6 6 6 5 < < 6 _ +.@.#...| ' ! F K M.P.~.XX*X:X>X>X>X>X;X:X%X`.T & . ZXZXZXZXZXZXZXZXZXZXZXZXZXZXZXZXZXZX",
"ZXZXZXZXZXZXZXZXZXZXZXZXZXZXZXZXZXZXZXZXZXZXZXZXZXZXZXZXZXZX9X8X5X@..._ ~ ! ^ ~ ) _  ...3X9XyXiXaXaXiXuX9X8X8X9XiXvXbXxXiXtX3X+...@.8X9X8X5X@. .) ! 5 < < 1 1 < 6 ~  .#.4X5X+. .' W 5 A U N.Q.}.#X*X:X;X>X>X>X;X-X%X`.R & ZXZXZXZXZXZXZXZXZXZXZXZXZXZXZXZXZXZXZX",
"ZXZXZXZXZXZXZXZXZXZXZXZXZXZXZXZXZXZXZXZXZXZXZXZXZXZXZXZXZXZX@.+.X._ ~ ~ ~ ~ _ ..+... . .+.3X9XiXxXbXbXvXpXyX8X8XuXaXpXiXtX8X3X+.X.X.X...+.+.X._ ~ 6 5 < 1 , 1 6  .4X9X9X4X@. .) ! 5 8 A R Y.!.oX#X*X:X;X;X;X;X:X=X$X#XZXZXZXZXZXZXZXZXZXZXZXZXZXZXZXZXZXZXZXZXZX",
"ZXZXZXZXZXZXZXZXZXZXZXZXZXZXZXZXZXZXZXZXZXZXZXZXZXZXZXZXZXZXX.X. ._ ) ) _  .3X9XuX9X5X@.+...+.8XyXxXbXbXcXiX8X5X4X8X8X4X3X#... .) ~ ~ ~ ) _ ) ~ 6 5 < 1 < ! ) ..5XtXuX9X3X+._ ^ N m g K M.U.(.oX#X*X:X;X;X;X;X:X=X$X$XZXZXZXZXZXZXZXZXZXZXZXZXZXZXZXZXZXZXZXZXZX",
"ZXZXZXZXZXZXZXZXZXZXZXZXZXZXZXZXZXZXZXZXZXZXZXZXZXZXZXZXZXZX .X...+.#.+.+.#.8XiXxXpXyX8X+._ )  .3X9XiXvXvXiX8X@.+.X. . . ._ ) ~ ! 7 5 5 7 6 6 7 5 < < < !  .5X9XtX9X0X5X#.X.' N m h Z i.h.U.!.oX#X*X:X;X;X;X;X:X=X$X%XZXZXZXZXZXZXZXZXZXZXZXZXZXZXZXZXZXZXZXZXZX",
"ZXZXZXZXZXZXZXZXZXZXZXZXZXZXZXZXZXZXZXZXZXZXZXZXZXZXZXZXZXZX@.3X8XtXuX8X3X#.3X8X8X9X8X3X..) ~ ~ _ ..3X9XtX8X3X+._ ~ ^ ^ ! ! 6 7 5 < 1 , 1 < < 1 , < 5 ! ) +.5X8X9X9X8X3X+. .~ 7 m v y.i.g.P.W.}.#X*X*X=X-X;X;X:X=X$X#X+XoXZXZXZXZXZXZXZXZXZXZXZXZXZXZXZXZXZXZXZX",
"ZXZXZXZXZXZXZXZXZXZXZXZXZXZXZXZXZXZXZXZXZXZXZXZXZXZXZXZXZXZX@.3X9XyXyX9X3X+.X. .X.#.5X5X#. .) ~ ^ ~ _ ..#.+... .) 6 5 < < < < < < , X o o o o o X 1 7 )  ...#.3X5X4X5X@..._ ~ 7 m h Z u.p.h.I.^.+X%X%X$X*X-X:X:X=X$X#XXX|.}.ZXZXZXZXZXZXZXZXZXZXZXZXZXZXZXZXZXZX",
"ZXZXZXZXZXZXZXZXZXZXZXZXZXZXZXZXZXZXZXZXZXZXZXZXZXZXZXZXZXZX_ _ X.+.#.+. ._ ) )  .3XyXaXyX9X1X .~ 6 ^ ) _ _ _ ) ^ 7 < 1 , X X X o o . . . . . o X < 7 ~ )  .$.#.@.@.#.+.X._ ~ 7 m v Z u.i.f.V.W.|.+X#X%X$X*X*X*X*X$X#XXX|.}.ZXZXZXZXZXZXZXZXZXZXZXZXZXZXZXZXZXZX",
"ZXZXZXZXZXZXZXZXZXZXZXZXZXZXZXZXZXZXZXZXZXZXZXZXZXZXZXZXZXZX! ^ ) _  .X...X._ ) _ #.9XiXyX9X5XX.~ 7 5 6 ! ^ ^ ^ 6 5 < , X o . . . O . . o X X X , 1 5 6 ~ )  ...+.+.+... ._ ~ 6 m v c y.u.a.h.U.!.|.XX#X#X%X%X%X$X%X#XXX|.}.ZXZXZXZXZXZXZXZXZXZXZXZXZXZXZXZXZXZX",
"ZXZXZXZXZXZXZXZXZXZXZXZXZXZXZXZXZXZXZXZXZXZXZXZXZXZXZXZXZXZX! ^ )  .+.3X8X8X@._ ) )  ...+.@.+._ ^ 5 < < < 5 5 7 5 < 1 , X o .       . o 1 4 5 < , , 1 8 6 ~ _  .X....... ._ ~ N m h l 1.t.s.g.P.R.!.^.|.XX#X%X$X$X%X#XXX|.}.ZXZXZXZXZXZXZXZXZXZXZXZXZXZXZXZXZXZX",
"ZXZXZXZXZXZXZXZXZXZXZXZXZXZXZXZXZXZXZXZXZXZXZXZXZXZXZXZXZXZXZX~ )  ...@.4X5X+.) ^ ! ^ ) X.@.3X+._ ~ 6 5 < < < < 1 , X o o . O   O $ = s m 7 5 1 X X 9 1 5 6 ~ )  .X.X.X. ._ ' ! N h k x 1.u.f.j.I.E.~.!.}.oX+X#X#X+XXX}.^.!.ZXZXZXZXZXZXZXZXZXZXZXZXZXZXZXZXZXZX",
"ZXZXZXZXZXZXZXZXZXZXZXZXZXZXZXZXZXZXZXZXZXZXZXZXZXZXZXZXZXZXZXZXZX_ _  .X.X._ ~ ! ! ^ ) +.4X9X4X+. .) ~ 6 5 1 X o . . . . .     + j Z d.L N 5 < , & , 1 < 5 Q ~ ) _  . . ._ ) ~ B h k z 1.y.i.f.j.P.U.R.~.^.}.|.|.}.^.!.~.W.ZXZXZXZXZXZXZXZXZXZXZXZXZXZXZXZXZXZX",
"ZXZXZXZXZXZXZXZXZXZXZXZXZXZXZXZXZXZXZXZXZXZXZXZXZXZXZXZXZXZXZXZXZX~ ~ ~ ) _  . . . . . .X.+.+... ._ _ _ ) ^ 5 , o .           . + j c Z v m 7 D T L m 1 , < 5 6 ~ ) _ _ _ _ ` ~ G v l z 1.y.u.a.g.j.I.R.~.~.!.!.!.!.~.~.W.R.ZXZXZXZXZXZXZXZXZXZXZXZXZXZXZXZXZXZX",
"ZXZXZXZXZXZXZXZXZXZXZXZXZXZXZXZXZXZXZXZXZXZXZXZXZXZXZXZXZXZXZXZXZX7 6 6 ^ ~  .+.@.#... ._ ~ ^ ! ! ^ ) _ _ ~ 5 1 o .   . . o X X & p k k p 2 A R T.T.R A 3 < < 5 6 ^ ~ ) ` ` ) ) G M b l x 1.t.u.s.g.k.I.E.R.E.R.R.R.R.R.E.E.ZXZXZXZXZXZXZXZXZXZXZXZXZXZXZXZXZXZX",
"ZXZXZXZXZXZXZXZXZXZXZXZXZXZXZXZXZXZXZXZXZXZXZXZXZXZXZXZXZXZXZXZXZXZXZX5 5 6 ~ ) _ _ ) ~ 6 5 < < < < < 5 5 < , o     . 5 ~ ) ~ 5 < & ; @ & < A M.Y.W.U.T.M.H 3 1 < 5 6 ^ ~ ' ' ~ ~ F B M b c x 1.u.p.f.g.j.k.P.P.P.P.P.I.P.k.h.f.ZXZXZXZXZXZXZXZXZXZXZXZXZXZXZXZX",
"ZXZXZXZXZXZXZXZXZXZXZXZXZXZXZXZXZXZXZXZXZXZXZXZXZXZXZXZXZXZXZXZXZXZXZXZX< 5 7 ! ^ ! 6 5 < 1 , X X o o o o o o o . . < ~ ..+. .~ 6 4 1 , 9 < m U N.R.(.^.~.M.D 3 2 < 8 7 ! ^ ~ ~ ~ ~ ^ B h k z x y.t.u.i.a.g.h.j.j.j.j.j.h.g.g.a.a.ZXZXZXZXZXZXZXZXZXZXZXZXZXZXZX",
"ZXZXZXZXZXZXZXZXZXZXZXZXZXZXZXZXZXZXZXZXZXZXZXZXZXZXZXZXZXZXZXZXZXZXZXZXZXZXZXZXZXZXZXZXZXZXZXZXZXZX. . . X 1 < 5 7 ^ _ X...X._ ) ~ 6 5 1 , - E s.k.W.^.!.U.N.U d & , < 7 6 ^ ~ ~ ~ ~ G v k z 1.y.y.t.t.u.s.a.g.g.g.g.g.f.f.a.a.a.ZXZXZXZXZXZXZXZXZXZXZXZXZXZXZX",
"ZXZXZXZXZXZXZXZXZXZXZXZXZXZXZXZXZXZXZXZXZXZXZXZXZXZXZXZXZXZXZXZXZXZXZXZXZXZXZXZXZXZXZXZXZXZXZXZXZXZXZX. o , < 7 ! ~ _  ...+.@.@.@.+. .) W < - h d.g.P.W.~.Q.U.M.E & X 9 < 5 7 6 ! ^ ~ F B h b c c 1.1.y.t.u.i.i.i.i.i.i.i.i.i.i.p.ZXZXZXZXZXZXZXZXZXZXZXZXZXZXZX",
"ZXZXZXZXZXZXZXZXZXZXZXZXZXZXZXZXZXZXZXZXZXZXZXZXZXZXZXZXZXZXZXZXZXZXZXZXZXZXZXZXZXZXZXZXZXZXZXZXZXZXZXo X 1 5 7 ^ ) _ ..#.3X8XtXuX9X4X#._ ! m h Z i.g.j.I.E.U.N.E & . . X , < < 5 6 ! ! 6 7 m h l x 1.y.y.t.t.t.t.t.t.t.t.t.t.t.t.ZXZXZXZXZXZXZXZXZXZXZXZXZXZXZX",
"ZXZXZXZXZXZXZXZXZXZXZXZXZXZXZXZXZXZXZXZXZXZXZXZXZXZXZXZXZXZXZXZXZXZXZXZXZXZXZXZXZXZXZXZXZXZXZXZXZXZXZXZX9 1 < 5 7 ! ~ _  .+.3X8X9X8X5X+._ ! 3 n s v Z i.g.h.j.f.Z h p # O . . X 1 < 5 5 4 < 2 j k z x x c c x x x x x x x x x x x ZXZXZXZXZXZXZXZXZXZXZXZXZXZXZX",
"ZXZXZXZXZXZXZXZXZXZXZXZXZXZXZXZXZXZXZXZXZXZXZXZXZXZXZXZXZXZXZXZXZXZXZXZXZXZXZXZXZXZXZXZXZXZXZXZXZXZXZXZXZXZX1 1 < < 5 6 ~ )  ...+.+..._ ~ 7 < 1 1 2 h Z d.s.f.f.g.f.b.M 2 , , 1 < 1 1 , , , ; j k l l l z z z z l l z z l l l z z ZXZXZXZXZXZXZXZXZXZXZXZXZXZXZX",
"ZXZXZXZXZXZXZXZXZXZXZXZXZXZXZXZXZXZXZXZXZXZXZXZXZXZXZXZXZXZXZXZXZXZXZXZXZXZXZXZXZXZXZXZXZXZXZXZXZXZXZXZXZXZXZXZX, , 1 < 5 7 ! ^ ~ ~ ~ ^ 6 5 < 8 5 N ( } A.G.'.].[.eXeXwX0X8X4X3X..^ 1 . . o + @ ; j k l l l l l l l l l l l l l l ZXZXZXZXZXZXZXZXZXZXZXZXZXZXZX",
"ZXZXZXZXZXZXZXZXZXZXZXZXZXZXZXZXZXZXZXZXZXZXZXZXZXZXZXZXZXZXZXZXZXZXZXZXZXZXZXZXZXZXZXZXZXZXZXZXZXZXZXZXZXZXZXZXZXo X X X , 1 < < 8 5 5 5 5 7 6 ! ~ _ $.2X7X9XyXpXvXbXnXNXNXnXxXtXX.6 < < < < < < 2 p k k k k k k k k k k k k k k ZXZXZXZXZXZXZXZXZXZXZXZXZXZXZX",
"ZXZXZXZXZXZXZXZXZXZXZXZXZXZXZXZXZXZXZXZXZXZXZXZXZXZXZXZXZXZXZXZXZXZXZXZXZXZXZXZXZXZXZXZXZXZXZXZXZXZXZXZXZXZXZXZXZXZXZX. . . . o o X 1 < 7 ! ~ ~ ~ ~ ) )  .+.5X0XuXiXxXbXnXbXvXiX9X3X.. .X... ._ ) ! 3 ; ; ; ; ; ; ; ; ; ; ; ; ; ; ZXZXZXZXZXZXZXZXZXZXZXZXZXZXZX",
"ZXZXZXZXZXZXZXZXZXZXZXZXZXZXZXZXZXZXZXZXZXZXZXZXZXZXZXZXZXZXZXZXZXZXZXZXZXZXZXZXZXZXZXZXZXZXZXZXZXZXZXZXZXZXZXZXZXZXZXZX. . . . . o , < 7 ^ ~ ~ ~ ^ ! 6 ^ )  ...@.5X8XtXuXtX8X3X@.+.+.+.@.3X3X@.+. .) ! 7 7 5 5 5 5 4 4 4 < < 1 1 ZXZXZXZXZXZXZXZXZXZXZXZXZXZXZX",
"ZXZXZXZXZXZXZXZXZXZXZXZXZXZXZXZXZXZXZXZXZXZXZXZXZXZXZXZXZXZXZXZXZXZXZXZXZXZXZXZXZXZXZXZXZXZXZXZXZXZXZXZXZXZXZXZXZXZXZXZXZXZXo o o X , < 5 7 6 6 6 7 5 < < 5 7 ! ~ ) ) _ _ _ ) ~ ^ ~ ~ )  .+.#.3X5X3X@.+.X. ._ ) ) ' ~ ^ ! 7 5 < 1 ZXZXZXZXZXZXZXZXZXZXZXZXZXZXZX",
"ZXZXZXZXZXZXZXZXZXZXZXZXZXZXZXZXZXZXZXZXZXZXZXZXZXZXZXZXZXZXZXZXZXZXZXZXZXZXZXZXZXZXZXZXZXZXZXZXZXZXZXZXZXZXZXZXZXZXZXZXZXZXZXZXX o X , 1 < < < < < 1 , , 1 < 7 ^ ) _  . . . ._ ) ) ~ ~ ~ ) _  .......X. ._ ) ~ ~ ^ ! 6 7 5 < , X ZXZXZXZXZXZXZXZXZXZXZXZXZXZXZX",
"ZXZXZXZXZXZXZXZXZXZXZXZXZXZXZXZXZXZXZXZXZXZXZXZXZXZXZXZXZXZXZXZXZXZXZXZXZXZXZXZXZXZXZXZXZXZXZXZXZXZXZXZXZXZXZXZXZXZXZXZXZXZXZXZXZX. . . o X X X X X o X , < 5 ~  .+.5X8X9XtXtX9X5X+. .) ^ 7 5 7 6 6 W 6 6 7 5 5 < < < < 1 1 , X X ZXZXZXZXZXZXZXZXZXZXZXZXZXZXZX",
"ZXZXZXZXZXZXZXZXZXZXZXZXZXZXZXZXZXZXZXZXZXZXZXZXZXZXZXZXZXZXZXZXZXZXZXZXZXZXZXZXZXZXZXZXZXZXZXZXZXZXZXZXZXZXZXZXZXZXZXZXZXZXZXZXZXZXZXZXZXZXo . . . o , 1 < 7 ) +.8XyXpXxXvXxXaXyX8X@... .) ~ 6 5 5 5 5 5 < < < < < < 5 5 5 5 5 5 6 ! ZXZXZXZXZXZXZXZXZXZXZXZXZX",
"ZXZXZXZXZXZXZXZXZXZXZXZXZXZXZXZXZXZXZXZXZXZXZXZXZXZXZXZXZXZXZXZXZXZXZXZXZXZXZXZXZXZXZXZXZXZXZXZXZXZXZXZXZXZXZXZXZXZXZXZXZXZXZXZXZXZXZXZXZXZXZXZX. . X 1 < < 5 ~ +.9XiXxXbXbXxXaXyX9X5X@.+... .~ ! 7 5 5 5 5 5 5 5 5 6 ^ ~ ) ) ) ~ ~ ! ! ZXZXZXZXZXZXZXZXZXZXZXZX",
"ZXZXZXZXZXZXZXZXZXZXZXZXZXZXZXZXZXZXZXZXZXZXZXZXZXZXZXZXZXZXZXZXZXZXZXZXZXZXZXZXZXZXZXZXZXZXZXZXZXZXZXZXZXZXZXZXZXZXZXZXZXZXZXZXZXZXZXZXZXZXZXZXZXZXZXZXZX, 1 7 _ @.8XtXyXyXtX8X5X3X+...X. ._ ` ) ~ ^ ! ^ ~ ) ) ) _ _  . ...+.+. .) ! 7 ZXZXZXZXZXZXZXZXZXZXZXZX",
"ZXZXZXZXZXZXZXZXZXZXZXZXZXZXZXZXZXZXZXZXZXZXZXZXZXZXZXZXZXZXZXZXZXZXZXZXZXZXZXZXZXZXZXZXZXZXZXZXZXZXZXZXZXZXZXZXZXZXZXZXZXZXZXZXZXZXZXZXZXZXZXZXZXZXZXZXZXZXo < ! ) X.+.@.3X#...X. ._ ) ) ) ) ) ) ) ~ ~ ) _  .X...+.#.@.3X3X5X5X+.) 6 5 ZXZXZXZXZXZXZXZXZXZXZXZX",
"ZXZXZXZXZXZXZXZXZXZXZXZXZXZXZXZXZXZXZXZXZXZXZXZXZXZXZXZXZXZXZXZXZXZXZXZXZXZXZXZXZXZXZXZXZXZXZXZXZXZXZXZXZXZXZXZXZXZXZXZXZXZXZXZXZXZXZXZXZXZXZXZXZXZXZXZXZXZXZXZX< 5 6 ~ _ _ _ ) ~ ~ ^ ! ! ! ! ^ ~ ~ ~ ~ ) _  .X.#.3X4X9X9X9X8X3X$.) ! 7 6 ! ! ZXZXZXZXZXZXZXZXZX",
"ZXZXZXZXZXZXZXZXZXZXZXZXZXZXZXZXZXZXZXZXZXZXZXZXZXZXZXZXZXZXZXZXZXZXZXZXZXZXZXZXZXZXZXZXZXZXZXZXZXZXZXZXZXZXZXZXZXZXZXZXZXZXZXZXZXZXZXZXZXZXZXZXZXZXZXZXZXZXZXZXX X 1 < 7 6 6 7 7 5 5 5 5 7 7 7 6 ! ^ ) _ +.3X4X8X9XtXtXtX8X3X+. .~ ! 6 ! ^ ( ).ZXZXZXZXZXZXZXZX",
"ZXZXZXZXZXZXZXZXZXZXZXZXZXZXZXZXZXZXZXZXZXZXZXZXZXZXZXZXZXZXZXZXZXZXZXZXZXZXZXZXZXZXZXZXZXZXZXZXZXZXZXZXZXZXZXZXZXZXZXZXZXZXZXZXZXZXZXZXZXZXZXZXZXZXZXZXZXZXZXZX. . o X 1 < < 1 1 1 < < 5 5 7 7 7 ! ~  .#.9XiXpXaXiXyX9X4X@.X._ ~ ~ ~ ^ ^ ) } `.&X*XZXZXZXZXZXZX",
"ZXZXZXZXZXZXZXZXZXZXZXZXZXZXZXZXZXZXZXZXZXZXZXZXZXZXZXZXZXZXZXZXZXZXZXZXZXZXZXZXZXZXZXZXZXZXZXZXZXZXZXZXZXZXZXZXZXZXZXZXZXZXZXZXZXZXZXZXZXZXZXZXZXZXZXZXZXZXZXZXZXZX  . . o o X X , 1 < 5 ! ~ _ ..#.3X5X9XyXpXaXyX9X5X#.X. ._ ) _  .X. ._ _ } _.{.|.+XZXZXZXZXZX",
"ZXZXZXZXZXZXZXZXZXZXZXZXZXZXZXZXZXZXZXZXZXZXZXZXZXZXZXZXZXZXZXZXZXZXZXZXZXZXZXZXZXZXZXZXZXZXZXZXZXZXZXZXZXZXZXZXZXZXZXZXZXZXZXZXZXZXZXZXZXZXZXZXZXZXZXZXZXZXZXZXZXZXZX, X o o X X , < 5 ^ ) ..4XuXyXiXiXyXyXyX9X3X+. .) ~ ) _ X.#.5X4X3X$.%.] M.N.E.}.#X%XZXZXZX",
"ZXZXZXZXZXZXZXZXZXZXZXZXZXZXZXZXZXZXZXZXZXZXZXZXZXZXZXZXZXZXZXZXZXZXZXZXZXZXZXZXZXZXZXZXZXZXZXZXZXZXZXZXZXZXZXZXZXZXZXZXZXZXZXZXZXZXZXZXZXZXZXZXZXZXZXZXZXZXZXZXZXZXtX+._ ^ 5 1 1 5 ! )  .#.4X9XyXyXyXtX9X8X4X@.X.) ~ ~ )  .3X9XuXtX9X5X..) G C d.g.U.^.|.ZXZXZX",
"ZXZXZXZXZXZXZXZXZXZXZXZXZXZXZXZXZXZXZXZXZXZXZXZXZXZXZXZXZXZXZXZXZXZXZXZXZXZXZXZXZXZXZXZXZXZXZXZXZXZXZXZXZXZXZXZXZXZXZXZXZXZXZXZXZXZXZXZXZXZXZXZXZXZXZXZXZXZXZXZXiXyXtX4X+._ ! < < 7 ~  .+.5X8X8X8X4X3X3X#.+..._ ) ~ ~ _ +.5XuXaXiXtX4X+._ ^ B h l u.h.P.U.ZXZXZX",
"ZXZXZXZXZXZXZXZXZXZXZXZXZXZXZXZXZXZXZXZXZXZXZXZXZXZXZXZXZXZXZXZXZXZXZXZXZXZXZXZXZXZXZXZXZXZXZXZXZXZXZXZXZXZXZXZXZXZXZXZXZXZXZXZXZXZXZXZXZXZXZXZXZXZXZXZXZXZXuXrX9X4X3X.._ ~ 5 1 1 5 ^ )  .X...X. . ._ ) ~ ^ ! ! ! ~  .3XtXyXyXyX9X@. .) ^ 6 7 ZXZXZXi.s.s.ZXZXZX",
"ZXZXZXZXZXZXZXZXZXZXZXZXZXZXZXZXZXZXZXZXZXZXZXZXZXZXZXZXZXZXZXZXZXZXZXZXZXZXZXZXZXZXZXZXZXZXZXZXZXZXZXZXZXZXZXZXZXZXZXZXZXZXZXZXZXZXZXZXZXZXZXZXZXZXZXZXZXfXeXwX'... . ._ ~ 5 , , < 7 ! ~ ~ ~ ~ ^ ! 7 5 5 5 5 6 ~  .@.tXiXaXyX9X3X .) ! 7 5 5 ZXZXZXZXy.y.ZXZXZX",
"ZXZXZXZXZXZXZXZXZXZXZXZXZXZXZXZXZXZXZXZXZXZXZXZXZXZXZXZXZXZXZXZXZXZXZXZXZXZXZXZXZXZXZXZXZXZXZXZXZXZXZXZXZXZXZXZXZXZXZXZXZXZXZXZXZXZXZXZXZXZXZXZXZXZXZX%X#X&X|.`.A.( '  .#...~ 1 X 1 8 5 5 5 5 7 7 5 5 < < 5 6 ) ..3X9XyXiXyX9X5X+. .~ ! 6 7 5 ZXZXZXZXZXZXZXZXZX",
"ZXZXZXZXZXZXZXZXZXZXZXZXZXZXZXZXZXZXZXZXZXZXZXZXZXZXZXZXZXZXZXZXZXZXZXZXZXZXZXZXZXZXZXZXZXZXZXZXZXZXZXZXZXZXZXZXZXZXZXZXZXZXZXZXZXZXZXZXZXZXZXZXZX:X*X#XXX^.W.T.T m 6 ` +...) 7 < 1 1 1 1 1 1 < < < < < 7 ~ _ ..3X8X9X8X8X3X#...X. . ._ ~ ~ ^ ZXZXZXZXZXZXZXZXZX",
"ZXZXZXZXZXZXZXZXZXZXZXZXZXZXZXZXZXZXZXZXZXZXZXZXZXZXZXZXZXZXZXZXZXZXZXZXZXZXZXZXZXZXZXZXZXZXZXZXZXZXZXZXZXZXZXZXZXZXZXZXZXZXZXZXZXZXZXZXZXZXZXZX;X-X$XXX!.I.g.d.h & < W ) _ ) ~ 6 < o . . o X X X 1 < 7 ~  .#.3X4X4X3X+. ._ ) )  .+.#.+. ._ ) ZXZXZXZXZXZXZXZXZX",
"ZXZXZXZXZXZXZXZXZXZXZXZXZXZXZXZXZXZXZXZXZXZXZXZXZXZXZXZXZXZXZXZXZXZXZXZXZXZXZXZXZXZXZXZXZXZXZXZXZXZXZXZXZXZXZXZXZXZXZXZXZXZXZXZXZXZXZXZXZXZXZX*X$X+X{.U.V.a.t.b p + X , < 5 5 < 1 o .   . . o , < 5 ~ _ X.+.@.@.+... .) ~ ~ ) _ ..3X4X3XX.) ~ ZXZXZXZXZXZXZXZXZX",
"ZXZXZXZXZXZXZXZXZXZXZXZXZXZXZXZXZXZXZXZXZXZXZXZXZXZXZXZXZXZXZXZXZXZXZXZXZXZXZXZXZXZXZXZXZXZXZXZXZXZXZXZXZXZXZXZXZXZXZXZXZXZXZXZXZXZXZXZXZXZXZX}.^.~.I.g.i.y.x k # + . . . . .             . X < 7 ~ _ ..+.+.+.X._ ~ ! 7 7 ^ _ +.3X8X8X@._ ^ 7 ZXZXZXZXZXZXZXZXZX",
"ZXZXZXZXZXZXZXZXZXZXZXZXZXZXZXZXZXZXZXZXZXZXZXZXZXZXZXZXZXZXZXZXZXZXZXZXZXZXZXZXZXZXZXZXZXZXZXZXZXZXZXZXZXZXZXZXZXZXZXZXZXZXZXZXZXZXZXZXZXZXZXV.V.V.h.ZXZXZXZXZXZXZXZXZXZXZXZXZXZXZXZXZX. X < 7 ~ ) _ _ _ _ ` ~ ^ 7 5 5 7 ~ +.5X4X5X#._ ! < 1 ZXZXZXZXZXZXZXZXZX",
"ZXZXZXZXZXZXZXZXZXZXZXZXZXZXZXZXZXZXZXZXZXZXZXZXZXZXZXZXZXZXZXZXZXZXZXZXZXZXZXZXZXZXZXZXZXZXZXZXZXZXZXZXZXZXZXZXZXZXZXZXZXZXZXZXZXZXZXZXZXZXZXZXa.a.ZXZXZXZXZXZXZXZXZXZXZXZXZXZXZXZXZXZX, 1 < 6 ~ ) ~ ~ ^ ^ ! 7 5 < < 5 6 ) #.8X5X+._ ^ 5 , . ZXZXZXZXZXZXZXZXZX",
"ZXZXZXZXZXZXZXZXZXZXZXZXZXZXZXZXZXZXZXZXZXZXZXZXZXZXZXZXZXZXZXZXZXZXZXZXZXZXZXZXZXZXZXZXZXZXZXZXZXZXZXZXZXZXZXZXZXZXZXZXZXZXZXZXZXZXZXZXZXZXZXZXZXZXZXZXZXZXZXZXZXZXZXZXZXZXZXZXZXZXZXZX, 1 < 7 ^ ^ 6 7 5 5 5 < 1 , 1 5 ! _ +.@.+.) 6 5 ZXZXZXZXZXZXZXZXZXZXZXZX",
"ZXZXZXZXZXZXZXZXZXZXZXZXZXZXZXZXZXZXZXZXZXZXZXZXZXZXZXZXZXZXZXZXZXZXZXZXZXZXZXZXZXZXZXZXZXZXZXZXZXZXZXZXZXZXZXZXZXZXZXZXZXZXZXZXZXZXZXZXZXZXZXZXZXZXZXZXZXZXZXZXZXZXZXZXZXZXZXZXZXZXZXZXX , 1 5 7 7 5 < < < < 1 X o , 5 ! )  . ._ ! < , ZXZXZXZXZXZXZXZXZXZXZXZX",
"ZXZXZXZXZXZXZXZXZXZXZXZXZXZXZXZXZXZXZXZXZXZXZXZXZXZXZXZXZXZXZXZXZXZXZXZXZXZXZXZXZXZXZXZXZXZXZXZXZXZXZXZXZXZXZXZXZXZXZXZXZXZXZXZXZXZXZXZXZXZXZXZXZXZXZXZXZXZXZXZXZXZXZXZXZXZXZXZXZXZXZXZXo X , < < < < < 1 1 1 , X X 1 5 ! ~ ~ ~ ! 5 , o ZXZXZXZXZXZXZXZXZXZXZXZX",
"ZXZXZXZXZXZXZXZXZXZXZXZXZXZXZXZXZXZXZXZXZXZXZXZXZXZXZXZXZXZXZXZXZXZXZXZXZXZXZXZXZXZXZXZXZXZXZXZXZXZXZXZXZXZXZXZXZXZXZXZXZXZXZXZXZXZXZXZXZXZXZXZXZXZXZXZXZXZXZXZXZXZXZXZXZXZXZXZXZXZXZXZX. o X , 1 1 1 1 < 5 7 ! ~ ) _  . . ._ ~ ! < , X X ZXZXZXZXZXZXZXZXZXZXZX",
"ZXZXZXZXZXZXZXZXZXZXZXZXZXZXZXZXZXZXZXZXZXZXZXZXZXZXZXZXZXZXZXZXZXZXZXZXZXZXZXZXZXZXZXZXZXZXZXZXZXZXZXZXZXZXZXZXZXZXZXZXZXZXZXZXZXZXZXZXZXZXZXZXZXZXZXZXZXZXZXZXZXZXZXZXZXZXZXZXZXZXZXZX, X X , , 1 , 1 5 ^ _ ..3X8X8X8X8X3X+._ ~ 7 < 1 1 < < ZXZXZXZXZXZXZXZXZX",
"ZXZXZXZXZXZXZXZXZXZXZXZXZXZXZXZXZXZXZXZXZXZXZXZXZXZXZXZXZXZXZXZXZXZXZXZXZXZXZXZXZXZXZXZXZXZXZXZXZXZXZXZXZXZXZXZXZXZXZXZXZXZXZXZXZXZXZXZXZXZXZXZXZXZXZXZXZXZXZXZXZXZXZXZX_ X.@.8X8X8X5XX.~ 5 < 1 1 1 < 5 ^ _ +.5X9XyXiXyXuX9X5X+. .~ 6 5 5 6 ~  .3XZXZXZXZXZXZXZX",
"ZXZXZXZXZXZXZXZXZXZXZXZXZXZXZXZXZXZXZXZXZXZXZXZXZXZXZXZXZXZXZXZXZXZXZXZXZXZXZXZXZXZXZXZXZXZXZXZXZXZXZXZXZXZXZXZXZXZXZXZXZXZXZXZXZXZXZXZXZXZXZXZXZXZXZXZXZXZXZXZXZXZXZX_ _  .+.3X3X1X+. .' 6 5 < 8 5 ! )  .+.5X9XyXiXiXiXuX9X8X3X+._ ~ ^ ! ~ _ +.3X5XZXZXZXZXZXZX",
"ZXZXZXZXZXZXZXZXZXZXZXZXZXZXZXZXZXZXZXZXZXZXZXZXZXZXZXZXZXZXZXZXZXZXZXZXZXZXZXZXZXZXZXZXZXZXZXZXZXZXZXZXZXZXZXZXZXZXZXZXZXZXZXZXZXZXZXZXZXZXZXZXZXZXZXZXZXZX#.#.#.+... ._ ) ) ) ) ~ ! 6 5 < < 5 ! ) ..3X4X8X9X9XtXtXtX9X8X8X5X3X+._ ~ ! 6 ! '  .O.G.A.N.ZXZXZXZX",
"ZXZXZXZXZXZXZXZXZXZXZXZXZXZXZXZXZXZXZXZXZXZXZXZXZXZXZXZXZXZXZXZXZXZXZXZXZXZXZXZXZXZXZXZXZXZXZXZXZXZXZXZXZXZXZXZXZXZXZXZXZXZXZXZXZXZXZXZXZXZXZXZXZXZXZXZXZX).G.G.'.3X@.$.%.' W 5 7 F H H D D D D H } '.9XtX9X8X8X4X5X3X3X@.@.#.+. .) ^ 6 7 7 ! ' _ } M.g.h.h.ZXZX",
"ZXZXZXZXZXZXZXZXZXZXZXZXZXZXZXZXZXZXZXZXZXZXZXZXZXZXZXZXZXZXZXZXZXZXZXZXZXZXZXZXZXZXZXZXZXZXZXZXZXZXZXZXZXZXZXZXZXZXZXZXZXZXZXZXZXZXZXZXZXZXZXZXZXZXZX}.!.U.T._.].0X8X2XX.) 7 < A M.`.{.~.Y.N.f.b.n.'.wX9X4X#.+.....X. . . . ._ ) ~ 6 5 5 5 5 6 N D C d.p.g.j.k.",
"ZXZXZXZXZXZXZXZXZXZXZXZXZXZXZXZXZXZXZXZXZXZXZXZXZXZXZXZXZXZXZXZXZXZXZXZXZXZXZXZXZXZXZXZXZXZXZXZXZXZXZXZXZXZXZXZXZXZXZXZXZXZXZXZXZXZXZXZXZXZXZXZXZX#X+X|.^.R.P.V.D.).G.O.X.{ ] T M.`.XX+X/.R.P.h.g.B.'.0X8X@. ._ ) ~ ~ ~ ~ ~ ~ ~ ! 7 5 < < < 1 < < n v c t.p.f.g.",
"ZXZXZXZXZXZXZXZXZXZXZXZXZXZXZXZXZXZXZXZXZXZXZXZXZXZXZXZXZXZXZXZXZXZXZXZXZXZXZXZXZXZXZXZXZXZXZXZXZXZXZXZXZXZXZXZXZXZXZXZXZXZXZXZXZXZXZXZXZXZXZX%X%X#X+X|.!.E.P.g.a.d.P T { o.).`.{.|.}.!.E.P.h.g.a.m.G.6X3X..) ! 7 5 5 5 5 5 5 5 < < 1 , X X X 9 , ; j l x 1.t.t.",
"ZXZXZXZXZXZXZXZXZXZXZXZXZXZXZXZXZXZXZXZXZXZXZXZXZXZXZXZXZXZXZXZXZXZXZXZXZXZXZXZXZXZXZXZXZXZXZXZXZXZXZXZXZXZXZXZXZXZXZXZXZXZXZXZXZXZXZXZXZXZX~.^.}.^.!.W.I.V.f.i.y.x b M F ] ).{.|.^.W.I.j.f.i.t.y.b.} o. .) 6 5 < , X X X X X X X o o o . . o X + ; j x 1.x x x ",
"ZXZXZXZXZXZXZXZXZXZXZXZXZXZXZXZXZXZXZXZXZXZXZXZXZXZXZXZXZXZXZXZXZXZXZXZXZXZXZXZXZXZXZXZXZXZXZXZXZXZXZXZXZXZXZXZXZXZXZXZXZXZXZXZXZXZXZXZXE.E.R.R.R.E.I.P.h.a.u.1.x z k p 3 H ).~.!.W.P.g.a.u.1.x z v T ( ' ! 5 1 X . . . . . . . . . . . . . . . X ; b 1.1.x z z ",
"ZXZXZXZXZXZXZXZXZXZXZXZXZXZXZXZXZXZXZXZXZXZXZXZXZXZXZXZXZXZXZXZXZXZXZXZXZXZXZXZXZXZXZXZXZXZXZXZXZXZXZXZXZXZXZXZXZXZXZXZXZXZXZXZXZXZXZXZXP.P.P.I.ZXZXZXZXZXZXZXZXZXZXZXZXZXZXN.I.U.I.ZXZXZXZXZXZXZXZXZXZXZXZXZXZXZXZXZXZXZXZXZXZXZXZXZXZXZXZXZXZXZXZXZXZXy.1.1.1.",
"ZXZXZXZXZXZXZXZXZXZXZXZXZXZXZXZXZXZXZXZXZXZXZXZXZXZXZXZXZXZXZXZXZXZXZXZXZXZXZXZXZXZXZXZXZXZXZXZXZXZXZXZXZXZXZXZXZXZXZXZXZXZXZXZXZXZXZXZXj.j.j.j.ZXZXZXZXZXZXZXZXZXZXZXZXZXZXk.j.j.ZXZXZXZXZXZXZXZXZXZXZXZXZXZXZXZXZXZXZXZXZXZXZXZXZXZXZXZXZXZXZXZXZXZXZXZXy.y.y."
};
