/* XPM */
static const char *bos2i0[] = {
/* columns rows colors chars-per-pixel */
"128 128 256 2 ",
"   c #0B1907",
".  c #1C170B",
"X  c #141515",
"o  c #1C1C1C",
"O  c #191817",
"+  c #0B0C0F",
"@  c #231B0C",
"#  c #29170B",
"$  c #261C14",
"%  c #38100D",
"&  c #13270C",
"*  c #193712",
"=  c #152D0E",
"-  c #29230E",
";  c #2D2312",
":  c #2A251B",
">  c #322512",
",  c #392A17",
"<  c #3B341C",
"1  c #2F2F10",
"2  c #1B1C26",
"3  c #242424",
"4  c #2B2C2C",
"5  c #282826",
"6  c #352B26",
"7  c #383328",
"8  c #333334",
"9  c #3B3B3B",
"0  c #393837",
"q  c #2E3230",
"w  c #1F2022",
"e  c #440101",
"r  c #4A0706",
"t  c #560706",
"y  c #471616",
"u  c #51160F",
"i  c #660707",
"p  c #770403",
"a  c #691514",
"s  c #78191A",
"d  c #6B160C",
"f  c #442C18",
"g  c #49341C",
"h  c #55391C",
"j  c #542A0B",
"k  c #732B01",
"l  c #792F00",
"z  c #7B3606",
"x  c #6D3111",
"c  c #483725",
"v  c #583C23",
"b  c #473C38",
"n  c #512F2E",
"m  c #6C2F2D",
"M  c #7A1F21",
"N  c #1E4215",
"B  c #234818",
"V  c #28561D",
"C  c #37521B",
"Z  c #33512B",
"A  c #336927",
"S  c #38762B",
"D  c #346C2B",
"F  c #4B4D1C",
"G  c #704B19",
"H  c #5A4427",
"J  c #4B4539",
"K  c #56473A",
"L  c #54522B",
"P  c #674728",
"I  c #744D2C",
"U  c #7B5432",
"Y  c #70512F",
"T  c #4C6E2D",
"R  c #736C2E",
"E  c #6B661E",
"W  c #050552",
"Q  c #010169",
"!  c #020278",
"~  c #3D3F42",
"^  c #3E4043",
"/  c #434343",
"(  c #4B4B4B",
")  c #484847",
"_  c #554B47",
"`  c #545454",
"'  c #5C5C5C",
"]  c #585857",
"[  c #55524C",
"{  c #6D534C",
"}  c #6C6554",
"|  c #636464",
" . c #6B6B6B",
".. c #6A6766",
"X. c #746A68",
"o. c #747474",
"O. c #7B7C7C",
"+. c #797776",
"@. c #72736E",
"#. c #576758",
"$. c #523F40",
"%. c #880403",
"&. c #970302",
"*. c #871710",
"=. c #A60101",
"-. c #B60202",
";. c #AD1D1D",
":. c #86370C",
">. c #872626",
",. c #993636",
"<. c #8E2F2F",
"1. c #A33B3B",
"2. c #B12626",
"3. c #AE3F0F",
"4. c #C80202",
"5. c #D70202",
"6. c #E80101",
"7. c #F70101",
"8. c #F01212",
"9. c #CA2F2F",
"0. c #894609",
"q. c #995A13",
"w. c #8D5313",
"e. c #986217",
"r. c #A36919",
"t. c #AB741C",
"y. c #B17D1F",
"u. c #875934",
"i. c #8E582E",
"p. c #98643B",
"a. c #90702D",
"s. c #AA7A23",
"d. c #A97234",
"f. c #A7512A",
"g. c #8B5251",
"h. c #A94747",
"j. c #B95656",
"k. c #B74D4D",
"l. c #8F7249",
"z. c #A66C42",
"x. c #AC7247",
"c. c #B87749",
"v. c #AD6F54",
"b. c #8E7672",
"n. c #B4706F",
"m. c #C95858",
"M. c #C47B4F",
"N. c #D26868",
"B. c #E36768",
"V. c #3D8432",
"C. c #3C822E",
"Z. c #448834",
"A. c #46983B",
"S. c #55973B",
"D. c #609C3C",
"F. c #519049",
"G. c #4DA542",
"H. c #54AA46",
"J. c #57B94C",
"K. c #52B84C",
"L. c #68B14E",
"P. c #75AE71",
"I. c #70905B",
"U. c #5CC752",
"Y. c #5AC451",
"T. c #64CB56",
"R. c #65D75B",
"E. c #6BE763",
"W. c #69DB61",
"Q. c #928B34",
"!. c #B68727",
"~. c #B39132",
"^. c #A1A63C",
"/. c #C49B33",
"(. c #C3962E",
"). c #C9A638",
"_. c #D5B53C",
"`. c #D1AC37",
"'. c #938951",
"]. c #AE914F",
"[. c #B3AC4B",
"{. c #908A75",
"}. c #AA976E",
"|. c #B7AC6D",
" X c #92B453",
".X c #CA8354",
"XX c #D38959",
"oX c #D6BC45",
"OX c #CAB14A",
"+X c #C7B46D",
"@X c #DD9465",
"#X c #AFD656",
"$X c #DBC64F",
"%X c #EAD956",
"&X c #E3CD4A",
"*X c #F0E55C",
"=X c #D4CA6F",
"-X c #F9F468",
";X c #F4EC67",
":X c #E2DF66",
">X c #020286",
",X c #010198",
"<X c #15159E",
"1X c #0202A6",
"2X c #0B0BB2",
"3X c #2424AD",
"4X c #7B7D83",
"5X c #2F2FCC",
"6X c #3434F4",
"7X c #1212C4",
"8X c #4C4CF3",
"9X c #7E8081",
"0X c #838383",
"qX c #8C8C8C",
"wX c #888787",
"eX c #98958B",
"rX c #949494",
"tX c #9C9C9C",
"yX c #979797",
"uX c #918E8C",
"iX c #AB9591",
"pX c #B2AC92",
"aX c #9E9EA1",
"sX c #A3A3A3",
"dX c #ACABAC",
"fX c #A9A7A6",
"gX c #B5ABA9",
"hX c #B3B3B3",
"jX c #BBBBBB",
"kX c #B8B7B7",
"lX c #B2B1AC",
"zX c #8FB08E",
"xX c #C99797",
"cX c #C8B7B4",
"vX c #C7AF90",
"bX c #D4CA90",
"nX c #CDC8B5",
"mX c #EAE8BD",
"MX c #BEC1C1",
"NX c #C3C4C4",
"BX c #CBCBCB",
"VX c #C7C7C9",
"CX c #D4CCC8",
"ZX c #D4D4D4",
"AX c #DCDCDC",
"SX c #D9D6D6",
"DX c #D3D2CD",
"FX c #E1DFDF",
"GX c #E3E4E4",
"HX c #EBEBEB",
"JX c #E4EAEB",
"KX c #F1F1F1",
"LX c #E5E6D7",
"PX c #BCC3BD",
"IX c None",
"UX c black",
/* pixels */
"IXIXIXIXIXIXIXIXIXIXIXIXIXIXIXIXIXIXIXIXIXIXIXIXIXIXIXIXIXIXIXIXIXIXIXIXIXIXIXIXIXIXIXIXIXIXIXIXIXIXIXIXIXIXIX%.&.=.4.5.6.7.7.IXIXIXIXIXIXIXIXIXIXIXIXIXIXIXIX%.%.=.-.5.6.IXIXIXIXIXIXIXIXIXIXIXIXIXIXIXIXIX0XqXsXkXBXSXAXAXZXjXsXtXIXIXIXIXIXIXIXIXIXIXIXIXIXIX",
"IXIXIXIXIXIXIXIXIXIXIXIXIXIXIXIXIXIXIXIXIXIXIXIXIXIXIXIXIXIXIXIXIXIXIXIXIXIXIXIXIXIXIXIXIXIXIXIXIXIXIXIXIXIXp p %.&.-.4.6.7.7.IXIXIXIXIXIXIXIXIXIXIXIXIXIXIXIXn.h.k.m.m.m.9.IXIXIXIXIXIXIXIXIXIXIXIXIXIXIX+.wXyXdXNXSXGXGXGXAXBXkXdXIXIXIXIXIXIXIXIXIXIXIXIXIXIX",
"IXIXIXIXIXIXIXIXIXIXIXIXIXIXIXIXIXIXIXIXIXIXIXIXIXIXIXIXIXIXIXIXIXIXIXdXhXjXNXNXNXhXsXwXo.' ) 0 0 0 9 IXIXi i i p p &.-.4.6.6.6.9.g.0XuXtXsXdXkXNXNXBXBXZXGXGXSXCXCXCXSXcXm.4.5.6.IXIXIXIXIXIXIXIXIX.. .o.+.wXsXjXZXHXHXHXHXHXGXSXNXsX0X .| IXIXIXIXIXIXIXIXIXIX",
"IXIXIXIXIXIXIXIXIXIXIXIXIXIXIXIXIXIXIXIXIXIXIXIXIXIXIXIXIXIXIXIXIXdXjXNXBXZXSXSXZXNXlXtX0X..] / 0 0 0 / n n n m m m s %.=.4.4.2.h.b.qXyXtXtXsXsXdXlXhXjXBXSXGXGXGXJXJXJXAXxXN.N.m.n.IXIXIXIXIXIXIX' | ..+.0XrXsXjXZXGXHXKXKXHXGXSXNXdXyXO.o...IXIXIXIXIXIXIXIXIX",
"IXIXIXIXIXIXIXIXIXIXIXIXIXIXIXIXIXIXIXIXIXIXIXIXIXIXIXIXIXIX..+.rXhXBXAXJXHXKXHXGXZXNXdXyXO.| ) 0 8 0 ) ) ( ] ....] b a p &.>.{ +.qXtXsXdXsXtXtXtXsXsXdXjXBXSXSXAXGXGXGXFXFXAXDXcXdXtXyXIXIXIX( ( ` ] | o.4XqXtXhXNXZXGXGXGXAXZXBXMXhXsXqX+...| IXIXIXIXIXIXIXIX",
"IXIXIXIXIXIXIXIXIXIXIXIXIXIXIXIXIXIXIXIXIXIXIXIXIXIXIXIXIX(  .wXsXNXSXHXHXKXKXKXHXSXBXhXsXwX .( 9 0 9 ) ] | o.wX0Xo.| { m m { @.qXtXdXjXNXNXNXNXNXkXhXdXhXjXNXBXZXSXGXGXGXHXHXJXAXNXdXsXqX..) / ) ) ( ] |  .+.wXyXsXhXjXNXNXNXjXhXdXsXyXwX+...] ) IXIXIXIXIXIXIX",
"IXIXIXIXIXIXIXIXIXIXIXIXIXIXIXIXIXIXIXIXIXIXIXIXIXIXIXIX) ` o.tXhXBXAXHXKXKXHXHXGXSXBXkXsXwX .( / ~ / ( ' +.qXsXsXrXwX+. .' | 9XyXsXhXNXZXSXAXFXSXZXNXkXhXhXkXNXBXZXZXAXGXHXKXKXGXBXhXsXqX| ) / ) ) ) ) ( ` ] | o.0XwXrXtXtXsXsXtXtXrXwX+. .| ] ) ) IXIXIXIXIXIX",
"IXIXIXIXIXIXIXIXIXIXIXIXIXIXIXIXIXIXIXIXIXIXIXIXIXIXIXIX] | O.tXhXBXAXHXKXKXHXGXSXBXNXdXyX+.' ) / ) ( ` | 0XsXkXjXdXsXrX0Xo.+.wXtXdXhXhXkXNXBXZXSXAXAXSXBXjXhXhXjXNXVXZXSXGXKXGXZXNXhXsXqX| 9 ) ` ` ) / 9 9 9 ) ( ] ' | o.+.0X0X0X0XO.+...| ' ] ( ) IXIXIXIXIXIX",
"IXIXIXIXIXIXIXIXIXIXIXIXIXIXIXIXIXIXIXIXIXIXIXIXIXIXIXIX` | O.tXdXNXZXGXGXGXSXBXNXkXdXaXwXo.] / ) ` ] ] @.rXdXBXZXNXdXqXO.O.wXtXdXkXhXtXwX0XwXyXdXNXSXGXGXZXNXkXhXhXhXjXBXSXGXGXZXjXdXtXqX+.' ] ] ] ] ' ' ] ` ` ` ( ( ` ` ] | | | | ..| | ' ] ` ) ) IXIXIXIXIXIX",
"IXIXIXIXIXIXIXIXIXIXIXIXIXIXIXIXIXIXIXIXIXIXIXIXIXIXIX8 ) ' +.qXsXhXNXZXZXBXNXkXdXsXtXuX0X .] ) ( ' | | +.tXkXZXAXZXlX+...O.yXlXNXBXhX0X` 4 3 9 | rXkXZXGXGXAXVXhXdXsXsXhXBXSXAXZXhXtXyXyXtXyX+.] ' o.wXyXrXwXO.+...' ] ( ) ) ) ) ( ` ] ] ] ( ) 9 0 IXIXIXIXIXIX",
"IXIXIXIXIXIXIXIXIXIXIXIXIXIXIXIXIXIXIXIXIXIXIXIXIXIX8 0 / ] ..O.rXsXhXkXhXhXdXsXtXrXqXwX+.| ` ) ] ..| | +.aXNXSXGXSXhX+. .wXsXjXBXSXBXaX .0 X O 4 ] 0XhXZXFXFXDXjXhXsXsXsXhXjXNXNXhXsXsXdXhXhX+.) (  .wXtXsXsXfXdXdXsXyXwX+.| ` / 0 0 9 ) ) ) 9 0 4 3 IXIXIXIXIX",
"IXIXIXIXIXIXIXIXIXIXIXIXIXIXIXIXIXIXIXIXIXIXIXIXIXIX0 0 / ( '  .0XqXyXtXtXyXrXrXwX0X0XO...` ) ` | o...' o.sXNXSXAXSXhX0X+.wXtXkXZXFXFXBXsX..0 o O 3 ) O.dXBXSXZXBXjXhXdXsXsXsXdXkXkXkXjXNXBXNX0X/ / ] ..+.qXaXkXBXSXAXSXBXhXyX+.] ) 9 0 9 9 0 0 5 3 o O IXIXIXIX",
"IXIXIXIXIXIXIXIXIXIXIXIXIXIXIXIXIXIXIXIXIXIXIXIXIXIX4 4 0 ) ` |  .+.O.4XO.O.O.+.+.+. .| ` ) ` ..+.O. .]  .sXNXSXAXZXhXwXo.+.wXsXjXZXGXGXZXdX0X` 4 O o ) +.dXBXBXBXNXjXhXdXsXsXhXNXBXZXZXSXAXZXsXo.( 0 0 ) ] ..wXsXjXZXAXAXZXBXhXtXwXo.' ) 9 8 3 3 o O O IXIXIXIX",
"IXIXIXIXIXIXIXIXIXIXIXIXIXIXIXIXIXIXIXIXIXIXIXIXIXIX3 3 4 0 ) ] ' | ..........| | | ] ) ) ) | wXqX0X..`  .sXBXSXSXBXdX0X| |  .wXsXNXZXGXGXSXjXrX../ 0 ( +.dXBXZXZXZXBXNXkXdXdXkXBXZXGXGXHXHXAXNXyX] 3 O 3 4 0 ( | 0XtXhXjXVXBXBXNXhXsXwX..` 9 4 3 3 3 o IXIXIXIX",
"IXIXIXIXIXIXIXIXIXIXIXIXIXIXIXIXIXIXIXIXIXIXIXIXIXIX3 3 5 8 0 / ( ] ] ' ' ' ] ( ) / 0 4 9 ' 0XsXtX+.' ) ..dXBXSXSXBXdX+.] ) ( | O.tXhXBXAXGXAXBXjXdXsXdXkXBXSXFXGXGXGXSXZXNXjXNXZXSXGXHXHXHXGXBXaX' : @ ; ; : 5 8 9 ( ' o.0XqXtXsXsXdXsXrX9X..] ) 0 4 3 o O IXIX",
"IXIXIXIXIXIXIXIXIXIXIXIXIXIXIXIXIXIXIXIXIXIXIXIXIXIX3 3 3 5 8 0 9 ) ) ( ( ) / 0 8 5 4 0 ] 9XtXsXqX| ) ^ | sXBXZXBXjXsX+.' ( / b _ @.qXdXNXZXAXGXGXAXSXZXZXSXAXGXGXHXGXGXZXhXtXdXNXZXSXGXHXHXGXBXfX..< - - , f , : : 6 b J _ [ ' ..+.wXqXwXO. .' ` / 0 3 o O IXIX",
"IXIXIXIXIXIXIXIXIXIXIXIXIXIXIXIXIXIXIXIXIXIXIXIX3 3 3 3 3 3 5 8 0 0 0 0 0 8 q 5 3 3 0 ' wXsXsXqX..) 8 8 ] tXNXBXNXdXyXwX+..._ y y _ | O.yXdXNXZXAXAXZXBXBXBXZXSXGXGXGXGXNXwX| O.sXjXBXAXGXHXGXBXsXX.c > > g I P c c c H H v < 6 8 9 ) ` ] ] ` ( ) 0 4 3 O X IXIX",
"IXIXIXIXIXIXIXIXIXIXIXIXIXIXIXIXIXIXIXIXIXIXIXIX4 4 5 3 3 w 3 3 3 3 5 5 3 3 5 0 ) ] +.yXsXdXrX .( 8 3 5 ] tXjXNXhXtXrXtXtXyX0X{ n n n n { b.tXdXkXjXkXhXdXdXhXkXNXZXSXSXVXrX| |  .wXdXVXAXHXGXhXO._ < > , h I U Y P P I u.U h f < c c 0 8 q 8 8 q 5 3 O X IXIXIX",
"IXIXIXIXIXIXIXIXIXIXIXIXIXIXIXIXIXIXIXIXIXIXIXIX0 0 0 0 8 4 4 4 q 8 0 0 0 0 ) ] +.tXhXkXdXrXo.( 8 3 o 3 ] yXhXkXdXqXqXdXjXVXMXsXb.n y r y { @.+.wXuXrXqXwX0X0XwXtXhXNXBXBXdXwX' ( | qXkXSXHXAXsX' 0 > > f v P u.z.p.I p.c.x.u.I P P P c : O : : : o X X IXIXIXIX",
"IXIXIXIXIXIXIXIXIXIXIXIXIXIXIXIXIXIXIXIXIXIXIXIX9 / ` | | |  .+.O.wXrXtXtXsXsXhXkXjXhXsXqX .` 0 3 O : 8 ' qXfXdXtXwXwXdXNXAXFXBXlXb.{ y e y n [ |  .o. ...| | | @.wXtXdXkXhXdXuX0XrXdXNXSXGXGXVXtX' , f P P P p.M.x.u.p..X.Xc.p.u.u.p.u.c c H H c < IXIXIXIXIXIX",
"IXIXIXIXIXIXIXIXIXIXIXIXIXIXIXIXIXIXIXIXIXIXIXIX0 / ' +.0XqXtXdXjXDXAXGXHXHXHXGXBXhXyX+.| ) 0 3 O . : b | wXtXtXqX+.O.tXkXAXHXGXZXjXwXn e e r n / _ _ _ _ ) b b _ ' o.wXsXhXkXhXdXhXNXBXSXGXGXGXBX+., f P P P p..Xc.p.z.c..XXXc.p.x..Xx.U Y u.u.I P IXIXIXIXIXIX",
"IXIXIXIXIXIXIXIXIXIXIXIXIXIXIXIXIXIXIXIXIXIXIXIX5 8 ) | +.wXtXhXBXGXHXKXKXHXAXVXdXwX| ) 0 4 3 $ . . : J | O.wXwX+.' ' +.yXNXAXHXJXAXfXm e e e r y y y y y y y y y b ` | +.yXfXdXdXhXNXBXZXAXGXGXBX+.: > P H v U x.c.c.z.p.c.XXXXc.M.XXM.z.u.U U u.I f - IXIXIXIX",
"IXIXIXIXIXIXIXIXIXIXIXIXIXIXIXIXIXIXIXIXIXIXIXIXIX5 0 ) ] ..O.rXfXkXNXNXNXjXdXyX+.] 9 5 : : $ @ @ @ : b ]  .+.o.| ) ) ] +.tXjXSXGXGXcXb.m u e e e e e e e e e e e y n b _ X.qXtXdXhXjXNXZXSXAXAXVX0XJ c h v v I u.z.c.z.u.z.XXXXM.M.M.c.x.p.P P u.I f ; IXIXIXIX",
"IXIXIXIXIXIXIXIXIXIXIXIXIXIXIXIXIXIXIXIXIXIXIXIXIXIX3 3 4 0 ) ` ' | o.+.+.o.| ] ) 8 3 $ @ ; ; - - - : 0 ) ] | | ` 0 0 / ] +.yXhXBXSXSXBXiXm e e e e e r t t t e e r u r u _ +.uXsXdXhXNXBXZXSXZXNXsXo._ f g P P P u.c.p.u.p..XXXM.c.z.z.x.u.H v I I g < IXIXIXIX",
"IXIXIXIXIXIXIXIXIXIXIXIXIXIXIXIXIXIXIXIXIXIXIXIXIXIXX O : 6 6 7 b J J J K K J 7 7 7 : @ ; > , > > ; : 8 / ` ] ] ) 0 8 0 ) ' +.rXdXjXBXSXVXiX{ u e r t i a a i t r t i i a { 0XwXqXtXhXMXBXZXSXZXNXsX0X[ > f v v v I p.p.p.p.z.c.M.x.u.u.p.u.P v P P v g > IXIXIX",
"IXIXIXIXIXIXIXIXIXIXIXIXIXIXIXIXIXIXIXIXIXIXIXIXIXIX. @ , g , > h P v f v P v , g H c > , c c f , ; : 4 0 ) ( ( ) 9 0 8 0 ( '  .0XyXdXNXZXSXgX{ u t d s >.>.M a t i s >.,.b.yX0X+.qXdXjXBXZXSXZXjXsXO.) ; > g g f v U p.z.p.I u.c.z.Y P u.u.I v g g P h > . IXIX",
"IXIXIXIXIXIXIXIXIXIXIXIXIXIXIXIXIXIXIXIXIXIXIXIXIXIX$ , v U H g I z.u.v u.x.u.v I p.U c v Y P c , ; : 4 0 9 / / 9 0 8 4 8 0 / ) ] o.wXsXkXZXZXgXb.m s >.1.h.h.<.s s >.1.j.iXsX+.] +.tXhXNXZXZXBXhXyX@.J $ @ > < c c v I u.U H P U I v h h v P h , > f f - @ IXIX",
"IXIXIXIXIXIXIXIXIXIXIXIXIXIXIXIXIXIXIXIXIXIXIXIXIXIX, g I p.U Y z..Xz.U x.@Xc.u.p.M.z.P Y p.U v , ; : 4 0 0 9 9 0 0 8 8 8 8 8 0 9 ` | +.rXhXBXFXcXg.a >.1.j.j.h.,.>.>.h.N.xXdX+.( | 0XtXhXNXBXNXdXwX' 0 : . @ > g g f c P H c H K { K K _ { } { K J J b 7 7 IXIX",
"IXIXIXIXIXIXIXIXIXIXIXIXIXIXIXIXIXIXIXIXIXIXIXIXIX> f v I u.p.z.c.c.p.u.c.@X].p.x.XXx.I u.z.p.H < > : 8 / ) ( ) ) / 9 9 0 0 0 0 0 9 ) ` | wXdXZXcX{ r t M h.m.m.k.,.>.h.N.cXkX9X) ) ` ..wXdXjXhXyX .) 0 8 : @ @ > , , f f f f K +.uXtXfXlXkXcXkXfXtXuXb...| IXIX",
"IXIXIXIXIXIXIXIXIXIXIXIXIXIXIXIXIXIXIXIXIXIXIXIX- > g P P I p.c.c.z.z.x..XXXc.p.x.XXx.I u.z.p.H < > : 9 ( ' | | | | | ] ( 9 0 / ) ( ( ) ( ..qXkXkXb.m u t >.h.j.j.,.>.1.j.xXgXeXo.` ) ( | wXsXyX+.` 0 8 8 3 @ @ @ ; , c b _ [ X.wXaXhXnXmXmXmXmXnXvXpXiXqX9XIXIX",
"IXIXIXIXIXIXIXIXIXIXIXIXIXIXIXIXIXIXIXIXIXIXIXIX- > h I P H u.c.z.p.x.XX.Xx.p.p.x.M.z.Y Y p.u.v , ; 6 J ]  .O.wXrXtXrX0X| ) ~ ( | o. .] ) ] ..uXlXVXgX{ t i >.h.j.1.<.,.h.j.n.xXhX0X] ) ( ..O. .` 9 8 5 3 $ . . @ # , K +.uXsXyX0XwXtXpX=X;X-X;X$XOXOX].{.0X..] ",
"IXIXIXIXIXIXIXIXIXIXIXIXIXIXIXIXIXIXIXIXIXIXIXIX- > h P v g I p.u.I z.M.z.U u.p.x.x.u.H P u.I g , : 6 9 ]  .0XtXdXhXhXsXwX| ` ( ]  .o...' ` ` ..wXjXVXiXg.a t >.1.1.,.<.<.1.j.xXBXtX..' ' | | ] ) 0 5 3 O O . . @ > h u.].+XbXpX{.{.|.=X%X*X-X-X%X_.).~.'.l.' ' ",
"IXIXIXIXIXIXIXIXIXIXIXIXIXIXIXIXIXIXIXIXIXIXIXIX@ ; g H g , v U P g I p.U v I z.p.u.P g v I v , ; : 5 8 ) | 0XtXhXNXBXNXdXwX| ) / ] ..+.o.] ) ) ' wXlXBXcXg.u a >.,.,.>.s >.h.xXDXfXO.O.O...` ( ) 0 3 O X IXIXIX@ j w.t.~.$X;X=X{.{.=X%X%X*X-X-X%X$X).!.r.i.{ ` ",
"IXIXIXIXIXIXIXIXIXIXIXIXIXIXIXIXIXIXIXIXIXIXIX. @ @ > , - @ > f > # f v g > h U I P g , f h g > $ O o 5 9 ] +.tXhXNXBXBXjXtX+.) 0 / ( | | ' ( 9 0 ` o.tXlXfXb.m i s <.>.s *.,.xXAXkXqXrXyX0X| ] ) 8 3 O IXIXIXIXIXx 0.r.!.`.&X+XeXeXpX=X$X&X&X&XoX).~.y.r.w.G v ",
"IXIXIXIXIXIXIXIXIXIXIXIXIXIXIXIXIXIXIXIXIXIX. . $ : , 7 6 6 c b c c J _ _ J H h g , , , , , > - # # # ; 7 (  .qXdXMXBXZXBXdX0X` 0 0 9 ( ' ..| ` / / ) | 0XlXlXg.m <.h.<.s s <.xXFXMXtXtXsXqX+.] / 5 o X IXIXIXIXIXIX0.w.r.!.`.+XpXdXhXvX+X$XoXOX/.!.t.r.q.0.l k ",
"IXIXIXIXIXIXIXIXIXIXIXIXIXIXIXIXIXIXIXIXIXIX. @ 7 [ ' ..@.+.0XuXyXtXdXjXNXjX+., @ - > , , > - @ r p p i u b ] +.tXhXBXSXZXjXyX' 9 8 0 ( | O.wXwX0X..] ( ( | +.wXiXcXcXg.d i >.iXSXNXtXtXyXwX .] 0 3 X X IXIXIXIXIXIXl 0.q.t.(.+XcXBXZXSXnXnXnX|.~.t.q.0.:.l l k ",
"IXIXIXIXIXIXIXIXIXIXIXIXIXIXIXIXIXIXIXIXIXIX6 0 ] +.+.+.wXyXtXtXdXkXBXZXSXBXtX' _ [ J , ; @ - : a =.=.%.a n ) ..wXsXjXZXSXVXsX .) 0 0 ) ' O.tXdXhXtXwXo.| ] ' O.aXBXZXiXg.s M iXZXMXtXrXwX+.| ) 8 3 X IXIXIXIXIXIXv x u.x.].+XvXcXBXZXSXSXZXVXgX}.d.i.x k k k l ",
"IXIXIXIXIXIXIXIXIXIXW Q ,X1XIXIXIXIXIXIXIXIX| ..wXyX+.' +.qXO. .+.rXsXsXtXyXsXjXjXfX@.7 @ @ 5 9 m -.-.&.d 6 9 ] o.qXdXBXZXBXdX+.` 0 8 0 (  .qXhXNXNXNXjXdXqXo.] ] wXhXDXcXg.m b.DXjXyXwX+...] 9 5 3 IXIXIXIXIXIX] [ _ b.kXCXnXnXhXhXjXNXBXBXNXjXgXuX..K x k k k ",
"IXIXIXIXIXIXIXIXIXIXIXQ >X,XIXIXIXIXIXIXIXqXtXsXkXkXqX .wXtXwXo.+.rXdXjXhXsXfXkXdXyX+.] / Z Z 9 m -.-.&.i 6 8 ) ' +.yXkXBXZXkXwX| 9 4 4 0 ` o.uXsXhXjXNXhXtXO.] ) ] O.kXZXiXb.fXjXfXwX+. .] ) 8 3 o IXIXIXIXIX0X] ) /  .aXjXVXVXMXjXjXkXhXdXdXsXsXuX .[ v j j u ",
"IXIXIXIXIXIX1X1XIXIXIXIXQ Q IXIXIXIXIXIXwXtXkXZXAXZXdXrXtXsXtXrXqXtXjXFXZXjXaXb.X.} ..b.b..._ b a -.-.%.t : 4 9 ( | 0XsXjXBXjXyX ./ 4 5 4 9 ( | +.wXyXaXsXyX0X..] / ( O.hXBXZXcXsXwX+. .| ( 0 5 o IXIXIXIXIXBXyX` 0 8 ) ..wXsXjXBXBXVXkXsXyXqXwXwXO...` 0 5 O X ",
"IXIXIXIXIXIX>X,X5XIXIXIXIXIXIXIXIXIXIX0XsXjXZXHXHXGXBXdXqXO.tXhXsXqXsXNXMXsXn.9.9.2.9.9.9.2.;.*.&.=.&.p t IX4 0 / ]  .wXsXhXhXyXo.) 8 4 4 0 / ) ` ' ..+.0XwXO.o.' ( / (  .sXNXtXo...| ] ( 9 4 3 IXIXIXIXGXZXkX0X9 3 3 0 ( | +.qXsXkXVXBXjXhXtXwX+.| ` / 8 3 o X ",
"IXIXIXIXIXIXQ >X5X8XIXIXIXIXIXIXIXIXo.0XdXSXHXHXHXFXZXkX4X| tXZXdX+.0XyXeXn.9.7.7.7.7.6.5.4.4.-.=.&.p i t IXIX4 0 ) ' o.wXtXtXqX .) 0 8 8 0 / ) ` ] ..+.wXqXuXwX+...] / / o.qX .( ` ] ) 9 4 3 IXIXIXIXHXAXNXtX| 4 3 0 ) ] ] ' | +.qXdXjXVXNXhXtX+.] / 8 5 3 O O ",
"IXIXIXIXIXIXW Q >X<XIXIXIXIXIXIXIXIXo.0XdXZXGXGXAXBXNXhXwXo.dXZXsX| ' X.h.9.8.7.6.5.4.-.-.=.&.%.p p i t t IXIXw 5 0 ( ' o.wXwX0X..) 0 8 8 9 ( | O.yXdXkXNXVXNXkXdXtXwX..] ` ` ) ) ) ) 9 4 3 O IXIXIXHXGXBXsXo.) 4 / ..O.wX+.| ] ) ` | 0XsXkXNXhXqX| 9 3 o X X X ",
"IXIXIXIXIXIXQ Q Q ! 3XIXIXIXIXIXIXIXo.0XsXNXZXZXBXkXhXsXwXO.dXBXrX` ` ..1.6.7.5.4.-.=.&.%.p p i t t t t IXIXIXO 3 4 0 ) ` | ....' / 8 4 4 0 ) | O.tXhXNXZXBXNXhXsXyX0X..` 0 4 8 0 9 0 4 3 O X IXIXIXJXZXdX+.( 0 / ..tXhXdXrX..) 8 8 ) | wXtXsXsXwX| 9 3 O X X X ",
"IXIXIXIXIXIX,X>XQ ! 5X8XIXIXIXIXIXIXo.O.yXhXkXkXhXsXtXuXI.O.tXhXO.) | wXk.5.5.-.=.%.p i t t t t t t t IXIXIXIXIXIXo 3 5 0 9 ) ) ) 0 4 3 5 4 0 ) ]  .0XtXsXsXtXwXo.' ( / 0 5 3 3 5 5 5 w X X IXIXIXIXSXhXwX] 0 ) @.tXBXZXjXyX| ) 4 0 ]  .+.+.o. .| ] / 4 3 X X X ",
"IXIXIXIXIXIXIX,X<X3X5X5XIXIXIXIXIX' ..+.wXtXaXtXzXzXP.P.P.P.zXzX@.( O.fXj.-.=.&.%.i t r % % y y y r r IXIXIXIXIXIXO o o 3 5 q 8 q 5 5 5 4 8 8 8 0 ) ] @.+.+...] ( / 0 0 0 8 5 3 o o O X + IXIXIXIXIXbX{.' ( ` +.sXNXBXkXtXo.( 9 9 ] wXyXyX0X' ) / 0 8 5 o O X X ",
"IXIXIXIXIXIXIXIX6X6X2X,XIXIXIXIX] ] |  .+.0XwX{.P.W.W.R.R.R.R.T.F.#.qXkXN.;.&.%.p t y 6 8 9 b 9 7 , > IXIXIXIXIXIX5 5 4 8 0 0 8 4 3 5 8 0 9 0 8 0 9 ( |  .| ] ( ) ~ 9 ) ) / 0 5 3 3 5 8 IXIXIXIXIXIXoX'.) ' wXdXBXNXdXwX| ) 0 / ] wXhXNXhXqX] 0 3 o o O O O IXIX",
"IXIXIXIXIXIXIXIXIX5X,X! >X,XIXIX( ` ] | .. .I.I.T.R.R.U.J.K.J.J.H.F.P.dXxXxXn.v.g.m $.` | o.o.| _ c , IXIXIXIXIX( ) ] ..+.wX0X .` 0 4 8 0 ) ] | +.qXtXdXhXdXsXyXwX+...' ` / 0 9 ) ..0XsXhXwX' IXIXIX%X[. .wXhXNXjXsX+.] / 9 ) ..rXdXjXhXrXo.) 8 3 O X X X X IXIX",
"IXIXIXIXIXIXIXIXIXIXQ ! >X,XIXIX/ ) ( ] ` ] F.H.U.R.J.G.Z.C.Z.A.G.H.I.qXfXPXlX}.b.| ..0XyXsXyXb.{ c g IXIXIXIX( ] | O.sXjXBXNXsXO.` 0 4 0 ) | wXsXNXAXGXHXHXAXBXhXtX0X..] / 9 ( o.sXBXBXhXwX..IXIXIX-X=X}.fXNXkXtXo.( 9 0 (  .yXkXjXsXwX| ( / 0 8 5 o O X X IXIX",
"6X6X1X>X1X7X6X8XIXIX! ! ! ! IXIX9 9 / / 9 Z T H.Y.J.G.S V * N V S A.F.F.F.I.I.} { } {.dXjXhXeXg.m c c IXIXIXIX) ] +.tXNXAXGXGXBXsX| 9 4 4 / ] +.tXjXZXSXAXSXBXkXsXqX+.' ) 0 0 ] wXNXGXAXNXtX0XIXIXIXIX:X=XbXlXrX..( 0 9 ] O.sXhXhXtX .` ~ 9 ) ` ' ] 0 5 o O IXIX",
"6X6X3X<X2X2X5X5X3XIX! ! ! >X>XIXq 8 8 0 Z Z F.J.J.H.S B &     & V C.C.S S C.T T Y { {.gXgXiXg.>.a c 7 IXIXIX0 9 ` o.tXMXSXGXAXBXsX| 9 4 5 0 ) | O.sXkXNXNXjXhXsXqX+.' ) 0 4 0 ' qXjXSXZXjXsXwXo.IXIXIX&X$X|.uX .( / ) | wXdXjXhXrX..) 0 0 ) | +.O...) 8 3 O IXIX",
"IXIX8X8XIXIX! >X>X! ! ! ,X1X,X! W 5 5 q T G.J.U.K.A.V &         B S S A A S A.J.D.U l.{.l.<.M s u 6 q IXIX4 4 8 / ' O.tXhXNXNXhXqX] 0 5 3 8 / ` ..wXtXdXdXdXsXrXO.' ) 0 8 5 8 ] O.sXkXhXsXuX+.] / a.OX_.).'...` ( ] +.tXjXNXdXwX] 9 0 0 (  .rXtXwX../ 4 IXIXIXIX",
"IXIXIXIXIXIXIXQ ! >X>X>X>X,X,XQ 2 3 Z D G.U.T.U.H.V.B &     * V S S F F F S G.Y.D.U u.i.>.*.%.%.a 6 3 IXIX5 5 5 0 ) ' +.rXsXsXqX .) 4 3 5 0 ( ..wXsXkXNXBXNXjXhXtX+.] 9 4 3 5 / | O.rXrXwX+.| ) 9 R OX_.~.a.[ } l.{.sXhXkXsXO.] 0 0 ) | O.qXyXwX .( 8 3 IXIXIXIX",
"IXIXIXIXIXIXIXIXIXIX,X>X! Q IXIXO 5 D G.U.R.T.J.A.C.V * & = A G.G.Z.G p x T A.J.D.Y >.*.%.%.%.&.d $ o IXIX3 3 3 5 0 / ] ..+.+.| ) 8 3 3 8 ) | wXdXNXSXGXGXGXSXBXhXtX+.( 8 3 3 8 / ] .. .| ] ) 0 8 8 IXIXIXIXIXIXOX+XnXhXyX@.( 9 9 `  .wXsXtX+.' ) q 3 o IXIXIXIX",
"IXIXIXIXIXIXIXIXIX,X! Q Q IXIXIXB V S G.Y.U.J.G.A.Z.S S S S G.T.L.Q.0.&.p j T J.D.G :.*.%.p i i u IXIXIXIXo o O o 3 5 8 0 9 9 0 4 3 3 4 9 ] o.uXsXtXtXsXdXsXtXwXO.O.+.] / 8 5 5 8 9 ) ) 9 8 5 3 3 IXIXIXIXIXoX_.`.|.eX4X' } l.l.@.O.qXrXwXo.] / 8 5 w IXIXIXIXIX",
"IXIXIXIXIXIXIXIX,X>X! Q IXIXIXIXA A S A.H.J.H.G.A.A.G.H.J.Y.T.R. Xs.3.&.%.d R L.D.w.:.:.d d u # # IXIXIXIX3 o O O O o o o o o o o O 3 4 ^ ] ..O.wXO.+.wXwXwX+.| ] | | ] ) 0 4 5 5 8 0 4 3 3 o o 3 5 IXIXIXIXoX`./.].+.] J R ).+XeXyXrXO.' ) 9 8 5 3 IXIXIXIXIXIX",
"IXIXIXIX6X6XIXIXIXIX>X>XIXIXIXD A V A D V.G.K.Y.Y.Y.U.T.R.U.U.J.^.!.3.%.*.q.Q.T.L.u.u.I x t % # . IXIX0 0 0 8 4 3 o O w 3 4 4 3 3 o o 3 5 9 ) ] ..qXdXkXjXkXdXrX+...] ) 0 4 3 3 3 q 0 4 5 3 5 4 0 ) ` ] ] } IXIXIXIXIXl.a.!.!.].eX9X..` 9 0 IXIXIXIXIXIXIXIXIXIX",
"IXIXIXIX6X6XIXIXIXIX1X1XIXIXA A V B B V S A.J.R.R.R.W.W.R.Y.G.S.^.).q.d :.!.^.T.L.I.} R H % % @ IXIXIX) ) ] ] ) 9 4 5 8 9 ) ) 0 5 3 o 3 4 / ` | O.dXZXAXGXAXZXjXsXwXo.] / 0 4 4 0 ) ` ( ) / 9 / ) ] | | .. .IXIXIXIXIXIX/.(.y.'.{.o.` 9 8 IXIXIXIXIXIXIXIXIXIXIX",
"IXIX,X1XIXIXIXIX,X,X1X1XIXIXV V B * = N S G.U.E.E.E.E.R.Y.G.V.Z.Q.).e.d 0.~. XR.T.L.H.F.T > # IXIXIXIX' ..+.+. .] ) / ( '  ...( 0 5 3 4 / | 0XtXkXZXGXHXHXGXGXSXBXjXdXqX .` / ) ] o.wX0X+...' ] ] | o.wXrXrXqX+.| IXIXIXIXIXIXIXIXIXIXIXIXIXIXIXIXIXIXIXIXIXIXIX",
"IXIXIXIXIXIXIX1X>X>X,XIXIXIXB N * * * B S H.R.W.J.G.J.U.G.V.D.Q.Q.a.x u w.~.#XR.U.J.H.A.S 1 IXIXIXIXo.O.qXsXtXwXo.] ] ..O.qXwX| ) 0 4 8 / | 0XsXNXZXGXHXHXGXGXSXDXNXdXrXo.] ) ] o.rXdXdXsXrX0X..' | o.qXsXhXdXtXqX+.IXIXIXIXIXIXIXIXIXIXIXIXIXIXIXIXIXIXIXIXIXIX",
"IXIXIXIXIXIX1X,X! W IXIXIXIX* * = * N V A.J.R.T.V.V S G.Z.T ^.OXa.u e r w.).#XT.Y.H.A.Z.S IXIXIXIX .0XtXhXNXkXtX0X| | wXtXfXtXO.' / 8 4 0 ( ..qXdXNXZXAXAXAXZXBXkXsXrX+.' ( ) | wXsXjXNXNXkXsX9X| ] | wXdXNXZXZXjXyX..] IXIXIXIXIXIXIXIXIXIXIXIXIXIXIXIXIXIXIXIX",
"IXIXIXIXIXIX>X>XQ IXIXIXIXIX& & = * B A A.J.U.J.A.S A S L.[.^.i.x r % r i.oX#XT.K.G.Z.D Z IXIXIXIX0XtXkXZXZXNXsXwXo.O.tXhXNXhXtX+.` 0 3 5 0 `  .qXdXNXBXZXBXNXhXsXqX+.' ( ) ` o.rXhXNXZXZXBXkXtX+.| | +.tXkXZXAXZXhXqX0XIXIXIXIXIXIXIXIXIXIXIXIXIXIXIXIXIXIXIXIX",
"IXIXIXIXIXIXQ Q IXIXIXIXIXIX& & & * B A Z.G.H.G.A.Z.S T ^.$Xd.u t t r t a.$X#XT.K.A.T F Z IXIXIXIXtXhXZXGXAXNXtXwX+.qXhXBXZXBXhXqX' 9 3 3 5 0 ` ..qXdXkXjXkXdXtXqX+.| ) 9 ) ] +.tXhXNXZXSXZXBXhXyX+.| ..0XtXjXBXZXNXhXsXIXIXIXIXIXIXIXIXIXIXIXIXIXIXIXIXIXIXIXIX",
"IXIXIXIXIXIXIXIXIXIX1X1XIXIXIXIX& & & * A V.V.S A A D.[.Q.I M M M s i u d.*X#XL.A.V.S IXIXIXIX' 0XlXBXAXGXZXkXrXO.O.rXkXZXSXZXkXtXo.( 8 3 3 5 9 ] +.qXsXdXsXyXwXo.' ( 9 9 ) ' +.rXsXkXBXSXSXZXBXhXqX .| ..+.rXdXMXVXNXsX@.IXIXIXIXIXIXIXIXIXIXIXIXIXIXIXIXIXIXIX",
"IXIXIXIXIXIXIXIXIXIX1X1XIXIXIXIX      & B A V V C T Q.~.w.t s ,.1.,.s a d.*X#XL.V.S A IXIXIXIX' wXjXAXGXAXBXdX0X+.O.yXjXZXAXSXNXsXO.] 0 3 o 3 4 / ]  .0XwX0X+...] ) 0 8 8 / ] @.wXtXdXNXSXAXAXAXBXdXwX| ` ]  .wXsXkXNXsX0Xo.IXIXIXIXIXIXIXIXIXIXIXIXIXIXIXIXIXIX",
"IXIXIXIXIXIXIXIXIXIXIXIXIXIXIXIX    & = N B * B R ~.a.x a s ,.k.k.h.>.M d.$X#XH.S V V IXIXIXIX..qXBXGXGXSXNXtXo...O.tXNXSXGXAXBXdX0X| / 4 3 o 3 4 0 ) ] | ' ] ) / 0 q 3 3 0 ) | +.qXsXjXZXAXGXGXGXBXdXo.) 9 ( | O.tXhXhXsXtXIXIXIXIXIXIXIXIXIXIXIXIXIXIXIXIXIXIX",
"IXIXIXIXIXIXIXIXIXIXIXIXIXIXIXIXIX  & & = * C E a.e.x t s ,.m.N.N.j.,.>.d.oX XS.S B N IXIXIXIXO.tXZXGXGXZXhXrX| | O.sXNXAXHXGXBXhXwX| ) 8 3 o o 3 4 0 / ) / 9 0 8 4 5 o O 5 0 ( | +.yXhXBXAXGXHXHXAXNXwX) 0 9 ) | O.tXdXhXaXIXIXIXIXIXIXIXIXIXIXIXIXIXIXIXIXIXIX",
"IXIXIXIXIXIXIXIXIXIXIXIXIXIXIXIXIXIX      1 E !.w.t r t <.j.B.B.B.m.h.,.d.OX^.Z.V * = IXIXIXIXrXdXSXGXAXBXdX0X' ' O.sXNXAXHXGXZXhXwX| ) 0 5 3 o o 5 4 8 8 8 8 q 4 5 3 O X o 4 9 ( | 0XsXjXZXAXHXHXHXZXtX| ^ 8 0 ) | O.tXdXrX..] IXIXIXIXIXIXIXIXIXIXIXIXIXIXIXIX",
"IXIXIXIXIXIXIXIXIXIXIXIXIXIXIXIXIXIXIXIX  1 E s.z e e t <.j.m.m.B.B.N.k.M.).Q.A N = & IXIXIXIXtXhXZXAXZXhXrX .( ] +.tXhXDXGXFXBXdXO.] / 8 3 o O O o 3 3 3 3 3 3 3 o O X X O 3 8 / ] ..wXaXkXBXAXGXHXAXhX+.) 5 5 0 ( | O.rXwX .| IXIXIXIXIXIXIXIXIXIXIXIXIXIXIXIX",
"IXIXIXIXIXIXIXIXIXIXIXIXIXIXIXIXIXIXIXIX  1 G r.z t t a <.k.h.h.m.B.B.N.c.~.E B = & & IXIXIXIXsXhXZXZXjXtX+.] 9 )  .qXdXNXZXZXjXtX .( 0 5 o O O @ O O O O O O O O X X O $ O o 5 0 / ] | O.tXhXBXSXGXAXkXwX] 7 : 4 0 ) | +.+. .| IXIXIXIXIXIXIXIXIXIXIXIXIXIXIXIX",
"IXIXIXIXIXIXIXIXIXIXIXIXIXIXIXIXIXIXIXIXIXIXIXIX:.z z 0.:.>.,.h.k.k.M.(.Q.E C = & IXIXIXIX| 0XsXkXBXjXsX0X' / 8 0 ] +.tXhXNXNXdXwX' 9 4 3 X O y j y IXIXIXIXIXIXIXIXIXj j > X w 5 8 9 ( | O.tXhXNXZXZXkXuX'.a.H 3 3 0 ) ] | | ` 0 IXIXIXIXIXIXIXIXIXIXIXIXIXIXIX",
"IXIXIXIXIXIXIXIXIXIXIXIXIXIXIXIXIXIXIXIXIXIXIXIXIX0.q.q.z i M ,.h.z.d.a.E B * & IXIXIXIXIX| +.tXhXkXdXwX| ) q 3 4 ) | wXtXdXfXrXo.) 4 3 $ ; f k l IXIXIXIXIXIXIXIXIXIX0.z j , : o 3 5 0 ) | 0XyXdXNXBXlXuX}.).a.L 7 5 8 / ( ` ) 0 4 IXIXIXIXIXIXIXIXIXIXIXIXIXIX",
"IXIXIXIXIXIXIXIXIXIXIXIXIXIXIXIXIXIXIXIXIXIXIXIXIXIXt.r.z t r a i./.Q.F * = & IXIXIXIXIXIX' o.qXsXsXqX..( 8 3 o 3 0 ` ..0XqXwX+.] 0 3 O ; G 0.z k IXIXIXIXIXIXIXIXIXIXl z w.e.h O X w 5 0 ( ..0XtXhXjXsXqX}.OX_./.R 6 3 8 9 ) / 0 0 IXIXIXIXIXIXIXIXIXIXIXIXIXIX",
"IXIXIXIXIXIXIXIXIXIXIXIXIXIXIXIXIXIXIXIXIXIXIXIXIXIXIXt.w.x z G a.a.L * & & IXIXIXIXIXIXIX` | O.wXwX+.] 0 3 : g c 7 9 ] ..+.+.| ) 4 o X ; G q.:.k IXIXIXIXIXIXIXIXIXIXk l q.r.w.H : X X 3 0 `  .0XtXdXyX0X}.$X%X%X[.R F 5 4 0 0 0 0 IXIXIXIXIXIXIXIXIXIXIXIXIXIX",
"IXIXIXIXIXIXIXIXIXIXIXIXIXIXIXIXIXIXIXIXIXIXIXIXIXIXIXIXt.t.!.!.E 1 &     IXIXIXIXIXIXIXIX) ] ..o.o.' ) 4 3 h e.i.7 4 / ] ....] / 5 O X , w.r.0.k IXIXIXIXIXIXIXIXIXIXk l 0.e.!.!.P $ X O 5 9 ]  .wXrXwXO.}.$X*X-X%XOXa.6 3 4 q 4 4 IXIXIXIXIXIXIXIXIXIXIXIXIXIX",
"IXIXIXIXIXIXIXIXIXIXIXIXIXIXIXIXIXIXIXIXIXIXIXIXIXIXIXIXIXIXIXIXIXIXIXIXIXIXIXIXIXIXIXIXIX0 ) ] | | ` 0 c P a.).Q.7 2 8 ) ] ] ) 0 w : H a.s.t.w.IXIXIXIXIXIXIXIXIXIXIXk l :.w.t.!.Q.R < X X 5 0 ) | o. . .'.OX%X;X%X_.s.G f 5 5 5 5 IXIXIXIXIXIXIXIXIXIXIXIXIXIX",
"IXIXIXIXIXIXIXIXIXIXIXIXIXIXIXIXIXIXIXIXIXIXIXIXIXIXIXIXIXIXIXIXIXIXIXIXIXIXIXIXIXIXIXIXIX4 9 ` ] ] / 8 H s.`.%X[.L 6 4 0 ) ) 9 q o < a.(.!.t.IXIXIXIXIXIXIXIXIXIXIXIXk l z 0.q.s./.).R < o o 3 4 / ` ] ] l.~.).oXoX~.r.0.j : w 3 3 IXIXIXIXIXIXIXIXIXIXIXIXIXIX",
"IXIXIXIXIXIXIXIXIXIXIXIXIXIXIXIXIXIXIXIXIXIXIXIXIXIXIXIXIXIXIXIXIXIXIXIXIXIXIXIXIXIXIXIXIX5 0 ( ` ) 0 3 L [.%X-X:XOXa.7 3 0 9 0 5 X < Q.).t.w.IXIXIXIXIXIXIXIXIXIXIXIXIXIXl z 0.r.y.~./.].L X X : 4 0 ~ / P w.r.r.r.q.0.l j $ O O O IXIXIXIXIXIXIXIXIXIXIXIXIXIX",
"IXIXIXIXIXIXIXIXIXIXIXIXIXIXIXIXIXIXIXIXIXIXIXIXIXIXIXIXIXIXIXIXIXIXIXIXIXIXIXIXIXIXIXIXIX3 8 / ) 9 4 o L [.%X-X-X%X^.c o 5 8 4 3 X < Q./.r.0.IXIXIXIXIXIXIXIXIXIXIXIXIXIXk l 0.q.r.t.`.$XQ.L : o 3 5 8 9 K u.i.i.p.p.i.u.P 0 q 4 5 IXIXIXIXIXIXIXIXIXIXIXIXIXIX",
"IXIXIXIXIXIXIXIXIXIXIXIXIXIXIXIXIXIXIXIXIXIXIXIXIXIXIXIXIXIXIXIXIXIXIXIXIXIXIXIXIXIXIXIXIX3 5 8 8 4 w X g s.`.%X%X_.a.< X o 3 3 w X < a.!.e.0.IXIXIXIXIXIXIXIXIXIXIXIXIXIXk l z 0.w.r.!.).oX[.R : o 5 8 ) | {.iXpXgXgXgXsXuX+.| ] ( IXIXIXIXIXIXIXIXIXIXIXIXIXIX",
"IXIXIXIXIXIXIXIXIXIXIXIXIXIXIXIXIXIXIXIXIXIXIXIXIXIXIXIXIXIXIXIXIXIXIXIXIXIXIXIXIXIXIXIXIX3 3 3 3 o X X , w.!.).).y.w.j # O O o o X > w.r.0.z IXIXIXIXIXIXIXIXIXIXIXIXIXIXIXl l z :.0.r.!.`._.R 3 3 0 ) ' O.aXkXBXSXAXSXBXhXtXwX+. .IXIXIXIXIXIXIXIXIXIXIXIXIXIX",
"IXIXIXIXIXIXIXIXIXIXIXIXIXIXIXIXIXIXIXIXIXIXIXIXIXIXIXIXIXIXIXIXIXIXIXIXIXIXIXIXIXIXIXIXIX3 3 o O X X X f w.s.!.s.q.0.z j ; o o O X $ x 0.z l IXIXIXIXIXIXIXIXIXIXIXIXIXIXIXIXl l l l 0.q.t.s.P 6 8 ) | +.uXsXkXBXSXAXAXBXkXsXrXwXO.o. .IXIXIXIXIXIXIXIXIXIXIXIX",
"IXIXIXIXIXIXIXIXIXIXIXIXIXIXIXIXIXIXIXIXIXIXIXIXIXIXIXIXIXIXIXIXIXIXIXIXIXIXIXIXIXIXIXIXIXIXO X X X 3 / } }.vXvXvXpX}.b.{ b 3 O X X # j l l IXIXIXIXIXIXIXIXIXIXIXIXIXIXIXIXIXIXIXk k z :.G P J / ` ..+.O.0XwXrXtXfXhXdXsXrX9X+.O.+.+.+.IXIXIXIXIXIXIXIXIXIXIXIX",
"IXIXIXIXIXIXIXIXIXIXIXIXIXIXIXIXIXIXIXIXIXIXIXIXIXIXIXIXIXIXIXIXIXIXIXIXIXIXIXIXIXIXIXIXIXIXIXX X 3 J  .tXNXZXAXFXSXBXdXwX| 9 3 X X $ j l IXIXIXIXIXIXIXIXIXIXIXIXIXIXIXIXIXIXIXIXIXk k x f 4 ^ ] ..+.+.o. . .+.O.wXrXrXwX+.| ' | .. . .IXIXIXIXIXIXIXIXIXIXIXIX",
"IXIXIXIXIXIXIXIXIXIXIXIXIXIXIXIXIXIXIXIXIXIXIXIXIXIXIXIXIXIXIXIXIXIXIXIXIXIXIXIXIXIXIXIXIXIXIXo 5 / | wXsXkXVXBXBXNXjXlXtXwX..) 4 3 $ IXIXIXIXIXIXIXIXIXIXIXIXIXIXIXIXIXIXIXIXIXIXIXIXg f 7 0 ) ] ] ] ] ] |  .wXtXdXhXhXsXwX| ` ) ) ( ` ` IXIXIXIXIXIXIXIXIXIXIX",
"IXIXIXIXIXIXIXIXIXIXIXIXIXIXIXIXIXIXIXIXIXIXIXIXIXIXIXIXIXIXIXIXIXIXIXIXIXIXIXIXIXIXIXIXIXIXIX4 9 ` ..0XrXtXtXtXtXrXqXqXrXrX0X| ) 8 5 IXIXIXIXIXIXIXIXIXIXIXIXIXIXIXIXIXIXIXIXIXIXIXIX4 4 q 0 J ) ) / ) ]  .wXsXMXBXZXZXNXsX+.] 0 4 8 0 / ) IXIXIXIXIXIXIXIXIXIX",
"IXIXIXIXIXIXIXIXIXIXIXIXIXIXIXIXIXIXIXIXIXIXIXIXIXIXIXIXIXIXIXIXIXIXIXIXIXIXIXIXIXIXIXIXIXIXIX/ ) ( ] | | ....| | ] ] ] | +.+.+.| ) 0 IXIXIXIXIXIXIXIXIXIXIXIXIXIXIXIXIXIXIXIXIXIXIXIX3 3 3 3 5 4 8 9 `  .qXdXBXAXGXHXGXSXjXyX ./ 4 3 3 5 5 IXIXIXIXIXIXIXIXIXIX",
"IXIXIXIXIXIXIXIXIXIXIXIXIXIXIXIXIXIXIXIXIXIXIXIXIXIXIXIXIXIXIXIXIXIXIXIXIXIXIXIXIXIXIXIXIXIX8 0 9 9 / ) ` ] ' ' ' ` ( ) ( ] ' | ] ) 0 4 IXIXIXIXIXIXIXIXIXIXIXIXIXIXIXIXIXIXIXIXIXIXIXo o o 3 3 5 0 ( | O.tXhXBXAXHXHXHXAXNXtX+.) 8 3 o o o IXIXIXIXIXIXIXIXIXIX",
"IXIXIXIXIXIXIXIXIXIXIXIXIXIXIXIXIXIXIXIXIXIXIXIXIXIXIXIXIXIXIXIXIXIXIXIXIXIXIXIXIXIXIXIXIX3 3 3 3 5 8 / ` |  .+.O.+. .] ( ) / 9 9 0 8 5 3 IXIXIXIXIXIXIXIXIXIXIXIXIXIXIXIXIXIXIXIXIXIXX X o 3 4 0 ( | +.0XqXtXhXBXAXGXGXZXkXrXo.( 0 4 3 o O IXIXIXIXIXIXIXIXIXIX",
"IXIXIXIXIXIXIXIXIXIXIXIXIXIXIXIXIXIXIXIXIXIXIXIXIXIXIXIXIXIXIXIXIXIXIXIXIXIXIXIXIXIXIXIXIXO O O o 3 0 ]  .wXtXdXhXdXtXwXo.] / 8 5 5 3 o O IXIXIXIXIXIXIXIXIXIXIXIXIXIXIXIXIXIXIXIXIXO O o 3 3 8 / ] ..o.+.0XqXsXkXNXBXNXkXsX0X..` / 0 4 3 3 IXIXIXIXIXIXIXIXIXIX",
"IXIXIXIXIXIXIXIXIXIXIXIXIXIXIXIXIXIXIXIXIXIXIXIXIXIXIXIXIXIXIXIXIXIXIXIXIXIXIXIXIXIXIXIXIXX X X w 8 ( o.rXhXNXZXAXSXBXkXtX+.` 0 3 3 o X X IXIXIXIXIXIXIXIXIXIXIXIXIXIXIXIXIXIXIXIXO o o 3 3 3 8 9 ( ' |  .o.O.qXaXdXdXsXtXwXo.' ( / 9 8 5 3 IXIXIXIXIXIXIXIXIXIX",
"IXIXIXIXIXIXIXIXIXIXIXIXIXIXIXIXIXIXIXIXIXIXIXIXIXIXIXIXIXIXIXIXIXIXIXIXIXIXIXIXIXIXIXIXIXX O 3 8 ) | wXsXNXSXJXHXGXAXZXkXyX+.] ~ 8 5 3 o IXIXIXIXIXIXIXIXIXIXIXIXIXIXIXIXIXIXIXIXO O o o o o 3 5 0 ) ` ' ..o.O.wXqXqXwXO.o.| ` / 0 0 4 3 3 IXIXIXIXIXIXIXIXIXIX",
"IXIXIXIXIXIXIXIXIXIXIXIXIXIXIXIXIXIXIXIXIXIXIXIXIXIXIXIXIXIXIXIXIXIXIXIXIXIXIXIXIXIXIXIXIXX o 5 0 ( ..wXsXjXZXAXGXAXZXBXhXtX0X| ` / 0 5 3 IXIXIXIXIXIXIXIXIXIXIXIXIXIXIXIXIXIXIXIXo o 3 3 3 3 o o 5 0 / ( ] |  .+.+.+. .| ] ( / 0 4 5 3 3 3 IXIXIXIXIXIXIXIXIXIX",
"IXIXIXIXIXIXIXIXIXIXIXIXIXIXIXIXIXIXIXIXIXIXIXIXIXIXIXIXIXIXIXIXIXIXIXIXIXIXIXIXIXIXIXIXIXO o 3 0 ) ]  .wXtXdXjXNXjXhXsXuXO. .' ` / 0 8 4 IXIXIXIXIXIXIXIXIXIXIXIXIXIXIXIXIXIXIXIX3 3 8 9 0 8 5 3 5 8 0 9 ) ` ] ' ' ' ] ( / 0 8 5 3 3 o o o IXIXIXIXIXIXIXIXIXIX",
"IXIXIXIXIXIXIXIXIXIXIXIXIXIXIXIXIXIXIXIXIXIXIXIXIXIXIXIXIXIXIXIXIXIXIXIXIXIXIXIXIXIXIXIXIXo o 3 4 0 / ( '  .O.wXqXwX0Xo.| ] ` ) 9 0 4 4 4 IXIXIXIXIXIXIXIXIXIXIXIXIXIXIXIXIXIXIXIX3 3 0 ) ) ) / 0 4 5 5 5 4 0 9 / ) / 9 0 8 4 3 3 3 o o o o IXIXIXIXIXIXIXIXIXIX",
"IXIXIXIXIXIXIXIXIXIXIXIXIXIXIXIXIXIXIXIXIXIXIXIXIXIXIXIXIXIXIXIXIXIXIXIXIXIXIXIXIXIXIXIXIXo o 3 3 3 5 8 0 ) ( ` ] ` ( ) 9 0 8 4 5 5 3 5 5 IXIXIXIXIXIXIXIXIXIXIXIXIXIXIXIXIXIXIXIXO o 5 9 ( ' ' ] / 4 3 3 o 3 3 5 5 5 5 5 5 5 3 3 3 3 3 3 3 IXIXIXIXIXIXIXIXIXIX",
"IXIXIXIXIXIXIXIXIXIXIXIXIXIXIXIXIXIXIXIXIXIXIXIXIXIXIXIXIXIXIXIXIXIXIXIXIXIXIXIXIXIXIXIXIX3 3 4 8 8 8 8 0 9 / / / 9 0 4 3 3 5 8 0 0 0 8 8 IXIXIXIXIXIXIXIXIXIXIXIXIXIXIXIXIXIXIXIXO o 3 4 ) ]  .+. .] ) 0 5 3 w 3 3 o o 3 3 5 4 8 8 5 3 3 IXIXIXIXIXIXIXIXIXIXIX",
"IXIXIXIXIXIXIXIXIXIXIXIXIXIXIXIXIXIXIXIXIXIXIXIXIXIXIXIXIXIXIXIXIXIXIXIXIXIXIXIXIXIXIXIXIX3 4 0 9 ) ) ) ( ] ] ] ] ] ( 9 0 0 0 / ) ) ) 0 0 IXIXIXIXIXIXIXIXIXIXIXIXIXIXIXIXIXIXIXIXO o 3 5 0 (  .wXqXwX+.' ( / 9 0 0 8 4 4 8 0 0 / 0 3 3 IXIXIXIXIXIXIXIXIXIXIXIX",
"IXIXIXIXIXIXIXIXIXIXIXIXIXIXIXIXIXIXIXIXIXIXIXIXIXIXIXIXIXIXIXIXIXIXIXIXIXIXIXIXIXIXIXIXIXIX4 0 9 ` | +.qXyXsXdXhXhXsXrX0X+. .| ' ` / 8 4 IXIXIXIXIXIXIXIXIXIXIXIXIXIXIXIXIXIXIXIXo 3 4 0 0 9 ]  .wXaXsXtXyXqXqXqXwX+. .| ] ` ) 9 8 3 o IXIXIXIXIXIXIXIXIXIXIXIX",
"IXIXIXIXIXIXIXIXIXIXIXIXIXIXIXIXIXIXIXIXIXIXIXIXIXIXIXIXIXIXIXIXIXIXIXIXIXIXIXIXIXIXIXIXIXIXIX5 0 ) | wXtXhXNXZXAXAXZXjXdXyX0X..] ) 0 5 3 IXIXIXIXIXIXIXIXIXIXIXIXIXIXIXIXIXIXIXIX3 3 0 ) ) ) ) ] +.tXdXkXjXNXNXBXNXhXtX0X .] ) 0 5 o O IXIXIXIXIXIXIXIXIXIXIXIX",
"IXIXIXIXIXIXIXIXIXIXIXIXIXIXIXIXIXIXIXIXIXIXIXIXIXIXIXIXIXIXIXIXIXIXIXIXIXIXIXIXIXIXIXIXIXIXIXo 3 4 / ' +.yXdXNXBXBXjXdXtXO.| ( 9 8 5 3 o IXIXIXIXIXIXIXIXIXIXIXIXIXIXIXIXIXIXIXIX3 3 9 ` ' ' ] ` ' +.qXsXkXVXZXGXAXBXdXO.] 9 4 3 o IXIXIXIXIXIXIXIXIXIXIXIXIXIX",
"IXIXIXIXIXIXIXIXIXIXIXIXIXIXIXIXIXIXIXIXIXIXIXIXIXIXIXIXIXIXIXIXIXIXIXIXIXIXIXIXIXIXIXIXIXIXIXO 3 5 8 ~ ]  .0XyXsXsXtXwX+.' ) 0 q 5 3 w IXIXIXIXIXIXIXIXIXIXIXIXIXIXIXIXIXIXIXIXIXo 3 0 ( | o. .| ' ] | +.qXsXhXjXkXdXwX' 9 5 o O IXIXIXIXIXIXIXIXIXIXIXIXIXIXIX",
"IXIXIXIXIXIXIXIXIXIXIXIXIXIXIXIXIXIXIXIXIXIXIXIXIXIXIXIXIXIXIXIXIXIXIXIXIXIXIXIXIXIXIXIXIXIXIXIXIX0 0 0 0 ) ] |  .o. .| ] ) 0 0 8 4 4 IXIXIXIXIXIXIXIXIXIXIXIXIXIXIXIXIXIXIXIXIXIXO o 5 / ' +.wXwX .( / ) ] | +.+.+. .] 0 3 O X IXIXIXIXIXIXIXIXIXIXIXIXIXIXIXIX",
"IXIXIXIXIXIXIXIXIXIXIXIXIXIXIXIXIXIXIXIXIXIXIXIXIXIXIXIXIXIXIXIXIXIXIXIXIXIXIXIXIXIXIXIXIXIXIXIXIX0 ^ ( ` ( ) ) / ) ) ) ` ] | ' ` 0 4 IXIXIXIXIXIXIXIXIXIXIXIXIXIXIXIXIXIXIXIXIXIXIXIX3 0 ` o.yXdXyX+.] / 0 0 / ) ( ( 9 4 3 X IXIXIXIXIXIXIXIXIXIXIXIXIXIXIXIXIX",
"IXIXIXIXIXIXIXIXIXIXIXIXIXIXIXIXIXIXIXIXIXIXIXIXIXIXIXIXIXIXIXIXIXIXIXIXIXIXIXIXIXIXIXIXIXIXIXIXIX0 ) |  . .' / 8 5 8 ) | 0XqXwX../ 5 IXIXIXIXIXIXIXIXIXIXIXIXIXIXIXIXIXIXIXIXIXIXIXIX3 5 / | qXhXhXsX4X` 0 3 3 8 / ) 9 4 3 IXIXIXIXIXIXIXIXIXIXIXIXIXIXIXIXIXIX",
"IXIXIXIXIXIXIXIXIXIXIXIXIXIXIXIXIXIXIXIXIXIXIXIXIXIXIXIXIXIXIXIXIXIXIXIXIXIXIXIXIXIXIXIXIXIXIXIXIXIX( ' o.wXwX .` 0 9 ' 0XsXsXwX| 0 3 IXIXIXIXIXIXIXIXIXIXIXIXIXIXIXIXIXIXIXIXIXIXIXIX3 5 8 ) o.tXhXhXtX+.( 4 8 ) ' ..] 0 5 IXIXIXIXIXIXIXIXIXIXIXIXIXIXIXIXIXIX",
"IXIXIXIXIXIXIXIXIXIXIXIXIXIXIXIXIXIXIXIXIXIXIXIXIXIXIXIXIXIXIXIXIXIXIXIXIXIXIXIXIXIXIXIXIXIXIXIXIXIXIX) | rXtXqXo.( ` +.tXhXsX+.( 8 3 IXIXIXIXIXIXIXIXIXIXIXIXIXIXIXIXIXIXIXIXIXIXIXIX8 5 5 0 ] +.yXdXsXwX' 0 / ]  .+.| 0 IXIXIXIXIXIXIXIXIXIXIXIXIXIXIXIXIXIXIX",
"IXIXIXIXIXIXIXIXIXIXIXIXIXIXIXIXIXIXIXIXIXIXIXIXIXIXIXIXIXIXIXIXIXIXIXIXIXIXIXIXIXIXIXIXIXIXIXIXIXIXIX4 ) +.yXtX0X' | wXaXsXwX] 8 3 3 IXIXIXIXIXIXIXIXIXIXIXIXIXIXIXIXIXIXIXIXIXIXIX' 9 3 5 8 9 ) ..0X0Xo.` 0 ) | ..| ' IXIXIXIXIXIXIXIXIXIXIXIXIXIXIXIXIXIXIXIX",
"IXIXIXIXIXIXIXIXIXIXIXIXIXIXIXIXIXIXIXIXIXIXIXIXIXIXIXIXIXIXIXIXIXIXIXIXIXIXIXIXIXIXIXIXIXIXIXIXIXIXIX3 0 ' O.qX0X' | 0XqX0X| 0 3 3 3 IXIXIXIXIXIXIXIXIXIXIXIXIXIXIXIXIXIXIXIXIXIXO.' 9 3 3 5 4 8 ) ' | ' ) 8 9 ] ` ) / IXIXIXIXIXIXIXIXIXIXIXIXIXIXIXIXIXIXIXIX",
"IXIXIXIXIXIXIXIXIXIXIXIXIXIXIXIXIXIXIXIXIXIXIXIXIXIXIXIXIXIXIXIXIXIXIXIXIXIXIXIXIXIXIXIXIXIXIXIXIXIXIX3 4 / ] o...` ` ....] 9 3 o 3 3 IXIXIXIXIXIXIXIXIXIXIXIXIXIXIXIXIXIXIXIXBXjXrX| 0 3 o 3 3 5 0 ) ) ) 0 3 4 0 8 3 o IXIXIXIXIXIXIXIXIXIXIXIXIXIXIXIXIXIXIXIX",
"IXIXIXIXIXIXIXIXIXIXIXIXIXIXIXIXIXIXIXIXIXIXIXIXIXIXIXIXIXIXIXIXIXIXIXIXIXIXIXIXIXIXIXIXIXIXIXIXIXIXIXIX3 4 ~ ] ` 9 9 ) ) 0 5 O X O IXIXIXIXIXIXIXIXIXIXIXIXIXIXIXIXIXIXIXIXIXkXdXwX| / 3 3 3 3 3 5 4 8 8 5 3 3 3 3 O o 4 IXIXIXIXIXIXIXIXIXIXIXIXIXIXIXIXIXIXIX",
"IXIXIXIXIXIXIXIXIXIXIXIXIXIXIXIXIXIXIXIXIXIXIXIXIXIXIXIXIXIXIXIXIXIXIXIXIXIXIXIXIXIXIXIXIXIXIXIXIXIXIXIXIX4 8 9 0 4 5 8 8 5 o O O IXIXIXIXIXIXIXIXIXIXIXIXIXIXIXIXIXIXIXIXIXIXeXqX+.' ) 8 4 5 5 4 5 5 5 3 3 o O o o 3 4 9 ) IXIXIXIXIXIXIXIXIXIXIXIXIXIXIXIXIXIX",
"IXIXIXIXIXIXIXIXIXIXIXIXIXIXIXIXIXIXIXIXIXIXIXIXIXIXIXIXIXIXIXIXIXIXIXIXIXIXIXIXIXIXIXIXIXIXIXIXIXIXIXqX..) 0 0 8 5 3 5 5 3 3 3 5 ) IXIXIXIXIXIXIXIXIXIXIXIXIXIXIXIXIXIXIXIXOX'. .] ) 9 9 ) ` ] ] ) 9 8 3 o O O o 3 0 ( ..wXdXtXO.IXIXIXIXIXIXIXIXIXIXIXIXIXIXIX",
"IXIXIXIXIXIXIXIXIXIXIXIXIXIXIXIXIXIXIXIXIXIXIXIXIXIXIXIXIXIXIXIXIXIXIXIXIXIXIXIXIXIXIXIXIXIXIXIXIXIXIXyX0X..] ) / 0 8 4 4 8 0 / ` ..+.IXIXIXIXIXIXIXIXIXIXIXIXIXIXIXIXIXIX_.).l.( 9 0 0 ) '  .+.+. .] / 5 3 o 3 5 0 `  .qXfXhXfXwX+.IXIXIXIXIXIXIXIXIXIXIXIXIXIX",
"IXIXIXIXIXIXIXIXIXIXIXIXIXIXIXIXIXIXIXIXIXIXIXIXIXIXIXIXIXIXIXIXIXIXIXIXIXIXIXIXIXIXIXIXIXIXIXtXsXhXhXdXtXyXwX+.| ] ) / ) ` | O.rXsXdXtXyXtXtXIXIXIXIXIXIXIXIXIXIXIXIXIXIX(.!.Y 8 4 4 0 ) | +.0XwX0X+.] 0 5 3 4 9 ` o.wXsXhXNXkXsX0X` 9 IXIXIXIXIXIXIXIXIXIXIXIX",
"IXIXIXIXIXIXIXIXIXIXIXIXIXIXIXIXIXIXIXIXIXIXIXIXIXIXIXIXIXIXIXIXIXIXIXIXIXIXIXIXIXIXIXIXIXIXsXdXhXkXlXtXrXqXwXwX+.| ( / ) ] +.tXdXhXhXdXdXhXjXVXIXIXIXIXIXIXIXIXIXIXIXIXIXr.e.G 5 3 4 9 ] o.wXrXrXwXo.` 0 5 4 0 ) ' +.rXsXdXdXsXrX+.' | IXIXIXIXIXIXIXIXIXIXIXIX",
"IXIXIXIXIXIXIXIXIXIXIXIXIXIXIXIXIXIXIXIXIXIXIXIXIXIXIXIXIXIXIXIXIXIXIXIXIXIXIXIXIXIXIXIXIXyXsXkXnXjXsX0X .|  .0X+.] / 0 0 (  .yXfXsXsXhXNXZXAXSXDXIXIXIXIXIXIXIXIXIXIXIXIX0.0.IXIX4 0 (  .wXsXsXtX0X| / 5 3 4 0 ) ' o.wXrXqXwX+.| | +.wXtXtXIXIXIXIXIXIXIXIXIXIX",
"IXIXIXIXIXIXIXIXIXIXIXIXIXIXIXIXIXIXIXIXIXIXIXIXIXIXIXIXIXIXIXIXIXIXIXIXIXIXIXIXIXIXIXIXIXqXpXbXbX+X}.{. .] ] | ' ) 8 5 5 9 ] +.qXqXaXjXCXbXbXbXbXIXIXIXIXIXIXIXIXIXIXIXIXIXIXIXIX) ` o.yXhXNXNXkXtX+.( 5 3 3 4 0 ) ] |  ...] ] | O.tXsXyX0X` IXIXIXIXIXIXIXIXIX",
"IXIXIXIXIXIXIXIXIXIXIXIXIXIXIXIXIXIXIXIXIXIXIXIXIXIXIXIXIXIXIXIXIXIXIXIXIXIXIXIXIXIXIXIXIX+.}.:X&X).].{. .( / ) 9 4 3 o o 5 0 ` | o.rXkXnX+X).&X%XIXIXIXIXIXIXIXIXIXIXIXIXIXIXIXIX..+.yXcXCXDXCXnXlXuX' 4 o o o 3 8 9 ) ) / 9 ( o.yXhXhXeX+.] _ IXIXIXIXIXIXIXIX",
"IXIXIXIXIXIXIXIXIXIXIXIXIXIXIXIXIXIXIXIXIXIXIXIXIXIXIXIXIXIXIXIXIXIXIXIXIXIXIXIXIXIXIXIXIX] '.:X*XoX].@.' 9 8 q 5 o X X O o 3 8 9 (  .rXpX[.`.%X-XIXIXIXIXIXIXIXIXIXIXIXIXIXIXIXIXqXeXpX=X=X=X+X].}.qX| 4 o o O o 3 5 4 8 8 0 ] wXaXsXpX|.[.[.[.IXIXIXIXIXIXIXIX",
"IXIXIXIXIXIXIXIXIXIXIXIXIXIXIXIXIXIXIXIXIXIXIXIXIXIXIXIXIXIXIXIXIXIXIXIXIXIXIXIXIXIXIXIXIX9 '.:X*XoXQ.[ ^ 0 5 3 o X X X X O o o 5 0 `  .b.d./.%X-XIXIXIXIXIXIXIXIXIXIXIXIXIXIXIXIXrXyX=X%X%X$X(.s.l.+.` 4 o o O O o 3 3 3 3 0 ] wXqX0X{.OX&X%X*XIXIXIXIXIXIXIXIX",
"IXIXIXIXIXIXIXIXIXIXIXIXIXIXIXIXIXIXIXIXIXIXIXIXIXIXIXIXIXIXIXIXIXIXIXIXIXIXIXIXIXIXIXIXIX3 R $X$X!.G 7 3 IXIXIXIXIXIXIXIXIXIXIXIXIXIX9 b G r.).&XIXIXIXIXIXIXIXIXIXIXIXIXIXIXIXIXo.{.|.-X;X&X).s.p.' ^ 5 o IXIXIXIXIXo o 3 4 ) | ' ( } ~.$X*X-X*X%XIXIXIXIXIXIX",
"IXIXIXIXIXIXIXIXIXIXIXIXIXIXIXIXIXIXIXIXIXIXIXIXIXIXIXIXIXIXIXIXIXIXIXIXIXIXIXIXIXIXIXIXIXo R ~./.r.x ; IXIXIXIXIXIXIXIXIXIXIXIXIXIXIXIX, x q.!.(.IXIXIXIXIXIXIXIXIXIXIXIXIXIXIXIX` } |.;X*X$X(.r.Y J 8 3 IXIXIXIXIXIXIXO 3 4 0 9 8 5 H a.).*X-X;X;XIXIXIXIXIXIX",
"IXIXIXIXIXIXIXIXIXIXIXIXIXIXIXIXIXIXIXIXIXIXIXIXIXIXIXIXIXIXIXIXIXIXIXIXIXIXIXIXIXIXIXIXIXIXIXr.r.IXIXIXIXIXIXIXIXIXIXIXIXIXIXIXIXIXIXIXIXIXIXr.r.IXIXIXIXIXIXIXIXIXIXIXIXIXIXIXIX8 J '.%X&X/.t.w.h 4 4 IXIXIXIXIXIXIXIXIXIXIXIX3 o O f w.!.$X;X-X-XIXIXIXIXIXIX",
"IXIXIXIXIXIXIXIXIXIXIXIXIXIXIXIXIXIXIXIXIXIXIXIXIXIXIXIXIXIXIXIXIXIXIXIXIXIXIXIXIXIXIXIXIXIXIXIXIXIXIXIXIXIXIXIXIXIXIXIXIXIXIXIXIXIXIXIXIXIXIXIXIXIXIXIXIXIXIXIXIXIXIXIXIXIXIXIXIXIXJ ].oX~.r.q.0.IXIXIXIXIXIXIXIXIXIXIXIXIXIXIXIXIXIXIXIXy.).$X*X-XIXIXIXIXIXIX",
"IXIXIXIXIXIXIXIXIXIXIXIXIXIXIXIXIXIXIXIXIXIXIXIXIXIXIXIXIXIXIXIXIXIXIXIXIXIXIXIXIXIXIXIXIXIXIXIXIXIXIXIXIXIXIXIXIXIXIXIXIXIXIXIXIXIXIXIXIXIXIXIXIXIXIXIXIXIXIXIXIXIXIXIXIXIXIXIXIXIXIX(.~.r.0.IXIXIXIXIXIXIXIXIXIXIXIXIXIXIXIXIXIXIXIXIXIXIXy.(.$X%XIXIXIXIXIXIX",
"IXIXIXIXIXIXIXIXIXIXIXIXIXIXIXIXIXIXIXIXIXIXIXIXIXIXIXIXIXIXIXIXIXIXIXIXIXIXIXIXIXIXIXIXIXIXIXIXIXIXIXIXIXIXIXIXIXIXIXIXIXIXIXIXIXIXIXIXIXIXIXIXIXIXIXIXIXIXIXIXIXIXIXIXIXIXIXIXIXIXIXt.r.e.IXIXIXIXIXIXIXIXIXIXIXIXIXIXIXIXIXIXIXIXIXIXIXIXIXy.!.!.IXIXIXIXIXIX",
"IXIXIXIXIXIXIXIXIXIXIXIXIXIXIXIXIXIXIXIXIXIXIXIXIXIXIXIXIXIXIXIXIXIXIXIXIXIXIXIXIXIXIXIXIXIXIXIXIXIXIXIXIXIXIXIXIXIXIXIXIXIXIXIXIXIXIXIXIXIXIXIXIXIXIXIXIXIXIXIXIXIXIXIXIXIXIXIXIXIXIXq.q.q.IXIXIXIXIXIXIXIXIXIXIXIXIXIXIXIXIXIXIXIXIXIXIXIXIXIXq.q.IXIXIXIXIXIX"
};
