/* XPM */
static const char *arock5[] = {
/* columns rows colors chars-per-pixel */
"128 128 58 1 ",
"  c #0B1707",
". c #171F07",
"X c #1B1B1B",
"o c #2F371F",
"O c #232323",
"+ c #272727",
"@ c #2F2F2F",
"# c #373F27",
"$ c #373737",
"% c gray23",
"& c #1F4317",
"* c #27531B",
"= c #3F472B",
"- c #2F6323",
"; c #37732B",
": c #474F33",
"> c #53573B",
", c #434343",
"< c gray28",
"1 c #4B4B4B",
"2 c gray31",
"3 c gray34",
"4 c #5B5B5B",
"5 c #5B6347",
"6 c #676B4F",
"7 c #6F7357",
"8 c gray39",
"9 c gray42",
"0 c #6F6F6F",
"q c #7B7F63",
"w c #777777",
"e c gray50",
"r c #3F832F",
"t c #439337",
"y c #4B9F3F",
"u c #53AF47",
"i c #5BBF4F",
"p c #5FCF57",
"a c #67DF5F",
"s c #6FEF67",
"d c #838383",
"f c #8B8B8B",
"g c #939393",
"h c #979797",
"j c #9F9F9F",
"k c #A7A7A7",
"l c gray67",
"z c gray70",
"x c #B7B7B7",
"c c gray75",
"v c gray78",
"b c #CBCBCB",
"n c LightGray",
"m c gray86",
"M c #DFDFDF",
"N c #FFFFD7",
"B c #E7E7E7",
"V c #EFEFEF",
/* pixels */
"jjlxbxvcchggfdjjdkzwjk896655588$$$#:567555weww90w0e90g0ge3%%,<1<::t5wdw31<,#-;r-55::55::77565qq235>:5555qgzfkdw034w7:#:5qjkjklcx",
"cbdxxcnnvghdekllzlf0fl0w8qq756:555:5wdd>5>0890984480we4842%1233::::550w921,#-;r;5:23>567efwe0gfd99987::57hhged943486>::5qhddfjlh",
"zxlcjkcVVbkjgzlkxbdcxfw98fjq7;=#=:qxklgw555q7qq0948949832<%,1431:#:57dw026#:5q55588weew0djgxffgdeeeww55:5edhww94433855555qgfgfkz",
"lcnvvjxzkjkxcccxbzzle984w9qqt-5::7jccjf06:5:77qqe08494311%%<4w12##:;5:555#:5qqqq74<8we9wddglxcljfwehge>5:7fdd0w94498::555fglzlkd",
"cmmvczxvdgfzbmxBcjzhgdhdjxed7:=:5fhvchd43:-:5::55808982,3,23897:2#:;;5:5:::8qdjffggjggjjgdefdlcdefwfhf7=:>qqedfw838,o::5qkzcckw4",
"lcnMcgjgehjkzvvc0xcchkfxkfdgh7=55dvcvg932=::5-5:##2848889332825>4#5tuiyr557hjhgggxjgjkkkhkkjjjxxjhfhg85>5::57qq78>##::5rq0ffjggw",
"xvllxdjgkgfwefkgkkfzlkjzgffhfd5qlxjhef3,,#:*::5:#:##2380314e9661#=:rt;tqqqgxxgfjjxnccxhjllcf0fdgcffgfe04::::5q75>:#:555r77ffkdjk",
"jlbvzjcfhgwew0dhzbbbzcxjefhdgqqqqlkjd821,#*r-7qq5:#o#:48w3096q24:-;57qqghfjzjljgkvMzMMzbkfkhzgxjjfedwe8075::5::>:=##=::555qffweg",
"dgzcjjhhgddfgghjMvMkkvgzfghgjqq7qhhew4,%o=:tt7qqq:==###>28975:##5r>5gqjgkjjhhhhhvjglMBBjlkkhfjew8w0www00w5:5555::##3>555777qwweg",
"0fegfd9dfkkbckjjbMbkjgfgefdeeww55>4w94<###-tupppu5:rr:##>446:7:::>eddjzgdgjhkjkzckcxMBnbfewelzle0894388867555q5>5e99889:52>:8wdf",
"ehjjjdffkvbbcnxvczxkzjfffw0dggf6:::235>##;;qkcpiiqy-:5:###5=-r:560djdzzkjxvbxmmkkllkMcnldw00fedd9249890065555556e099wed841<#>qfe",
"hwgxe00whkhnmxjckgjkljjfwedgfgqq55::555#:57jkzlzuyqyt55-=#=;-5qfqfkjjlzxzcvmMBvlbzkfjvvdww88w8e893889077755567eeeee00we98<%,55qq",
"fwjzwj0wdfkkzhzkkfhkkfe0dfffhffw05;tt5::#3egdhllqquqq5:::=:55qgghkkbxvvcvccxbckczgfef8990w14823332800075555>0eedfffe0ff84843#:qq",
"qhgjjzgjhkcxggfdgwfjh9efehdhg9e065;r;=8dljfcclkfeqqkq7:t;5;5delckxxmxMcczvczfhzd0809988w33822%114433494::5:wfdfgeffffw4w0908<#:6",
"5fggezjkkfdghhgwdwedghdwfdfggfww05;r5ehhjjbbxkdww0fqqq7>5555fhjfhgcvvBbkzkklfhd3848384401883338824w0894::8jhhffdwhfggwegd8e02##:",
":548ejfjggfeegdwweddded08wdw28edw6t5qffhzbckfeeww0wfhh65556qfgdjhgzcznkzzgkee9433311348w2382334w909983%:4fehljdefMvjgjjgedd08,#:",
":#00hde980dwdwhjhgd90fd9efd3%e0eq57qfhkjxxjjddfdw0wfg77yyt>qfdzgjjjjhefhjfw9932<<49813e990,9433487w0821>8deffhxbnBjljjhw88ww88#:",
"##%4w09weffhee0weeddw94w09388w007756hkkkzjhffdeew843465yq>5qfffjfldw9ghf9499424244208324832313wq77q75::qgdgjllzxBhdhkkk883348834",
",###80we0dff990wgggdfew83310efw3<:58glcbznxfdwww98444#55=:75d09fhddedegd9008349888489w3492,123267qqtr55fdgeggfhkfeefhge492123348",
"2#:#440988909wgljff99899d98wew882+:3wdzccjgfeww88334:#=5r5:5:34w0ew0ede94e0w8909983888883342::>7qquyt7fdeffjbfedwdhjk093,1222289",
"8:=::24ww9890whfwww009ee828099d98$$19fgjk0feew421124:=o#=#=5:#2209899909weef88d80w42888q7725::#:qqqrtqe9gfkjzw88wjlzkw82,2248909",
"05:75%182498ewdefg8990ww88009q0885:>7ed049w0041<<143<=-y5555-:#$1388w8w9edf94ewww89489>7543#==:::*ryujggeew09148ehznch8,%,,<89q9",
"99=55>>#37qw0weew08889090de07q9qq:5560889w9821%,2203::;r5563=:=#12480ww8ee3898887590866>55::::-;;t;7qljw9w3289989xcf998<$@$,4988",
"67:=:=:::>5545099832248w056,3886555557eedd04,,%,1<<::5;59dd94:::::>80943hfew444832>#::555=#::5555ttryqqw889weeegffw984<%@++<2496",
"qq:::5::::55:#5>,:5542><#55##%>>5555577ed0842%,,1,::::7qheg0842#::509997g7fe2881,>o#>5;7::##575q7qq;tqq9928fw9000l042,%@+@,28wqg",
"q55-::=:555=:::5::::#=##=:555555555-55wgw04421<21#::63qzggwed94::5;::5qqqqqe488:5::5q56663997wgzqlqt777qqwdg098wd8831@@@@+$18wfq",
"75;;::::5-::5:*;5;;55;;;;;5r5;5--;;;55880w892,<%##:63wjjghffew8%#:*=7jjjlhq776:::55qq4wwqffehffhh65q;t677qgd0w44400932,%3,28ww06",
"76;5:::7q::65:577756:5777q7:75:-r;;r;5#,<<328%<::586dfjkjhhfw981#=-5qqqqqqq55:22770gfef8hgj0egghq27q7tr57qqq782224884313848wdfw8",
"qq;5:5555lq57557q67q596qqqqq5::;55rtrr5::#1%#:=5560fhgzlzgw0004,#5ttyyqqq>55=,23effcjckzfhkklkkkhgqqqyrr766667694433009438wgge95",
"q5-;7qkqq7ww00ddfqjq0eglzkhf08845775r5-::#:--5:559fffhljhw88083<#:;-usuq755:49q9dfjjjjllxjljcjgfdfhhqyyt55::::5::838we00weeewfw7",
"q5*;5qfjldwehhxhhhkkljhkzjghw89990755;;655tr-;5:5wdhffkfw809844::::ruuu5766>99fjlkjllkxkgxvvxx9weeqgkqytt;5-5555>#53800099wwfg6q",
"75t-5qglzxbzfkxxxkjkkzbbcjjdee0e84::;;555;;--;5#qwefjggdw088945##=-ipi555565qedgjjjlncmvmxvvzhffdw77qqqiy;;;5755>55##40wwww0q7qq",
">5r;:7zdkvnnnvczzzjhffzwgfw880w0221:::5q7;55-;;59ffhggfdew4w825#o*uipy7555670efjjznncvmnBmxlwedhjggjq6qq5;t;7q686>:###40ewqqqq70",
"5-trqqklzzlcxllhfdffefgfhfw8908333::656qqq55:;r:59edddwew0494555ruiit5755557wfhlnMmBBzbcljhe99whe0ghwq7qqry7klq8483#:::9wehjq7qq",
"6;trqqglxzjkljgfewe09egkgw938488215555wwd0885-;;55qfgdwww8235:-;;uyq56##5q5jfgjjxnBmmnmvvzjkjhgf0wedwwqqqqrqjfqdfw84##::7dgdqqqq",
":;ryq7fggdede0d848838000923380984>5qq6djxjf896:t5559edw8w81::-t57qjgq785555eflbcvmmBVVnzjkgjjjffhwdwww7qqrtqqghhw312$#5:5798qqqq",
"5;;;r56ffww90w8<,332488990808078%#:7qqflcblww4>5-;5898w434:5qtqqqkhfdgqq55>wghzxnMxMnchfgkjjkhggf0ew0w7quyyqehgg98231:#*:546qqqt",
":55;t;q54088w03<,13954800998982<o=556dlhcljww83#5;7:<809<,575qkgdjhflhqq7750fjlvvcxlzkfhhkxlhdfew09efqqquuqqcvdewdfd98::55777tr6",
"6q6:::5#>5q00844<,20qe888856783,o5rqfhkcvnxhde05::;5:64445qqdkkjhfgehfq05:5>dhhghdhkhfhhlxzzd008ehg0w0qquu56fgggkgw0w8>:-67qyt55",
"ew80q5#o::>54383<1126824585556>25rtqgkxbmMMljdw82#:;5555q7wewkcjjje8090975::ejedjnlww8ffjlje99440ghdwq777566hhjf00048845-;qyuyqq",
"gjfe97o#-76:5623##::5:##:==555>:-;77ggxmbMnzgww04::t;:567qkkcczegfwwfde75=-qqjgwdekf80fedfgw344840w886555:5:0dw0wdedd94:;;5tyqcx",
"dw00807:;;r765##:*-;;;r;;;rtr::=--5ddjcbnnzh04994>:5r579ffflxlhlckhddgq7::;tqjjhhhzdfjhee034008wdhdw0655::5>w0wzkdde0985;tt7qcvl",
"gxw8dhkj75:;;5;5rr;rrt;r;rrtr5:-tt5wwgxMvbcf43388>556qfdklkbczzgef940w0755t;70dxljfgkzhgjd800wdfw0wew447555#9dghhddew09>;t55jvbv",
"edhhj0wqq755rry;yyq555::5qt;r;;--:80fefvvcf8<$,<,#:;6weklxkcbjkfww990e9077:5qhkzkzkfhhdgf9w000088ew8443755##qggewdde004:5rtglcxe",
"ehfzvjweg7::-ryttqq7qq>5eq7q65**;:7ewwfzbbf8%$%235;7qkjjccjkkhjkd04988902#5;qqgjlclcded990423388800848875=#:7jf80ed08321#5qfjklx",
"lzlhehw00>:5tyuqqqqdqqffffq772=--=5hgkgjjzj8%@$<:5rqqghjkkgfjkjf92w90488:#5tq7hhjkff0weew481,%%1<48344855::5qzfwwwe8843556uxcbbv",
"chkgkfw88$#577qfe0dfkjhhkgww422#:=77ehc8f001++%::55qkhxkzzzjhzh08wew9825::5r679gefkjeew8<<3$@$$$<222:>>555555khjgw988343:7qxbbnv",
"ghjchxg83o:5qqkjgzjlzhdddggw842###$13hlee21%++%#5r77whjjzkjgkhe888w8345:##*5558dwhjgfd01%%+O+$,@,:##-;;;;::;qqkzkjd82<<1:5qzcczv",
"jkzhke992:57qjhfjhfgkggggehe0442=:#32fge8,$@+@%#;ujkzxcjkljddw4334111>:#:-*-:57j80dd8322<$+X.o:###:*5;r5555557lxgew82,%,#57gzcvz",
"jde0e2,2##=5gkjgxkhlglkzhde00883#::=39gdww<,$%o#5qqjlcvxljgdd92,<<89555#=:-*-=5>4lk0,242##=:=:555#:55q755>#5;5hdh008<,,,#:5gkjhf",
"wfew99<%o:::qeweegfdhhgfwhffee004=-;:7dde822<#o:56ggjxcchlfe832,<44855##=55;;*#o%38<355:::::55487,2>7qqw093:556w0w0922<%o=29dghk",
"hhgew4222:55hefjlbczfdwegjjggfqw9>:;rq700882,o=#56dfjkzlgjfw848443455###7q7qrr:::>34655:5550whdlj09hjfgffw9>:tq7ege843,oo##9ffgg",
"gded9993<577qxhhcbblffdhjkdghdeeq7:5r;580d932%=:56gwjkhggge8w9488841##:5qqqqq;75:5::576q8eewlhljledwjlkkhf0:557qg938885:#*:8wwhf",
"w0989082<567gxjfhzlfdjhkzjlhwhddd055ryuqqw993:-r7fhjghxfg0e080ew081,#:-;quuiuyy;5;55rqqdhewfzjzlggdwdeghdewq555:7779952#=::8dlgd",
"w9w9445>::7qhjgkhgfekjjxkkjlkljjfqq5;ytqdqw45*-;5jjcllede90wwedfq5:#:;rtuiyuaiuy;--5=:0lczvbblkkjfdd0djhfdw7::5:::557>:#:5:88w9e",
"0w9882:#-r7qdwewdfdfdhlhgfjklljgffq65rtqq758:-;:qgjkgeww4880ffdq755;;57uiqqquiupt5:%1wglxczkxxccj844wffdfew95=:#::55;:75555f0dde",
"9w0832#:rqqd0dfedwgzgdjgjxhggjhggffq6ttyq45:#::5dqdddd98434ed0ww755;-qqkllciuitr;534eewjxcxllvlxw0e00fefgfq95:*=t:5t;;t;55qgwwdw",
"838988#=;;qgkxgdhglkfkkjggffdfhhffdw6rtyy5::--557qffd84983wwwew09:55tqhlljkl7upr;7gwhjzzjjcccbcg9980w39edgf555-;7qq7=5:=:77j0egw",
"48866>::tqqffdgfggcgjgfdgfewweeeef0q5-ty;;5;;yr5q50wd0084wd99e082::5qfjjhxxqqqry;qqfgkzxgjhklhd0099090w80eqqq5ty7qjq76:=577q80qw",
"82445:o--5flzffdggvgedhzjhdfedddef7qq5rryytrttr75:>8098370wqq9225:qjjlzlzxdwqqipi5ejgkxjgzzjjfzd08898w880w987;yqjkjdw337qr557q7q",
"82<,>#-;-7lhfwe9fjwdfdhkhfhf00e80w0q55;ttttytyt55;555>>>569384:5:>qjlxccvje997ruu:ekhdgww0hlzfkjg9884w8488485tqzzlhfw9e97r5>6556",
"5::>=#-;5qjd800gjdgfdgjjjl08098390w057-ryytt;56555755:##:#52>:##:6hjglnxxe043>*-;5fdegkjczewwfgde0089984994>:5qhlc80w8eqqr::=:qq",
"5:5=:=--rqlgg0edfdlhlljzzjew9422490065rytt;qq7wqqw155:::5;5::>::55fkvkkgj8421:-*:#80ddffkkfeezgfw8832123413#:5dfjd83d0867y:::::5",
";t555#::7jgljekgzczjxlfjkhg00889ew07q:*:5:55q0qqqqwww5555rr;:::557dgwww932,<1#:-::840weefegfef00d444213822##-50ff88806557;55:::5",
"=:q55##:5qf9edhzvnzkklnczllce4444<892::5:54f9ddfgjlhf08>55;rrr;5579w98121%@@+o#*-56009wfeeew980g0212%%3338:5t7039gq846q75rr;5qqi",
"qq6q5=:*57w4ghjflhljjjhlcjd8118,<133>==5:6wehgdekjjhf0e765:-;;-;57f34411,$@@+o::-5577q78w0w9de9832,,,11248:trq73757676qqtupyq7qj",
"gff6:#:*-6wewwdzvljjhggjle41,%%%30f2::;5>8kkfzkxzhhd0gfw6>:tt6555:>14%,%$+@$o##=--:5q18ewdfgf0083<%,,<0856:y;=756qqqqr;tyiiyuqnn",
"fhg75:55:qqqfehkzvnxegklfw3,@%,30947:=-:7w08gzcnbjdfdew99::;555:55:,#####@+@oo#:*5q549qehxkwd42041%<38338765--5r55765rrt;yupzvmm",
"ghfq:=5;;qqjjfezkj880gjfd92@%<388497:-;5qw39xmvcxkd0eew75:5556665>:##=::=o@@#:5-;-557q7wweeedw9822412428qqq:5-tt56:#:t76ruuxcbnb",
"gf07#=:-rqq7wwhxk0000e90882,2288848>:--670kljbnchfdww99655:5qwwqdd822#=:::###=55;*;q7qqqqkg0wfew92123348875:rt;5>3<#57rq7qqkvjzx",
"ww9675;r-57658gefdfgg94944124800043>:-:55dzxmMvxzhfw8945#55qf0fghfww8243::###55:-55:qqqqqq7w094033322243855rq7qqqqfhgqqq:56hblce",
"dw88q6*-;-t7>88909kjde00313338w828755;547wlvvbbczgw8323::5:qg0fgfgd0we00<,32#>5:575557qjqq775531,2,,21244:rtyjxfhjvcjhhd6876fzk0",
"d043:=*;;tt665>554ffgfe992908888d755:556wdkjlkhjfe942,1>55:7gjgdffdfeedg090967857555;qqqq76565><1w92%%,4:55qqzlzjlxcbxlhee7:7798",
"8043::;ryrr;7:55518wwww8dw98436qq555>556qfhhgfhf094338555560gljkljjkhff0few0w4379>:;;5q7qq77>#>523><,::#=:5ulljzjkcvnccklj0:q789",
"5515:o:5r-;-&&&:558ww0093w0885qqq675:;55qhghfdd94333885:555flznzxlkhjjjfeewdw0we0765;55555q7:##oooooo==#::qczkgjcznnhjxjxld55:77",
"655:#:-;6:;;;*-*55694d3,<49qqqqqq7555rt7qjhddeew88889555>5qgcjxvjhzzkzcxfeweeew000q6555:5555:##%@@o#5;---qqhfjlkvbbnzzkhgfg7:#>q",
"5755=*ypq#>:-;-;-:773<2%134855qq555555rrqq7w9ddewwwww2#5:77dkgbnczlcxzzzfwwfdfwddwqqq75555:>22,$%$##:5-;-qqjkxcvvcMncczgd0d9,#:5",
"6:7-yaNvjg5$::=:rrtq5<1,2356:5q5:5555:;tr56w0qhgdqffw<::5qgejkMmMzjxnccceewedffww86qq75:5::28whw4<,###:::qhjkxjllbxxleffw8823<%:",
"#:*:tpcccce4ww5==;-;-7755555>::55565555r;55qqqhgfqqq7#=:5368jnMBBmmVvxjewfd99ewe995qq5::557ewjgfe0465###:qefjkgjxnbxke990dw42,:#",
"#-;5qvNcbcj9e0855:-;tyr56qq5:=5557w::#:--:5q756qfqq7>::::4wkzkkxzmmnlcdwwwe09w08499775-::qljfdgfjfd097::5q7dfhjljxlkh498940342o#",
"#5t7bcvcxbh040ed55:5r;ryir;7::558g041#:5555=:::5565::575637hkjkvzzbzjefdff034440997q5:--6jkgdeffhgw084#=:qq7wehljzcbgw0099ww835:",
"55qqkhhxlvfjdff0gq4>5;;yyut5559fkfw73:57rr:::5:5:##--;777qgkxzjzcvzhhgffde944eeee7763:;r7fjlfhfjgd9883:#:qqeegghjkzxjf88904901##",
"#=qqqqglffdwwlkjjfw22#5riuytq7gjgw835::5:rrrr-;;555;r5>,6jhjjgkvBMjeffdew00839wd067935tyqfhfffe90848875#5qqdggjjjkhhjf88800912#o",
"::qxe0djckkkhedje8944315uytrqkzkfw95::::55;5:7:575q5ryqqqqefhe0gchddddw0ww9984w0qqq6>55uqegf088w88w7qq:>5qqqggjgkvccjf88890323##",
"5qqlkhhjnklkghlhfge9843:57rt7gxle92#-;76qqqqq77qqq755;q7qeqeffwfewedddedw94448e0wfq5:5yqqfhgewe0w89766>::qqqfhggjjjhjg04wfe083,=",
">qhchjlbBbxcvclkfdlcj08>q6577ehf81%#rr77qhge0ffgq697:555:7lhgjlgw90ew98088433890wq5::;tqqefhgfffw0w655:=5qqgfjkgggghfdddeww0805:",
"5qzxlkjnBnzxkkblhkxgw098qq75790w,$o#-;5hkzzfwffqqqq55;7qqqljljf940484248944238e0975:;rrqqqggkggdwqw666:::7qqhfeghljhfw0988888855",
":qxldhcnBMcvhkzzchwew489dw0>::,@Oo#rirjkhgzgwgfdqgw<5;;:5>jzlked4484413484343848875;tqqqy7qqgfdqdq7767::#qkhdddhjjje081<14984555",
"7hjgjhxbBVmkjkbzkjgfw00wd93#=:#o=-5tyqlhhjlhfkhgek0075yr5:7qggkf844321289089496w85:r;7655:;;57qewq5:::5::qqqfffghd0ew422838485::",
"qqkjjjjbnMvjfgfffwffdw0w9w4,=:5;;5ryqqzgglcggdeww08q6#5;q5:>5qghjf02248809wwww07wqrt6:q6555555>553##:::#:6qqqqdfdee8421348856>::",
"yqqdfkxckjghge0wdwd0df9483425--tt57qjghzjhllfe0998ww665;r55::57gfq090edfwd0wwqqq77tr58ffdw45>:>3232<29w2:55qq7edee089448574w65;;",
"75qefkxzlhhkkkfffewwd884348:#:;555qhhgbnnbkjhe988eew775uuy;5:59qq6ggddfq07w9qqq765y5hj90efgd83440999wfdw3:57qdhe0we6434557005::5",
"q7qfhxncljgkgkgfwjwwe84<1877#:::5qjlzmxjjnhgw94190w8w6:rrr;5555555qfdedq66qf7q7755;qlh80999ghf0hdfwehgew5:::>q7qq79089575755>::;",
"tqqflzbbkjwhhlf00f89998138qq655=5qhkckxcxhweew9008wf55:-rrrt77::::::877qq67qqq77557qqdef09w8wdggggffhfew8#5;67qqq984955;--5*=*--",
"tqgfhxxllhhddhw98423882<24052###=6jhlhzlcge98883288qqq;r5>5qq75:::>>5545q76677555rqjkllgjjfjjhzhdfeghdedeq5r5;r5655>::tr-:*:-;ty",
"rqlqqkxljgl90009434841,248865#=;qq7qjcjlnj009482<0w865;r5:6976,2323#5585::=57755rqqxcjhlxxlkzjjddfhhgdfw0q5r5t;>5;5::5;;5:5;5tpi",
"76ljqjlxhe8898233440223143445#=5rqqhfzfgffe93342<3875:;55>69qww0e915>>:<,:::>::5rylvczfhghlkjfedggggfde08qq6;rt7775555quq7qrquut",
"ituqqqfle99044043213342238432o#5qqqghw0w0e9082333995#:-556wedwdw0ed933<>::5;;;-5;ylczkgzkhhhdgjhedddw0w98q755;trqqqq7qlkjqqqquii",
"iyqqqdfqedhf84229881431<1<2%,o#:5qqqe8f0w02303388382#=:57qefddffgdew898925555;-5;tzjjffccvgfjhhgwd0w0w089685:-ryuijcljjgjjhjluiy",
"yyq57hddefgde009ww0w980e12>65oo5555509w8484042248883:-;56qfeggejf9ddfewhhddq57r:;7qdhdegjjhfgghgefedee898007755qkbjwhhdfjjjkgqyq",
"yiq656778wdedefffe09804906565oo**=:5qfhfw0wq0337776>:;55qqhgfje09wwfwwdfwdfw755:tyuzgkjkkhhhjkfdedfd04489w0>:6qqzjfgljdhjhjkgqqq",
"quq5:57q5ww89w90w09489882:#:7#o&:*57qqqqqjqq786q7655-;55qqwdgjf98www00w900fhq:5;tuqzjjdgzffgddweghde8988885#:77qehehgjjgwehjhfzz",
"quu>55555:%%38385583>5>:#:575##oo#=5:77555758437555:*-55q786670wfhf00wfeew942#:rriqqqqqjgjhfggfjlhfew03245>::7qkjhg931244dgffdq7",
"7yutr::55:#:::=5#=::#:55555565#oo#=::5===:::>22675:*:::5::1>538dfhfddeddfff831#:-q6qq7qqfdfqfjklzhfw433346::57fhfw993,1<40edf7q7",
"quyrtr5-5;rty;-;;;r;rt;-5777w88,@@#5;r-:##oo$:576:::5::555::##10wefflfwffd048>##::5qqqqghgqqlzzxljw43489855-5qfkgweffd09319w0700",
"jq;;ur6575ryrrt5r;-;rtqqq7eljkh8,$:5rt;;=##o#:555:*-55555;;::::8wwdhj89eeww8<#:===5777767qqkxbjklg009q7635:-;7e9wlzzxke81<4839e0",
"f55ryq5qqq7q345567k6:5qqfhhjjlj82,,:rr:::=$#55555*;-55:556,465::3wfe18w00w82,o..#:::5-5:5qqjghljkg89757677---5ffhlzvnlfw81322e0d",
"85rr7qhkgdefw090gjqdhhecxjjlxzdw8%@:55677922fq5=:*r;r559ewdef8::8de8effww42%$o#=::##:55555qqqgjjgdwq6476q7--tqjkkkkcvvj9411308wq",
"q757qhdfhhgjxjkhggfjljljffxczjg9,@+#569dd0eff43:5:yyqqqfgfdee936529ehffw082%$o#=7556>5:6555qqqqgjgeqqqqq75-;;qgjjjhkzzgw4228d999",
"q5;qfehxxhcvxxcljljlgzzedgfddd92@O+#=5ddd0jd99885=ttqqjxjhjw841>rqwed9w994<,+o:5q7q079576557qqqgfgqqqqqqq5--;5qjgghkljw3<,120w67",
"7:;qwfhhhlccllxlbcxhjjhggdffd041+Xo::0dddfge09ew2:555:hzjjj432<2:70fgfww93,$+o:5qw0w0fd7>>5555qqqqqqqziqq5;r;:qqejjkf08<$,2800q7",
"75r5gxcchjjjkgjklcjfefk09wdfw83<@o#57edddfeefdd01#:::79fzckf41,1:5efjwee83<@+o=:qdwghffgww755567qqqqqqqqqq;;7:qqqqfgdw8,%180qqqq",
"5;t>7qxvkjljzkgffjjddghedwd0<8>,o#*5wwghgjgdew0w0>3::->fgee81%$$o55wfddwf4<+ o:qxjfdhxhjedq75:::57qqiqqqryutr55qqqgdw89127498225",
"5yr;7qfghdgewdweggwedw0w9443>####-tyjcxhhjfgfffdw997:5;q0ew91$@+o;qzhede43$O+:5jcxdgfcjjf0e85:==-;rtyuqiquytr;5qhhqghd88091425::",
";ytrur7ww090df909e884w09441#:55rtttqcbvkjghgdffgfd0e85r7q081%$@+o;7eefe04,++o5;xcxdfgee09ew948855tr;tyqytytrr;57qqqjhew0055##=#5",
"ruiau5:223238994w9218421,$o#::;tuuulxbcczkjjjhdfgfe8826q5>4<$$@ *r5effd943%$:-qccvhgjefffdwdw885>:55;uiuiyr5r7656qhhqqq745:::=55",
"tiy;;5:#%,%$,1,11%,%<%,,@$###%5;yuyqzczxzkjkzhffdjww81%>:55<$$##;r7eefw083,$o5qhkjgjgejdgddwwe48776:5ryyyqq57qq656qqqqqq65=:*;t;",
"ukquuiq5=##:o@@@$+$%###1%o:483475ry7fgkfkzhdfegghfff0ww557::: #;tr7dhjje82<#=-qgjkjjhhfkjjgfw90ww75:;rrt667qkkjq>56568qq5:-;rrrq",
"qqqiqu7#=:5:=o#:=o#oo#==55qgwfjg96757hf9fjgfedjhhlhegdw985:5:oory7qgzjfg82%#55qjhjfxkjgdfgw0www0q7q555;5>5qhzjgd55577qq6;rtyyulN",
"lqqlqdq##:5:5;;;;r;:::5;tqkxxlkw93:=:480dfw0fjkffewfwegd03#:-;;-5qhzjfef41<o=5qddfhkljewdjw99998777q::;76qjvxfdfw75;57q6;;tuxlcc",
"qgkkjqwwqqqq5::;;;rr;5quikxxjxx9495556888ed0fjkgff0990edee557r;;7ghfdhw9322$#=0fgdhfdeewef8we89wqfq77555qzzbzjgffq5555667uuzjbzk",
"llkjqqd8ge9q935755rr;5ypvzbbjjzkf08>75798wdwfhhhhdweweewfdd55:;;:hlzhdw084:#=5w0fw0ef2049e8843880wfqqq56fxznvkgfghq:;575qzvvxxbb",
"kdkk0e8we09de0hw0qqrttyubbnxbcjjdw31:5644fdfkhfghjjlkjjjfjhf6::;5ghfdghe44:::7qehd9ww4e89232,<94wqfqq75qhkcvljhffee75;;qkkxvbvxk",
"hgncwfwwwfgjglkhflq7yt5qzlzcxkf094,,#:::gfegfjgkhfzckcxxjdw9325;r6j0hdgg088:56700w800998432133988866qq57hxchggf989005557lzxbbzzc",
"kkxxkzw0we0fjlgjzllq7rtuqqlzkhg93,$$#:5;qffgghkhfjlwkcczgfew42>5;60fjgff32$#*56098340we02331<1<39095575qhjhwdgf80w95:r6qjlkjxxxb",
"vgxkvlgwf0wfjzfzxhlgqq5ruugkg8e8<%@+#=;r:effjjjdefkccbbh0ffw0945:538ewe4<,$o-;6qq622338423223889092>::7qgk8dew0w00975;55qqwwjlzc",
"bkbncczlzxMvdlgffhgdfq7:qqqgfdww2@@o5rt;56eeefdfe0wzllxhedw8w9255r:8fw888%$#:-57q>5833,<6633244,576::557gjjjdwdw944355:5qdhxbcvv",
"hkvcxxclljhhwddgjeggdd75qq77www1$%@#:5tr560dgdeewwfgkljhge032821+*57e0431@@o*;r5#:5:::#o553:13>#>5555555dfjjkdeww2882:56hggllvcz"
};
