/* XPM */
static const char *arock2[] = {
/* columns rows colors chars-per-pixel */
"128 128 58 1 ",
"  c #0B1707",
". c #171F07",
"X c #1B1B1B",
"o c #2F371F",
"O c #232323",
"+ c #272727",
"@ c #2F2F2F",
"# c #373F27",
"$ c #373737",
"% c gray23",
"& c #1F4317",
"* c #27531B",
"= c #3F472B",
"- c #2F6323",
"; c #37732B",
": c #474F33",
"> c #53573B",
", c #434343",
"< c gray28",
"1 c #4B4B4B",
"2 c gray31",
"3 c gray34",
"4 c #5B5B5B",
"5 c #5B6347",
"6 c #676B4F",
"7 c #6F7357",
"8 c gray39",
"9 c gray42",
"0 c #6F6F6F",
"q c #7B7F63",
"w c #777777",
"e c gray50",
"r c #3F832F",
"t c #439337",
"y c #4B9F3F",
"u c #53AF47",
"i c #5BBF4F",
"p c #5FCF57",
"a c #67DF5F",
"s c #6FEF67",
"d c #838383",
"f c #8B8B8B",
"g c #939393",
"h c #979797",
"j c #9F9F9F",
"k c #A7A7A7",
"l c gray67",
"z c gray70",
"x c #B7B7B7",
"c c gray75",
"v c gray78",
"b c #CBCBCB",
"n c LightGray",
"m c gray86",
"M c #DFDFDF",
"N c #FFFFD7",
"B c #E7E7E7",
"V c #EFEFEF",
/* pixels */
"jjzxbxvcchggfdjjejzwjk867755568$$$##467555weww90w0e90g0ge3%%,<1<155:wfw21<#:*-;555::55::76568ew23655;;75qgzfkdw034w7:#57qjkjjlcx",
"cbdxxcnnvghdeklzzlf0fl0w8qqt57:555#8wfd5557800984480we4842%12332#:5;50w911,#:;r5:5:>5567edwewgfd99067:::7hhged94388655;5qhqdfjlh",
"xxlcjkcVVbkjgzlkxbdcxfw98fjqq;::::fxllhq5:6qqqq0948949832<%,132<#:;;7dw018#:565:558qqew0djgxffgdeedww4:=5qdhww94444755rq5qgfgglz",
"lcnvvjxzkjkxcccxbzzle984w9dgq;;::7jccjf06#::67qqq98494311%%<4011##*5:2443@#5qqqq74<8we0wddgzxcljfwegfe>::qfdf0w9446755555ghzzzlf",
"cnmvczxvdgfzbmxBcjzhgdhdhzed75::5fhvchd431::55:58808882,3,23899::#-;;-:5###8edjdffgjfgjjhdefdlcdedwfgf7#:5qewdfw835##5::qlzcckw8",
"kxnMcgjgehjkzvvc0xcchkfxjddghq:55dvcvg932##:;;55#,2844890332813>5::5tyt;:49hhjfggzjgjjkkhkljjjxxjhfgg442::557qq943%#55;6q0ffjhgw",
"xvllxdjgkgfwefkgkkfzlkjzgffhgq57kzjhef3,<#=:*;r5#5#,238w4<4e986::::55-r7qefzzgdjkxnxcxgjzlcf0fdgcffgde04::5:>093>#o-55;557ffkfjk",
"hlbvzjcfhgwew0dhzbbbzcxjefhefqq7qlkjd821,=:r;ryu75#o#>48q40980:6:55:6qwfgdjljljgkvMzMmzbkfkhzgxjjfedww800>555:::#####::555qffeef",
"dgzcjjhhgddfgghjMvMkkvgzfghgjqq7qjhdw4,%$#5;rruiy5:=#=:538978>:5;7>5gwhfjhjhhgghvjglMBBjlkkhfjew8w0www9wq7:;5::<<%,>>>55567qwwef",
"0fegfd9dfkkbckjjbMbkjgfgeffdeqq5754w94<,#=-5ypaapq:77=##>846:5555>edfjzfdgjhjjkzckcxMBnbfewelzle08943896775;5q5:4w99858:51::6qed",
"ehjjhdffkvbbcnxvczxkzjfffwwdhhg75555542##;5qjxNiiiq::;5::#:#:r5760djfxzkjxvbxmmkkllkMcnldw00fedd92484670655;7659w090wee842##5qde",
"hegxe00whkhnmxjckgjkljjfwefgghqw55--::5=::7jkzkluuqqq;5;:##:56qgefljjlzxxcvmMBvlbzkfjvvdww88w8e893889q07755667eeeeew0ww94<%#5>0e",
"qwjzwj0wdfkkzhzkkfhkkfe0dffgjgfw05-;;5::<3egfhzkqqqqq5---:-;5qjhhkkvxvccvccxbckczgfef8990w1482333280w075555:9wedfffewdd84832,:7q",
"qhgjkxhjhkcxggfdgwfjh9efehdjg0d095555#8fzkgccllgeqqkq65ur;rrqezvlcxmxMcczvczfhzd0809988w33822%<14833804::>1wfedgeffffw4w9908,#,5",
">fggezjkkfdghhgwdwedghdwfdfhgfeq75;55whhkjbnxkfwwwfqqq75rrt7qhkghgcvvBbkzkklfhd3848384401883334428ww693128hghffdwhfggwegd8w92,##",
":588ejgjhgfeegdwweddded08wde29dfq775dffhzbckfeewwwefhj77;55qfgfjhfzcznkzzgkee9433311248w23423340807883%<4fegljdefMvjgjjgedd08,#:",
":#00gee08wdwdwhjhgd90fd9dfd3%ewdq677fhkjxxjjddfdw0wdf76yt75qgfzgjjjjhefhjfw9932<<49814e890,842338770821>8deffhxbnBjljjhw88ww84#:",
"#:#4w79wegghed0weeddw94009488w077q56hkkkzjhffdeew8334655q55qfffjfldw9ghf9499424234204334431323ww76q75:1wgdgjllzxBhdhkkk883248855",
",#:#67we0dff990wgggdfew84410dfw4:>55glcbznxfdwww98344,:5#:75d08fhddedegd900834984888803881,<13288777554fdfeggfhkfeefhge492123389",
"2#5:58w989000wgljff99899d08wew982o:>wdzccjgfeww883331##:5:55:3300ew0ede94e0w8809983888883232:127qqqrr7fdeffjbfedwdhjk093,1232287",
"9:5:5>4we0900wgfwww009ed938090f98$@19fgjk0feew4212341=*&=#-::#1109489909wwwd48f89042888w9925#:o:qqyr7qe9gfljzw88wjlzkw82,22489w9",
"9>5y7#<83899dwdegg8990ww99009q7885:>7ed049w0041<<243,#=y;5;5555$2388w8w9edd84ww00868893633>=::#-*:;tuqhgeew99148ehznch8,%,,<88w9",
"975tt55#57qqweeew08889000fe00w90q:5560889w9821%,3375:=555575:5:#<2340ww8ee389848047q655:55::-;-t;y;rulhw9w3289989xcf998<$@$,4888",
"97555:::555644099832248w048,3889>55567eedd04,,%,21<::55>7qq05:55::240843hfw04444335:::5:5::::;5;rtrrtqdw889weeegffw984<%@++<2488",
"eq5:*-555555<,43#<4541><,34%<%>45:::677dfw842%,,1#:::>7qjdh088>:5::09890f0qe2662,5##55;;55=:575qqyurqqq8818fw9000l042,%@+@,28wwf",
"055555:-755:##=::=:::##==:::>::>5::556qje0841<<22:::63ezggwed935555:<30dqqqw855:555575766577qqjvqztyr59wewdgw98wd8831@@@@+@180fw",
"66;5555555:::::55;--r55;r755>55-;;;55766qq993,<,##:64wjjghgfdw8#::*:5ghhkjq7q7:5555qw4wweffqkgghg65r;5>90efe0w44400932,%3,28ww08",
"77r5555qq::5>::6r75r;556rq6:5::-;;;;;r:#::5>6#:::589dgjkjhhfw98:#=-577qqqqq555>2670gdeg8hgj0qhghq2qqr65>8www042224884313448wefw8",
"qqtrrq555ke49457q66q576qqfqw4<#555;tty75:::=:5::550fhhzllgw0004,#:;-577qq555::24efgcjxkzfhkkzlllhgqqqr;7554489874422099438wgfe96",
"qqrrtqcqf0ww90ddfdhd0qglzkhf08838775rt;-5::--;5557fffhljhw88082,o=*-riqqttr557e9dfjkjhllxjljcjgfqfghqqrr5::::=5:2428we0wweeewgq7",
"q7:rrqhjkdwehhxhhhjjlkjkzkgjw8999775rtutt;;;;-5:5qdhgfkfw809843#=:*-rrq6yyt598fjlkkllkxkfxcvxc8wewwfhqq755;r555:>,43800799wwff7q",
"q5trqqgklxbzfkzxxkjkkxbbcjjdee0e655:ryr;--::r;5:q7dfjggdww88982,#=-tyt55;r55wefgjjjlncmvmxvvzhffe0097qqyrryr5753>5>,,40wwww0w7qj",
">5r;:qzfkvnnnvczzzjhffxegfw880e7>>:;;r6q75555r757ggjhhfdew4w8:3$o*uuiy7555570efkjznncvmnBmxlwedhhffhe4qq;tt57q6892,%#<40ewqq7qqq",
"55ttqqjlzzlcxllhfdffefgfhfw89094>5:5r57eqq5>:rr:59ddddwew0494>55tuiur6q75557wfjznMmBBzbcljhe99whe0ghwd7qqtrrqkq8483%#::9wqhjq7qq",
"5;yyqqglzzjkljgfewe09egkgw938886215555wwd0985-r;:8wfgfee08235:5;rut557::575hfgkjxnBmmnmvvzjkjhgf0wedwwqqqt;7hfedge85###:7dgdq7qq",
"=5rr77fffdede0d84883800w9233800852:qq8ejckg9775r5559efw8w8115;rryyjhqq55565eflbcvmmBVVnzjkgjjjffhwfewq7q7555wfhhw322$%5:50867qq6",
":555;56qgww90w8<,321488990809068,#:77eflvnzww555:;:568w845:5yyqqqljqqgqq555qghlxnMxMnchfgkjjkhggf0ewwq7qq666ehgg982312#:#846qqyq",
":5>5;;t55088w03<%<28859w0998962<o#557dlhvzjew9>#:-5::9061=7q7qjfejjgzhq06767fjkvvcxlzkfhhkxlhdfew09efqqqyq7qcceewdfd981#:5076qyt",
"7q6:5:5:55e998441,37qq69898676>##-7qdhkcvnxhfe04::-5:65556qqqkjjhfgehfe94:55dhhhhdhkhfhhlxzzd008ehg0w0qqqq:8fgggkgw0083#=577qqt7",
"qq67q6##::>43385<1:>76>55555563:5;7qglxnmMMljfe82#:55557q7weekcjjhe899997555qjedjnlww8ffjlje99440ghdeq065559hhjf0004884#-;tqquyq",
"hkfe77#=-;5=5635##::55=::#:::5>:5570ggxmbMnzgww04::5::577qjkcczegf0wfde95:5qqjgwdekf80fedfgw344840w88855::5:wdw0wdedd94:5rrtuucx",
"feww977:55;r55##--;rttyy-rrr5:::*58edjcbnnzh04994>:55576gfflxlhlckhddgf7>5rtqjjhhhzdfjhee034008wdhdw0655::5>w9wzkdde0082:ytrqxcl",
"gxw9fhjh75555:55uytuyyt;-tyt;5:-;r80wgzMvbcf43388::55qffllkvczzgef940eqq55t;q7fxkjfgkzhgjd800wdfw0wew457555#9eghhddew092:r;7jcbv",
"edhjj9wdd7>:55r;yyur;5::5yr5;5--::80fefvvcf8<$,<,#:;7qdllxlcbjkfww990d67q7-ryjkzkzkfhhdgf9w000088ew8443755##7fgewdde0932557jzxxe",
"egflch0wf9:=-;t7qq77qq>5qq775::-5:7ewwfzbbf8%$%155;7qkjjcckkkhjkd0498877>:-;qqhkzclcded990423388800888895:#:7jf80ed08321#:5fkklz",
"lllhwhw092:5ttuqqeeeeeddqqe001#:-:5gfkgjjzj8%@$<>5r7qghkkkgfjkjf92w00888::rrq7hjklgf0weew481,%%1<49444888::5qxgwwwe8842457qkxvvv",
"chkfkfe88$#566qfe0dfjjggkgww332#::77ehc8f001++%::-5qkhxkzzzjhzh08eee0825::5;779gegljeew8<<3$@$$$12321355:5;-5khjgw98834357qlvcbc",
"ghkchxg8>#:57dkhgljkzgeffggw883####13jlee21%++%#:r77wjjjzkjgkhe888w9343,oo*;556qwjjhfd01%%+O+$,$<1,#:5rr;:-rqqkzkjd82<<1:7qlcxzv",
"jkzhke092:57qjhfhhfgkgfghege0442=:#32fge8,$@+@##;uqkzxcjkljddw4334221>1#:--*:57j80dd8322<$+O.+####::55;;;55;59kxgew82,%,#57hzccl",
"hdw0d2,1,#=7jljgxkhlglkzhde00894#=::39gdww<,$%o:rq7jlcvxljgdd92,<<87455#::*&=#>34lk0<231##::=:555=:55q775>=5;5heh008<,,,#>6hkjjf",
"wfew99<%o:>:qeweegfdhhggwhffee005=-;:7dde812<##-;6fghxvchlfe832<14885>##=55--:o@%>8135>::55:55589,2>qqeq76>:-58w9w0922<$o5>9dggk",
"hhgdw422>5:>gefjlbczfdwegjjggfew7>5r;7600882,#5;56dfjkzlgjfw848443435:##6qquyr:=:>>565::5557whfzj09hjggffw6>5769wge843,o#:=0gfgg",
"gded9993:576exhhcbblfffhjkdfgdeeq7:5r;587q933#rr59gejkhggge809488831##:5qq7tyr;5:5::5r7q9eewlhljkeewjlkkhd0#::5wf948885:#-:5wwhf",
"w0989083:577fxjfhzlfdjhkzjlgwhddd75;ryyqew095;tr7fhjhhxfg0e080ew082##--5qqqpiiy-;;;;rqqqhewfzjzlggdwdehhfe0q5:=:7779941#:-57dlgd",
"w9w9444>557qhjgkhgfekjjxkkjlkkjjfd76tu77e7785;r;5hhxlzede900wedfq5:#-rtrquyuauut;;-5=:7zvzvbblkkjfdd0djjfdw9:#:5::7771##:5>68w9e",
"0w98821#*r7ddwewdfdfdhlhgfjkkljfffq7rytqq756:;r:qgjkgdww4880gffq765;5rtupqqyyuuir5:#1wglxczkxxccj844wffdfdw83#=#=5;;;#5>565g0dde",
"9w9842##;qqd0dfedwgzgdjgjxhggjhghggq7tyyq55#=--6qwdfff09834ef0wq755;57qiizxluiy;r534dewjxcxllvlxw0e00fefgfe95#=#755q5:55:5qfw0dw",
"438965#:r;qgkxgdhglkfkkjggffdfhhggqq7ytrr;:*;t;67qqfd88084eewew77555qqgkkjkkqiu;;7gwhjxzjjcccbcg9980w39ddfd4>:*55qq7#>:#:55h9df0",
"348865:-uyqffdgfggcgjgfdgfewweeedf0d5;yt;r;;;r;5q57qq0084wf99e765555qfjjhzxqqqyyrqqghkxxgjhklhd0099090w80ewqq;yt7qge95:=555780ww",
"83445:#rr7qlzffdggvgedhzjhdfedddef0e75rrtyrrytrr5:55794377qqe9>>5:qjjkzlzxdwqqipi5qjgkxjgzzjjfzd08898w880w986;qqjkjdw447q5>57q0e",
"83<,2#*;rqzhfwe9fjwdfdhkhfhf00e80w0w5>5tr;rttyy75555:223676355>5::fjlxccvje99qyaa5qlhdgww0hlzfkjg9884w8489455rqlzzgfw9q76;5>6446",
">#:>:o:;rqjf809gjdgfdgjjjl08098300w0555r;;5;55755575:#,:::52>:#o:7hjglnxxe042>-tyqjqegjjczewwfgde00899840755:5qjlc80w8e775::=:qq",
"::5#=#--rqzgg0edfdlhlljzzjew942349w775rr5555600qqq:55#:;;t:::>#5;5fkvkkgj8421:;;;:60eedflkfeezgfw88321245:5:;5qfjd83dq955;:::5:>",
"-r5::#--rlhljejgzczjxlfjkhg00889ewwqq5-*5:55q9wfqqqqq557rr;5:=:55qfgwww932,<1#*;::540weefdgfef00d444213822#=;5wff88809856;-;:5::",
"#:755:=:5qg0wdhzvnzkklnczllce4444<67:::;:34f9ddfgjlhf76555r;;5:;577e94121%@@+o=*:57099wfeeew980g0212%%3338:5t7039fw858w55rrr;yiu",
"eq7q5:==:6w4ggjflhljjjhlcjd8114,<2455##::8wehfdekkjhg0qq555-r;;r57d34312,$@@+o:--:>09ww8w0w9de9832,,,12346:tyq7>65756577yuiy77qj",
"ggg7:##=:50ewwdzvljjhggjle41,%%%30f21#::59klfzjzzhjf0gfq6>:trrrt7:2<4%,,#@@$o#::;5#3d18ewddgf0083<%,,1w8585t;:q56q77q556yuuyuhbb",
"fhh0:::::qfefehklvnxegklfw3,@%,309401#-:7qw8gzcnbjdfdde69:-t57555:##:#=###@o#o:5-rq547eqhxj0d42041%<3833865::-5rr55::-;r;tqixcbn",
"gjgq:::557qjjfelkh880gjfd92@%<388399#-5>qw38xmvcxkd0eew05:;7576642####:::##@=:5;rr;57q7w0eeedw9822423436qe7:;;tq56:%#;rrryyxcvbv",
"gf09,#::57w90wgzk0000e90882,22888383#*:590kljbnchfdww9994555fqqwee8>:::555:::#rr--rt7qqefjf0wge09222348666::tt;5>>:,557qtqqkvjzx",
"ew999555=55838geffffg8494412440w045::::58ezcmMvxzhfw8984#55qf7fghfwe8>55>::::555::r-qqqqqe9w0080333222435657ytyqqqgggqqq::6gvkxe",
"dw8805#=:*75>88908jhdw09323448e8287555:50wlvcbbczgw8323<:5:qj0fffgd0we071#5>#:5:5qtrrqqkqq99883<,2,,22245:;ruucqhjvckhhq7576dllw",
"d9432#=::-75553883ddffw992908688e944:557qdkklkhjfe942,<>:>:7gjfeffdfdddgw007675577tytyqqq76565:<2e93%%,31:5qqcxckzccbclhqq7:7709",
"9984555;;;;;5#>44<40w0w8dw88428d0455:;;7qdhjgfhf094335555567hljjljjkhff0gewww84q75;trrqqqqq75=57>5><,21%#:5qllkzjkcvnccllkw#7667",
"84155=;;r*;-ooo<2480w099209444efq85>=rt5qhhhfdd94334883:555qzzbzxlkhjjjfeewdw7qqqqrrr5555quy5:#o#o#&=o##:5qxljhjcxnnhjcjxld8>>7q",
"685:#*:;t-;;*&*#:2994d4<<48w07qqq655;yr5qjhddeew88899855:8qhcjzvjhzzkzcxfewedeq77qq755::567;5=#$o##=:*;;-qqgfjljbbbnzzkhgfg92#5q",
">65:=:quy=;--;--=#58312%133444qq655;;;rtqq7w9edewwwwq2#::90dkgvnczlcxzzzfwwfdfwqqqqqq65>55:5:>,%%$$o#:-55qqjkccvccMncczgd0f0,#57",
"7:5:qupxkq5#:5----;5512,2288<47::-;r;-;;558q0wffdqqfw<#:5egwhkmnMzjxnccceeweefdwq57qq65:5::>5qje4<,%%#=:5qjjkcjzlbxxleffw8834::5",
"=::55lzxcve47q6:#:***57554452:##:;655555555qqqgfdeeq6#=<3388jbmMBmmVvxjewfd99ewe066qq5::57qqwjhgd0483$:::qqgjkhjcnbxke99wde42,>:",
"#:55qcbxvcj0e0855::-rtr;566>:#::27q2:=::-557748edde7>::114wkzkkxzmmnlcdwwwe09w984777755::qzjfdggjfd097:5577qghkljxlkh498940442#:",
"#:q7Nccxzvh940wd83:;rrrr7556::544f081#:55;:=:::5565:55r5650hjjkvzzbzjefdff03848077775:-;qllgdefghgw984#=:7qwwehljzcbgw0099ww8455",
"5:qqkghxkvfjddd0fq5>:;yu5755559djfw732:55;::=--55==;-;7q7dfkxxkzcvzhhgffde944ddeq706>:-;qhklfhfjgd9883:::qqeegghjkzxjf88904901%o",
"#=7qeeflfdewwlkjhfw2<#-yt5rrq7gjgw83>:::-5;;;-;;r;;y;r5=6jgjjglbBMjeffdew00849wd09095;rqqhjfffe9w945675:5qjdggjjjkhhjf88800911$+",
"#:qlw0djcjkkhefje9944315t5;rqjzkfw95:::55;;5:5::67qtutqqqqefhd0hchddddw0ww9984w0qfd955>yqqhf088w88wqqq::>qqqghjgkvccjf8889w322,#",
":qqkjhjjnklkghlhdge9844#:>rt7fzle92=:r75qqqqq77q7q65rr66qeedffwfewedddedw94448w0qgq5:57iqghgdee0w89765>:5qqqfjggjjjhjg04wfd043,#",
"5qfzgjlbMbxcvclkfelvj042755rqehf81%#;r77qhfw0ffgw8875t751wkhhhkgw90ew98088434990qq81:;yuqqdgffgfw0q655:=5qqhfjkgggghfdddeww0877:",
"5qkzkkjnBnzxkkblhkxgw084qq75t70w,$o#;r5hkxxfwffeefw>:;tqq7kjlhf940484248944248q07q5:5tyyqqggjggewe7866:::5qqhfegjljhfw0989988655",
":qlldhcnBMcvhkzzchwew489qq75::#o o#;irgkhglfwgfdwfw<5;;553gzljee44844134843448888655yqqqq5qfffdedqqq775:=qukqddhjjje081<1499467q",
"qhhgjhxbBVmkjkbzkjgfw00wd05::*=o=;rutqlgfhlhdkhgej077:yr>19wfgkf844321289090489085:r76655:5557eeww4:>5555uiqqfffhd0ew42284855655",
"uqjjhhjvnMvjfgfffwffdw0w9q5=*;rtr;tuuqlffkxggdeww96q6=-r75#>8wgghf01389809ww0w90777y71w653>>552453,,::555yiqgedfdew84212465565:;",
"iqqdfjzckjghge0wdwd0df94835>;r;tr55qkfgkhhklfe0998wq66:r;5:#187ffd080dffed0wweeq77rt68fffw442233232<17q55rquk7edee989844575q75-t",
"r5qedjxzlhhkkkfffewwd884348::;;;;5qjjfvbbbkjhe988eeq76:uyt5:#59wq7hgfffd0009fdw775t5qj89efgd83440999wgfq55rqqqje0ww94385577755:;",
";7deglbxljgkgkgfwjwwe84<1577:5--5qjzznxjjnhgw94190w8w5:tt;55:5>556qhqqqq99wf9e77555qzh80999ghf0gdfwehgeq6:;57qqqq790975657555:*;",
"rqdfklvbkjwhhlf00f89998138qq775=5qgkcjxcxhweew90080f84-rtrqt6r5::5::5qqqq80e0wq7555qqfef09w8wdfgggffhfdw5:5;5qqqq775755::-5*=&*-",
"rqgdflzllhhddhw98423882<2408::##=6ggkhllcge98883288ew7;u5:5qq56:::>56764798977565rqhkzlgkjgkjhzhdfeghddfqq:555r;75555;r--*-*-r;;",
"5qlqqjxljhl90009434841,244484o#5qq9wjxjlnj009482<0w885;u526909<>323:57842<:6q7>5rtqzckjlxczkzjjddfhhgdfw0757;t-;;;;5--;*----ryrr",
"56uqqjlxhe8898233440223143345%#:5qfgflfgffe93342<3494:;;5>66dwwwe914>>>#,:55>:#:rulccxghgjzkjfedggggfde08wq7;tttyt5;;57uq67qyur5",
"ituqqqfze99044043213342234431@#:qqqfhw0w0e9082333998,:5557qedede0ed933<2>:5;r5::5ylczlgxlhjjdgjhedddw0w08qq55;yrtqqq7qzkkqqqqyiu",
"pyq7qqfeeehf94229881431,1,1%,@o:57qqe8f0002303388492###5qqedddffgdew89892555-;5>5qijjfgccbgfjhhgwd0w0w08986755ryyljxlkjgjjhjluiu",
"puq7qjqdefgdd000ww0w980w<1255oo5575679w83839422495531:5>6wfdfgejf8ddfewhheqq577:5tqqhdehjkjfgghgefedee899wqq7;rqjvjwhjdfjjjjjkqy",
"iay757708qfedefffd0089499855>o#-:::6qqjf090w03307773>55:7whgfhe09wwfwwdfwdd07555qqqlglklljjhjkfdedfd04487qq5:7qqzjfgljdhjjjjhqqu",
"qutq55774ww89w90ww08898821#:5#o&&-557qqqqhfe088q765>:5557d0dfjg08www00w900fhw:;ttqqljlqhzgfgfdeeghde898855555qqqehehgjjgwehjjqkk",
"7qy-:5555:#,38254442232:#=575#o.o=:5:77538948337555:=:::608980wefhf00wfeew942#:;rsuqqqqkgkhfgggjlhfew03256555qqkhhg931248dgffqw9",
"6qq;;=::5:=-;:=:#==:o=:::55565#oo=::55####112126q5:-5::::::3439dfhfddeddfff82##5:rqqqqqqqqqqfjklzhfw443457::;qqhfw993,1<40edf7w7",
"0qq;;5::5;tty;5:r;;-;;5:577qw98,@@=;;--:o#ooo:575::;t55::-::#:10eefflfwffd048>#:::5quuqqqgqqklzxljw4348955555qflgweffd09319w0007",
"h755r755q7tytrr5;5:5557qq6eljlj8,$:5rr;;###o#::55::;r555:q;:::#9wwdhj89eeww8<#:#:=5qtqq77qqkzvjklg909q7655:557e9wlzzxke81<4839e0",
"f5-;qq5uuq6q557557j5:57qqhhjjlj82,,:rr:::#o#5:5:5-;5;5#438#56>::3wfe18w00w82%@ o:::-;r;:5qqhfhlkjg89w8067q5-:5ffhlzvnlfw81312e0e",
"87t5qqklhqqqq790gjeeggeczjjlxzdw8%@:55677922fq5#=5t;6549ewddf8::8ee8effww42%$@#=::::-55555qeqgjjgdww8876q7-;ylkkkkkcvvj9411308wd",
"qqyrqjffjjgjcjljggfjljljdfcczjg9,@+#569dd0eff43>::yuqqqfgfdee935:19ehffw082%$o##5555>5:6r55qqdqgjgee7qqq75-;rqgjjjhkzzgw4228e967",
"u;ryhejxxhcvxxvljljlhzxedgfdfd92@O+::5dde0jd89884#ruqqhxjhjw831257wed9w994<,+o:579e999367556qqqgfgqqqqqqq5--r5qjhghkljw3<,230q7q",
"q5ryqfhhhlcczlxlbcxhkjhggdfff041+Xo::9fddfge00ew2:5551hzkjj432<1=50fgfww93,$+o=5qw900fd0555557qqqqqquxzqqr-r;:qqqjjkf08<$,387qqq",
"7r;5hxxxhjjjkgjklcjfefk09wdfw82<@@#:9wddddeefdd01%>::68fzckf41,1::efjwee83<@+o##qdwghffgqq755;767qqqquq7qq5;;5qqqqfgdw8,%18wqqqq",
"5ry77fzckjljzkgffjjddghedwdw<82%o#:5wwghgjgde00w02>::5:fgee81%$$o:>wfddwf4<+ o:qzjfdgzgjddw6:5-:57quiyq77qur;;7qqqfdw891264982>5",
"riur6qfghdgewdweggwedw0w944>>#o##-rqjcxhhjfgfffew977:5;q0ew91$@+o;7lhede43$Oo--kcxdgfcjjf9e85:::--rtyiyqquyrr;7ujhfghd8899<324::",
"tuiry;7ww090ef909e884w09841#:5;rrytqcbvkjghgdfffdd0q65;7q081%$@+o56eefe04,++o-rcvxdfgee09ew94885;r;rtyyqqqqrrrqqqhdjhee0743##:#;",
"yyupy;:222248993w9218421%$o#:5rtyutjcbcczkjjjgddgfe89:5q554<%@+O#r5effd943%$::qccvhgjefffdwdw8855:5-;yiuyyr5qtqq7qhheqq74>:==:-r",
"yutr;;:%%,%$#2,11%,%1,,,$$#=##5;yyqqzczxzkjkzhdfdjww8<$::55:%o##5rqeefw083,$o:qjkjgjgejdgddwww4877755;rytyq6qyqq65qqqqqq5:==#5rr",
"iiuiipq:###:#o@@o+%,###:#o:593405rt7fglfkzhdfegghfff0w055;55: #5r69dgjje82<%#:qhjkjjhhfkjjgfw90wq7757r;r56qqlzlq555576qq::==5;ry",
"qqyuuiq##=5:=o#:#o#oo=::;5qgwfjg06r:9gf9fjgfedjhhlhdge09555;-o.;y5qgzjfg82%#55qjhjfxkjgdfgw0www0q7q5;r55:5qhxkhe55557qq7;55rquiN",
"kqqlqqq:=:5::5--;rr;5-;rtqkxxlkw92:#<480dfw0fjkffewf0wfd03:::-5-7qhzkfef41<@:;qddfhkljewdjw99998977q5-;55qjvxgfgq7555yytr57upzcc",
"qhkkhdw7qqqw6::5rrryttyuikxcjxx9394:56488ed0fjkgff0999eewq5>5;;57fhgfhw9322##=9fgdhfdeewef8we89qqqqq7;55qzzbzjgfgq65;rtyyqickbzl",
"xzkjeee4gq9q038655rrt;ipxlbbjjzkf083557090dwfhhhhdwewewwdee55:55#gkzjde084>##5q0fw0ef2049e8843887qqquy55fcznvkgfghq5;tyruvNncxnn",
"ldkk0e80e09ddwhw7qqyuyiivvncbcjjdw3255644fefkhfghjjkkjjjfjgd9:#::dhfdghe44:##57egd9ww4e89232,<98qefqq75qhkcvljhffeqq;rrqzxvnnvcl",
"hgbcwf0wwfgjglkgfzq7ur;ylkzcxkf094<<#5::hfegfjgkhfzckcxxjdw931>5;6j0hdgg085:55779w400998432133988888q757hxchggf98907555qzcvbvzxc",
"kkzxkxe0we0fjlhkxxxq7;yyqqlxkhg93,$$o-;;qffgghkhfjlwkcczgfew42>5;6wfjgff42%#555984240we02331,1<3998555:qgjhwdgf80w05:55qlxljxxcb",
"vgxkvzgwf0wfjxfxxjzhd757uiglg8e8<%@O#-rr5qffjjjdefkccbbh0ffw0945:538ewe4<,%#;550w412348423113899781>:=7qgk8dew0w90975:55qqw0jlzc",
"bkbnvczlzxMvdlggfjgdfd6:uuqjfdww2@@@:;ttr7qdefdfe0wzllxhedw8w9245r58fw888%$=*-55723843<<8822245#5775:557fjhjdwdw948>:::7qqhxbcvb",
"hkvcxxclljhgwfdgjeggde95yyq7qww1$,@o=5r;;70dgdeewwfgkljhge032821+&56e0431$o#--;5#=:::5=o2821<25#>:5--;;5efjjkdeww288::5qjgflkccz"
};
