/* XPM */
static const char *arock4[] = {
/* columns rows colors chars-per-pixel */
"128 128 58 1 ",
"  c #0B1707",
". c #171F07",
"X c #1B1B1B",
"o c #2F371F",
"O c #232323",
"+ c #272727",
"@ c #2F2F2F",
"# c #373F27",
"$ c #373737",
"% c gray23",
"& c #1F4317",
"* c #27531B",
"= c #3F472B",
"- c #2F6323",
"; c #37732B",
": c #474F33",
"> c #53573B",
", c #434343",
"< c gray28",
"1 c #4B4B4B",
"2 c gray31",
"3 c gray34",
"4 c #5B5B5B",
"5 c #5B6347",
"6 c #676B4F",
"7 c #6F7357",
"8 c gray39",
"9 c gray42",
"0 c #6F6F6F",
"q c #7B7F63",
"w c #777777",
"e c gray50",
"r c #3F832F",
"t c #439337",
"y c #4B9F3F",
"u c #53AF47",
"i c #5BBF4F",
"p c #5FCF57",
"a c #67DF5F",
"s c #6FEF67",
"d c #838383",
"f c #8B8B8B",
"g c #939393",
"h c #979797",
"j c #9F9F9F",
"k c #A7A7A7",
"l c gray67",
"z c gray70",
"x c #B7B7B7",
"c c gray75",
"v c gray78",
"b c #CBCBCB",
"n c LightGray",
"m c gray86",
"M c #DFDFDF",
"N c #FFFFD7",
"B c #E7E7E7",
"V c #EFEFEF",
/* pixels */
"jjlxbxvcchggfdjjejxwjj89695;;74$$o#:567575weww90w0e90g0ge3%%,<1,<:trqdw31<#:;rr5r;::55:5q7575qq2365-r;55qhxfkdw034w01#:7qjkjkzvx",
"cbdxxcnnvghdekllllf0fl0w8qqrrt:77;:5qfd555q890984480we4842%12331#:;y50w922#:;;t555:3556qqf0ewgfd09067>:>7hjhed9434865:5:qhddfjlh",
"zxlcjkcVVbkjgzlkxbdcxfw98qjqrr:*-5qclzhw5>6q0wq0948949832<%,132<,:r;qdw026>;565>555qqqqwfjgzffgddedqq55:>qdhw094843655555qgdgfkz",
"lvnvvjxzkjkxcccxbzzle994w9qqq--::qkccjf08#::56qqe98494311%%<30<<%#;5::555#55qqqq93<9we0edeglxcljfwehgq555qfdf0w94498::555hglzlkf",
"vmmvczxvdgfzbmxBcjzhgdhdjxqq7--:5fhvchd42:::5:158808882,3,23889<1#;;tr55:::6edjdffgkgfjjhdwfdlxdedwfhf7:56qqwddw834##:::qlzcckw8",
"lcnMcgjgehjkzvvc0xcchkfxjfdgjq:55dvcvg932##:-5>:%,264488033282325:-5yiit557hhjgffxjgjjkkhkkjjjxxjhfgg85>55557dw942%#55;5q7ffkggw",
"xvllxdjgkgfwefkgkkfzlkjzgffhgq57lzjhef3,,##==:5:=>##238w414w948<:*-5t;yqqefzzgdjkxnccxgjllxf0fdgcffgdew455555q73>=#:5;;r77ffkdjk",
"jlbvzjcfhgwew0dhzbbbzcxjefhefqqqqlljd821<#=:=57ur:#o%256q4094015:;;6qqqghdjlhljgkvMzMmzbkfkhzgxjjfedwe87q55555::#####::557qffwwg",
"dgzcjjhhgddfgghjMvMkkvgzfghgjqq7yjhdw4,%$#-tr7yiy::###:5399782::5y56hejfjhhhhghhvjglMBBjlkkhfjew8w0wew07q75;555::#:5>5557q7qwweg",
"0fegfd9dfkkbckjjbMbkjgfgefdeeww5554w94,,%#rtyppii5:75##=:848:55555effkxfdgjhjjkzckcxMBnbfewelzle089849967q555q5:5q09888:5:>:8edd",
"whjjjdffkvbbcnxvczxkzjfffw0dggf6::::342##rryjcNkuut::555=#5#:75760fkfxlkjxvbxmmkkllkMcnldw00fedd92498977755576>9w090wee842<#5qdw",
"gehcd00whkhnmxjckgjkljjfwedgfgew>5::::5#:-7jlxkkqqqqq5-;:=*;:5qgwfljklxxxcvmMBvlbzkfjvvdww88w8e894899q77755777eeeeew0we98<%#5>0e",
"qqjxek0wdfkkzhzkkfhkkfe0ddffhfdw75-r;5::#>egfhzkdqqqq755:-;;5qhghlkbxvvcbccxbckczgfef8990w1482333280w075555>7eedddfewff84843#:7q",
"qjhjkzgjhkcxggfdgwfjh9efehdhg9e095;;5#8dlkgccllgeqquq7:t;;55qqzvlccMxMcczvczfhzd0809988w33822%114433804::5:qgdfgeffffw4w99041#:6",
"5qhhezjklfeghhgwdwedghdwfefggfww75rr6qjhjjbbxkdwwwgqqqq5r656fjkfhgcvvBbkzkklfhd3848384401883334824ww994:56khhggdwhfggwegd8w92##:",
":589djgjggfeegdwweddded08wde29dfq7r7qfghzbckfeewwwedhj77555qfhfjhfzcznkzzgkee9433311248w24823340809984#:5gdjljdefMvjgjjgedd09##:",
"=#7wjde980dwdwhjhgd90fd9dfd3%e0eq5qqgjljxxjjddfdw0wdf95qq5>qgfzgjjjjhefhjfw9932<<49814e99w,9433387q775556fefghxbnBjljjhw88ww95#:",
",:#4w990effhed0weeddw94009388w007q66hlkkzjhffdeew84349:57>4wfgfjfldw9ghf9499424244208334832324qq777755:qhfhkllzxBhdhkkk883248834",
",##,89we0dff990wgggdfew83310dfe31:55glcbznxfdwww98443,:5=:q5f79fjddedegd9008349848899w3892,12>36676q555gfgeggfhkfeefhge492133449",
"2###440999000wgljff99899d98wew982+:3wdzccjgfeww883342o::5-5;5540wew0ede94d0w8909984889883242::>7qqq77qqqdffjbfedwdhjk093,1232280",
"8<#=:38qq0900wgfwww009ee928090f98$o19fgjk0feew421134:#&##**-:#1209489909wwef48f89w43988w9725,:#:7qq57qq9gfkjzw88wjlzkw82,22489w9",
"95:65#:6>899ewdefg8990ww89009w0865#>0efw49w0041<<283<##;55;;::#$1388w9w9edf84wwww8955738245####::=5qqjhheew09148ehznch8,%,,<88w9",
"97:5r55=57qq0eeew08888099de00w07q::569889w9821%,2375:#:55>65::##<1340ww8ee389848w477655<>55:::-;:;56qkjw9w3289989xcf998<$@$,4888",
"675-;:5::53555709832248w949<>5695:5:50wedd04,,%,12:::5556de05:::##280843gdw04444433#::::::::*;;55555qfdq880weeegffw984<%@++<2496",
"qq5-;-::::55:#55::55523<,>5#:#555:::590ed0842%,,2#::556fjdg088:#:=:78880f9de3652#>$o5555:5##575qqqt57q08918fw9000l042,%@+@,29eqq",
"q55;;:#=5::=:::55:::::###:::5:555:5-55qhw04421:>>:::63ezhhwed93:::5:,30qwdww485:5:::75686367qqhzqzttr59qqwdgw98wd8831@@@@+$29qgq",
"765;;;:=::::::5;;665ryr55557555;;;;;55557e992,:=::563wjjghgfdw6#:#::5qqhkgq776:::557q4wwdffejqhhh65ytr577qfe0w84400932,%3,28wqq6",
"77rt-::57::5::57rq5q;5q75qq56::-rrrtt5:#::>>6#:::566dfjkjhhfw981#=-5qqqqqqq55:::600gfef8jgj0ehghq:qqry;>6qqw083334884313448wdfq6",
"qttr;q5:5lq49557q67q677qqqqq4<,55rryyt55:#:=:-::56qfjhzlzgw0008,%:;;yyqqq5755=:4effcjclxgjkklklljqqqqtr5555567678833009438wffe98",
"qrtytqlqq0ww90ddfqjq9qglzkhf0884877;tt5-5::-;;::59fgfhljhw98082,$:-rist77r5557q9dfjkkjzzxjljcjgfqghqqyyr5:=:::5:>828we0wwweqefw0",
"q;-t;qgjkdwehhxhhhjkljhkzjgjw8999775;tytt;;-;5:15wdhgfkfw8w9843<#:;ttrt6rr5>99fjlkjllkxkgxcvxx8wqqqgjqtrr5:55675>,43800799wwff9q",
"q;r-5qhklxvzfkxxxkjllcbbcjjdee0e95::;tt55:::5::<w7efjggdew88085##:;ryr55;755wefhjjjlncmvmxvvzhffdww07qqur;;;5q55>5>,,5wwwqw007qq",
"55;*=7ldkvnnnvczzzjhffxegfw880e032:::;7q755::5557ggjggfdew4e8:>##=;ry755;;57wegkjznncvmnBmxlwedhhffjd5qq5;r;7q7892###:57qqwe7qqq",
"5-y-qqjllzlcxllhfdfgefgfhfw89093>>::557qqq8>:-5:56qdddwew0474>55tyiy55765r57qfjzmMMBBzbcljhe99whe0ghqq7q75r;klq8483%:5>6wehjq7qq",
"5;yrqqglxzjkljgfewe09dgkgw938488:1::55wwd988>:55:5qfgdeww8255#:;ruy759##5;7jfhkjcnBmmnmvvzjkjhgf0wedwqqqq757hfeefw84#:::7dgqq7qq",
":;ty77gggdede0d8488480w09233890852:779djcjf995=5:556edw808:::-55rqjqqq55557qflbcvmmBVVnzjkgjjjffhwdewqqqq;;5wfggw312$#r55q76qqq7",
";;;;;56dgww9ww8<,332888990809098%##57qflvblw04:::5:568w835:5ttqqdkhqqqqq55;qghzxnMxMnchfgkjjkhggf0ewwq7qqtr7whgf98242>:-:657qqqt",
"555;r-q54088e03<,<2664900998962<$#:56dlhclhww93#:55#:6761#7q5qhfejhgzhq77rt7fjlvvcxlzkfhhkxlhdfew09efqqqyyrqcceewdfd06::;7qq7qty",
"qd5:-55:>4q778441,>qqq68888876>##-7qdhkcvnxhde03::5::75556qqdjjjjfgehgq75:;5qjjhhdhkhfhhlxzzd008ehf0w0qqyy:5fgggkgw0w83:5qqqqqrr",
"qw87q7:===243465::>565245555>6>:5rqdgkxnmMMljdw42#=-r756q7wewjcjjhe80907755>qjedjnlww8ffjlje99440ghew0077559hhjf0004884:rryqyyyq",
"gkfe77##:55#>6>5::555:#=::=::53:-;70ggxmbMnzgw0042:r;5577djjxczegf0wfde75=5qqkgwdekf80fedfgw344840084845>:5:wew0wdedd93:rt57qqcx",
"feww900:555555##---5;5;rtttr-=#=-;5edjcbnnzh049943:5;709gfflxlhlckhddfd7:5;qqjjhghzdfjhee034008wdhdww655#:5>w9wzkdde0985rt55qxcz",
"hcw8dhjh9::55;;5;r;rrr;ytuttr5:-ry80wgzmvbcf43388::55dfdllkbczzgef940ww755tr77fxkjfgkzhgjd800wdfw0wew456555#9eghhddew095-r55jcbv",
"ddhhh9wdd7>5;ry;;7q75;;;rqrrr;---:80fedvvcf8<$,<,#:-6wdklxlcbjkfww980e9077;rqhkzjzkfhhdgf9w000088ee84437>>##0fgewdde004>5;rhlxze",
"dhflcjweg72=-;trqq70dq56qq7q5>:-5:7ewwfzbbf8%$%13:55wjjjcvjkkhjkd049889w:=57qqgjlxlcded99042338880w848894#$=9hf80ed0833:#5rqjklx",
"zllgwgww75:5ryuqqeeeeeffffe001#-:=5ggkgjjzj8%@$,::55wghjkkgfjkjf92w90488:#57q0ghkkff0weew481,%%<<48334886::5qzf0wwe88435>5uzxvbv",
"chjfkfe95#:577qgd0dfjjhhkgww332#:=60ehc8f001++%#:::ekhxkzzzjhzh08eew9825::5;509fefkjeew8<<3$@$$$<222<>55:;55;kghgw988343:5qxvvnv",
"ghjchzg85#557dkjgzjkzgeddgfw883##=$13jzee21%++%#:569wjjjzkjgkhe888w8343:#o=5558dwjjgfd01%%+O+$,@,<,#:;r;5:-6qqklkjd821<1:5qzcxzv",
"jjzhke00::;qqjjgjhfgkggggwge0441#:#32fhe8,$@+@##5qqjlxcjkljddw433411<3:#=:#=#50j80de8322<%+ ..<##o#::555555557kxgew82,%,%56gzcvz",
"hdw0e2,2#=:7qljgxkhlglkzhde00894##==39gdww<,$%o=5qqjlcvxljgdd92,<<89455#==:==#>35lk0<231##::=:555#::576753#554geh008<,,%$:5hkkjf",
"wfew991##-;5qeweegfdhhggwhffeqw94#:;:7dde811<##-56fgjxcchlfe832<13444>##=55;-:oo#34<38>::55567569,227eew09>:558w909922,$@#29dghk",
"hhgew43>5;;5jefjlbczfdwegjjggfew9::;;7909882,#5-56efjkzlgjfw848483333###7qqyt;##:>3465::5657qhflj99gjffffw955769wfe843%@@$,9gggg",
"gded9905:5qqdxhhcbblffdhjldghfeed7:;r5540d933#;r70gejkhggge809488831##:;qyqyy555:5::555q9eewlhljkeewjlkkhd0:555qf938884####8wegf",
"w0989982:577gcjfhzlfdjhkzjlhwhddf75tutqqqq0935ryqfhjhhxfg0e080dw081##:rrquupyy7:>5;577qqhwwfzjzlggdwdehhfe7q55::q97994<%#=:9dlgd",
"w9w9444>::5fhjgkhgfekjjxkkklllkjfq77ryrqqq745-rr7jhxllede900weffe41#:r;ryuquiuur:::>#<0lvzvbblkkjfdd0djjfqq7:=--*:5561,o#::58w8e",
"009882:=:55ddwewdfdfdhlhgfjkllkgffd65rr7q756:;r5qhjkfeww4880fffe08>5;;ruiqqquuui;5:%1wglxczkxxccj844wffdfeq63o=*-;;56#5::53f0edw",
"9w9842#:567e0efedwgzgdjgjxhggjjhgfgq55;qq55<#;;qqqffdd99834ed0eq75::57qlllciiayt;533dewjxcxllvlxw0e00fefgfe95##=y;5q5:55::7f00ew",
"838895#*;5qgjxgdhglkfkkjggffdfhjgfqw85;rr5:5rrr77qffd84983wwweeq7::57qgkkjjj7iarr7f0hjxzjjcccbcg9980w39edfd455:-5qq7#5#o=55h9ef0",
"48888>:;uqfffdgfggcgjgfdgfewweeddf0q4:5r*::rrtr5q57qd0084wd99e76>::5qfjjhzz777;t;7efglxxgjhklhd0099090w80wwwq5775whd98,%:56w80ww",
"834441#rr7qlzffdggvgedhzjhdfeedfef0e0>:55;tyuytr5:58098200qwe93>5:qjjkzlzxd0wqrty5ehglxjgzzjjfzd08898w889w967ryqjkjfw447qr549e7e",
"83<%2#--rtzhfee9fjwdfdhkhfhf00e8ww7q5>5;55rtuuy655>5:>238763832>::dhlxccvje9805ru5qkgfgww0hlzfkjg9884w8488485yuzzzhfw9q755556458",
">#5>=#*-5qjf899gjdgfdgjjjl0809830wqq65:57rrrr7755565:=#%#:5221#@:6hjglnxxe0422-rrrhdwgkjczewwfgde0089983994>:;qjzv80w8q755=:#:qq",
"::r::*;:6qxgh0wffdlhlljzzjew942249qq75555657777eqw255::::r;::>::55fkvkkgj84211;rr-60eedflkfeezgfw8832123425:*5dfjd83fw85;t:::555",
"-;r;r*::7khljejgzczjxlfjkhg00889ew7qq:=:5:55q9wfqq7qq6555;y;5::>57fgwww932,<1#-r*:540weefegfef00d444213822:*;50ff88879455:5r-5:5",
"#:ytr==:5qq7edhzvnzkklnczllce4444167>5:5:55g9ddfgjkgd08555;;rtr5509e94121%@@+o#=:57799wfeeew980g0212%%3345::t7039fw846q655;;ryqq",
"eqqq7=:*57q8ghjflhljjjhlcjd8114,<2455:=::6qehfdekjjhf0e065::;r-:57d24311,$@@+o#==;5q0w08w0w9de9832,,,122465;rq73989865q7tyq776qh",
"fgh7:##=57qdwwdzvljjhggjle41,%%%3wq>>:;::6klfzjxzhjf0gfq65:;r;;r5:2<4%,%$@@#@###:;55q18qwdfgf0083<%<,1w8485r5#q56q7qq;-6quq7jgvv",
"fhj0::555qjqfwgjlvnxegklfw3,@%,30947::-5qqw8gzcnbjdfdew66>5;555555##:##%#ooo##::#;u749qqjckwd42041%<3833465:#:5q5565::;t5qqklxbb",
"gjgd::5;7qqlhfeljh880gjfd92@%<388399:-;5qq39xmvcxkd0eew05>5556665>=###:::#oo:5;;:;;77q77wqqdfw9822423428weq:;55q55:##5rtrytzccbc",
"gg79,=55qqq7wwgzkw000e90882,12888483#;577wlzjbnchfdww9995555q70wde921<#555#=:*;;5-rq6qqqdjf0ege09222334889::rr5>23:#557qrrqkcjlx",
"ew09755r555534fefffgg849441244000432#5556dxcmMvxzhfw8985#55qf9fghfww8245::#::;5::;r:qqqqqq9w7080333222434556q7qqqqfhgqqq:56fvjxe",
"dw86q7:5-=55388808jjdw09313338w825755;55qqzbvbbczgw8323::7:qg9dffgd0we0w<,3>#>5::7r-57qjqq995531<2,,21245:55qglqjjccjhjq7699dkj0",
"d083::5-:55>443883ddffw992908848q7555;57qqlklkhjfe942,1>55>7ghfdffdfeeeg0909675575rr;7qqq755552<2e93,%,3::5yjzzxklccbxljqq7:6709",
"974556;:-5:55:>4414ww0w8ew99428d76655r;7qfhhgfhf094338555570gljjljjkhff0few0w43q755r;576qq765=55>5><,2<$#:7ulljljkcvbccllk7<7667",
"55265:::;=--##o<>580w009200848qqq675:rr6qhhhfdd9433488>:555flzblzlkhjjjfeewdw0wq777;;5>:>5q75##ooooo#oo#:5qclkhhcxnnhjxjxld5227q",
"8655:5;r75r;:=##:>694d4<<49ew7qqqq77;yyrqjhddeew88999855:5qhcjzcjhxzkzcxfeweeew00wq6::::5:55:%%$@oo#=:---qqgfjljvvbnzzkhgfh72#5q",
">q655:tuu#5:--====563<2%134885qq775;5;rtqq7w0fde0wwwq2#::67dkgbncxlcxzzzfwwfdfwddqqqq55555=>11%%%$$#=::-;yqjkccvccMncczgd0f0,#56",
"q5trtupckk5#::==:5;5512<235615q5:5;75:;t756qqqhgdedd7:=:5qgwjlMmMzjxnccceewedffww86q775::=#28whw3<,%##:::yjjlcjzlbxxleffw8824:=5",
"#:;56izxcve4wq6#o-**=5656555>:=:5675555ry67qqqjgfdqe9#::5388knMBBmmVvxjewfd99ewe985q7:=::57eqjgge0895#:::qqfjkgjcnbxke99wdw42#5=",
"#:57qbNxbcj9e765>#:--r5;qqq5:=5:>77:::5;t;7qq56qqqq7>::::4wkxllxzmmnlcdwwwe09w08497q6:#=:qzkffgfjfd07q55577dghklkxlkh49894934>##",
"#5q7Nvvczbg940eq83:5rr;yur;q55558fw5:=;ruy5::::5575::5566>wjkjkvzzbzjefdff03448007qq6=#57jlhdefghgw085=-5qq0wehkjzcbgw0099ww8455",
"55uqkfhxlvfjedf0gq5>5rtuyt;;777fkfw75>;uuir;*5555=&;-;77qqfkxxjzcvzhhgffde944ddee009>=:5qgjlfhfjgd98555-:qqeefghjkzxjf88904802##",
"::qqdeglfdewwlkjhfw32=5tuyytqqhjgw43>5;r;trtr;r;5;;r-55:7jhjkhkbBMjeffdew00849wd09095577qfjfffe90848675:5uqdggjjjkhhjf88800012#o",
":5qze0dkckkkhedje89483:5rrtrqkzkfw94:5;;r;5:#q557qq;57qqqqefjd0gchddddw0ww9984w9efq655:qqdggw88w88w7qq555qqfghkgkvccjf8889w333,#",
"5qqkkhjjnklkghlhdge9884::5tt6fxle92,:rytyqqqqqqqqq755577qqqdfgwfewedddedw94448w0wfq5:-tqqgjhdee0w990655-5qqqfjhgjjjhjg04wfd083,#",
":qgxhjlbBbxcvclkfdlvk04275577whf81%o5r7qqjfw0hqhe6675;55:7lhgjkfw90ew98088433890wq5::;rqqedgffgdw0w9455*;qqqgkkgggghfddeeww0895:",
">wkxkkjnBnzxkkblhkxgw084qq75790w,$@o*;5jzxzfegfeeqq55rtqq7ljlhd940484248944248d0773=:57q7qggjghe0e0865:5-7qqhfeghljhfw0988888855",
":elldhcnBMcvhkzzchwew449dq755:#@O+o*t5hlhhzgehfdqhq#5;;55>jzljee44844134843448556755yq7qq5qqhqfedw0765:::yukqddhjjje081<14888555",
"7ghghhxbBVmkjkbzkjgfw000d04#::=o:--r;qkgghlhfkhhqk77q5yr5:7qhjlf844331288089497q66:ryq655:555qqeww4::::::quqqgfghd0ew422848455::",
"qdjjhhjvnMvjfgfffwffdw0w9w4#:;;;;;tuyqlgfkxggdeee76q6=-r75:56qhjjf02348409wwww0qqqqyq:q6435555>543##:=:::5uqqqfgfew84213868465:5",
"uqddfkzckjghge0wdwd0df94834:5rttt;7ulghljhklfe0096q766-r;5:::6qgfd99wdddwd0wwqqqq7ty66fddw482133332<19q>55ryq7qqfq089448578w65ry",
"55fedjxllhhkkkfffewwd884448:=-r;;7qjjgvbnbkjhe988qqq775yyt;::57qq7hhfqfe0ww9qqq77;t7kj90efgd83440999wgfq55;qqqhq7qq643456qqq55:5",
"57ddhznxljgkgkgfwjwwe84<1577=::55qkzzmxjjnhgw94190w9q5:ttrr::55556qgqqq799qf9d77555qzj9w999ghf0gdfwehgew5=5-5qqqqq7767566q755:-5",
"5qfgzzvvkjwhhlf00f89998138wq755:5qhlckxcxhweew90w8wf85-rt7rt;6::=5:557qqq80q7q7755;qqfdf09w8wdggggffhfew8:5;7qqqq665765*-rt-:#==",
"7qjqglxllhhddhw98423882<2408::##:6jhkhzlcge98883288ewqtu557qq55=::5555557957q7565rqjkllgkjgjjhzhdfeghddfqq:5;555555>5;yrr;r;;-55",
";qlqqjxljhl90009434841,244884o=;yq7wjxjlnj009482<0w887yu557608,2>2>:55541<#5qq55rrqcvljlxclkzjjddfhhgdfw005555::5;5:5rt;rtrrryit",
"r5jf7hkzhe8898233440223143345##:7qqgflfgffe93342<38955tr5588dwwwe913>:2,,::555:-yulvvchhgjlkhfedggggfde080q555;trt5;55tiyqqqyuy;",
"iquqqqfze99044043213342234431@#:qqqghe0w0e9082333998#5;;57wededw0ed833<22:5rr-5;ruivxzhxlhjjdgjhedddw0w08q75:5rrqyuq7qlklqkqquyu",
"puq7qdfeeejf94229881431,1<2%,@#:5qqqq8f0w02303248382#:-;qqefddffgdew8989257r-;;rryikjfgccvgfjhhgwd0w0w099885::57qlkclkjgjkjljqyy",
"iuy77jqdefgfe000wwww989e<238>@o5575509w8484942238455:-r57qhdggwjf9ddfewhhqqq56r-;tqqjdegjkhfgghgefedee8980775:57gvjwhjdfhkkkgjqq",
"qit757778qfdfwfffd09894909555oo--::5qqjfw0we033077755rr5qqjhfhe09wwfwwdfwdfqq>:5yuuzhlkkkghhjkfdedfd04489w05=57qljfgljdhjjjkgqqq",
"qqq555775qq99w90ww08898422#:6#o&:::57qqqqhqq088q7655ry;5qqqdghf08www00w900fjq5;ryyqckjqhzffgfdweghde8998884::77eehehgjjgwehjhfjj",
"qyy--5;r6:##56364443352<#:565#ooo##::775>5948337555:--:5qq69900eghf00wfeew943:5trsiqqqqjfjhdfggjlhfew032555::7qjjhg931248dgffew7",
"7qyyr::;5:=565::=#::#:::55558>#oo##:::#=##<2:1267>:--:::5::3439dfhfddeddffd83::5ruqqqqqqqdfqfjklzjfw433457::56fgfw993,1<40eef0qq",
"7qq;y5::55rttr;-r55-;r;:567ww88,@@#55:::o#ooo#565::-;::55;::##10eefflfwffd0385:555qqqqqhjhqqklzxlkw43486555r7qdkgweffd09319w0007",
"hq;5q55567qyrrt55:=:5rrqq6wkjkj8<$:5tt;5###o##:55=-;-:575q5=::#6wwdhj89eeww4,#:::=577677qqqkzvjklg909q7655;rt7w9wlzzxke81<4839e0",
"q755775qqq7q>55556h5:5qqfhhhjlj82,,:tt5###$#5::5;*r;;5:648,38>5:3wfe18w00w82%o.o#=::55557qqjfgljjg897578775--5ffhlzvnlfw81322ewd",
"5q756qjkgqqfe090fjeehjqvxjjlxzdw8%$:55670821dw>=:-r;5559ewddf81:6de8effww42%$o#::##::;rt55qqqgjjgdww850675::;qjkkkkcvvj9411308wd",
"qqr5qhffhhgjxjkhgffhljzjffcczjg9,@+#559de0wfd422::yuqqqfgffee937529ehffw082%$o#=6448255r;55qffqhjgee7qqq65:5;qfjjjhkzzgw4228e967",
"q5rqfehxxhcvxzcljljlgzxedgfddd92@O+=#8ddd0jd89844#yiqqjcjhjw831>q7wed9w994<,+o*579e999566556qqqgffqqqqquq555;5qhgggjljw3<,130w67",
"q:;qwfhhhlcxllxlbcxhjjhggdfff041+X.##0fddfge00ew1<5rq>jzjjj432<::50fgfww93,$+o:5qw000fd7>>5556qqqqqqqxcqq555;:qqqjhkf08<$,2877q7",
"6;t5gxxchjjjkgjklcjfefk09wdfw82<@@#:9edddfeefdd0<#:=:q8fzckf41,1#:wfjwee83<@+o#:qfwghffgww6555677qqqquuqq65;r5qqfedfdw8,%18wqwqq",
"5;r>9dxvkjljzkgffjjddghedwdw<82,@#=:wwghgjgdww0w912<=5:dfee81%$$@:>wfddwf4<+ o5uzjfdgxhjedw6555:577qiyqqqqq;r;7qqffe0891293982>5",
"ru;55qfggdgewdweggwedw0w9485>##=#-rqjcxhhjfgfffew887::;w9ew91$@+o-7lhede43$Oo-5jcxdgfcjjd9e85:::::;ryiyuyuq5;;;qghffhd8898<325>:",
"utr5;77ww090df909e884w0988::5rrt;rrqxvckjghgddffdd0e8555w081%$@+o*6wefe04,+@o5rcvxdfgee09ew946655;;;ryqqqtq7rr7qqhdjhew0744##::y",
"irryt5:222238993w9218421,$o=5;trrrqhxbcczkjjjgddffe8825q:23<%$@O&r>effd943%%:*qcvvhgjefffdwdw9883:55;qyqqqq5qtq77qhhqqq9431::-ru",
"uytr;;>#%,,$#1,11%,%1%,,$o####>577qqzczxzkjkzhdfdjww8<$:::31%o$o-;7ewfw083,oo5qjljgjgejdgddwwe487755557qqyq5qqqq77qqqqqq51##:5ty",
"lkquupt5=##:o@++@+%%%,,:#@:483305576fglfkzhdfegghfff0w933555: #-rr9dgjje82<%:-qhjkjjhhfkjjgfe90qq77;y;57577qklkq555565qq:#=:;ryu",
"qqquqi7##=5:#o#:o@ooo#::55qfwfjh056>7hf9fjgfedjhhlhege0844:--o.;y5dgzjfg82%#55qjhjfxkjgdfgw0www0qqq55;5555qhzjgq65556qq65557yiNN",
"kdfjqqq##:>:55--5;5::55rrqkxzlkw93:=:480dfw0fjkffewd0wfe92,##-5:5qgzkfdf41,@:6qfdfhkljewdjw99908977q::555qjbxffgqq55:7q7;5ryxzbv",
"efjjhdwwqfqq6::r;-;rrryuijzxjxx9395555448ed0fjkgff0999wewe4>>55:5fhffhw9321$##9fgdhfdeewef8we80qegq76>:5qxzbzjgfgq7555qrqqkxjvcl",
"zljheee8fw9w935755;;rripclvbhjzkf085;>9980dwfhhhhdwewewwdee45:55:gkzjdw0442##5w0fw0ef2049e8843887wqqq755fxznvkgfgjq>;755uxNbxxnn",
"ldjj0e4we09de0hw0q65yuiicvbxbcjjdw41:>434fefkhfghjjlkjjjfjhd91=-5qhfdghe441,#50ehd9ww4e89232,<98qqfqq5>7hjcvljhffeq7557qlkcvbvcl",
"hgbcwf0wwfgjfkjgfkq5tyrqlklcxkf094<,#=#1ffegfjgkhfzckcxxjdw9215-57j0gdgg095:55690w4099984321329996887659gxchggf989005567kzcbvzzc",
"kkzxkzw0we0fjkgjzzzq5rip7flzkhg93,$oo=:>wffgghkhfjlwkcczgfew4255660fjgff42%#;-5998240ee02431,<,3776555:wgjhwdgf80w98:55qhzkjxxxb",
"vgxkvlgwf0wfjzfzxjlge7;uyqglg8e8<%@ #::5:effjjjdefkccbbh0ffw0955:558ewe4<,$#r55qq81234843322348977>55:5qfk8dew0w9099555>qqw0hllc",
"bkbncczlzxMvdkggfjgddd6-y7qhfdww2@@o:;5557eeefdfe0wzllxhedw8w93557;5fw888%o=;;57q>4833,<6633284,57755>56fjjjdwdw9443>5:5qqhxbcvv",
"hkvcxxclljhgwfdgjeggde95q7qqqww1$%@#:55677qfgdeewwfgkljhge032821+#rqq0431$o#;-565*5:::,#563::55,>>55;555qgjjkdeww388::;7hggllvcz"
};
