/* XPM */
static const char *arock3[] = {
/* columns rows colors chars-per-pixel */
"128 128 57 1 ",
"  c #0B1707",
". c #171F07",
"X c #1B1B1B",
"o c #2F371F",
"O c #232323",
"+ c #272727",
"@ c #2F2F2F",
"# c #373F27",
"$ c #373737",
"% c gray23",
"& c #1F4317",
"* c #27531B",
"= c #3F472B",
"- c #2F6323",
"; c #37732B",
": c #474F33",
"> c #53573B",
", c #434343",
"< c gray28",
"1 c #4B4B4B",
"2 c gray31",
"3 c gray34",
"4 c #5B5B5B",
"5 c #5B6347",
"6 c #676B4F",
"7 c #6F7357",
"8 c gray39",
"9 c gray42",
"0 c #6F6F6F",
"q c #7B7F63",
"w c #777777",
"e c gray50",
"r c #3F832F",
"t c #439337",
"y c #4B9F3F",
"u c #53AF47",
"i c #5BBF4F",
"p c #5FCF57",
"a c #67DF5F",
"s c #838383",
"d c #8B8B8B",
"f c #939393",
"g c #979797",
"h c #9F9F9F",
"j c #A7A7A7",
"k c gray67",
"l c gray70",
"z c #B7B7B7",
"x c gray75",
"c c gray78",
"v c #CBCBCB",
"b c LightGray",
"n c gray86",
"m c #DFDFDF",
"M c #FFFFD7",
"N c #E7E7E7",
"B c #EFEFEF",
/* pixels */
"hhkzvzcxxgffdshhehzwhj896755568$$o#:56qrt5qeww90w0e90f0fe3%%,<1<<:55qdw31<#=:5-5r75;;5:=67668qw235::5577qgzdjsw034w02#55qhjhhkxz",
"xvszzxbbcfgsejkklkd0dk0w4wq77q:565#5wdq5r57870984480we4842%12321,#:r50w911,#::5555555380edwewfds99987::5qhhges94388655-5qgssdgjg",
"lzkxhjxBBvjhflkjzvsxzd084dhyut-:::dzkkfw556q7qe0948949832<%,132<,#:77sw018=5;75:556qqw00shfzddfsseeww4::5qsgww94844655;65qfsfdjl",
"kcbvchzljhjzxxxzvllke994w9sqy;;::7hxxhd08#557qqqe08494311%%<40<<%#:5:2443@#5qqqq73<8we9wssfkzxkhdwegdq>::7dsdww9447655555fglzlkd",
"cnncxlzcsfdlvnzNxhlgfsgsgles7:::5dgcxgs43:5555576908882,3,22899<:$:5--:5###5eshddddhffghgsedskxsedwdgd0=:5qqwsdq6>5##::5qlzcckw8",
"kxbmxfhfeghjlccx0zxxgjdzhssfg7:55scxcf932#*-5555##>644880432825>6#5;ruyr550ghhfddlhfhhjjgjjhhhzzhgdgf842:5557qq755##55;;q7ddjgfw",
"zckkzshfjfdwedjfjjdlkjhlfddgdq57kzhged3,<#*--55:=5##>48w418e988<#::5r;t7qedllfdhhzbzzzfhlkzd0dsfxddgde03::555q755:#5;-;r77ddjshj",
"hkvclhxdgfwew0sglvvvlxzhedgeds77qlkhs821,#*t;rtq;5=##>56q4798024#555qqqdfdhlhkhfjcmlnnlvjdjglfzhhdeswe89755555:5::#:=::757qddwwd",
"sflxhhggfssdffghmcmjjcfldfgdgsq7qjhsw4<%o=-ttrqyq55:=::5377781##:q57hqgdhhhgggggchfkmNNhkjjgdhew8w0wew0075:7555::##>3577q77qwwef",
"0defds9sdjjvxjhhvmvjhfdfedssewq5554w94<,#:-;uiiku;:7r:==>657:5::>5qqdhldsfhghhjlxjxzmNbvdeweklke0898389867555q5>5w99887:5:5:8wss",
"eghhhsddjcvvxbzcxlzjlhdddwwsffd6555>35>##55qgjkjuuy::t;-::5:-r5567dhslljhzcvznnjjkkjmxbksw00dess9248490765557759w099wss84::#3wde",
"gefzs00wgjgbnzhxjfhjkhhdwesfdfqw56-::55:::6hjlhkqyyuq5;r-*:r-5qdedjhjklzzxcnmNckvljdhccsww88w8e893888777655677eeeeew0we081%,>>7q",
"qqjlwj0wsdjjlgljjdgjjde0sddfhdsw75;;5555<3efdgkjsquiq5--;;ry7qffgjjvzcxxvxxzvxjxlfded8990w1482333280w705>:::7eesssdewdd84843<:7q",
"qhghhlfhgjxzffdsfwdhg9edegshf0e065555#5dljfxzkjdwequq75trrtrqekckxxmzmxxlcxldgls0809988w33822%114833875::>1wfssfeddddw4w0008:#:5",
"5fhfelhjkdsfggfwswesfgswdsdgfdww75555qhhjhvbzjsww0dqqqq55yr6qhjdgfxccNvjljjkdgs3848384401883334828ww975:>5hffddswgdffwefs8e03##:",
":589shfggfdeefswwessses08wse29esw675qdfgzvxjdeewwwedggqr;;5qdgshgdlxlbjllfjee9433311238w2382334w809965#:5degkhsedmchfhhfessw9,#:",
":#77gse98wswdwghgfs90ds9eds4%eweq57qfhkhzzhhssdsw0wsd75yt55qfskfhhhhgedghdw9932<<49813e890,9433380w065555deddgzvbNhkhhgw88ww94#5",
"::#5w09weddges0weessw94009388e077q56gkjjlhgddseew833475rt5>qdddhdksw9fgd9499424234208324432324q7777655:qgsghkklzNgsgjjj883348855",
"####67qs0sdd99wwfffsdew83310ede42:54fkxvlbzdswww98345#5;=:q5q08dhssesefs900834984448903482,<13366767555fsfeffdgjdeedgfe492133486",
"3#:=580989009wfkhdd99899s98wew982@:2wslxxhfdeww88334:#=-r::5:34w0ew0ese94s0w890998388888323221>7qqq766qqeddhvdeswsghj093,1232280",
"6:=::24ww9990wfdwww009ee938099s98#@<9dfhj0deew421124:=##===::#2209489809weed48d89042888w9924,:#:quy7qqq9dsjhlw88whkljw82,2248907",
"75555#183498ewsedf8990ww99w09ww885#30esw49w0041<<143,#=;5555:::$2388w8w9edd94wwww484873623>###=::=5ryqhfeww09148eglbxg8,%,,<48w0",
"67555::#47ww0eeew98889090se00w9w7::>80889w9821%,2375:#:;5575:5:#12340ww8ee3898480490666:5>5:==-;:;;rqkhw903289989zxd998<$@$,4846",
"77:::::::>3855009832248w089,38663:>:80eess04,,%,21::#:>57qq74:55::240943fdw04448423,::5:::*::5555rr;qdsw889weeefddw984<%@++<2496",
"qw:=::5:-5>>:#55#<33423,,55%<%>55:::577ed0842%,,2%#::>6dhsg098>#::579889d9sw2882#>o#5555::##575q7qt57w08918dw9000k042,%@+@,28qqf",
"755--::5;55=:::55::==:###:::>5555:::55qgw044211::#::63slffwes94:::5#,30swsww488:5:::75768367qqgzfjq7557qeqsfw98ws8831@@@@+$28qfq",
"855;555---5::=:;rr;:;t;65556555;-r-;;665ww892#:,:=:83whhffddsw8##:*=6gfghds076:55550w4wwsddehddgf85q5r567ede0w44400932,%3,28wqq7",
"955r--5qq:56::5tr75r5;q6677:6>5-;r;rtr:#:1335#:::559sdhjhfgdw98:#=:5qqqqq7q5>::2700fded8hgh0effgq27q7r5>6qqw042224884312448wsgq8",
"qq;;rr556iq57557q57q677qsswq41=555;yyu;::#1#:;5556wdgglkkfw0008,#55-5qqq7:55:#24qddxhxjlfhjkkjjkhfqqqr57555589894423009438wffq78",
"q5;rtqiqqqqq90ssdqhq7qglljgd0863877;rr-:::=:;;5559dddgjhgw88083<#=5*tiq77r;557w9sdhhjhlkzhlhcjffsdfgqq7r5:::::>:1428we900weeqgq0",
"7;*-;yqjksweggzhghjkljhkzjfhw9999075;;r;55;-;;555esgddjdw809844::::-rrt7qr7569shkjhkkjzjfzxcxx9wewwdgqqrr;:;-55:2%33809099wwfd9w",
"q5;*5qgklzvldkzzzkjkkzvvxhhsse0e94::;;55:5::;;5>qwedhffse08894>#=#*tyy55;775qedfhhhkbxncnzcclgdde009wqqit-;r;755283##50wwwwwq7qd",
"55-*#9jsjcbbbcxlllhgddzegdw88wew>>:;;-5q655::;r77fdgfgdse04w8:5##=rryr75;;7qwedhhlbbxcnbNnzkwesggdsgs5q75;r;7q6662####40ewwqqqqq",
"5*-57dhkklkxzkkgdsdfedfdgdw89093>>:5757qqq5>:;r567essswe09494555trtr55665557wdhkbmnNNlvxkhge99wge9fgqq7qqryrqjq8553,#:190wghq7qq",
"55;rqqgllkhjkhfdewe09efjfw93888811::55wws99855;555wddseew82>5=5r;r7556##:56hdgjhzbNnnbncclhjhgfd0wesqqqqq7;qfsesdq84###10efse7qq",
"=:;tqqffdswse0s8488480009233800642:778ehxhd897:r5559ese8w82:::rrqqfdq755557qdkbxcnnNBBblhjfhhhddgwswww7q7555wdffw322$#5:50980qq5",
"::5:t56dd0w90w8<,332899990809076,%=56wdjxvkww4>5:5:5680845:5yrqqqjfssdqq555qfglzbmzmbxgdfjhhjgffd0eww09qq756efdd942312###446qq77",
":555--y55088w03<,126559w099899>1##:59sjfxkgew93#:56::9091#7q5qhfshgdkfe76777dhjccxzkljdggjzkgsdew09edw0qqq7qxxeewsss99<#:57767;r",
"7q5:::;-55q708441,37qq66565898>##;5qsghxcbzgde04::5::75555qqshjhhdfegfq75:55sggfgsgjgdggkzlls008egf000wqqq:5dfffjfw0w85=:q67q7t7",
"sw90qq:#::>55485::2>66256655383>;ytqfjzvnmmkhsw42##5555577qewhxhhge8997975::eheehbkww8ddhkhe99440fgsw0085>59gghd0004895555qqqquq",
"fhde77##:55:5635::::5:=:5::5:>3:rtqqgflnvmblfw0041:55:597qhhzxlefd0wdse93#:7whfwsejd80desdfw344840w84834>:5:wsw0wsess04:5557qqMz",
"seww977<:5r;75#=;-:5;;5ttyt;;:#=-;6sdgzvbblg049943::5608dddkzkgkxjgssdd72:56qghhghlsdhgee034008wsgsw0883#:5>w9wljsse008>;t77qzcl",
"gxe9qghg755;r555iyrr665uyutyt;55rr6wwflncvxd43388>:57qddjkjvxllfed940w0w5:5577dxjhdfjlgfhs800wsdw0wew449555=9efggssew0825656jxvv",
"esghh9wss75;ttyruut655;ryy7rr;;---50fesccxd8<$,<,#=55wskkzkxvhjdww990e9065-;qhjkhljdggsfd9w000088ee8843955#,0dfewsse004:557glxzw",
"egdlchwed7>:-ru7tq70qq57qq775>:-;;qswwdlvvd8%$%25:57qhhhxchjjghjs039889w2:;;7dfhkxkxses99042338880w888898:##0gd80es0832:#55dhhkl",
"kllgwfw07557tqyqqeqeeqqqqsw001#:5-5hfjfhhlh8%@$<:557qfghhjfdhjhd92090488::;rq7fghkfd0weew481,%%1<49445885:::7kf0wwe88434>5qjzxcc",
"xgjdjde86#>759qde0sdhhggjfww321#::97qgc8d001++%##55qjgzjlllhglg08eew9825:-rr777dwfjheew8<<3$@$$$<23>:>55:55:5jggfw98834325qkxxvx",
"fgjxgzf85#576sjgfkhjlfeddfdw842###$13hlee21%++%%:;60wghhljhfjge888w9343=#=-;556qwhhfds01%%@O+$,$<1##-;555=:7qqhkjhs82<<1:5qkxzlx",
"hjlgje00>:5qqhgdggdfjfdfgefw0442#:#32dge8,$@+@%o:7qjlzxhjkhssw433411<2:=:;**-57j80se8322<$+ oo1###=:55555>5556jlfew82,%,#56fkxck",
"hse0e3,2###5gkhfzjgkfjhlgsw00884##=#29gdww<,%,o#57wgkxczkhfss92,<<89435#*-**-:534kk0,231##=::5555#::576643#>54feg008<,%,#:8fjhgd",
"wdew991,#=::weweefdsggfdwgddwe094#:5:7sds822<%o:56ffhzxxgkde832<144442#=*;r;;:#o#>8<343::5::56559,2:7ee7792,::8q909922<%#:19effj",
"ggfew43>>:::fwdhkvxldswefhhfddww9>:;r7600983,#:-;7sfhjlkfhdw848443333:#:tytyyr=#:5556>::56577gskh09ghdddsw955777wfe843,oo#,9dfff",
"fses90031566ezggxvvkddsghjdffsewe7:ry;587q943#;r56fejjgfffe809488831##=5yuqtr55555::555q8eewkgkhjeewhjhhgs7:557qf938884:o=:8wwgd",
"w0989w82<577fzhsglkdshgjlhlgwgsss75ryuuqqq09>5;r7dghggzdf0e080ew082##:5;quyuyyq555;567qsgwwdlhlkffswseffdqqq55::700994<###:9skgs",
"w9w94485::6dfhfjgfdejhhzjjjkjkhhfqq7yptqqqq85;r;5hhxkkese900wessw5:#-tyrquqyiuyr55:5#<0kxlcvvkjjhdss0shhdqq6:=::=:5561###::58w9e",
"0w98822#556sswewsdsdsgkgfdhjjkjfdqq7;t7qq766:rt5qghjfsww4880dddw755;rtyiiqqquuyi;5:%10dkzxljzzxxh844wddsdqw65=*=:5555#55:55d0sse",
"9w0842#:;qqs0sdeswflfshfhzgffhhffdfq6;rq755::;;qqessds98834es0eqq555;qqzkkkjipt;5533eewhzxzkkckzw0e00dedffe95:--u;5t5:5555wdw0sw",
"838888$:r5qdjzfsgfkjdjjhffddsdggfdqq6r;ty75;tyr77qdds84983wwwsqq7555qqgkkhgh7ia;76d0ghllhhxxxvxf9980w39esds455-trqq7#>:#:55h9sfw",
"48898>:-yqssdsfdffxfhfdsfdewweeeed0q55ryrrrttyt7q57es0084ws89qq6>555qdhhgzlw7qrr7qqdfjlzfhgjkgs0099090w80wwwq;yy7qhe08<#:55w87qw",
"83448:#tr5sjlddsffcfesglhgsdesssedwqq5rtuiuiuiyt5:>50943w0qqq632>5qjjklklzs0wqtyi5qhfjlhfllhhdls08898w880w987ryqhjhsw33075>40qqs",
"83<%2#:-rqkgdwe9dhwsdsgjgdgd00e80w7q65rytyiuuiu75;55::>>669>6522:>qhkzxxche997;ui:ehgsfww0gkldjhf9884w8488485yqlzlgdw9e9555>8456",
"5:5>#o*-;qhs899fhsfdsfhhhk08098390w7575rytrrrr755575:=#=::5:>:#o:6ghfkbzze0423*;-7fswfhhxlewwdfse0089984974>:;qhkc80w8e06;::=5qq",
"5-5=:=-;tqlgg9wsdskgkkhllhew9423490076ttr7556qqqqq:55#:--r55:5:555djcjjfh8422:::-:60sssdkjdeelfdw883212341>=:;qdhs83dw655t---;55",
"-;55r*;;tjglhejflxlhzkdhjgf00889ew0wq5-;;:55w7qqwq77w555rttr-*:5>9sfwww932,<1#:-*:540weedefded00s444213832##-;qdd88879545r;r-5::",
"#:77r*::5qq0wsglcbljjkbxlkkxe4444<80>>5r555q9dddfhkfs76555;;;;:5599e98121%@@@o=:557799wdeeew980f0212%%3358:-ur739fw846w55;rt;qqu",
"we6q5=#=:7w4dfhdkgkhhhgkxhs8114,<144>==;:6qehfsejjhgd0q755::;;:557d38422,$@@@o::;;509w08w0w8se9832,,,123565tuq7366756575tqyyq6fg",
"ddd7###=:5wswwslckhhgffhke41,%%%30d21=55>6jkfljzlghd0fqq5>:5555r5:>:5#,,#@@#o=::;;:5d<8wwssfd0083<%,,<08565y;:755qqqq;-6tyq7jgcc",
"dgg7::::=qqqdegjkxbzefjkdw3,@%,30947:=::7qw8glxbvhsdssw66:-tq75555:#:##%#ooo##::-ru757sshzhws42041%<3833496-*55t75755;-rtuqjlxvv",
"fgds#=5557qjhdekhg880fhds92@%<388397:::5qq39zncxzjs0eew755rq7q765>:#:#::#ooo:55;;;;7qq7wweeedw9822423328weq5;;yu77:##5;rypqkxxvc",
"fd09,=:-;qq6wwflh0000e90882,22888485:-:667jkhvbxgdsww9965555qqqwss82::#:::#::=;;;-ry7qqeshd0wdew922233866755r77555:#557qyyqjchlx",
"ww9975;-:55538fedsdff849441248w0045::-:45slxnmczlgdw8985#557d9dggfee8243::#::5555;r5yqqqeq7w094033322243565tuqqqqqfgqqqq55qfcjze",
"sw88q6:#::75588908hhsw09323338w825765;540wkccvvxlfw8323::650f9sddfs0we00<,32,2>:57;;;qqhqq79842<<2,,31355:ryuuzdghvckhgq77q7skj0",
"e085>::&*;55553883dsdde992898848q7555;;6wsjjkjghde942,1555:7fgdeddsdsesf0999978475;r5qqqq764842<2q63,,<5:-;tqzllhkxcbxkgqqq>7098",
"87555:5-;;:55:>54<4ww0w8ew98428qq5655;;6qdggfdgd094338555777fjhhkhhjgdd0dew0w83q75-tr575qq77:#56>5>##>:#:55qkjhkhjxcbcxkllq:7989",
"85255#:-;*-:o#=:>480w008200444qqq565=;;5qgfgdss943338655555djkvlzkjghhhdeewsw0qq777rtr;555tr5=#o#ooo##==::qzkhdgxzbbghxhxzq55:77",
"68>:#::-r;r;-=-:5>984q4,<48w07qqqq655rr5qhgsseew8889966656qfzhzchglljlxzdeweseq777q7-r555555:##$$###:-r;:7ffdgkhcvvblljgffg7:#5q",
"5755==tiy:5--;---=56312%<33844qq6555;r;rqw0w0dse0wwwe>:5:77sjfvbxzkxzllldwwdsdwdqqqqqq;;;5:5:2,%%$#o#5;;5qqgjxxcxxmbxxlfswd7<#:5",
"q5q;tqxxjq6#:5--;;65>12,2386147::557;;tt756q7qfdewsdq:::5qfehknbmlhzbxxxeewesddwq87qqq555::>8ehe4<,%%#:-5qhhjzhkjvzzkeddw8834:#5",
"=-;rrpzzxcq4wq6:#***=:555555>:#:-r755;rtt55qqqgddeqq6=555368jbmNNnnBczhewds99ewe966qq5=:57qswhffs0484#:-5qqfhhfgzbvzje990sw42#:#",
"#:;ruMMxvcj0e0955:-r;-55qqq5:=5557w:::;-;;57755qqqq755;5:5qkzjjzlnnbkxswwwe00w98477q75:::qljdsfdhds09q5;577qdghkhzkjg498940442$#",
"o:tqMvcxlvg040es855;t5-;y;5755558d08::;rtt5=:::5575:;rr575qhjhjcllvlhedsdd03848w79qq6=*-qhkgssdfgfw065=-5qq7wegjhlxvfw0099ww8332",
"55qqkfgxkcdhsddwds455;5rryr5660sjdw0>>;yyu-:::555==;;;57qqgjzzhzxclggfddse944sseq7q75:-57fhkdgdhfs98555--qqeedfghjlzhd88904901%o",
"::qqqeflddswwkjhgdw32#:7yy77q7ghfw42>:5;;;;;;-;;;5;t;5:#7jhhjgjvNmheddsew00830ws09q755r7qdhddde90844876:;uqqffhhhjgghd88800912%o",
"=:qle0sjxjjjgeshe8944325t;677jlkdw941:5;;55:=5:555qrr67qqqedhs0fxgssssw0ww9984w0qfq755-qqqff088w88w0qq5;;yqqffhfjcxxhd88890333,#",
":qqjhgghbjkjfgkgsfe9844#>5776dzke92#5rt77qqqq77qqq75557qqqeeddwdewesssesw94448w0qdq5:5rqqfhgewe0w990955--yqqfhffhhhghf04wde043##",
"5qdlfhkvNvzxcxkjdekxh08375556wgd81%o;ttqqfdw0ddgq667-r;5:7jgfgjfe90ew98088433890wd8::5qyqqdfddfsw0w845:=57qffjjgfffgdsseeww0895:",
"5qjljjhbNblzjjvkgjzfw088qw75690w,$o#-;5hjlldwddeqqq55;yqq7kjkgs980484248944248q090>::rtyqqffhffe0e0885:::5qqgdefhkhgdw0988988655",
":qkksgxbNmxcgjllxgwew489eq75::,@O.#-y5fjgfkdwfdewgq:5;r55>hzlhes448441348434488569::qqqqq5qqdddesw0065:5=qjhqssghhhe081124994557",
"qqhfggzvNBnjhjvljhfdw000s9>##:#o#-;r;7hffgjgdjgfejqqq5iy5:7qdgkf834321289089496765#577555:5557eeww41:::55qqqqqddgs0ew4228385555:",
"uqhhgghcbmchdfdddwddsw0w9w5#:--;55rqqqkddkzfgdeww08q7:rr75:55qgghd92289809ww0w0qqq5;7:q64>5>55>543,,:::::6qqqqdddew84213488565:-",
"uqdsdjlxjhfgfe0wsws0sd94834:5;-t755qhfgkhgkkde0998w767:;;5:::6qfse990ssdes0wweeqqqyr59dssw442:>3242<27q>556qqqqsse089848568q7:;t",
"75seshzkkggjjjdddewws884455:=:5r55qghfcvvvjhge988eew775t;r5::77qw9fgqqdq77w9qeqq75t;qh99edfs83440999wfdq5:5qqqhq0wq8438557075>;r",
"77seflbzkhfjfjfdwhwwe84<1577#::-5qjllbzhhbgfw94190w9q5*5;r;55q6555qqqqqq77qq7q7755;ylh9w999fgd0fsdwegfew5=::5qqqqq77995656555-;;",
"tqsdjkccjhwggkd00d89998138qqqq;*5qfjxhzxzgweew90080d85::55rtty5:::::5qqqq6qq7q77557qqqqfw9w8wsffffddgdew8:557qqqq765755:--;*==;;",
"yqfsdkzkkggssgw98423882<24055:=##5ffjgkkxfe98883288eqq5r>25qq55#=:>>5565qq77q756;tyjkzlgjhfjhglgsdefgseseq:55;t7775>5;t;;:---rty",
"tqkqqhxkhgk90009434841,244485o#57q9whzhkbh009482<9w865rt5297q6,1322<>555>::7qq55tuuxxjhlxxkjlhhssdggfsdw0w55;rrrqq:55;r;;55-;yii",
"q5hf7gkzge8898233440223143344##:7qdfdldfdde93342<3804:555399qwwwe9<3211,#:5555:;yiiMczfgfhkjhdesffffdse98qq55ryuuy>555quq556qiiy",
"i7gqqqsle99044043213342234431@#5qqqdge0w0e9082334998,=:559qqdeew0ee833<:1#5rr;-;yuiczkfljghhsfhgesssw0w08q75:-ytuuqq7qkjhfqqqupp",
"uq76qqdeeegd94229881431<1<2%%$#=5qqqq8dww02392288361#o#:7sesesddfeew89891355;r;tyipkhddxxcffhggfws0w0w089566:5;tuihzjhhfhhgjjuiu",
"uq757gdsedfss000ww0w980w<1283@@:565579w838493223855>::5:6wdsddwgd8ssdewgfesw>55-tyyqhsefhjgdffgfedesee89877755rqhvhwggsdhhjjgqqy",
"ii75>6008edeswddds0980490845:@o::=:5qdfs090w03309993:-::7wgfdge09wwdwwsdwedw0:5-uuizhlkjkggghjdsesds04449e75:6qqlhdflhsghhjjfqqu",
"uqq5:>674ww89w90w09889881<$=5#oo#:557dswefdew88s088555:57qwsdgd08www00w900dgq::;yuyljkqgkfdfdsesfgse8984444:57qewgegfhhfweghgdji",
"qqq5:5;;5:##>828448335::$,55>#o.o##:#69438955337555:5-5>7q89800edgd00wdesw94>#5;rayqqqqjgjhsdffhkgsew921385:57qjggf931244sfddeq7",
"6q7r;:555:#:::#:=:::o:;;:>5553$oo#::::o%,,<12::6q5:---55::13439sdgdssessddd8>:::ry7qqqqqqqqdsghlzhdw433349::;qdfdw993,1<40eed0w7",
"7qtr;5:=:55;55;rtyr::5r;557ww84,@@:;-5##o#ooo=577::;;;5:::::$<20weddkdwdds048>=5-55qyuqqhgqfjklzkjw43448855;rqdjfwedds09319w9990",
"gq;;q55:555765yrrr:5557tq8wkhjg8,$:5r;::###o##:>5:*;t555575::::6wwsgh89eeww8<##:5=577777qqqhlvhjkf009w08355;r7w9wkllzje81<4839e0",
"d6-;qq5qqq5q357656h5:5qqdgghhkh82,,5rr:#=##=5::55=55t5#848,5655:3wde18w00w82,oOo::::::55qqqhfgkhhf89q898775-:5ddgklcbkdw81322e0e",
"57757qhjfeqde790dhqsggqczghkzlsw8%$:;5500921sw>#=#5>5559ewssd81:8es8eddww42%$##:5:##:5tyq5qqqfhhfdqq7508775-5qhjjjjxcch9411308qs",
"qq55qgddghfhzhjgdfdhkhlhddzxlhf9,@+=579se0eds322:#6q7qqdfdsee935529egddw082%$o=#7548>55yt75qddqfhgqqqqqq6>:;5qdhhhgjllfw4228s999",
"q557fegzzgxczzxkhkhkflzssfdsss92@+ ::6sse0hs89884,6tqqhzgghw83<26qwes9w994<,+o:576q9995775>5qqwfdgqqqqqqq55-5:qgfffjkhw3<,23976q",
"q:;qwdgggkxxkkzkcxzghhgffsdds041+ o::7dssdfe99ew1<>551glhhh432<1#60dfdww93,$++#:7w0w0dd7>>55557qqqqquMpqqq;r7:qqehhjd08<$,3807qq",
"7rr5fzzxghhhjfhjkxhdedj09wsdw83<@o#-7esssseedss9,$:=:79dlxjd41,<#5qdhwee83<@Oo##qswfgddfqw6>5>56qq7qqiyqqqrr5:7qdqsfsw8,%18wsqqq",
"7;t59szcjhkhljfddhhssfgeswsw182%+#::wwfgfhfsw09w912:#::sfee81%$$o55wdsswd4<+Oo:qlhdsflfhedw9:5::577quuqqqyiyt55qqsde089126498235",
"ryt55edfgsfewsweffwesw0w93455####:rqhzzgghdfdddew897::5q0ew91$@+o;qkgese43$O+::hxzsfdxhgd9w88:::::57qiupuputt;5qqfddgs8806<324::",
"ytr:557ew090sd909e884w09441#5r;t;ttqzcxjhfgfssdfss0e8>;7q081%$@+#-7eede04,++@:7xczsdfee09ew948855r;;ryquuuyttr77qfqhgew0984##:#r",
"yyryr5:>33238993w9218421,$o#5;;rutthxcxzljhhhfsdfde8815q5>3<$$@.*t5edds943%$<:qxxcgfhedddswsw888>:55;uiuuut;qtq7qqhhqqs94>1:==-r",
"tur;;-:###,$,1,11%<%<%,,@o####55ryqqlxlzljhjlgsdshww8,$:::3,$$#:rr7eedw083,$o:qgjhfhfehsfsswww489775rrtyyuq7qqqq76qqqqqq8:##=;;r",
"quuiii75==#:$@@@o+%%%,,1#@:4833055q7dfjdjlgsdeffgddd0w0545::1X#;r77dgjhe82<%=:wfhjhhggdjhhfdw90qq77;trrt77qqkkjq557575qq::=:rr5q",
"qqqiipq##=5:#oo:#ooooo#=5:ddwdgf955:9fd9dhfdeshggkgefe08455;:oott5qgzhdf82%#:5whfhdzjhfsdfw0www7qqq;rt;;55qgzjfs65577qq555;tyukx",
"jqqkqqq:#:::55-55r5*:#:;7qjllkhw92:#:480sdw0dhjddews0wfs93:::;r;5qgljded41,@:5essdgjkhewshw999957q7q5:566qjcxfdfq75;5qq7;57yzkcx",
"qfjhhqwwqdew6:=55;;r5;tiuhlzhzl9395:58448es0dhjfdd0999wewe425rt;7dgfsfw9321%#=9dfsgdseewed8we80qqqqq75:5qzzvlhfdfq5:5;77qqhkhvxk",
"zljhess8fe8w93565:;--;uizkvvhhljd095750980swdggggswewewwdew45:r5:fklgsw0842,#5w9dw0ed2049e8843887wqqqq55dxzbcjgdfgq>5rr5qzxxzxnb",
"ksjj0e80e09se0gw0qqrrqqqccbzvxhhsw3255644sedjgdfghhkjhhhdhfs9:55:dgdsfge441,#6qefs9ww4e89232,<94qqdqq65qhjxckhhddeq75;;qkjzcbvxk",
"fgbxedwwwdfhdjhfdkq6ur:qljlxzjd094<,#-::fdeddhfjgdlxjxzzhsw93:5;;7h0gsff084,:5609w409998432133988886qq57gxxgffd989075557klxvvzlx",
"hjlzjlw0we0dhkfhlkkw75yuqqkzjgf93,$o#*;;qddffgjgdhkwjxxlfdew425557wdhfdd42$$=:5998340ee02332<1<39965575qgjgwsfd80w05:55qjkjjxzzc",
"cdzjckfwd0wdhldllgkfe757yjfkf8e8<%@ =--;:qddhhhsedjxxvvg0ddw0055:;59ewe4<,$o:557w8223484232238990815::7qfj8sew0w00965555qqwwhlkx",
"vhvbxxlklzmcskfddgfsds5:tyqhddww2@@o:;yr57eeedsde0wlkkzgesw8w024;y58dw888%o=;-577>5645<<8833285<896::577dhghswsw98432::5qqgxbccv",
"ghcxzzxkkhgfwdsfheffse9>qqqqqqe1$,@#:5tyr70sfseewwdfjkhgfe032821+#57q0431$o#--;5::;555:o35>:1>5#>:555657qfhhjseww2882:5qhgfkkcxl"
};
