/* XPM */
static const char *xpm__[] = {
/* columns rows colors chars-per-pixel */
"24 30 32 1 ",
"  c #070707",
". c #131313",
"X c #2B230F",
"o c #332B13",
"O c #3F2F17",
"+ c gray23",
"@ c #731313",
"# c #533F1F",
"$ c #5F4323",
"% c #6B4727",
"& c #774F2B",
"* c gray34",
"= c gray39",
"- c gray42",
"; c gray50",
": c #9B3333",
"> c #875733",
", c #9B633B",
"< c #BB5757",
"1 c #AB6F43",
"2 c #B37347",
"3 c #BF7B4B",
"4 c #CB7F4F",
"5 c #DF9363",
"6 c #E79B6B",
"7 c #939393",
"8 c gray67",
"9 c gray70",
"0 c gray75",
"q c #EB9797",
"w c #FFB383",
"e c None",
/* pixels */
"eeee               eeeee",
"eee   ..O.OX..       eee",
"e   ##&&,# X          ee",
"  XO&1,,####O#   X     e",
"e >,##OO###O.#OOX      e",
"e #X##XX X     .      e ",
".X .                  ee",
"                       e",
"e         X      X      ",
"e        X#XX X   X     ",
"      XX &33#X&, &#X   e",
"     X##>&553#&,&###XX e",
"# X  ##>13www3&&#&&#X   ",
"5.#  115,3555,1561,,#.  ",
"5o> &XX,653,356,OX#>>X ,",
"3O>&,   O&ww5,O.>#O>>o&5",
"&o>,2-9.->5w3-9.-1>>>#5&",
"#O&45><q5>35,>5q<154>#1e",
"eo#5ww55,,35,,555ww5>#ee",
"eo#5w33,,35w13>333w5&#ee",
"ee#31&#1&#53>#&1#&13&oee",
"eeo&>#+,&&&&#@&,+#&&#oee",
"eeo#%&,*,15w5:&*,&%#oeee",
"eeeo#%&,=70007=,&%#oXeee",
"eeeXo#&&1;787;1&%#oXeeee",
"eeeeXo%>>5qqq5>>&oXeeeee",
"eeeeeXo$,1,&,3,&oXeeeeee",
"eeeeeeXo>5www5>#Xeeeeeee",
"eeeeeeeeXoooooXeeeeeeeee",
"eeeeeeeeeeeeeeeeeeeeeeee"
};
