/* XPM */
static const char *xpm__[] = {
/* columns rows colors chars-per-pixel */
"24 29 30 1 ",
"  c #070707",
". c #131313",
"X c #2B230F",
"o c #332B13",
"O c #3F2F17",
"+ c gray23",
"@ c #533F1F",
"# c #5F4323",
"$ c #6B4727",
"% c #774F2B",
"& c gray34",
"* c gray39",
"= c gray50",
"- c #AF7B1F",
"; c #875733",
": c #9B633B",
"> c #AB6F43",
", c #BF7B4B",
"< c #CB7F4F",
"1 c #C39B2F",
"2 c #D7BB43",
"3 c #DF9363",
"4 c #E79B6B",
"5 c #939393",
"6 c gray67",
"7 c gray75",
"8 c #EB9797",
"9 c #FFB383",
"0 c #FFFFD7",
"q c None",
/* pixels */
"qqqq               qqqqq",
"qqq   ..O.OX..       qqq",
"q   @@%%:@ X          qq",
"  XO%>::@@@@O@   X     q",
"q ;:@@OO@@@O.@OOX      q",
"q @X@@XX X     .      q ",
".X .                  qq",
"                       q",
"q         X      X      ",
"q        X@XX X   X     ",
"      XX %,,@X%: %@X   q",
"     X@@;%33,@%:%@@@XX q",
"@ X  @@;>,999,%%@%%@X   ",
"3.@  >>3:,333:>34>::@.  ",
"3o; %XX:43,:,34:OX@;;X :",
",O;%:   O%993:O.;@O;;o%3",
"%o;:<1002;39,1002>;;;@3%",
"@O%<3-22-;,3:-22->3<;@>q",
"qo@39933::,3::333993;@qq",
"qo@39,,::,39>,;,,,93%@qq",
"qq@,>%@>%@3,;@%>@%>,%oqq",
"qqo%;@+:%%%%@@%:+@%%@oqq",
"qqo@$%:&:>393:%&:%$@oqqq",
"qqqo@$%:*57775*:%$@oXqqq",
"qqqXo@%%>=565=>%$@oXqqqq",
"qqqqXo$;;38883;;%oXqqqqq",
"qqqqqXo#:>:%:,:%oXqqqqqq",
"qqqqqqXo;39993;@Xqqqqqqq",
"qqqqqqqqXoooooXqqqqqqqqq"
};
