/* XPM */
static const char *xpm__[] = {
/* columns rows colors chars-per-pixel */
"24 30 41 1 ",
"  c #070707",
". c #131313",
"X c #2B230F",
"o c #332B13",
"O c #3F2F17",
"+ c #232323",
"@ c #430000",
"# c #530707",
"$ c #670B0B",
"% c #731313",
"& c #771717",
"* c #533F1F",
"= c #5F4323",
"- c #6B4727",
"; c #774F2B",
": c #434343",
"> c gray39",
", c gray42",
"< c #777777",
"1 c #9B3333",
"2 c #A33B3B",
"3 c #A73F3F",
"4 c #875733",
"5 c #9B633B",
"6 c #AF4747",
"7 c #BB5757",
"8 c #AB6F43",
"9 c #B37347",
"0 c #BF7B4B",
"q c #CB6B6B",
"w c #D37373",
"e c #D78B5B",
"r c #DF9363",
"t c #E79B6B",
"y c #939393",
"u c gray70",
"i c #EB9797",
"p c #FFB383",
"a c #CBCBCB",
"s c gray86",
"d c None",
/* pixels */
"dddd               ddddd",
"ddd   ..O.OX..       ddd",
"d   **;;5* X          dd",
"  XO;855****O*   X     d",
"d 45**OO***O.*OOX      d",
"d *X**XX X     .      d ",
".X .                  dd",
"                       d",
"d         X      X      ",
"d        X*XX X   X     ",
"      XX ;00*X;5 ;*X   d",
"     X**4;rr0*;5;***XX d",
"* X  **480ppp0;;*4;*X   ",
"r.*  88r505r558r0855*.  ",
"ro4 ;XX5r0;5;0r5OX*4;X 5",
"0O4;5   O;5r55O.4*O4;o;r",
";o459,u.,;55;,u.,844;*r;",
"*O25547ir40r54ri7444;*8d",
"do#28rpr550r55rrpr84-*dd",
"do*#2ppr50rp804rpp04-*dd",
"dd*4%wr;**r04*#;r84;=odd",
"ddo-424*;%;;*%#$44;=*odd",
"ddo;-;=;5eptp1%$=;-;oddd",
"ddd*;-;*:><<>>:$;-;*oddd",
"dddo*;*+yassaay@*;*odddd",
"ddddo*;4riiiiq6&;*oddddd",
"dddddXo5585;511&oXdddddd",
"ddddddX*4rppp73@Xddddddd",
"ddddddddXoooo@@ddddddddd",
"dddddddddddddddddddddddd"
};
