/* XPM */
static const char *xpm__[] = {
/* columns rows colors chars-per-pixel */
"24 30 35 1 ",
"  c #070707",
". c #131313",
"X c #2B230F",
"o c #332B13",
"O c #3F2F17",
"+ c #232323",
"@ c #430000",
"# c #530707",
"$ c #731313",
"% c #533F1F",
"& c #5F4323",
"* c #6B4727",
"= c #774F2B",
"- c #434343",
"; c gray39",
": c #777777",
"> c #9B3333",
", c #A33B3B",
"< c #875733",
"1 c #9B633B",
"2 c #AF4747",
"3 c #BB5757",
"4 c #AB6F43",
"5 c #B37347",
"6 c #BF7B4B",
"7 c #CB6B6B",
"8 c #D37373",
"9 c #DF9363",
"0 c #E79B6B",
"q c #939393",
"w c #EB9797",
"e c #FFB383",
"r c #CBCBCB",
"t c gray86",
"y c None",
/* pixels */
"yyyy               yyyyy",
"yyy   ..O.OX..       yyy",
"y   %%==1% X          yy",
"  XO=411%%%%O%   X     y",
"y <1%%OO%%%O.%OOX      y",
"y %X%%XX X     .      y ",
".X .                  yy",
"                       y",
"y         X      X      ",
"y        X%XX X   X     ",
"      XX =66%X=1 =%X   y",
"     X%%<=996%=1=%%%XX y",
"% X  %%<46eee6==%<=%X   ",
"9.%  449161911496411%.  ",
"9o< =XX196=1=691OX%<=X 1",
"6O<=1   O=1911O.<%O<=o=9",
"=o<158w.8=11=8w.84<<=%9=",
"%O,11<3w9<691<9w3<<<=%4y",
"yo#,49e911691199e94<*%yy",
"yo$#,ee9169e46<9ee6<*%yy",
"yy$,$89=%%96<%#=94<=&oyy",
"yy$=<,<%=$==%$##<<=&%oyy",
"yy#=*=&=#>e0e>$#&=*=oyyy",
"yyy%=*=%-;::;;-#=*=%oyyy",
"yyyo%=%+qrttrrq@%=%oyyyy",
"yyyyo%=<27www72#=%oyyyyy",
"yyyyyXo1>>1=1>>#oXyyyyyy",
"yyyyyyX%,3eee3,#Xyyyyyyy",
"yyyyyyyy##ooo##yyyyyyyyy",
"yyyyyyyyyyyyyyyyyyyyyyyy"
};
