/* XPM */
static const char *xpm__[] = {
/* columns rows colors chars-per-pixel */
"24 30 30 1 ",
"  c #070707",
". c #131313",
"X c #2B230F",
"o c #332B13",
"O c #3F2F17",
"+ c #232323",
"@ c #533F1F",
"# c #5F4323",
"$ c #6B4727",
"% c #774F2B",
"& c #434343",
"* c gray39",
"= c gray42",
"- c #777777",
"; c #875733",
": c #9B633B",
"> c #BB5757",
", c #AB6F43",
"< c #B37347",
"1 c #BF7B4B",
"2 c #D78B5B",
"3 c #DF9363",
"4 c #E79B6B",
"5 c #939393",
"6 c gray70",
"7 c #EB9797",
"8 c #FFB383",
"9 c #CBCBCB",
"0 c gray86",
"q c None",
/* pixels */
"qqqq               qqqqq",
"qqq   ..O.OX..       qqq",
"q   @@%%:@ X          qq",
"  XO%,::@@@@O@   X     q",
"q ;:@@OO@@@O.@OOX      q",
"q @X@@XX X     .      q ",
".X .                  qq",
"                       q",
"q         X      X      ",
"q        X@XX X   X     ",
"      XX %11@X%: %@X   q",
"     X@@;%331@%:%@@@XX q",
"@ X  @@;,18881%%@;%@X   ",
"3.@  ,,3:1:3::,31,::@.  ",
"3o; %XX:31%:%13:OX@;%X :",
"1O;%:   O%:3::O.;@O;%o%3",
"%o;:<=6.=%::%=6.=,;;%@3%",
"@O%::;>73;13:;37>;;;%@,q",
"qo@:,383::13::3383,;$@qq",
"qo@,,883:138,1;3881;$@qq",
"qq@;;,3%@@31;@@%3,;%#oqq",
"qqo$;;;@%%%%@@%@;;%$@oqq",
"qqo%$%#%:28482:%#%$%oqqq",
"qqq@%$%@&*--**&@%$%@oqqq",
"qqqo@%@+5900995+@%@oqqqq",
"qqqqo@%;3777773;%@oqqqqq",
"qqqqqXo::,:%:1:%oXqqqqqq",
"qqqqqqX@;38883;@Xqqqqqqq",
"qqqqqqqqXoooooXqqqqqqqqq",
"qqqqqqqqqqqqqqqqqqqqqqqq"
};
