/* XPM */
static const char *xpm__[] = {
/* columns rows colors chars-per-pixel */
"24 30 32 1 ",
"  c #070707",
". c #131313",
"X c #2B230F",
"o c #332B13",
"O c #3F2F17",
"+ c #232323",
"@ c #731313",
"# c #533F1F",
"$ c #5F4323",
"% c #6B4727",
"& c #774F2B",
"* c #434343",
"= c gray39",
"- c gray42",
"; c #777777",
": c #9B3333",
"> c #875733",
", c #9B633B",
"< c #BB5757",
"1 c #AB6F43",
"2 c #B37347",
"3 c #BF7B4B",
"4 c #D78B5B",
"5 c #DF9363",
"6 c #E79B6B",
"7 c #939393",
"8 c gray70",
"9 c #EB9797",
"0 c #FFB383",
"q c #CBCBCB",
"w c gray86",
"e c None",
/* pixels */
"eeee               eeeee",
"eee   ..O.OX..       eee",
"e   ##&&,# X          ee",
"  XO&1,,####O#   X     e",
"e >,##OO###O.#OOX      e",
"e #X##XX X     .      e ",
".X .                  ee",
"                       e",
"e         X      X      ",
"e        X#XX X   X     ",
"      XX &33#X&, &#X   e",
"     X##>&553#&,&###XX e",
"# X  ##>130003&&#>&#X   ",
"5.#  115,3,5,,1531,,#.  ",
"5o> &XX,53&,&35,OX#>&X ,",
"3O>&,   O&,5,,O.>#O>&o&5",
"&o>,2-8.-&,,&-8.-1>>&#5&",
"#O&,,><95>35,>59<>>>&#1e",
"eo#,1505,,35,,55051>%#ee",
"eo#11005,35013>5003>%#ee",
"ee#>>15&##53>##&51>&$oee",
"eeo%>>>#&&&&#@&#>>&%#oee",
"eeo&%&$&,4060:,&$&%&oeee",
"eee#&%&#*=;;==*#&%&#oeee",
"eeeo#&#+7qwwqq7+#&#oeeee",
"eeeeo#&>5999995>&#oeeeee",
"eeeeeXo,,1,&,3,&oXeeeeee",
"eeeeeeX#>50005>#Xeeeeeee",
"eeeeeeeeXoooooXeeeeeeeee",
"eeeeeeeeeeeeeeeeeeeeeeee"
};
