/* XPM */
static const char *xpm__[] = {
/* columns rows colors chars-per-pixel */
"24 30 39 1 ",
"  c #070707",
". c #131313",
"X c #2B230F",
"o c #332B13",
"O c #3F2F17",
"+ c #430000",
"@ c #530707",
"# c #6B0F0F",
"$ c #731313",
"% c #771717",
"& c #533F1F",
"* c #5F4323",
"= c #774F2B",
"- c #434343",
"; c gray39",
": c #777777",
"> c #831F1F",
", c #8F2B2B",
"< c #972F2F",
"1 c #9B3333",
"2 c #A33B3B",
"3 c #875733",
"4 c #9B633B",
"5 c #AF4747",
"6 c #BB5757",
"7 c #BF5B5B",
"8 c #AB6F43",
"9 c #BF7B4B",
"0 c #C76363",
"q c #CB6B6B",
"w c #D37373",
"e c #DF9363",
"r c #939393",
"t c #DF8787",
"y c #EB9797",
"u c #FFB383",
"i c #CBCBCB",
"p c gray86",
"a c None",
/* pixels */
"aaaa               aaaaa",
"aaa   ..O.OX..       aaa",
"a   &&==4& X          aa",
"  XO=844&&&&O&   X     a",
"a 34&&OO&&&O.&OOX      a",
"a &X&&XX X     .      a ",
".X .                  aa",
"          @            a",
"a         $      @      ",
"a        X5X@ @   @     ",
"      @@ =99$@$@ @$@   a",
"     @>5$=ee9$=$@@1$@X a",
"& X  @$3$9uuu5==$$=1$   ",
"e.&  %8e$94e448e114&$.  ",
"eo3 X@X459=4=9e4@@&31X 4",
"9O3=4  @@=4e44O.$$O31o=e",
"=o348@w.1=44=1w.1>33$&e=",
"&O#44520e39e43ey6133$&8a",
"ao@<8wte449e44eey683$&aa",
"ao$#<7ye49eu893ey693$&aa",
"aa$<$7e=&&e93&@=y63=$oaa",
"aa$=,@3&=$==@$@@61=*$oaa",
"aa@=2$&=@15q51$@16&=@aaa",
"aaa&2$=@-;::;;-@613&@aaa",
"aaao,$&+rippiir+16&oaaaa",
"aaaa@$=15qyyyq5@6$oaaaaa",
"aaaaa@o512,,,22@$@aaaaaa",
"aaaaaaX@26yyy62@@aaaaaaa",
"aaaaaaaa@$$$$$@aaaaaaaaa",
"aaaaaaaaaaaaaaaaaaaaaaaa"
};
