/* XPM */
static const char *xpm__[] = {
/* columns rows colors chars-per-pixel */
"24 31 29 1 ",
"  c #070707",
". c #131313",
"X c #2B230F",
"o c #332B13",
"O c #3F2F17",
"+ c #5B0707",
"@ c #6B0F0F",
"# c #731313",
"$ c #533F1F",
"% c #5F4323",
"& c #774F2B",
"* c #5B5B5B",
"= c #777777",
"- c #972F2F",
"; c #9B3333",
": c #875733",
"> c #9B633B",
", c #AF4747",
"< c #B34F4F",
"1 c #AB6F43",
"2 c #BF7B4B",
"3 c #DB7B7B",
"4 c #DF9363",
"5 c #E79B6B",
"6 c #A7A7A7",
"7 c #FFB383",
"8 c #FFCFB3",
"9 c gray86",
"0 c None",
/* pixels */
"0000   .O.OX..     00000",
"000  $$&>$ X         000",
"00 XO&1>$$$$O$        00",
"0  :>$$O$$$O.$OOXX     0",
"00 $X$$X X     .        ",
"0 X .       .          0",
" .  XX $>&12$           ",
"0   & :>12772& & $     0",
"0  XX&&2442224& & $    0",
"0  X&>>&>74>47>&&&&    0",
"0  X:5885>727>78872&   0",
"0  X1XOO&44445:OOX$&XX 0",
"$  X151:O27774O:151&X   ",
"4..$&:69=&774&=96:&:&.  ",
"4o$:46= 6:472:6 =64:&X >",
"2OO&1>>%::24>::%>>1&oo&4",
"&o$11474>24712:4741::$4&",
"$o$@3774>$42:$>47774:$10",
"0o$2-3741+&&$+:77744:$00",
"0o$2<;2&>-473--#2442:$00",
"00$22<&>&+&&;##-#422&000",
"00o&12$&*=====*-#11&$000",
"00X:&>&&       ;->&:X000",
"000$:&$& +++++ ,-&:$0000",
"000o$:&>*     *,-:$o0000",
"0000o$$1&*===*;;-$o00000",
"0000Xo$>>&&&&&,;;oX00000",
"00000Xo&2477741;#X000000",
"000000X$>>>&>>1#o0000000",
"00000000XXXXXXX000000000",
"000000000000000000000000"
};
