/* XPM */
static const char *xpm__[] = {
/* columns rows colors chars-per-pixel */
"24 31 31 1 ",
"  c #070707",
". c #131313",
"X c #2B230F",
"o c #332B13",
"O c #3F2F17",
"+ c #530707",
"@ c #5B0707",
"# c #6B0F0F",
"$ c #731313",
"% c #533F1F",
"& c #5F4323",
"* c #774F2B",
"= c #5B5B5B",
"- c #777777",
"; c #8F2B2B",
": c #972F2F",
"> c #9B3333",
", c #875733",
"< c #9B633B",
"1 c #AF4747",
"2 c #BB5757",
"3 c #AB6F43",
"4 c #BF7B4B",
"5 c #CB6B6B",
"6 c #DB7B7B",
"7 c #DF9363",
"8 c #E79B6B",
"9 c #EB9797",
"0 c #FFB383",
"q c #FFCFB3",
"w c None",
/* pixels */
"wwww   .O.OX..     wwwww",
"www  %%*<% X         www",
"ww XO*3<%%%%O%        ww",
"w  ,<%%O%%%O.%OOXX     w",
"ww %X%%X X     .        ",
"w X .       .          w",
" .  ++ +1$14+           ",
"w   $ $<31004+ + +     w",
"w  ++$$4754447$ $ +    w",
"w  +$<1*<97<70$*>>#@   w",
"w  +,89q81040<0q95:#@  w",
"w  X3X$O*57778,O$$%:$X w",
"%  X32>$O40007O,263:$   ",
"7..%*,69>*007*>96>*1:.  ",
"7o%,7>> 6,704,6 >67,:X <",
"4OO*325&,,47<,,&>>3*$o*7",
"*o%33567<47034@7553,:%7*",
"%o@@6607$%74,%$79507:%3w",
"wo##>607:@$$@@:09277:%ww",
"wo#>$>4*<:166::$5274:%ww",
"ww#1>+*>$$::>$$:$244$www",
"ww@*1#%$=-----=:$23*$www",
"ww@,1#*$       >$>*,@www",
"www%>#%$ @@@@@ 1$$,%wwww",
"www@:#*>=     =1$>%owwww",
"wwww@#%1:=---=$>#$owwwww",
"wwww@@%>1:::::::#@Xwwwww",
"wwwww@o$1599991$#+wwwwww",
"wwwwwwX@$::;:11++wwwwwww",
"wwwwwwww@@@@@@@wwwwwwwww",
"wwwwwwwwwwwwwwwwwwwwwwww"
};
