/* XPM */
static const char *xpm__[] = {
/* columns rows colors chars-per-pixel */
"24 31 23 1 ",
"  c #070707",
". c #131313",
"X c #2B230F",
"o c #332B13",
"O c #3F2F17",
"+ c #5B0707",
"@ c #533F1F",
"# c #5F4323",
"$ c #774F2B",
"% c #5B5B5B",
"& c #777777",
"* c #972F2F",
"= c #875733",
"- c #9B633B",
"; c #AB6F43",
": c #BF7B4B",
"> c #DF9363",
", c #E79B6B",
"< c #A7A7A7",
"1 c #FFB383",
"2 c #FFCFB3",
"3 c gray86",
"4 c None",
/* pixels */
"4444   .O.OX..     44444",
"444  @@$-@ X         444",
"44 XO$;-@@@@O@        44",
"4  =-@@O@@@O.@OOXX     4",
"44 @X@@X X     .        ",
"4 X .       .          4",
" .  XX @-$;:@           ",
"4   $ =-;:11:$ $ @     4",
"4  XX$$:>>:::>$ $ @    4",
"4  X$--$-1>->1-$$$$    4",
"4  X=,22,-1:1-1221:$   4",
"4  X;XOO$>>>>,=OOX@$XX 4",
"@  X;,;=O:111>O=;,;$X   ",
">..@$=<3&$11>$&3<=$=$.  ",
">o@=><& <=>1:=< &<>=$X -",
":OO$;--#==:>-==#--;$oo$>",
"$o@;;>1>-:>1;:=>1>;==@>$",
"@o@;>11>-@>:=@->111>=@;4",
"4o@:>11>;+$$@+:111>>=@44",
"4o@:>>:$-;>1>*-$:>>:=@44",
"44@::>$-$$$$$+$-$>::$444",
"44o$;:@$%&&&&&%$@;;$@444",
"44X=$-$$       $$-$=X444",
"444@=$@$ +++++ $@$=@4444",
"444o@=$-%     %-$=@o4444",
"4444o@@;$%&&&%$;@@o44444",
"4444Xo@--$$$$$--@oX44444",
"44444Xo$:>111>;$@X444444",
"444444X@---$--;@o4444444",
"44444444XXXXXXX444444444",
"444444444444444444444444"
};
