/* XPM */
static const char *xpm__[] = {
/* columns rows colors chars-per-pixel */
"24 31 22 1 ",
"  c #070707",
". c #131313",
"X c #2B230F",
"o c #332B13",
"O c #3F2F17",
"+ c #5B0707",
"@ c #533F1F",
"# c #5F4323",
"$ c #774F2B",
"% c #5B5B5B",
"& c #777777",
"* c #875733",
"= c #9B633B",
"- c #AB6F43",
"; c #BF7B4B",
": c #DF9363",
"> c #E79B6B",
", c #A7A7A7",
"< c #FFB383",
"1 c #FFCFB3",
"2 c gray86",
"3 c None",
/* pixels */
"3333   .O.OX..     33333",
"333  @@$=@ X         333",
"33 XO$-=@@@@O@        33",
"3  *=@@O@@@O.@OOXX     3",
"33 @X@@X X     .        ",
"3 X .       .          3",
" .  XX @=$-;@           ",
"3   $ *=-;<<;$ $ @     3",
"3  XX$$;::;;;:$ $ @    3",
"3  X$==$=<:=:<=$$$$    3",
"3  X*>11>=<;<=<11<;$   3",
"3  X-XOO$::::>*OOX@$XX 3",
"@  X->-*O;<<<:O*->-$X   ",
":..@$*,2&$<<:$&2,*$*$.  ",
":o@*:,& ,*:<;*, &,:*$X =",
";OO$-==#**;:=**#==-$oo$:",
"$o@--:<:=;:<-;*:<:-**@:$",
"@o@-:<<:=@:;*@=:<<<:*@-3",
"3o@;:<<:-$$$@$;<<<::*@33",
"3o@;::;$=-:<:-=$;::;*@33",
"33@;;:$=$$$$$$$=$:;;$333",
"33o$-;@$%&&&&&%$@--$@333",
"33X*$=$$       $$=$*X333",
"333@*$@$ +++++ $@$*@3333",
"333o@*$=%     %=$*@o3333",
"3333o@@-$%&&&%$-@@o33333",
"3333Xo@==$$$$$==@oX33333",
"33333Xo$;:<<<:-$@X333333",
"333333X@===$==-@o3333333",
"33333333XXXXXXX333333333",
"333333333333333333333333"
};
