/* XPM */
static const char *xpm__[] = {
/* columns rows colors chars-per-pixel */
"24 29 23 1 ",
"  c #070707",
". c #131313",
"X c #2B230F",
"o c #332B13",
"O c #3F2F17",
"+ c #530707",
"@ c #731313",
"# c #533F1F",
"$ c #774F2B",
"% c gray42",
"& c #9B3333",
"* c #875733",
"= c #9B633B",
"- c #BB5757",
"; c #AB6F43",
": c #BF7B4B",
"> c #DF9363",
", c #E79B6B",
"< c #F7AB7B",
"1 c gray70",
"2 c #EB9797",
"3 c #FFB383",
"4 c None",
/* pixels */
"4444   .O.OX..     44444",
"444  ##$=# X         444",
"44 XO$;=####O#        44",
"4  *=##O###O.#OOXX     4",
"44 #X##X X     .        ",
"4 X .       .          4",
" .  XX #=$;:#           ",
"4   $ *=;:33:$ $ #     4",
"4  XX$$:>>333>$ $ #    4",
"4  X$$$=>>333>=$$$#    4",
"4  X*=::=:>>>=:>;$#$   4",
"4  X;,33,>>>>,33,;=$XX 4",
"#  X*XOO$:333>*OOX#$X   ",
">..#$   #$33>$ .*#O*$.  ",
">oo*$%1.%*>3:%1 %;**$X =",
":OO*$*-2>*:>=*>2-***$o$>",
"$oO*=>33>=:>==>33>;**#>$",
"#oo$;>3>=:>3;:*>33::*#;4",
"4o#$;33>=#>:*#=>33>:*#44",
"4o#$;33>;@$$#@:>33>**#44",
"44#$*>3;$;;=;&$*:3*;$o44",
"44o*$:;$;>3<3-=$**;$#X44",
"44o#*$#==$$##+#;$;$*o444",
"444##*#$:>222>>*#$*#X444",
"444o###$=;=$=:;=#*#X4444",
"4444Xo##$>333>=$#oX44444",
"44444Xo##:=$=>$#oX444444",
"444444Xoo#$$$#ooX4444444",
"44444444XXXXXXX444444444"
};
