/* XPM */
static const char *xpm__[] = {
/* columns rows colors chars-per-pixel */
"24 31 36 1 ",
"  c #070707",
". c #131313",
"X c #2B230F",
"o c #332B13",
"O c #3F2F17",
"+ c #470000",
"@ c #530707",
"# c #6B0F0F",
"$ c #731313",
"% c #533F1F",
"& c #5F4323",
"* c #6B4727",
"= c #774F2B",
"- c #831F1F",
"; c #8F2B2B",
": c #972F2F",
"> c #9B3333",
", c #A33B3B",
"< c #875733",
"1 c #8F5F37",
"2 c #9B633B",
"3 c #AF4747",
"4 c #B34F4F",
"5 c #BB5757",
"6 c #BF5B5B",
"7 c #AB6F43",
"8 c #B37347",
"9 c #BF7B4B",
"0 c #CB6B6B",
"q c #D37373",
"w c #DB7B7B",
"e c #DF9363",
"r c #DF8787",
"t c #EB9797",
"y c #FFB383",
"u c None",
/* pixels */
"uuuuuuuuuuuuuuuuuuuuuuuu",
"uuuu               uuuuu",
"uuu   ..O.OX..       uuu",
"u   %%==2% X          uu",
"  XO=722%%%%O%   X     u",
"u <2%%OO%%%O.%OOX      u",
"u %X%%XX X     .      u ",
".X .                  uu",
"          @            u",
"u         $      @      ",
"u        X3X@ X   @     ",
"      @@ =99$@=2 @$@   u",
"     @@3$=ee9$=7$$>$@X u",
"% X  %$<39yyy3=e>><>$   ",
"e.%  7@<39yyye22$$%%$.  ",
"eo< =@@@$=yye=<O@@%<>X 2",
"9O<=2   @<ey9> .>$O<>o=e",
"=o<28@q>.29e2<q>.-<<$%e=",
"%O=,2w5e929e2<et5><<$%7u",
"uo%@$qwe229e22eet57<$%uu",
"uo%$#:re29ey79<et59<$%uu",
"uu%$:$6e7%e9<%2yt5<=$ouu",
"uuo$*;@7=$==@$99q31&$ouu",
"uuo$=,-<2>300>$234==@uuu",
"uuu@%,;=:@>$$@$@4,<%@uuu",
"uuu@o,;*400tt0>$,4%ouuuu",
"uuuuX;-*>,;;;,3@4$ouuuuu",
"uuuuu@@%;,0tt0>@$@uuuuuu",
"uuuuuu@o;$,;;$@@@uuuuuuu",
"uuuuuuuu+@$$$@+uuuuuuuuu",
"uuuuuuuuuuuuuuuuuuuuuuuu"
};
