/* XPM */
static const char *xpm__[] = {
/* columns rows colors chars-per-pixel */
"24 30 27 1 ",
"  c #070707",
". c #131313",
"X c #2B230F",
"o c #332B13",
"O c #3F2F17",
"+ c #530707",
"@ c #731313",
"# c #533F1F",
"$ c #774F2B",
"% c gray42",
"& c #9B3333",
"* c #A33B3B",
"= c #875733",
"- c #9B633B",
"; c #AF4747",
": c #BB5757",
"> c #AB6F43",
", c #BF7B4B",
"< c #CB6B6B",
"1 c #D37373",
"2 c #DF9363",
"3 c #E79B6B",
"4 c #F7AB7B",
"5 c gray70",
"6 c #EB9797",
"7 c #FFB383",
"8 c None",
/* pixels */
"8888   .O.OX..     88888",
"888  ##$-# X         888",
"88 XO$>-####O#        88",
"8  =-##O###O.#OOXX     8",
"88 #X##X X     .        ",
"8 X .       .          8",
" .  XX #-$>,#           ",
"8   $ =->,77,$ $ #     8",
"8  XX$$,227772$ $ #    8",
"8  X##$-2277722-$$$    8",
"8  X#$#$$-22222373,$   8",
"8  X->33>-222237,==$XX 8",
"#  X#XO-32777,$OOX=$X   ",
"2..#O#=. -277$#  $$=$.  ",
"2oo==>%5% ,72=%5% $=$X -",
",OO===:62=-2,=26:=$=$o$2",
"$oO=-2772-,2--2772>==#2$",
"#oo$>272-,27>,=277,,=#>8",
"8o#$>772-#2,=#-2772,=#88",
"8o#$*772>@$$+@,2772==#88",
"88#$@17>$&>-;&$=,7=>$o88",
"88o=$*1$>;74<;@$==>$#X88",
"88o#=$*--+$#@+@>$>$=o888",
"888##=#$,2666<&+#$=#X888",
"888o###$->-$-*;@#=#X8888",
"8888Xo##$2777<&+#oX88888",
"88888Xo##,-$-;@+oX888888",
"888888Xoo#$$$@++X8888888",
"88888888XXXXX+++88888888",
"888888888888888888888888"
};
