/* XPM */
static const char *xpm__[] = {
/* columns rows colors chars-per-pixel */
"24 31 30 1 ",
"  c #070707",
". c #131313",
"X c #2B230F",
"o c #332B13",
"O c #3F2F17",
"+ c #470000",
"@ c #530707",
"# c #731313",
"$ c #533F1F",
"% c #5F4323",
"& c #6B4727",
"* c #774F2B",
"= c #7F532F",
"- c #831F1F",
"; c #9B3333",
": c #A33B3B",
"> c #875733",
", c #8F5F37",
"< c #9B633B",
"1 c #AF4747",
"2 c #BB5757",
"3 c #AB6F43",
"4 c #B37347",
"5 c #BF7B4B",
"6 c #CB6B6B",
"7 c #D37373",
"8 c #DF9363",
"9 c #EB9797",
"0 c #FFB383",
"q c None",
/* pixels */
"qqqqqqqqqqqqqqqqqqqqqqqq",
"qqqq               qqqqq",
"qqq   ..O.OX..       qqq",
"q   $$**<$ X          qq",
"  XO*3<<$$$$O$   X     q",
"q ><$$OO$$$O.$OOX      q",
"q $X$$XX X     .      q ",
".X .                  qq",
"                       q",
"q         X      X      ",
"q        X$XX X   X     ",
"      XX *55$X*< *$X   q",
"     X$$>*885$*3<3>$XX q",
"$ X  $$>350005*888>$X   ",
"8.$  3>><50008<<>$$<$.  ",
"8o> *OOO**008*>OOX$>*X <",
"5O>*<   $>805; .>$O>;o*8",
"*o><4@7.;<58<>7.-3>>*$8*",
"$O*:<>285<58<>892>>>*$3q",
"qo$@:808<<58<<88083>&$qq",
"qo$#-708<58035>8005>&$qq",
"qq$#*:783$85>$<003>*%oqq",
"qqo#&*:3*#**@#555>,*$oqq",
"qqo#*&*><;606;#<=,**oqqq",
"qqq@$*&*<@;$#@#@>*>$oqqq",
"qqq@o$*&566996;#*>$oqqqq",
"qqqqXo$&<::*<:1@*$oqqqqq",
"qqqqqXo$*:6886;@oXqqqqqq",
"qqqqqqXo*#:*$#@@Xqqqqqqq",
"qqqqqqqqX@#XX@+qqqqqqqqq",
"qqqqqqqqqqqqqqqqqqqqqqqq"
};
