/* XPM */
static const char *xpm__[] = {
/* columns rows colors chars-per-pixel */
"24 29 20 1 ",
"  c #070707",
". c #131313",
"X c #2B230F",
"o c #332B13",
"O c #3F2F17",
"+ c #533F1F",
"@ c #774F2B",
"# c gray42",
"$ c #875733",
"% c #9B633B",
"& c #BB5757",
"* c #AB6F43",
"= c #BF7B4B",
"- c #DF9363",
"; c #E79B6B",
": c #F7AB7B",
"> c gray70",
", c #EB9797",
"< c #FFB383",
"1 c None",
/* pixels */
"1111   .O.OX..     11111",
"111  ++@%+ X         111",
"11 XO@*%++++O+        11",
"1  $%++O+++O.+OOXX     1",
"11 +X++X X     .        ",
"1 X .       .          1",
" .  XX +%@*=+           ",
"1   @ $%*=<<=@ @ +     1",
"1  XX++=--<<<-@ @ +    1",
"1  X@@@%--<<<--%@++    1",
"1  X=;<;-----%@@+@+@   1",
"1  X$$=<;----%*;;*%@XX 1",
"+  X$XOO@=<<<-;%OX+@X   ",
"-..+@@  +@<<-% .$+O$@.  ",
"-oo$@# >#$-<=# >#*$$@X %",
"=OO$@$&,-$=-%$-,&$$$@o@-",
"@oO$%-<<-%=-%%-<<-*$$+-@",
"+oo@*-<-%=-<*=$-<<==$+*1",
"1o+@*<<-%+-=$+%-<<-=$+11",
"1o+@*<<-*@@@++=-<<-$$+11",
"11+@$-<*@**%*%@$=<$*@o11",
"11o$@=*@*-<:<-%@$$*@+X11",
"11o+$@+%%@@++++*@*@$o111",
"111++$+@=-,,,--$+@$+X111",
"111o+++@%*%@%=*%+$+X1111",
"1111Xo++@-<<<-%@+oX11111",
"11111Xo++=%@%-@+oX111111",
"111111Xoo+@@@+ooX1111111",
"11111111XXXXXXX111111111"
};
