/* XPM */
static const char *xpm__[] = {
/* columns rows colors chars-per-pixel */
"24 31 31 1 ",
"  c #070707",
". c #131313",
"X c #2B230F",
"o c #332B13",
"O c #3F2F17",
"+ c #470000",
"@ c #530707",
"# c #731313",
"$ c #533F1F",
"% c #5F4323",
"& c #6B4727",
"* c #774F2B",
"= c #7F532F",
"- c #831F1F",
"; c #9B3333",
": c #A33B3B",
"> c #875733",
", c #8F5F37",
"< c #9B633B",
"1 c #AF4747",
"2 c #BB5757",
"3 c #AB6F43",
"4 c #B37347",
"5 c #BF7B4B",
"6 c #C76363",
"7 c #CB6B6B",
"8 c #D37373",
"9 c #DF9363",
"0 c #EB9797",
"q c #FFB383",
"w c None",
/* pixels */
"wwwwwwwwwwwwwwwwwwwwwwww",
"wwww               wwwww",
"www   ..O.OX..       www",
"w   $$**<$ X          ww",
"  XO*3<<$$$$O$   X     w",
"w ><$$OO$$$O.$OOX      w",
"w $X$$XX X     .      w ",
".X .                  ww",
"                       w",
"w         X      X      ",
"w        X$XX X   X     ",
"      XX *55$X*< *$X   w",
"     X$$>*995$*3<3>$XX w",
"$ X  $$>35qqq5*999>$X   ",
"9.$  3>><5qqq9<<>$$<$.  ",
"9o> *OOO**qq9*>OOX$>*X <",
"5O>*<   $>9q5; .>$O>;o*9",
"*o><4@.8;<59<>.6-3>>*$9*",
"$O*:<>295<59<>902>>>*$3w",
"wo$@:9q9<<59<<99q93>&$ww",
"wo$#-8q9<59q35>9qq5>&$ww",
"ww$#*:893$95>$<qq3>*%oww",
"wwo#&*:3*#**@#555>,*$oww",
"wwo#*&*><;7q7;#<=,**owww",
"www@$*&*<@;$#@#@>*>$owww",
"www@o$*&577007;#*>$owwww",
"wwwwXo$&<::*<:1@*$owwwww",
"wwwwwXo$*:7997;@oXwwwwww",
"wwwwwwXo*#:*$#@@Xwwwwwww",
"wwwwwwwwX@#XX@+wwwwwwwww",
"wwwwwwwwwwwwwwwwwwwwwwww"
};
