/* XPM */
static const char *xpm__[] = {
/* columns rows colors chars-per-pixel */
"26 30 36 1 ",
"  c #070707",
". c #131313",
"X c #1B1B1B",
"o c #2B230F",
"O c #332B13",
"+ c #3F2F17",
"@ c #530707",
"# c #43331B",
"$ c #4B371B",
"% c #533F1F",
"& c #5F4323",
"* c #5B472B",
"= c #6B4727",
"- c #774F2B",
"; c #7F532F",
": c gray42",
"> c #9B3333",
", c #875733",
"< c #8F5F37",
"1 c #9B633B",
"2 c #AF4747",
"3 c #BB5757",
"4 c #AB6F43",
"5 c #B37347",
"6 c #CF8353",
"7 c #D78B5B",
"8 c #DF9363",
"9 c #EFA373",
"0 c #F7AB7B",
"q c #A7A7A7",
"w c #EB9797",
"e c #FFB383",
"r c #FFBB93",
"t c #FFC7A7",
"y c gray86",
"u c None",
/* pixels */
"uuuuuu u              uuuu",
"uuu      .  # X*X.       u",
"uuuu    . X*X%#;    o   uu",
"uuuu     X<;X##X     .   u",
"uuu    XX*XX##X          u",
"uuu . XX    .o+oo$&&      ",
"uu  .X  + $ &<=<<7=5< .   ",
"uu  .  + 1+15577788775 $  ",
"uu    + 1+11115eeeeee85 & ",
"u    o &157785118eee759e<<",
"uu  X  =5500tr0r08e9eeee7<",
"u   X .<<5,%+<5647765898<&",
"uu  X o<=$&&&++&-79849<++u",
"uu  X $=$o&=y: q%5e5-%q qu",
"uu<7& =5=&&4334+=5e8+o-35u",
"uu7<5o<55<<<=<&5<<ee<-698;",
"uu7ooo<<5795<<5<<<ee857997",
"uu5&&$&<=5579975858ee59997",
"uu&<o<=&<=<59ee7e75<<<997<",
"uuu&<<o=$<=<7e7<@ o$@5795<",
"uuuu&+$o=$<=<7<<==&&><57<&",
"uuuuuuo+o=$<=<&$55852<=<<o",
"uuuuuu..+o=$<&+&&+++@&=<<u",
"uuuuuuuo.+o=&o=<7www7<&<&u",
"uuuuuuu.oo+o$+=&<<&&<5&<ou",
"uuuuuuuu..o+oO$5ee77e7&&uu",
"uuuuuuuuu..o++&<5<==<<&ouu",
"uuuuuuuuuu.oo++++&&==+ouuu",
"uuuuuuuuuuuu .ooo++++ouuuu",
"uuuuuuuuuuuuuuuuuuuuuuuuuu"
};
