/* XPM */
static const char *xpm__[] = {
/* columns rows colors chars-per-pixel */
"27 30 39 1 ",
"  c #070707",
". c #131313",
"X c #1B1B1B",
"o c #2B230F",
"O c #332B13",
"+ c #3F2F17",
"@ c #530707",
"# c #731313",
"$ c #43331B",
"% c #4B371B",
"& c #533F1F",
"* c #5F4323",
"= c #5B472B",
"- c #6B4727",
"; c #774F2B",
": c #7F532F",
"> c gray42",
", c #9B3333",
"< c #A33B3B",
"1 c #875733",
"2 c #8F5F37",
"3 c #9B633B",
"4 c #AF4747",
"5 c #BB5757",
"6 c #AB6F43",
"7 c #B37347",
"8 c #CB6B6B",
"9 c #CF8353",
"0 c #D78B5B",
"q c #DF9363",
"w c #EFA373",
"e c #F7AB7B",
"r c #A7A7A7",
"t c #EB9797",
"y c #FFB383",
"u c #FFBB93",
"i c #FFC7A7",
"p c gray86",
"a c None",
/* pixels */
"aaaaaaaaaaaaaaaaaaaaaaaaaaa",
"aaaaaa a              aaaaa",
"aaa      .  $ X=X.       aa",
"aaaa    . X=X&$:    o   aaa",
"aaaa     X2:X$$X     .   aa",
"aaa    XX=XX$$X          aa",
"aaa . XX    .o+oo%**      a",
"aa  .X  + % *2-220-72 .   a",
"aa  .  + 3+377000qq007 %  a",
"aa    + 3+33337yyyyyyq7 * a",
"a    o *3700q733qyyy07wy22a",
"aa  X  -77eeiueueqywyyyy02a",
"a   X .2271&+27960097qwq2*a",
"aa  X o2-%***++*;0wq6w2++aa",
"aa  X %-%o*-p> r&7y7;&r raa",
"aa20* -7-**6556+-7yq+o;57aa",
"aa027o277222-2*722yy2;9wq:a",
"aa0ooo2270w7227222yyq70ww0a",
"aa7**%*<-770ww07q7qyy7www0a",
"aa*2o2-@<-27wyy0y07222ww02a",
"aaa*22o-@<-20y02@ o%;70w72a",
"aaaa*+%o-@<-2022#-**,,702*a",
"aaaaaao+o-@2-2*%,7q48,#22oa",
"aaaaaa..+o-%2*+*#++++@#22aa",
"aaaaaaao.+o-*o-20ttt8,#2*aa",
"aaaaaaa.oo+o%+-*22**,4#2oaa",
"aaaaaaaa..o+oO%7yy0088#*aaa",
"aaaaaaaaa..o++*272--44#oaaa",
"aaaaaaaaaa.oo++++**-,#@aaaa",
"aaaaaaaaaaaa .ooo+++#@aaaaa"
};
