/* XPM */
static const char *xpm__[] = {
/* columns rows colors chars-per-pixel */
"28 30 35 1 ",
"  c #070707",
". c #131313",
"X c #1B1B1B",
"o c #2B230F",
"O c #332B13",
"+ c #3F2F17",
"@ c #530707",
"# c #731313",
"$ c #43331B",
"% c #4B371B",
"& c #533F1F",
"* c #5F4323",
"= c #5B472B",
"- c #6B4727",
"; c #774F2B",
": c #7F532F",
"> c #9B3333",
", c #8F5F37",
"< c #9B633B",
"1 c #AF4747",
"2 c #BB5757",
"3 c #AB6F43",
"4 c #B37347",
"5 c #CB6B6B",
"6 c #D37373",
"7 c #CF8353",
"8 c #D78B5B",
"9 c #DF9363",
"0 c #EFA373",
"q c #F7AB7B",
"w c #EB9797",
"e c #FFB383",
"r c #FFBB93",
"t c #FFC7A7",
"y c None",
/* pixels */
"yyyyyyy y              yyyyy",
"yyyy                      yy",
"yyyyy     .  $ X=X.  o   yyy",
"yyyyy    . X=X&$:     .   yy",
"yyyy      X,:X$$X         yy",
"yyyy .  XX=XX$$X           y",
"yyy  .XXX    .o   o*       y",
"yyy  .   + % *,-  %,,      y",
"yyy     + %+;;<<% ;,8*     y",
"yy    o+ %+%%;;<<%;8ee*    y",
"yyy  X  *-<8894,<4,ee8, ;  y",
"yy   X  -<4qqtrqrq4e0ee ;; y",
"yyy  X .,,,4&+,473887490;, y",
"yyy,8* %-,%o***++*;8093,++ y",
"yyy8,4 -,,-**-6> >&4e4;6 >yy",
"yyy8ooo,,,4,*3223+-4e9+;2,yy",
"yyy4**o,,,48444,*,,,ee,;,,yy",
"yyy*,o%*#-448,*,,,,,ee9477yy",
"yyyy*,,->#-,40eee4949ee477yy",
"yyyyy*o-@6-,8eeee8e84,,,7,yy",
"yyyyyy%o#@5-,808,@ o%;48,*yy",
"yyyyyyo+#-@>-,,,#>**>>4,,oyy",
"yyyyyy..@o-%,**@>5915>#,,yyy",
"yyyyyyyo#+o-*o+##@+++@#,*yyy",
"yyyyyyy.@o+o%+->55ww5>#,oyyy",
"yyyyyyyy@.o+oO-#>>**>1#*yyyy",
"yyyyyyyyy..o++%5ww8855#yyyyy",
"yyyyyyyyyy.oo++@#>*->#yyyyyy",
"yyyyyyyyyyyy .o@@#++#@yyyyyy",
"yyyyyyyyyyyyyyyyyyyyyyyyyyyy"
};
