/* XPM */
static const char *xpm__[] = {
/* columns rows colors chars-per-pixel */
"27 30 39 1 ",
"  c #070707",
". c #131313",
"X c #1B1B1B",
"o c #2B230F",
"O c #332B13",
"+ c #3F2F17",
"@ c #530707",
"# c #731313",
"$ c #43331B",
"% c #4B371B",
"& c #533F1F",
"* c #5F4323",
"= c #5B472B",
"- c #6B4727",
"; c #774F2B",
": c #7F532F",
"> c gray42",
", c #9B3333",
"< c #A33B3B",
"1 c #875733",
"2 c #8F5F37",
"3 c #9B633B",
"4 c #AF4747",
"5 c #BB5757",
"6 c #AB6F43",
"7 c #B37347",
"8 c #CB6B6B",
"9 c #CF8353",
"0 c #D78B5B",
"q c #DF9363",
"w c #EFA373",
"e c #F7AB7B",
"r c #A7A7A7",
"t c #EB9797",
"y c #FFB383",
"u c #FFBB93",
"i c #FFC7A7",
"p c gray86",
"a c None",
/* pixels */
"aaaaaaaaaaaaaaaaaaaaaaaaaaa",
"aaaaa              a aaaaaa",
"aa       .X=X $  .      aaa",
"aaa   o    :$&X=X .    aaaa",
"aa   .     X$$X:2X     aaaa",
"aa          X$$XX=XX    aaa",
"a      **%oo+o.    XX . aaa",
"a   . 27-022-2* % +  X.  aa",
"a  % 700qq000773+3 +  .  aa",
"a * 7qyyyyyy73333+3 +    aa",
"a22yw70yyyq337q0073* o    a",
"a20yyyywyqeueuiee77-  X  aa",
"a*2qwq79006972+&1722. X   a",
"aa++2w6qw0;*++***%-2o X  aa",
"aar r&;7y7&r >p-*o%-% X  aa",
"aa75;o+qy7-+6556**-7- *02aa",
"a:qw9;2yy227*2-222772o720aa",
"a0ww07qyy2227227w0722ooo0aa",
"a0www7yyq7q70ww077-<*%**7aa",
"a20ww22270y0yyw72-<@-2o2*aa",
"a27w07;%o @20y02-<@-o22*aaa",
"a*207,,**-#2202-<@-o%+*aaaa",
"ao22#,84q7,%*2-2@-o+oaaaaaa",
"aa22#@++++#*+*2%-o+..aaaaaa",
"aa*2#,8ttt02-o*-o+.oaaaaaaa",
"aao2#4,**22*-+%o+oo.aaaaaaa",
"aaa*#8800yy7%Oo+o..aaaaaaaa",
"aaao#44--272*++o..aaaaaaaaa",
"aaaa@#,-**++++oo.aaaaaaaaaa",
"aaaaa@#+++ooo. aaaaaaaaaaaa"
};
