/* XPM */
static const char *xpm__[] = {
/* columns rows colors chars-per-pixel */
"26 30 33 1 ",
"  c #070707",
". c #131313",
"X c #1B1B1B",
"o c #2B230F",
"O c #332B13",
"+ c #3F2F17",
"@ c #43331B",
"# c #4B371B",
"$ c #533F1F",
"% c #5F4323",
"& c #5B472B",
"* c #6B4727",
"= c #774F2B",
"- c #7F532F",
"; c gray42",
": c #875733",
"> c #8F5F37",
", c #9B633B",
"< c #BB5757",
"1 c #AB6F43",
"2 c #B37347",
"3 c #CF8353",
"4 c #D78B5B",
"5 c #DF9363",
"6 c #EFA373",
"7 c #F7AB7B",
"8 c #A7A7A7",
"9 c #EB9797",
"0 c #FFB383",
"q c #FFBB93",
"w c #FFC7A7",
"e c gray86",
"r c None",
/* pixels */
"rrrrrr r              rrrr",
"rrr      .  @ X&X.       r",
"rrrr    . X&X$@-    o   rr",
"rrrr     X>-X@@X     .   r",
"rrr    XX&XX@@X          r",
"rrr . XX    .o+oo#%%      ",
"rr  .X  + # %>*>>4*2> .   ",
"rr  .  + ,+,2244455442 #  ",
"rr    + ,+,,,,200000052 % ",
"r    o %,24452,,50004260>>",
"rr  X  *2277wq7q750600004>",
"r   X .>>2:$+>2314432565>%",
"rr  X o>*#%%%++%=46516>++r",
"rr  X #*#o%*e; 8$202=$8 8r",
"rr>4% *2*%%1<<1+*205+o=<2r",
"rr4>2o>22>>>*>%2>>00>=365-",
"rr4ooo>>2462>>2>>>00524664",
"rr2%%#%>*22466425250026664",
"rr%>o>*%>*>26004042>>>664>",
"rrr%>>o*#>*>404>+ o#=2462>",
"rrrr%+#o*#>*>4>>**%%>>24>%",
"rrrrrro+o*#>*>%#22525>*>>o",
"rrrrrr..+o*#>%+%%++++%*>>r",
"rrrrrrro.+o*%o*>49994>%>%r",
"rrrrrrr.oo+o#+*%>>%%>2%>or",
"rrrrrrrr..o+oO#2004404%%rr",
"rrrrrrrrr..o++%>2>**>>%orr",
"rrrrrrrrrr.oo++++%%**+orrr",
"rrrrrrrrrrrr .ooo++++orrrr",
"rrrrrrrrrrrrrrrrrrrrrrrrrr"
};
