/* XPM */
static const char *xpm__[] = {
/* columns rows colors chars-per-pixel */
"26 30 33 1 ",
"  c #070707",
". c #131313",
"X c #1B1B1B",
"o c #2B230F",
"O c #332B13",
"+ c #3F2F17",
"@ c #43331B",
"# c #4B371B",
"$ c #533F1F",
"% c #5F4323",
"& c #5B472B",
"* c #6B4727",
"= c #774F2B",
"- c #7F532F",
"; c gray42",
": c #875733",
"> c #8F5F37",
", c #9B633B",
"< c #BB5757",
"1 c #AB6F43",
"2 c #B37347",
"3 c #CF8353",
"4 c #D78B5B",
"5 c #DF9363",
"6 c #EFA373",
"7 c #F7AB7B",
"8 c #A7A7A7",
"9 c #EB9797",
"0 c #FFB383",
"q c #FFBB93",
"w c #FFC7A7",
"e c gray86",
"r c None",
/* pixels */
"rrrrrrrrrrrrrrrrrrrrrrrrrr",
"rrrr              r rrrrrr",
"r       .X&X @  .      rrr",
"rr   o    -@$X&X .    rrrr",
"r   .     X@@X->X     rrrr",
"r          X@@XX&XX    rrr",
"      %%#oo+o.    XX . rrr",
"   . >2*4>>*>% # +  X.  rr",
"  # 2445544422,+, +  .  rr",
" % 250000002,,,,+, +    rr",
">>06240005,,25442,% o    r",
">400006057q7qw7722*  X  rr",
"%>5652344132>+$:2>>. X   r",
"r++>61564=%++%%%#*>o X  rr",
"r8 8$=202$8 ;e*%o#*# X  rr",
"r2<=o+502*+1<<1%%*2* %4>rr",
"-563=>00>>2%>*>>>22>o2>4rr",
"46642500>>>2>>2642>>ooo4rr",
"46662005252466422*>%#%%2rr",
">466>>>24040062>*>%*>o>%rr",
">2642=#o +>404>*>#*o>>%rrr",
"%>42>>%%**>>4>*>#*o#+%rrrr",
"o>>*>52522#%>*>#*o+orrrrrr",
"r>>*%++++%%+%>#*o+..rrrrrr",
"r%>%>49994>*o%*o+.orrrrrrr",
"ro>%2>%%>>%*+#o+oo.rrrrrrr",
"rr%%4044002#Oo+o..rrrrrrrr",
"rro%>>**>2>%++o..rrrrrrrrr",
"rrro+**%%++++oo.rrrrrrrrrr",
"rrrro++++ooo. rrrrrrrrrrrr"
};
