/* XPM */
static const char *xpm__[] = {
/* columns rows colors chars-per-pixel */
"28 30 35 1 ",
"  c #070707",
". c #131313",
"X c #1B1B1B",
"o c #2B230F",
"O c #332B13",
"+ c #3F2F17",
"@ c #530707",
"# c #731313",
"$ c #43331B",
"% c #4B371B",
"& c #533F1F",
"* c #5F4323",
"= c #5B472B",
"- c #6B4727",
"; c #774F2B",
": c #7F532F",
"> c #9B3333",
", c #8F5F37",
"< c #9B633B",
"1 c #AF4747",
"2 c #BB5757",
"3 c #AB6F43",
"4 c #B37347",
"5 c #CB6B6B",
"6 c #D37373",
"7 c #CF8353",
"8 c #D78B5B",
"9 c #DF9363",
"0 c #EFA373",
"q c #F7AB7B",
"w c #EB9797",
"e c #FFB383",
"r c #FFBB93",
"t c #FFC7A7",
"y c None",
/* pixels */
"yyyyyy y              yyyyyy",
"yyy                      yyy",
"yyyy     .  $ X=X.  o   yyyy",
"yyyy    . X=X&$:     .   yyy",
"yyy      X,:X$$X         yyy",
"yyy .  XX=XX$$X           yy",
"yy  .XXX    .o   @@       yy",
"yy  .   @ @ ##@  @,@ @    yy",
"yy     @ @+;;##@ #,8# @   yy",
"y     @ @#%%;>#>#>8ee# @  yy",
"yy  X  @#<88955<4>ee8, #@ yy",
"y   X  #>4qqtwwrq5e0ee@># yy",
"yy  X .,>,4&+#>7358749#># yy",
"yy,8* %->%o**#@+*;8093,++ yy",
"yy8#4@-,>-**-6> >&4e4;6 >yyy",
"yy8@@@,,>4,*3#>>+-4e9+;2>yyy",
"yy4##@,,>4844>,*,,,ee,;>>yyy",
"yy*>@%*##448,5,,,,,ee9422yyy",
"yyy##,->#-,40wee4949ee422yyy",
"yyyy@o-@6-,8ewee8e84,,,2>yyy",
"yyyyy%o#@5-,858,@ o%;48>#yyy",
"yyyyyo+#-@>-,5,#>##>>4,>@yyy",
"yyyyy..@o##,*>@>5515>#,>yyyy",
"yyyyyyo#+@#*o@##@@@@@#,#yyyy",
"yyyyyy.@o+@%+#>55ww5>#,@yyyy",
"yyyyyyy@.o#oO##>>##>1#*yyyyy",
"yyyyyyyy..@++@>55ww55#yyyyyy",
"yyyyyyyyy.@o+@@#>>>>#yyyyyyy",
"yyyyyyyyyyy .@@@####@yyyyyyy",
"yyyyyyyyyyyyyyyyyyyyyyyyyyyy"
};
