/* XPM */
static const char *xpm__[] = {
/* columns rows colors chars-per-pixel */
"26 30 36 1 ",
"  c #070707",
". c #131313",
"X c #1B1B1B",
"o c #2B230F",
"O c #332B13",
"+ c #3F2F17",
"@ c #530707",
"# c #43331B",
"$ c #4B371B",
"% c #533F1F",
"& c #5F4323",
"* c #5B472B",
"= c #6B4727",
"- c #774F2B",
"; c #7F532F",
": c gray42",
"> c #9B3333",
", c #875733",
"< c #8F5F37",
"1 c #9B633B",
"2 c #AF4747",
"3 c #BB5757",
"4 c #AB6F43",
"5 c #B37347",
"6 c #CF8353",
"7 c #D78B5B",
"8 c #DF9363",
"9 c #EFA373",
"0 c #F7AB7B",
"q c #A7A7A7",
"w c #EB9797",
"e c #FFB383",
"r c #FFBB93",
"t c #FFC7A7",
"y c gray86",
"u c None",
/* pixels */
"uuuu              u uuuuuu",
"u       .X*X #  .      uuu",
"uu   o    ;#%X*X .    uuuu",
"u   .     X##X;<X     uuuu",
"u          X##XX*XX    uuu",
"      &&$oo+o.    XX . uuu",
"   . <5=7<<=<& $ +  X.  uu",
"  $ 57788777551+1 +  .  uu",
" & 58eeeeee51111+1 +    uu",
"<<e957eee811587751& o    u",
"<7eeee9e80r0rt0055=  X  uu",
"&<8985677465<+%,5<<. X   u",
"u++<94897-&++&&&$=<o X  uu",
"uq q%-5e5%q :y=&o$=$ X  uu",
"u53-o+8e5=+4334&&=5= &7<uu",
";896-<ee<<5&<=<<<55<o5<7uu",
"799758ee<<<5<<5975<<ooo7uu",
"79995ee8585799755=<&$&&5uu",
"<799<<<57e7ee95<=<&=<o<&uu",
"<5975@$o @<7e7<=<$=o<<&uuu",
"&<75<>&&==<<7<=<$=o$+&uuuu",
"o<<=<25855$&<=<$=o+ouuuuuu",
"u<<=&@+++&&+&<$=o+..uuuuuu",
"u&<&<7www7<=o&=o+.ouuuuuuu",
"uo<&5<&&<<&=+$o+oo.uuuuuuu",
"uu&&7e77ee5$Oo+o..uuuuuuuu",
"uuo&<<==<5<&++o..uuuuuuuuu",
"uuuo+==&&++++oo.uuuuuuuuuu",
"uuuuo++++ooo. uuuuuuuuuuuu",
"uuuuuuuuuuuuuuuuuuuuuuuuuu"
};
