/* XPM */
static const char *xpm__[] = {
/* columns rows colors chars-per-pixel */
"30 31 35 1 ",
"  c #070707",
". c #131313",
"X c #1B1B1B",
"o c #2B230F",
"O c #332B13",
"+ c #3F2F17",
"@ c #530707",
"# c #731313",
"$ c #43331B",
"% c #4B371B",
"& c #533F1F",
"* c #5F4323",
"= c #5B472B",
"- c #6B4727",
"; c #774F2B",
": c #7F532F",
"> c #9B3333",
", c #8F5F37",
"< c #9B633B",
"1 c #AF4747",
"2 c #BB5757",
"3 c #AB6F43",
"4 c #B37347",
"5 c #CB6B6B",
"6 c #D37373",
"7 c #CF8353",
"8 c #D78B5B",
"9 c #DF9363",
"0 c #EFA373",
"q c #F7AB7B",
"w c #EB9797",
"e c #FFB383",
"r c #FFBB93",
"t c #FFC7A7",
"y c None",
/* pixels */
"yyyyyyyyyyyyyyyyyyyyyyyyyyyyyy",
"yyyyyyy              y yyyyyyy",
"yyyy                      yyyy",
"yyyyy   o  .X=X $  .     yyyyy",
"yyyy   .     :$&X=X .    yyyyy",
"yyyy         X$$X:,X      yyyy",
"yyy           X$$XX=XX  . yyyy",
"yyy       @@   o.    XXX.  yyy",
"yyy    @ @,@  @## @ @   .  yyy",
"yyy   @ #8,# @##;;+@ @     yyy",
"yyy  @ #ee8>#>#>;%%#@ @     yy",
"yyy @# ,8ee>4<55988<#@  X  yyy",
"yyy #>@ee0e5qrwwtqq4>#  X   yy",
"yyy #>#9478537>#+&4,>,. X  yyy",
"yyy ++,3908;*+@#**o%>-% *8,yyy",
"yyyy> 6;4e4&> >6-**->,-@4#8yyy",
"yyyy>2;+9e4-+>>#3*,4>,,@@@8yyy",
"yyyy>>;,ee,,,*,>4484>,,@##4yyy",
"yyyy2249ee,,,,,5,844##*%@>*yyy",
"yyyy224ee9494eew04,-#>-,##yyyy",
"yyyy>2,,,48e8eewe8,-6@-o@yyyyy",
"yyyy#>84;%o @,858,-5@#o%yyyyyy",
"yyyy@>,4>>##>#,5,->@-#+oyyyyyy",
"yyyyy>,#>5155>@>*,##o@..yyyyyy",
"yyyyy#,#@@@@@##@o*#@+#oyyyyyyy",
"yyyyy@,#>5ww55>#+%@+o@.yyyyyyy",
"yyyyyy*#1>##>>##Oo#o.@yyyyyyyy",
"yyyyyyy#55ww55>@++@..yyyyyyyyy",
"yyyyyyyy#>>>>#@@+o@.yyyyyyyyyy",
"yyyyyyyy@####@@@. yyyyyyyyyyyy",
"yyyyyyyyyyyyyyyyyyyyyyyyyyyyyy"
};
