/* XPM */
static const char *xpm__[] = {
/* columns rows colors chars-per-pixel */
"29 31 35 1 ",
"  c #070707",
". c #131313",
"X c #1B1B1B",
"o c #2B230F",
"O c #332B13",
"+ c #3F2F17",
"@ c #530707",
"# c #731313",
"$ c #43331B",
"% c #4B371B",
"& c #533F1F",
"* c #5F4323",
"= c #5B472B",
"- c #6B4727",
"; c #774F2B",
": c #7F532F",
"> c #9B3333",
", c #8F5F37",
"< c #9B633B",
"1 c #AF4747",
"2 c #BB5757",
"3 c #AB6F43",
"4 c #B37347",
"5 c #CB6B6B",
"6 c #D37373",
"7 c #CF8353",
"8 c #D78B5B",
"9 c #DF9363",
"0 c #EFA373",
"q c #F7AB7B",
"w c #EB9797",
"e c #FFB383",
"r c #FFBB93",
"t c #FFC7A7",
"y c None",
/* pixels */
"yyyyyyyyyyyyyyyyyyyyyyyyyyyyy",
"yyyyyy              y yyyyyyy",
"yyy                      yyyy",
"yyyy   o  .X=X $  .     yyyyy",
"yyy   .     :$&X=X .    yyyyy",
"yyy         X$$X:,X      yyyy",
"yy           X$$XX=XX  . yyyy",
"yy       *o   o.    XXX.  yyy",
"yy      ,,%  -,* % +   .  yyy",
"yy     *8,; %<<;;+% +     yyy",
"yy    *ee8;%<<;;%%+% +o    yy",
"yy  ; ,8ee,4<,4988<-*  X  yyy",
"yy ;; ee0e4qrqrtqq4<-  X   yy",
"yy ,;094788374,+&4,,,. X  yyy",
"yy ++,3908;*++***o%,-% *8,yyy",
"yyy> 6;4e4&> >6-**-,,- 4,8yyy",
"yyy,2;+9e4-+3223*,4,,,ooo8yyy",
"yyy,,;,ee,,,*,44484,,,o**4yyy",
"yyy7749ee,,,,,*,844-#*%o,*yyy",
"yyy774ee9494eee04,-#>-,,*yyyy",
"yyy,7,,,48e8eeee8,-6@-o*yyyyy",
"yyy*,84;%o @,808,-5@#o%yyyyyy",
"yyyo,,4>>**>#,,,->@-#+oyyyyyy",
"yyyy,,#>5195>@**,%-o@..yyyyyy",
"yyyy*,#@+++@##+o*-o+#oyyyyyyy",
"yyyyo,#>5ww55>-+%o+o@.yyyyyyy",
"yyyyy*#1>**>>#-Oo+o.@yyyyyyyy",
"yyyyyy#5588ww5%++o..yyyyyyyyy",
"yyyyyyy#>-*>#@++oo.yyyyyyyyyy",
"yyyyyyy@#++#@@o. yyyyyyyyyyyy",
"yyyyyyyyyyyyyyyyyyyyyyyyyyyyy"
};
