/* XPM */
static const char *mwall2_1[] = {
/* columns rows colors chars-per-pixel */
"128 128 66 1 ",
"  c black",
". c #070707",
"X c #0B0B0B",
"o c #170F07",
"O c #0F1700",
"+ c #0B1707",
"@ c #171F07",
"# c #1F170B",
"$ c #131313",
"% c #1B1B1B",
"& c #2F1B0B",
"* c #13230B",
"= c #2B230F",
"- c #232B0F",
"; c #372313",
": c #332B13",
"> c #3F2F17",
", c #3F2B1B",
"< c #2F371F",
"1 c #232323",
"2 c #272727",
"3 c #2F2F2F",
"4 c #373F27",
"5 c #373737",
"6 c gray23",
"7 c #43331B",
"8 c #4B371B",
"9 c #533F1F",
"0 c #473323",
"q c #4F3B23",
"w c #4F3B27",
"e c #4F3B2B",
"r c #533F2F",
"t c #3F472B",
"y c #5B472B",
"u c #474F33",
"i c #574333",
"p c #5F4B37",
"a c #53573B",
"s c #67533F",
"d c #775F3F",
"f c #434343",
"g c gray28",
"h c #4B4B4B",
"j c gray31",
"k c #5B5B5B",
"l c #6F5743",
"z c #5B6347",
"x c #676B4F",
"c c #7B634F",
"v c #6F7357",
"b c #7B7F63",
"n c gray50",
"m c #836B4B",
"M c #836B57",
"N c #8B735B",
"B c #937B63",
"V c #9F8363",
"C c #9F876F",
"Z c #A78F77",
"A c #AF977F",
"S c #838383",
"D c #8B8B8B",
"F c #939393",
"G c #B79F87",
"H c #BFA78F",
/* pixels */
":#<%<<#X... .oo:%%1<<<<4<44444tt44<4<4<%#1<<1$%<--:4<<4-<-4<4t:<-oo%$o#<4<<44ttuazatxxu<-<--<-<<<<<<<<<t22<<<<444ttttuuu44zut4tt",
"a43vz6z:$:oo=:2xj4aa5vz4vz5vzfvz6vztxh4u5<af<hu4gu3zu3zg<zu5vu2ut%44%<24zu3vztbxfCa6ba5bz5xa6xafvzfva3xh4zu3xa5va6vz6vzfbztbz6bx",
"uf:zg4z1OooO#:<xz5at3zt5zu4xu4zu<a6:a424=1ut3at3tt2at1u43u3=6<1<3o1<X%=1t32at3xu4vz<xj<xu3x44au3xa4xu2at2u6-z5<z44au<xa<va4vz4xk",
"at<at2a@@oo.-42zu<tt<u4<zu3zt3a<1a4%t<=<:*t4<u<:<<<s4=aa3at-4-o&=O@#+-@%<<#<t:zu3au2u<<tt4at2at<zu3zt-u<143=tt1t=-t41at2au4xs3at",
"zt2au=t##&@#tt<zu5u42ut2a0<au<a1-4<4u4#4<2at2zr2<4<x<1a4<a<14&o#-#&ooo##::@;:1t--at2t4-aa5at<uu3zu4x<2t41442ut:4*%tt2u4<au3zu<t4",
"tu=ut1=#o<<-zu3zt4a4:ue<ut3au3x:<4<1z4%u4<at<xa4<<2v<%a4tbi<47o#<14o.#o-<<%==-t42xt1at<xf4a42au3zu<at=u<#:%1t4%:o@tzuVa6at<ze1t<",
"ua%44o#oOtt1zu<zu5z<1tt2at<at<v2<a<:u<4au2au5za5z<<xt<at6vz3<4-<<-0#.#O%tt<#<<zu2z<<zt3xu4ut<a44za2a4%u<$-=%t<@<=$at3zatbt2au-t<",
"au-<1OoXout<au3zu<a<=<41at<ae2x-2u<%au5zt<xu5xa4z41xt2au0vz4<<1<=%7#O#o@4t3:41au<u4<au4xu3au2ut2x4:t<1<-$=1#t<=42-uu4zu5bx<at1<<",
"zt1=#.ooOut3au<a43zu24<<ut2au<z#-u<1au<x43xa4xa5xa:a4<au5za5t<#<#-<#o#o@<4:<t-tu3au1at5aa3aa4a0<u42:<==-%--%4<1<<-af4zf4xx3aa3t<",
"tt2:&.o.ote<au5ue4zu3u4:ut<at5z:1t<-a4<zt4va5xa4xz6xt3ze<au14<%t@@;#X=.o=<%:42u4-ut4ba4vz<zi5xt2a<:<4<<<1<%o<<-=<%au<zu4xiuat1u4",
"u<<toooo#tt<au3u4<at3a<1uu1a4<z4*4<2ut3au5va5xa4xa6vz4vz3au<4<%u<%<#o&.o=-%<<-zz5bz5bx6vz5zu4zu4uu1tt3au3u%o<-#.-#uu3au2zt3za<u<",
"u<2u#o#-%ut3xu<441ut:a<<au2ut3a4o<4-at4xa5xa0va6xi4xa5vata42t4<t<#<-o:.o<-<tu3zu3zu0va6vz4zu3xa5u4<4<2u4<a%O#&Oo-oat<at:zu3au2v<",
"u<2u#o#-%ut3xu<441ut:a<<au2ut3a4o<4-at4xa5xa0va6xi4xa5vata42t4<t<#<-o:.o<-<tu3zu3zu0va6vz4zu3xa5u4<4<2u4<a%O#&Oo-oat<at:zu3au2v<",
"a<-t-#<<<ut<zu34:-a<2a41at:t4<uuo=<%at5xa6vu4va6va4zg4xa3xt2u4<a4#<#o=o.<#<tt3zt:zu5batvp5za<zxpa<3tatzu3z6o##oo#ou41442at<t4<au",
"t-%<1*4-2u43au4a<%u<%ut-at2t<2ut#==#uu4xaexu5zatva6au4za3zu=u4:u:%4#o=.#-#:ut4zu1zu4vjtvg4za5zasv4<ta5xz4vt$@&.oo+t<-t4=u43u<2a4",
"<@%--1t<%t<-a42a4%u4<at5xz<uu<u<1:<=ut3xa5xa4va6vz5vt3za:z41t4<a4-u<#=o@o-<af<za2au5xa4xzuza5zzjC434t<zu5v0%-Oo.oo<t3a41tt2ut-a4",
"t-$4:-u-%tt5zt<au2z4<au4za5u42z4:=41ut3xa4va6va6va4au<zu1u4-uu6z41a<%##=#43zt3zu2at<zu5va6xi4zapC4<<43au5u<%#oo&Oo<4<u4-<<=u42u4",
"42@4<1u<#at<a0<ar<at1au2au<t<<a<2=--a44xa5xa6xatva5xu3ut<t<%44una,x4-::2=4-z4<au<u43zu4xa4vu6za5v434:<at3z=%&Oo=oo=<%t:$:=%4<:t4",
"8<*4<-t<2at:a42t4<u<<au<zt3u41a4-=<%u4<xg<ut4za3va4zp4at2t<%t44xa6bx1<<,=t1za6at3a4<za3zu3vu<zu<a44u<2au3a:+@oo#@o<-=4<$<##:<%<4",
"t-%4<1t<<a43at<u<2a41at3zt3au<zt%><%t<2zu=t42au<xa5za5xa4u4<t03xa4bMua<<4t5zatbz3xt,za4zu3xa5xt2au3i4<a42t%o&Ooo##<<%84%7-#=@*<4",
"u2@42-a-14<-u42u4-u4=a4=ua4au1t4:t4:4<-t<%4<-ut5xa4zu3za3ut2t0<xa6bNjx4:444zu3va4zt3au3zt<za<a45au<at4v<:5=+##.ooo4<=t<-t2@=&@=<",
"4<%t<*a1-<<%t<:a<24-%4<%u42a<-t41u4%t-1t<@t41au3xa3zu<a4<ue-r03xa4vcux4%4<1at<zu3pt<u4<t<2ut5zu<bN5v4<va1u=o#oo#o@442t4%<<@=#X=-",
"4-$<-$t@$-1-<-%a<$-%O-$@-%-4#o4<$<-+1*#=-%4<$u<<a41u4#4%o4<%t1-uu2za14-o-%*4<%u<%t-%<<1=1@u=%uleza1x-1u<#4o.Oo oo@u<=<=o&*X-o.oo",
"<%@<#+4#+#*o<%+<#*-%.@XX-*$<o -%O-o.o+$-%@t<$4:%t%@7%X@@X-#$<-%4<#u2o@$O$@$4#$<=$<@o<%O<@o-2@u42x4#a-%71o<. +. o#+4=$<@X-+.oXOXo",
"xvzxzavbazzxvvzzvvxzaauazzxvuuaszzaz7uzzxxvvbbbbbxvbzuxxzazvvbbbSbbbx77aupxvvbvvxzzzaaavuzzvbbbSDDDvxvbbbbz6u-:7quzazaxxxauuuxuu",
"aa4uzuaz4tzaazauaauauuuuauaau4uaaayutuuuuazxxxxvbzzzytuautazzxxxvvxz4:::-tuaaaaautuzxxuxutazzxvvvvbzzzxxxxz4t::==:44tttaxa8u4tz4",
"au<<ttu4<<4tt<44tutauuuut4<:=#<tuuaazuaaazxxxazaat4a4:<7<4aaaaaaau4<=##=:<44tzxbu=:tutzvxtuuaaaaxvzaaatu444<--<<@-:=<<44atuu<ttu",
"axauaaa4<<<t4<<:4t444ttt<-#ooo<<uaaazauaazxvxavztuutt4<4<<taaaaaau<4<#==:444axaza=<ttuzVZvbbxabvazazatu42<<4<-4u<<<<4444t4tutaau",
"xzvvxzzau<44ut<:tu<<<<<<#ooooo:<tazaaaaazxxvxzzvzzzzut4t4ttuuuautt<<<oo#=44ttuutt<4ttaxCACvVbxzAVxzaat<t<<4t<<taaut<4<ut44uuuxbx",
"xxxxxzazzuutaa4<uau<<<:=o####=<ttaaauuaazxxvxzzvaxzaza4<4u4tu444ttt<4o##=-4uuuu:tt4taabVCCvxbavbAztttu<uuutu<44uaza4utaazuaauazv",
"zzxxxxazzatuzat4uau4:-##ooo##=4tuutauuaazxvvvxzxxxxzzzt#t47<<444zuut4o=#==44t4>=44tuzxbVVVbzbzxzzv44t4tauazz44tuaau<ttuuauauaaaz",
"tttttaut<<<<<-<----@Xo....  .o-<4ttut<<<4uaaauttutuut4<o-<<-@-<4<<-<@XO@oo@##*@oo*<4zazmxxat4t44tt4-<<<-4ttu<-<<<4-*@*--444<4<4u",
"##----<<t-+@#+@X+X.          .@#--<--@@++-<<<<--<<<::-#.X++X.X@-<4-@...X++XXXXXX.+#-<tuyut44-#@@-----#+@--<<-@@@@@+X..X@+---@@--",
"4<tttttuau<<<<<<-o...XOo... X-<4<tutt<4<<4uauuttttutt4-o@ooo@@444txa<@#-=---------<4uxxxzzzaaut44<<<-4<ttu4t4<<<<<*@Oo@--<444<4t",
"bbbbSbvbbbxavvzaaa=&4<7&&7,7tzzxvbbbbvxvavbbbbbbbSbvxxz,,74quavvDbFHbazvvvxzzauuazzvbFGDbSSDSbbvvxzaaxxbbbbbbxxxxzqq>tazxxzxxxvb",
"xxvvbbvvbzzxaxattu==<:=o:=:uaaazzvxvxxxzuzvvvxvxvbDxtat<=::t<uzxbvbZbt<zzauu4<44uuazvbCbuzxvvxzzaxxttuazxxaxvazaza>-=44uuut<4uaz",
"aazxxbxaauuzuuauuut<<<#=4#<uaaazzazzzaau4uzvzxxxvbbvtz<>###t=4azvxvbxt=<4t44::<4uauzxbbuu<4uaaau4uzt<4autzaazzzuau<=---4t<<==:4u",
"zzzxvvbuuzzuuuatuaa<=<=4t<<tuaaaaazazzazutuzvxvvvbvbtz44>==<=<axvxvvu4:-<4<:=#-4uuuzvbbu44autauu4ta<<tuutuaauaaaa4=##=:<4::##=<t",
"zzzzxzauzaa444tauu4=#:<44tuuaauaaaaauuaaatuaxvvbbbvxtzuuq<<:4<axxxvb<4<4-:---#o<uazzxvzu44uutuut4uz=<tz<ut4utaaua:##o#-<4<=o#==u",
"xaazzxu4au44<4tt4t<##-<tttttzaaaaazauuuuuuuazxbbbbvztaaxattuztaxxxvvvatuo#o#-<==uazzzzuaututtuuuuuu<4eauuxazuxzaa<<<o#-<44:##==a",
"zzazzza<au7:<-<<=:<##==tuu<tuauuauuuauuuuautaxbbbbvataauaa4tzuzxxxxvvxxa#oo--4t-tazvzuua4ttuzuuaap=tuaaaazaaaau4t4<4##-<t4<====a",
"zzaauuz;ua4:<<>>=:>==@#<u4<t4aauttttuuuaaaatzxbvvvuauuaaxa=:utavxxxxvxxxto#-:tu<tazavzzataaazaaaza-uuuutzazzuu4<===>=##<ttt<<=<a",
"zzaaztu:4z4<4<tt<tu4-=-<t<-44uuu<:0tuuauaaaaavvzxxauuuuaazt=<tavxxxxxzzxz##=<uazaaxauuazzzzzzazzaa-uu4uuzuaauu4<=:==:#=<4uut<=ta",
"auuuttu:>attuauauat4<<-<:-=<<4tu<:44tuuuzzavazazaaauuuuaaau=<4avxxxxazzxzt#4azxvbvbbzxxxxzzzuzxxza:tutuaxzazu<4<#<==<--<tauut=uu",
"aaut4tu<<taaaaauuuua<4-<o-@#=<4u:>4tuuzzaxxzxuatuazzaaaaauu44uaxzxxxzazzaz=azxvvvbzxvxxxxzaxzzvaua<t4tuuzzzzu<u<#:<#::<<uuuau4uu",
"auut4uauut4utttzzaua<4-<o###-<<4<44uzzzzzzzzzaxxaaazzaazauatuazzzxxzzuzzaz<zxxxvvvvvxxxxzzaxxxvzua4u=u4uuavx4tau:=:=#:<<uuuautuz",
"aaaaazuuu44tazzaauut-:=#oo#@#<<<4ttaazzzzzaaaazzxazzzzazxauaazzzzzxzauazaa7zaazxvvvvvvxxxxxvxxxatt<t:uuuuazzttuay<:<=--4tuuaut4u",
"auaauuzaaauuaaaaaau<#=##ooooo===4<tuaaaaaaaaaaaaaazzzxzxbaaazzzzzxxzaauaaauzauazxvvvvvvvxxvvxxzat<:=4uuuauuuuutuau>t<::<<tuauu<t",
"aauuazzzaatttuaazau>#=#=oooooo##=-tauaazuuaaaaaaaazvxxzzbuuuazzzxxzzatuaxtttttuuzxxvvvvvxxvvxxzauu##44<taz444ttttuqupu444utzzztu",
"uttuaazuut4<<uuuaau=#:-=o.oo-=##=<<uuuaaauuuuaaaaazxxzxzz44tuzzzzxzzu4tuau44u4<t4axvvvvxxxxxxxzaaao#:<:<azaauuuxxzaaauuuuuuuazza",
"tuauutauau4-<4tua47:#--==oo+o=###<4uuauaaaauuuaaazzzzzxbvaztuaazzzza<<4ua474t4::>tazxxxzaaazxxzazp.#<<-<ua<utttaxzuutt<44uuutzzx",
"tuauuuuut4:=<::4u>=t-#--=#oo=<<=-<4ttuua4azzzxzzzzzzzzxvbzxxtuazzzza#<:tt-<4aa4<=74uzxxzazzzzzzzzao#<<=4tz1tau4uaauuu4tazxzutzzx",
"uaauuuuuu<==<-==4<#4<-:<==##4et44<444aaz4tazzzzzxzzazzzzxzaa<uaazzza=4<44==<tutt<<:tuzzzzzzzzzzazz:=<4<<tj<tautuaa<ttuuzzvbauabb",
"zaaaaauuu:<#:;#o==#4<<<44<:=uza44<u4taxba4tuuauauuttuzzazxaatuuaazza:<<=#==<44>4<-#uzzzzzzzzzzzaaz<<=<<<4t<tzttuzz4utuaaaavxtuzb",
"xzazaatta<4:<<-o=##<=##4t<44uaa4utautazbbxtuattu<<4ttaazxzu<uattazza=-:#o:<<-==:--=azzxxazzazaazzz<4<:4<222tt4tauxa444tuaavxzaxb",
"zvzauuttzuut<0wo>##=#oo<<<4ttuututuazzxxxVauttuu4u4t4uaxxzataaatazau=oo#@-:####=-#<aaxxzutt<4tazzzuut4tu4<4uuauzatut<<taaazaazxb",
"zzzuuza4xzzauuq>u:<<ooo==;<<t4t4utazzzzxxZbaazaattaatuaxvztzaazazza<#.o#oo#o###=##<azzxzt<4t<4utuaazt44uuu44uaaxxtazu<aauuuazazv",
"zzzauzuavvvzaut4u<4=o.o#=:--4444uauzxzxvxvAaavvxauuzauaazzazzazuaat#o.oo.ooo#=-<#:>azzxzzaaz7uzzxxvxu4t444t4uuuutuaazuaa4tuazzax",
"zaaaatazxbbua<q>44<4=#=o#=#=::<<uaaazzzxxzZuuabvztuuzuuzzuaaaut4<44<#oooooo##=<q<t4azzxzzuuzzxxbbzvbat>ut<44tuttuauzaauzuuaaaaza",
"uuuauuazzzxxx4p4<4>at-<=o#=#:;:><taaxxzzxvCxuuzaazuuauaaaaazut<:<<:<=-##o##==<tuuuaazzzzzzzzzzvvbxvz4u4ta2<4<<<tuauuazazauaaaaaz",
"a44uatazxzzzvtzu0utzu>4>##<#<u44o4uaazzzzzbbCbbxzxuuuuxzxzavu4;=<<###-:-=o=t<tuaaaaaazzzzzzzzzzxxvvxt<<qu%2<<;>t<tuzxzazzuaaaaaz",
"xxzzxaazxbzzbuatuzt4t4t<=:4<>ttt:<tazzzzzxxzbvbzzvauuaaaxzavxu>>:=ooo<4::#44tuaaaaauuuaauuazzzzzzzua4=<tu<<4t444tauaazzzzauazzzx",
"zzzzzaaazxzxzaa4at4ut<tt<4tt<taza<taazzzzxzazxCbzxzaxAzaaauuxaaa4<=#-t4=<4uuaaaaauuutaautttttuuaatuau:4t4<5u7<tutaazxaaaaaazzzzx",
"44tt444<4tta-4<4<@-<-#@-<----<tt---444t4tt44tuxztaatuBVu<<xzm<44-*-oo*-#*--<<<<<<-<--------@-*=--*<-<@-<%%<4---<<4<4<<<<4<tt444u",
"###@-@-#-@@@@@--#.+@#+.X+@@@+@@@@@@#-----##-:--<---:-4ddp-:pd<#-@+X ......+@@@@@@@@#@@-##@@.XX++X.XXX.@+-%oo+++@@@#@#----@@--##:",
"<-<<<4-uu--<-<44<**<4<--<<44<<<<<<<4tttt4<44tuauatutuazmztuuza<<--o..X.o#o-----<<<<<4t4t4<<-=#@-*ooooo**%%-1=-<<<<<<<4ttt<t44-<<",
"zvxxxxxvvvzxazzbbzzvbvxbbbvzxxzxxxvvbbvbvxvbbbbSbbbvbbbnbbbDSzxz8yu:###:77qtaazxxxvbbbbvvxxxvzazaa779uaajzaalzxvbvxbbbbbbvvbbbvx",
"aazzzauuaaau4uaaaiaxauxZSxbzaauazzxzxxxxazxvvbbbbbxxxxvxbxxxautw:#::#oo###==4uazzzvvvxvxvzzzzzaut4<ttuutaaauuzzzzxzzzxxvazzxxauu",
"aaauut<4t<tt=<474tauaxxvAazbuuuuaazzzzzzzzxxxzzxzvxaazzzzzzaa4<4=o##=o##=#=<tzzzzxvvxvxvxzzaxxau<<tuauaauazzuaaauzaaaaaazaaatt<t",
"aaattu>44==t=:>>tttaxVbbZxzxuuuuuzzzzazzzzzxazaazzzaazzxaauu44=<:=<##<<<q>tuazxxxxvvvvvvvxzzxzat<uzzzaazzaaauuaaauuaaaaazut44<<t",
"tatu4u4uuu:t=<t44azzxvvzxxzauuuuuzzzzaaxxxx4uaaauuauuazzauuu-:->t4t4:uuuzazxvxvvvvvvvvvvvxxxzuu<uuzzzzaazauatuuaatttttaauu44<=<4",
"t4t4uaaauu44=04<tuazaxxxzxzauuuuaazzaaazxvxaauuuuutuuaautuuw-:<<<<uuaauzxzzzxzzxxvvvvvvvvvxxvztazzxxzaauaututtuuatt-<4ttuzzat=44",
"t4utuu444<<:=<4<0taaavvvxzzauuuuazaaaaazxvvvvzutttttauuutt<t=-:==4ttuuuuazzxxzzzxxvvvvvvvvvvxxzxxxzxzaauaatuttuaaut::<tauuuau4t4",
"4uzau7ttu444=<<-4ttaazxxxzzauuuazzzuaaaxzxvxxxxzu4t4uatava>:####=<ttutuaaaazzzzzxxvvvvvvxxvvxvxxvvxzazauuauatuaazau4<<4uuuu4<tu<",
"4uutaxzza444:=<=<><4taxxzxzauuuaazzaaazzzazzaauau><ttttuuat<=oo##<4attuazaauaazzxzvvvvzazaazxxxvxxxzzaauutuutaaxxzu4<=4tt4<44tu<",
"<taxxzzaztt4t:4t4<<=4azzzzzauuaaazaaaazzaaaaaautat=4uxbbbbayt#o#=>tzzzaaazaauazzxzxxxzu4444tuzxvxzzauuaazuuttuaazxzut=<4<>:ttu4<",
"zzzzzxzzxu44ttw4ttt=<azzzzzauaaazaaaaazaaaauuazaua<uzaxbvvxzi:==:tuazzxauuazzzzzzzxzzu::=:::<tuaaauu<4tzxxbvmbbzuuazz4<7>ttt<tt4",
"xzxxxvxxxzutttttttu<=uazzzaaaaazzaaaaaaaaauuaaautzzzxxaxxaxzq4<>tzzzzzzatutuaaazzzzzaq<:=--:4<t4t<44uttzzaaazzazzaauttaauaut4t4a",
"azzxxzxzzzzutt4taaut=:uzzzzaaaaaauaaaaauzautuutuuazvvvxvxzxaqu>tuaaazxaatttt4zzzzzzuatu4=#=<tuaut=::utuzxauauuzvbaauutuauat44<q4",
"izzxvzzzxzxxtttuazua:=uzzxzzzaaaaaauazaaat4ut44taazzvxzzvzzutuuuutuuaxatazaueazzazzzztuu4==<uuuza=#-tutzxuxaaazzxaazxzxzzbzta898",
"azzxxzzzzaazuatuuuaat<uzzxxxzzaauauuazaza:=4<4ttazxxxbxvvzuttuzzt<utazzuzzzatuazzau4uuuu4=<uazzza:#:utuxxazazaazzzuazxzzxvvuu9ui",
"aazzzzxzazzzaztaaaatutuzxxzvzazauauaaaazto#-#tttuaavxxxzxutuuzvxauvzazzaaxzaazzaza<tut4t<:tuzzzxu<=:utuzxuaaauaaauttaazzzxxaauuu",
"auuzzzxxazzzazzzaau4<tuazzzzzaaauuuazauu;###=4444aazbxzzzttaazvbazzzxxzzuzbvxzxaaa<uaut4<4uazxza<<#=t4uuuuaauuuuuautuazzzzzzaaua",
"utuzzzzzuaaaaazzzet<4ttuaauuzzauuaauaat=-#o#<<4tttaaaautt4tauuazuzauuxzzzvvzzxvzza4uttuttuaazza4:7#=t4tuautuauaazzuaazzzzzxzazaa",
"zuauzzzzaaaxzazzzuu<4u<4uuaaazauaaauut44-#-#tt4uu4tuuu4au<uttttuaaaauuazzzzxzzzxxa444xzaaaaaaua::<-:u:<4u44uuuaaavzazzaazzzzzzza",
"aazaaazaaauzzazz4au<<azaxuuaaaaaaazttt<<<#--4t4t4<4uzxzzz0u44444uuutuuzaaaazaazazazxaazzuuuuutu>=::<t::-2114azaaazzzaxzzazzxzzza",
"azzzzazuuaazzaaautu4<uzzVAxazzzzzaut4<-=:#=:=<:<4ttt4uuaaat4<4u44tt4tuuuuazxbbbzzxzzaazz<t4t4<4:==-<<<<##X$<uauzzzauzzzxaxzxzzzz",
"aaaazzzztuaaat7u4ttutuzzzbZZuuzaaaat<-#==<-<##=:4t4<tuavzbzat4t4<44<<uaauazzzzxzzaazzzat<t4ut<===#=<tt4=#Xo<taaazzazzuaaaazxzzxx",
"aauauaaauazat<4u<>utuaazzxxZuauazzuut#-=<4<:+##<tt4<4utuazzzt<<::-<:<4tuuuuuaauazzauuut:==:t4:<::#=tut4:##-tuaaaavzzbaauuuaaazza",
"auuua4tauttaq44pa4ttuzazxzzbazbvbbxau;:<44u4o==<<<4tuaazazau4<==7#==:<uuttttuttu44tttut====:<<uu<-=uatt=#=<auauazzzzzzbvuuuaaaua",
"auuuattaxxxzzztuaurtuzzzzzvxuzxvzavuut44uuzr#=<-:<4aaaazzza<44q<4==::<t<44<44<<4<<<--<-=<7=<<uaz:-=tatt##4<aauuaazzzzxxbztuuaaut",
"4<<<<4uuzzzztutu4tz4azazxxxuaaaxxaazu4tt4uz4@<t<=<4aaaazazz>4tttu4<44<t7><<<<#====#oo###<ututaxx--=tat:#=44tauuuaazaazxxvatuutut",
"===:<<uuazaz44aa<uaxzzazxxz4auuauuazt<4t4tu-#44<<4tuuaaaaza<4tt4attt4-4t<<<=<####oo.oo##<tauuazz-:<4ut===<uuatuuuuauazzzza4utut4",
"#=::=4utuaaa;tap4aazazzzzaz<uaaauuuxu<<tr4u==<4u4uuuuuuaaza<ttt47uut<=4t-=4-<<<<==o# o#-4uazztuu-4t4u::::7uaauauuttaazzzzz<uauuw",
"=<<4:4tu4t<u#4ttuazzaaaazaa<uuaaauaaa<<4aua4:4aattttuuaaauu<t444tatu<<4<#-t<=::<oo=<oo=<4uza4u4<<tut<=<::4tuuauuutuauaauaztuaaxa",
"*<-,---<-@-oo*-<<4t4tutu4t4@<<-<<<---@-<<---+-<<----<<<<att--<-44t<<o#@O.o*<oooo.o#*. O--<<<<-oo*-<-.o###=#:-:-<<--4<<<<4<<<<4tt",
"---##-##..+..X+@@+@---:<:--X+o+++#+...+#<-X..+@@+@@@@---<<::-+#@@#@#..X.  .++.. .....  .++@#-#..XX++ ..X.XXX++@+@++@#@@@@-@+@@--",
"uazuatuto@#o@@@@-@-<<<4tt4t<<-*@@@oooo@<tu<-o-<---<<<ttttu<<<<<<-<<<oo-@.O---ooXOXXXo..o@@-444-+@*-*O#--####--*<44-<<<--<---<<4<",
"bbnbbbvbzaaua9tuzuazxxvxvxzxazaq7,8uuqqabbxvquxxxzzzvvvbbvvvvvxxzzzz77au:uzzyq,,<,=>7770uazxvaz<qazuuazzauuauaazzxxvxxaaaaazxxvv",
"xxvxzzzxzzzazazazaaaauauauazaat::>4tt>:tzzaat<tuuuuuazzxxzvxzaaaaaaa-4ut<tuu4u#<>=#=<=::><uatua-4tt4uuuazataaau4aaaaau-=--=4tzzx",
"xxvzxzzuazzzaazzaaauuaautuuat4<<4ttu4:<<uu<<t-=<t4u4aazaaaaaauuuauu4=4t4<4uaau<t4<=#==:44=444uu<>tt4uuauauuua44<uzaau<ooo@#<:uaz",
"zxxzzzzaaazazzaazxzxvvvxtaau<<44tuua4tt4tt<:44=-t4uuuazxzaaauut4tut:#<4<<tuzza4pt<<-=--4u<t<4w4<tttututt4ruuuut4uaau=#oooo#<:4zz",
"zazzzzaazaazzzxxxxxxxvvvazau4tttazzxuzzazu<<4a<-tttaazzzazzt4taauuu<=:<<4tzazz4au4<t<=:<utu>uuuuuu44uuu<ttautuuuaaa<oooo#o@<<tua",
"aazzzauazzzzzxxxvxxxxxvbaauattuuaaazzaxxxztuaza4ttuaazzzzvbxzuutt4u4<:<<tuxzaxuazttut:-<tuatatuau444taauuaat<ttutua<o#=#:#--:t44",
"aazaazazzzzxxxxxxxxxxxxxuauutaaaaaazaaazxzazxzzu<<taazzzxzxzxzauutuut>4tuzaxzztaauuut4-4uaatatttut444uuauuat<<tttuu4-#<=:--:<t4<",
"auzzzaaazzxxxxxxxxxxxxxxxatutzzazaazzuaaaauaazza<:tuazazzzzazuaauuuttuuuazzxxxuaaaaat4<utua<u>4<44t<tauxvbbvz<uuauut<<::<-<tt44<",
"uazzxzaaazzxvxzzxzzxxxxxxxxatazaazaazxut4tttaaza<-<4uaauaaaaztuuutauuuuuazazzz4uauutut4tt4u4t<4:04uttuuzzxxvmuuuauau4tt7auuazt<<",
"tazzaaaauazxvzauuuuazxxxxxxxzaaazaaauat>4t44tt4u<=#<tuuuazuaatuutuuaauuuaaaauu<uauutuuttutuuuuu<uttauauaaxzxmzaaaaaauuataaazzu<<",
"<utuauuauazau4q<4<4tuzxxxxxxxzuaaataaza444<4<44-44o:ttauaauuatuatuaauaattaua4<<ttuuuuatt44aaaazuaaaazzuazaaazzaazaaaaaa4utaaat<<",
"<4uuaaaauuuutt4:<<<<tuazxxxzxxuauuuzuzzttttt<<t=<<=tuuuuuuua4taaatuauuuttttut<44taaauut4<ttaazaxazzzzvzxzaaazutuaaaaauu<-<tuau<:",
"444azzaau4uutut<<==:<4tuzzzazaa4uautzvzuzaut=<:::-<ututauauauttuaazaauuut44<t<4uuuazazauttttuazxuaaazvzvxzzaa7tauuuut44--<tubx4<",
"4<<azzzzutau4uu44<===<<4tuuu4<tauautaaaautu<#-===-4uazuaavvbxxzuuuzbvuaattt<t<4uaazxxzauuuttuaauazuuazxzxvzaztuuutt<tu<::<4azvau",
"<<:tzzzzaaaaau44<<===:<<<<4<<4tatt4<tttt4tt=oo#o=<uaazvzaxvbzzxxaazxvaauututt<<4uaazzzzatut4taxzzztuaazzxzuaz<uut4<tt4==<<<tauzz",
"<<:<azzzaazzzzut-####:<-<=<<<4tt<<<#-<--<-<#oo-#o<azxzxbzzzxzzazaaazzatatuuut:=<ttauuaaauuut4uazaattaazzxazaz4uua<<44<-:44<ttuzu",
":<:-tazzaaazzzza:#ooo##o==4<44ut44<o#####o=-=#--=4uazzzzzzzxzxzzauazzxzxatuau<#=<44uuuuuttu4<ttuuuuaaaazzaaza4uau-:44<<<4<<tttz4",
"<<<-#tuaazaauazu<:oooooo=<aazzzaut<o####ooo#===#<taazxzazxzxazxxzzuazxazzuuuuu:<:<<tttut::t4<ttutaauuauuuaaazuuua=<uuauuu4tauaz<",
"<4<-o=#4uaua4uttt<ooo##o=tzaaxaaaua=#===#=o#====4uzzzzztazzzzazzzxuuaauaaauatt=44<<<444<&=84<tt4uuaauaazaauaaauua<4azautaaaauaz4",
"<<<#ooo#<4=<<44uay;===:#-uazzzuaazz:=<<<==#:<:=44uuuazvuuzazaaaaaaauua4auutt4==<4t44t<4&;;884ut4uaaazaaaaaaaazazu4tuuuuxzaauuuau",
"4<<<@ooo#@#--<4taut<-<<--tuuzzauuazt-<4==#@-<-<<4<4<4tattauutttu4tautattt44:<=#===--<><-=:88<t<tttuattuuuuuut4uzat4uaxaauuutttau",
"XX$22%.    X%3<$oX..X%21$+o@@#<4<%@@o+X$11%.....$22%X..X+%<<1+X@@+%<<%@o@XXX%21$. ..X%32$Xo#o+%3<#oo+o@-231$..+--<4<--@-#-4<1+o@",
"<@$-%O@..OXX-%@-1@$#O%O.@%O<<#4-%4-$<-%-@XoO..o.Oo.@+.@@$--$<-$t<%<@%--$--.*@X-..oO.@@X<@$-=$@$O-%@<%@<1@4<$-oX--$4:%t<%t-%<-$<-",
"4<1u<%4#+-1@t4$4:#=##&oo#@1t<1u41at-t41t<$<o.oOoo..-#+#-%4<1u4<at<z:%t<%<<1u-$4oo@oo;*oa2@4=%4@%u<%4<=4<%t%#4#ot<%t<-a42u4-t1-u<",
"ut<ua4z<1ut1ut2a<#&&#;o.##-aa:at4zu3at4z<:4-%&#O#oO4#-42<at4xa5xz5vu<at6vt<z2-a-%<-#01*x4<zt3a<<au:at%u<<54<a<#t4<at3aa4zt3a4:u4",
"t42at3at-t4=au<a-#;##;oX#ooat3z4<zt3au2u<#42O=##-#@<@%t<<au5va4xa4a<1t4<zu:ut<a<2t<<u-1zt1u<-a42at2a<-44%t5<zr1t<1ut<au3zu4au344",
"tt:a4<z2-t2-u<1<=o&=o:##;#ouu<au3at2at:t-X:-o=-$=@%=-1u4<za4xa5vi14<1zt<a41tu3xutz42zt-va4ut5at<u0*<42u<2443aa4u<%u42at3za5at<t4",
"4<2zu1u<-u<%u<#<#o&%*t<#4:@tu3au<u4<zt3t-#-@+=#-=--<4-at3au3xa5xt-<<<ut2t<=4t2zafbz4xt1za5vu<a41zt6bu:t<2t42a41aa<4<-au<zu<su%t4",
"-%@4<=4:X:&o-%@-o.#-$t<%<<$4<1tt2z,$t4=<$@o+o#@$-%@4<%u<=t<2at:u1@%<#4:$u<$4<-at<xr2xt#t<=ut24:%<:%t<3z4#<1#<<=u<%4-%t:%tt%t-%<<",
"u-$-%#-$.ooX#OX%o.O-$<=$4<+<:%4<#t<$<-$-*$@XX@$O%O$4=$4=%<1#t<%-#.@$+<-$<@o<-%43#a4-z<$-$$<<%4#@-1@:%O<4%<=$t:%u<%a-$<%@4:%<$O<<"
};
