/* XPM */
static const char *mwall1_1[] = {
/* columns rows colors chars-per-pixel */
"128 128 41 1 ",
"  c #170F07",
". c #0F1700",
"X c #0B1707",
"o c #171F07",
"O c #1F170B",
"+ c #2F1B0B",
"@ c #13230B",
"# c #2B230F",
"$ c #232B0F",
"% c #372313",
"& c #332B13",
"* c #3F2F17",
"= c #3F2B1B",
"- c #2F371F",
"; c #373F27",
": c #43331B",
"> c #4B371B",
", c #533F1F",
"< c #473323",
"1 c #4F3B23",
"2 c #4F3B27",
"3 c #4F3B2B",
"4 c #533F2F",
"5 c #3F472B",
"6 c #5F4323",
"7 c #5B472B",
"8 c #474F33",
"9 c #574333",
"0 c #53573B",
"q c #6B4727",
"w c #675333",
"e c #67533F",
"r c #775F3F",
"t c #5B6347",
"y c #676B4F",
"u c #6F7357",
"i c #7B7F63",
"p c #9F876F",
"a c #A78F77",
"s c #AF977F",
"d c #B79F87",
/* pixels */
"   ooo          O  XOoooooooooooooOOO O    O   O    XOX  O  OX         OXOXOoo$$$-@o$OoOo   oX.oooOo X    X   .OOoOOOoo$ooo$oOO$",
"$$$$---      O$-;-$$$$----------$&$$$$OO OO$$$$$O$$$$O#$$$OOOOO O  X   OOOO$$----;;--------$-$--;;;-$$$$O Oo$$$$$$$-----;;;;8;;5",
"uuyuuyu;;##&5tuiiutuuyyuuiuiuuyttyytt0t888tyuyty8tuit1uiiuy008**&--5--5880:0yuuuuuuuttytuiuyuyuuiuiiyttt# OOtut08ttttuuyuiiiwiuu",
"yt0tt08&&&&-8ttyyu00t0tt00ytytt;058t0055880t0yyt;8ty88t0tt888*OO;**OOO#**8;*;8855tt0800tuuttt0yyyyyu8085O O$yt05-;8t000tttyyyt88",
"50580;###-55ttttty0888008000tty;0;-0t8;88800tyyt;50u5;08uiy8;&&O;5; OOO;;5-#*8588y08000tty0000ttttt00885O  Ot0-&O-5uiwyu00tt0555",
"8y;;5% O#508tttttyt;5500000000u;t05888t000tttyyyt58y000tuiut-85$;8*OOOo-;08#50tt0t50t0tytt00800tty00858;   Ot8--&-8tttuui080t;58",
"005--O  #8000t0tt0055-88000000y-08;;0tyt0tttyyyyt85y0000yuuy-55-*;*&#OO-;0t-550t80500yyyyt0t0880t005;5--   O085;;;0ttttyii000;;5",
"t05&+O  $8000tt88ttt8;580000t0t&55558tty8tyuyyuyuy00800tytyy5;--&--OOO --80-055tt0t800yttt0ty008058&55&-O   088-850ttttyyit0yt55",
"508&+   #50000y80yttt88888000yt-5558080t0yuuyyyyyiiy00t0t008;;-;&-*OO# ##;;&0088850yiytuittyyy00088-00-5O  O085O;;0t0ttyyyi00888",
"8505#O O-5000tt88000t0558t8080t8--8580t0tyuyuyyyyuuuuuuu00tt;;;8;--#O+ O#-5--8tuuiiuiiuuuyttyttu8t850t0t$O  85& -&0tt0000t0ty085",
"8888#OO-;800yt0-888800580t880008#-8500tyyyyyyuuuyytyyuuyu00850885&-&O& O--85tttttttuuuuuuttt0yyy88t;5880$   *&O -#000000ttt0t0u5",
"0555---5000t0tt;;58888880085808t##5;00yyuuutyuuuuuytyyyyty0888008&-##&OO-&880tt00ttyuuuyuutyttip05t5uut0-OO &&O &#8885880008800t",
"5---;;;;88800ty05-55;80800858880-#**8ttyuuyyttuuuuu0tttttt0858081;;##O &$#880ttt80tuuuuutttuytuau805tuyu5$O -&O Oo55558888085808",
"-$---5;;;55808008;880t0yyut8tt855&;;80tyuyyyyyuuuuuu0tty8t55580t558;&#O;O-00tttu80yyyyyyuiyyutiap80;00tt5oOO;#   O-00088;0088808",
";$-;*58--50yt000t8t0000ttyy880t58&8588tyuyuuuuuuuuy0tttt888880ut8505-O#*O5tttttt8000ttyuuuyyytywp8t-80tt;OXo&O##O#-80085-;588888",
";--;;88-*00t0000000080000tt558058#-500tyyyyyuyyuuuytt08008;;;0iiteu88&*8O88t800yt88tttyyuyututyuu5t;;000-.  &OO###&;55;&&&-;8858",
"*-;;;88580080085808800ttt0t888088&-;88tyyt80tttyuuytyy00055;58tyuuii8-51&88tuu00t080tyttttyt0tt000t8;00t-O  -#OO##--5;;--&&&;;-8",
"5--;;5558t8000085008800tt0t00tt85*5;558tt55880ttyyytyuyyt88059yyyyiri85:;tyttiiity00tyutt0yuty080t008008&   &#O #&--5*8;*-&#&--8",
"5;-;;50-8;555808588858858ty0t8588588;;585-;5880tyyyttttyy888590yyuiasy80;8ttttuuytt00ttt0tttt08y0t000yu5$   &#O O#;5*5;8;-&#&-#;",
";5;;;;0-;-;5558058;--;-;58085585888-;;55;-58500tyyttt0080808340yuyuwiy8--;80t0tt000008055880utttiayu00uy$   &#OOO&;8055;--;#OO#-",
"8;;55-0-;-88888t08-----;-;08*;8885;---;*5588500tytttt85;;88088ttuyuit85&-;5880000088580;55058twwuiti5t00$   -# O#5t005***-#-#OO#",
"8080;;0;5-558888005;--&;;580&$58;;*-#-8580tyt0ttt8000-;;-55800tttyyt0-;5--8t888088;888888-500yiiiuyi0t00$O  -# #:8t88055;;&#--O&",
"80585;0t;55800550085;;-;5580--;*55;;&-558800tttyt80t5-885;500tyyutty8##;-*800t00855;;;;0-550ttyuiii080tt-o  5$O#&-5;5;888;---8--",
"88-50580-;08888;8858;55585885-;888*5;555580ttttyu000*;58;;800tttyyt0-&#O$;5888885;50tt5t5;800tyyyyu000tt-oOO0&#OO#--;;;8t8*5-;0-",
"88-;88;0;58858;;888885;5585;5&-88t508;5880tttttt88;5;*-5-;t000ttt088##&O&-;08858;&-8t85t0;;800t0tt000000$XOO8-#OO#&#---50t;8*;05",
"08--558;--;55-;;58508888;;-&OO-;8800t8000tyyy0t005;0;&-*-;00000008;-&OOO&-;;5tyi8#*585tuy5880000yut00058O O ;---o$&&--;;0588-558",
"0y08000;---;;--&;5;;;5;5-$OOOO--8000t0800tyuy0ut;8855;-;--50000808-;-O##&;;;0y0t0&-558twauiiy0iu0t0t058;O  O8-;8----;;;;5;585008",
"ytuuytt08-;;85-&58------OOOOOO&-50t00080tyyuyttutttt85;5;558880855---  O&;;558855-;;50ypspuwiytswyt085-;O  O8-50085-;-85;;888yiy",
"yyyyyt0tt88500;-808---&# OOOO#-550008800tyyuyttu0yt0t0;-;8;58;;;555-; OO#$;8888&55;500iwppuyi0uist5558-8$OO&85;80t0;8500t80080tu",
"ttyyyy0tt058t05;808;&$OO   OO#;588508800tyuuuytyyyyttt5O5;*--;;;t885; #OOO;;5;*#;;;8tyiwwwitityttu;;5;50$O$-0858008-55880808000t",
"tttttuyt00888585555-OOO O   O&;80ytyt080tyuuuyttuyyytt0O;88;-50t0058-O$-&#-&&;-&&-00iuipiiittt00ty058085-O$;u800805--;;500t8080y",
"00ttttyuit50055-5--OOOOOO   O-50ttytt0855tyuuyttuyyyyt0--;;--;8tui00-OO;55-----;-;00yiiwiiiit080ttt0t050-O-5i08080;-#--5500t88tt",
"00ttttyyiy080088;& OOO$O O  O;800tytt0008tyuuytyttyttt5#$&#&--0t0tii8-&;*5;;5;;;;580yiiiiiiuuutt0888;08t;#$;ut8808--$&-5580t000y",
"ytyyuyttty05005;;; O$$#OOOOO-5880yutt000;tyuyttytut0885OO#$&-50tiyiay;5000055;--;580uipiyuuiuytt085;500t;o$5i00888&&#-;58088800y",
"ttyyuiyyu00t0t8-;;OO-&O &O&588800ytuttt050yuutytyiit;8--O#&;-50tuyipu;-00885----5580uiwu50tuyt008tt;;580-oo;i00808&$#--555---580",
"00tyyiy0088t8808885---OO;O-8000tt0ttt008;8tutyyyuiiu5t-*OOO;&;0tuyuiy5#-;5;;&&-;808tyii88-;80008;8t5-;08$O$-uyt808-#$$$;5--&#&;8",
"tttyuui88tt88805800-#-&;5--5800000t0tt0t858tuyuuuiui5t;;*OO-#-0yuyuu8;&$-;-&OO$;888tuii8;;085088;50--;88$XO&tt000;#OOO&-;&&OO#-5",
"ttttyt08t00;;;5088;#O&-;;5880080000088000580yuuiiiuy5t88*--&;-0yyyui-;-;$&$$$OO-80ttyut8;;885885;8t#-5t-$ O$tt080&OOOO$-;-# O##8",
"y00tty8;08;;-;55;5-OO$-55555t00000t088888880tyiiiiut500y0558t50yyyuuu058 OOO$-O#80tttt8085855888888-;&08$oo-tut00---OO$-;;&OO##0",
"tt0ttt0-88**-$--#*-OO#&588-580880888088880850yiiiiu0500800;5t8tyyyyuuyy0O O$$;5$;0tut880;558t8800:&58000-o$-yt855;-;OO$-5;-####0",
"tt0088t*80;&--**#**##oO-8;-5;008555588800005tyiuuu808800y0&*850uyyyyuyyt5 O$&58-50t0utt05000t000t0o88885-o$-y0;-&##*OOO-555--#-0",
"tt00t58&;t;-;-55-58;$#$-5-$;;888-**5880800000uutyy0888800t5&-50uyyyyyttytOO#-80t00y0880tttttt0tt00$88;88-O$-t8;-O*#&*OO-;885-#50",
"0888558&*0558080805;--$-&$#--;58-&;;5888tt0u0t0t00088880008&-;0uyyyy0tttt5O;0tyuiuiityyyyttt8tyyt0&58588;o$-t;;-O-&O-$$-50885&88",
"0085;58--50000088880-;$-O$oO&-;8**;588tt0yyty80580tt0000088;;80ytyyyt0tt0t&0tyuuuityuyyyyt0yttu088-5;588-o$-y;8-O&-O&&--88808;88",
"0885;80885;8555tt080-;$- OOO$--;-;;8ttttttttt0yy000tt00t080580tttyytt8tt0t-tyyyuuuuuyyyytt0ytyut80;8&8;8$.-;0808&&&#O&--8880858t",
"00800t888;;50tt00885$&OO OOoO---;;500ttttt0000tty0tttt0ty0800tttttyt080t00:t00tyuuuuuuyyyyyuyyy055-5&888$X$-t8801-&-O$$;588085;8",
"080088t000880000008-OOOO O   ###;-5800000000000000tttytyi000ttttttyt0080008t080tyuuuuuuuyyuuyyt05-&#;888$ O$y05808*5-&&--58088-5",
"00880ttt005;5880t08*O#OO     OOO#$50800t8800000000tuyytti8880tttyytt8580y5555588tyyuuuuuyyuuyyt088OO;;-5$OOO085558*818;;;85ttt58",
"855800t885;--888008&O&$O    $OOO#--888000888800000tyytytt;;58ttttytt8;5808;;8;-;;0yuuuuyyyyyyyt000 O&-&-$OO$t08yyt00088888880tt0",
"5808850808;$-;580;*&O$$&O  XO#OOO-;88080800888000tttttyiu0t5800tttt0--;80;*;5;*&*50tyyyt000tyyt0t1 O--$-$X #t850yt8855-;;8885tty",
"580888885;&#-&&;8*#;$O$$#O OO--&$-;55880;0tttyttttttttyuityy580tttt0O-*55$-;00;-&*;8tyyt0tttttttt0OO--&;#  $y0;800888;50tyt85tty",
"800888888-##-$##;-O;-$&-##OO;&5;;-;;;00t;50tttttytt0ttttyt00-800ttt0O;-;;O&-5855--&58tttttttttt0tt&#-;--OX #u05800-5588ttui080ii",
"t00000888&-O&*OO##O;---;;-&&8t0;;-8;50yi0;58808888558tt0ty0058880tt0&--&OO&-;;*;-$O8ttttttttttt00t--#---O  $i858tt;8580000uy58ti",
"yt0t00558-;&--$ &OO-OOO;5-;;800;850850tiiy580558--;5500tyt8-80550tt0&$&O &--$#O&$$O0ttyy0tt0t00ttt-;-&;-O  Ot5508y0;;;5800uyt0yi",
"tut08855t885-*&O*OO&O  ---;558858580ttyyyw085;88;8;5;80yyt0500050t08&O Oo$&OOOO#$O-00yyt855-;50ttt885;58O X$yt8t0585--5000t00tyi",
"ttt88t0;ytt088**8*--O O&#*--5;5;8;0ttttyyai00t005500580yut5t00t0tt0-O  OOOOOOOO#OO-0ttyt5-;5-;85800t5;;8# OOyt0yt50t8-088880t0tu",
"ttt08t80uuut085;8-;#  OO#&$$;;;;808tytyuyus00uuy088t0800tt0tt0t8005O       OOO$-O&*0ttytt00t*8ttyyuy8;5;O XOy0885800t800;580tt0y",
"t000050tyii80-**;;-;#OOOO#O#&&--8000tttyyta880iut588t88tt800085;-;;-OO   O OO#-*-5;0ttytt88ttyyiitui05*8# OOt055808t008t880000t0",
"8880880tttyyy;1;-;*05$-#OOOO&*&*-500yyttyupy88t00t880800000t85-&--&-OoOO OO#O-588800ttttttttttuuiyut;8;5&  O8;-580880t0t0800000t",
"0;;8050tytttu5t8*85t8*;*OO-O-8;;O;800tttttiipiiyty8888ytyt0u8;*#--OOO$&$OO#5-58000000ttttttttttyyuuy5--*#  O8**;-58tyt0tt800000t",
"yytty00tyitti8058t5;5;5-#&;-*555*-50tttttyytiuittu088000yt0uy8**&&OOO-;&&O;;580000088800880ttttttt80;&-5$  Ot5;;50800tttt088ttty",
"ttttt000tytyt00;05;85-55-;55-50t0-500ttttyt0typityt0yst00088y000;-&O$5;&-;880000088850085555588005808&;5O O$:;58500ty000000tttty",
"00tt0t000ttu5t800-;85&-;855558tt5550tttttttttyiituutysdy80iiw8005;5#&-;&-;58000888855;5;5;;-;;*55-858-58O O-05508000008000tt00ty",
"000800000000050t0-;80;-;;088;0885800ttttt00tyttytttytisrptypsy0t85-O####-*58888888808800055---;;;&---#85$XO$t85888000t0tt80t000y",
"85880t8yu55888t00--8085;800088888800tttt000ttyuuutytyuipityuiu8855&OOOOO&#;555;88008tt0t0885**-5;&##&O;;O  O:588888880ttt0tt0588",
"808888800t58588yt550t00ttt0588888000tttt080tyuuuuyt0yytuuyyiu585&*-O   OO#&-;;50000tttttt08805-55-##*-;;O XO1800t08yttyttt0yyt08",
"880008558885-5888&0t05tpitu0885800t0tttt0ttyyuuuiuttttytuttt85;*#O#&O OOOOO#-580t0yyytyty000t088;--;;55;$Xo$tt000t000tty8t0tt885",
"000885-;5-;5#-;*;5880yyus0ti888800ttttttttyyyttytuy00tttttt00;-;# OOOOOO#O&-5ttttyuuyuyuytt0yy08--580800$ $-yt008t000000t00055-5",
"000558*;;&&5O&**;550ywiiayty88888tttt0ttttty0t00ttt00tty0088;;&-*O-OO---**580tyyyyuuuuuuuyttyt05-8ttt00t-O$-y00008800000t85;;--5",
"5058;8;888*5#-5;;8ttyuutyyt088888tttt00yyyy;8000880880tt0888$&$*5;5;*888t0tyuyuuuuuuuuuuuyyyt88-88tttt00-Xo$t0800555550088;;-#-;",
"5;5;800088;;&*;-580t0yyytyt0888800tt000tyuy0088888588008588&$&----88008tytttyttyyuuuuuuuuuyyut50ttyyt008$X.$t888055$-;558tt05&;;",
"5;8588;;;--*&-;-*5000uuuytt088880t00000tyuuuut855555088855-5#$&##;5588880ttyytttyyuuuuuuuuuuyytyyytyt008$ .$t880085&&-5088808;5;",
";8t08*558;;;#--$;;;00tyyytt08880ttt8000ytyuyyyyt8;5;8050u0**OOOO#-558580000tttttyyuuuuuuyyuuyuyyuuyt0t08$ o$t000t08;--;8888;-;8-",
";8850ytt0;;;&&-&-*-;50yytyt088800tt000ttt0tt00808*-55558805-#O OO-;05580t00800ttytuuuut0t00tyyyuyyytt008$ o$tt0yyt8;-#;55;-;;58-",
"-50yytt0t55;;*;5;--#;0ttttt088000t0000tt0000008505&;8yiiii01;OOOO*;ttt000t0880ttytyyyt8;;;;58tyuytt08800-OO$t000tyt85&-;-**558;-",
"tttttytty8;;55&;555O-0ttttt08000t00000t0000880t080-8t0yiuuyt:&&#*580tty0880tttttttytt8*&&&**-5800088-;5t;$;5wiit880tt;-**55;-;;;",
"ytyyyuyyyt855555558-#80ttt00000tt0000000008800085tttyy0yy0yt*;-*5tttttt05858000ttttt0*-*#$$&;-5;5-;;855t-o$-iy0tt00855008085;5;0",
"0ttyytytttt855;50085#&8tttt0000008000008t085885880tuuuyuyty0*8*58000tt005555;tttttt8058;&OO-58085O&&858t;@$-y0tui0088580805;;-1;",
"9ttyutttytyy55580t80&#8ttyttt00000080t0005;85;;500ttuyttutt8588885880y050t08&0tt0tttt588;##-888t0#O$585t;o--uttty00tytyttit50>,>",
"0ttyytttt00t805888005-8ttyyytt0080880t0t0&#;-;;50tyyyiyuut8558tt5-850tt8ttt0580tt08;8888;#-80ttt0&O&858y5o--it0ttt80tyttyuu88,89",
"00ttttyt0ttt0t500005858tyytut0t08080000t5OO$O555800uyyyty8588tuy08ut0tt00yt00tt0t0-585;5-&;8ttty8-#&858t;o$-y00008;500tttyy00888",
"888tttyy0ttt0ttt008;-580ttttt0008880t088*OOO#;;;;00tiyttt5500tui0tttyytt8tiuyty000-8085;-;80tyt0--O#5;88&o$-y088808580tttttt0080",
"858ttttt800800ttt&5-;5580088tt088808005&$O O--;5550000855;50880t8t088ytttuuttyutt0;855855880tt0;&:O#5;58$Oo$y000tt800tttttyt0t00",
"t808tttt000yt0ttt88-;8-;88000t08000885;;$OoO55;88;5888;08-8555580000880ttttytttyy0;;;yt00000088&&-$&8&-;$XO$y0000ut0tt00ttttttt0",
"00t000t0008tt0tt;08--0t0y880000000t555---O$$;5;5;-;8tyttt*8;;;;;888588t0000t00t0t0ty00tt88888;8*#&&-5&&$  OOyy000ttt0ytt0ttyttt0",
"0tttt0t8800tt000858;-8ttwsy0ttttt08;;-$#&OO&&-&-;555;880005;-;8;;55;588880tyiiittytt00tt-5;5;-;&##$----O   Oyt8ttt08ttty0ytytttt",
"0000tttt580005*8;55858tttiaa88t00005-$OO#-$-OO#*;5;-580utit05;5;-;;--80080ttttytt00ttt05-5;8;-###O#-;5;#   Ott00tt0tt80000tyttyy",
"0080800080t05-;8-*85800ttyya8080tt885O$#-;-&XOO-55;-;8580ttt5--*&$-&-;5888880080tt08885&##&5;&-&&O#585;&   Oyt000utyi00888000tt0",
"08880;;08550*;;:0;558t0tytti0tiuiiy08*&-;;8;O#&---;5800t0t08;-##*O#&&-8855558558;;55;8;&###&--88-$&8055#   &tt80ttttttiu88800080",
"08880550yyyttt5808&58tttttuy8tyut0u885;;88t:O#-$&-;0000ttt0-;;*-;#O&&-5-;;-;;--;---$$-$#-:#--80t&$&5055O  O&u0880ttttyyit5880085",
";----;88tttt5858;5t;0t0tyyy8000yy00t8;;5;8t;o-;-&-;0000t0tt*;5558;-;;-5**----O##&OO  OOO-85850yy$$&505&O  O$u08800t00tyyu0588585",
"##&&--880t0t;;00-80ytt0tyyt;0880880t;-;5;58$O;;--;5880000t0-;55;0555;$;5---&-OOOOO    OO-50880tt$&-;85##  $$u88888080tttt0;8585;",
"O&&&#;858000*501;00t0tttt0t-8000888y8--54;8##-;8;88888800t0-555;*88;-#;5$&;$----OOOO  O$;80tt588$;5;8&&&  #&y00885500ttttt-8088&",
"#--;&;58;5-8O;;580tt0000t00-880008000--;088;&;0055558800088-5;;;5058--;-O$5-&&&-OO&-  #-;8t0;8;--585-#-&  O$yt88858080080t5800t0",
"-851;858;-;&O;5800tttytyty0-88588855;-58855;$58855558000uty5;8500t08&&-$ O;8#&##OO&-O $;580088#&;;85O#&&  O$t058855t008808888tty",
"0tt00t00&&;&&-;88580ttyuytt-5&;;50;&O#50yt;&$585588880ttyuyyt5080000&--o O-5;&#O$O##$ O-5580t0#--;;5O&--  OO08858;580088808588tt",
"yuiyutyt&-*&----;-58000tttt005----&###-8ty85#50885888ttttu0088885000&&;- $;;;&&O$OOOOOO#--8000;$-;5-$&;;O  Ot8-80058085585;58000",
"yyututtt8;;-;*--5-;588000888;5;&#O&--&&;yt80&-888555000tt00000088885##;-O-88*&OO$OO#OO##--80058$&;5--;85O  O8;58888008;-;5-;80t0",
"ttyt000t0008080800088585858088;##&-;-&#;0088-$-55555800tt0yt08888888$-5;$-55-5O-*OOO$#&&*-58;58$-;--5558&OO&y05-88888;$#$$O-;00t",
"yyutytt80ttt00tt0008800858805;--;;58;&--88--5$&-5;8;00t000000888088;O;5;-;8008-5;-#O##&;;#;;;88-*55;8808&O#&u5;-8t008-   oO-&80t",
"tyytttt000t0tt00tytyuuuy5008--;;;880;55;5;-&;;O$5;8880tyt000885;585*O-;--58tt0;15--$O$$;8-5-;&;-55585855O ##t05;8008#O    O-&;tt",
"t0tttt00t00tttyyyyyyyuuu0t08;5558tty8tt0t8--;0-$55500ttt0tt5;500888-#&--;5t0tt;08;-5-O&-858*888888;;888-O ##t088008-    O o--580",
"80ttt080tttttyyyuyyyyyui00805588000tt0yyyt580t0;55800ttttuiyt8855;8;-&--58yt0y80t5585&$-580505808;;;5008#O##8858580- O#O&O$$&;;;",
"00t00t0ttttyyyyyyyyyyyyy8088;080000t000tyt0tytt8--500tttytytyt0885885*;58t0ytt5008885;$;8005055585;;;888$O-&0;55588;$O-&&$$&-;;-",
"08ttt000ttyyyyyyyyyyyyyyy0585tt8t00tt80000800tt0-&580t0tttt0t800888558880ttyyy8000005;-8580-8*;-;;5-508y8;85i;880885--*&-$-55;;-",
"80ttyt000ttyuyttyttyyyyyyyy050t00t00ty85;55500t0-$-;80080000t588850888880t0ttt;8088585;55;8;5-;&*;85588t;-58w0880808;55*0880t5--",
"50tt000080tyut088880tyyyyyyyt000t000805*;5;;55;8-&O-58880t80058858880888000088-8088588558588888-85508080-$-5wy0000008805000tt8--",
"-858088080t08;*-;-;58tyyyyyyyt8000500t0;;;-;-;;$;;O&550800880580580080055080;--558888055;;0000t80000tt80-$--uy00t000000;850005--",
"-;880000888855;*----580tyyytyy80888t8tt5555;--;&--#588888880;5000580888555585-;;5000885;-5500t0y0ttttuty-o$-i0580000088-$-5808-&",
";;;0tt008;88585--&#&-;;8ttt0t00;8085tut8t085&-&&&$-858508080855800t008885;;-5-;8880t0t08555580ty8000tutu;$--u*5088885;;$$-58iy;-",
";--0tttt8508;88;;-##&--;5888;-5080850000858-O$#O&$;80t800uuiyyt888tiu880555-5-;880tyyt08885580080t880tyt;$--u888855-58-&&-;0tu08",
"--&5tttt000008;;--##O&----;--;505;;-5555;;5#O OOO-800tut0yuittyy00tyu08885855--;800tttt0585;;0yttt5800tt;$$-i;885;-55;&#---508tt",
"--&-0ttt00tttt85$OOOO&-$-#---;55---O$-$$-$-OOO$O -0tytyitttytt0t080tt05058885&O-550880008885;80t005500tt;$--u5880--;;-$&;;-;58t8",
"&-&$50tt000tttt0&O   OOO&&;-;;85;;- OOOOOO#$#O$$O;80tttttttytytt080ttyty05808-O#-;;888885;8;-5588880000t-o--u5888$&;;---;--555t;",
"---$O5800t0080t8-&   O  #-00ttt085- OOOO   O##&O-;00tyt0tyty0tyytt80ty0tt88888&-&--55585&&5;-55858088088$o$-u0880&-880888;5080t-",
"-;-$ #O;8080;8555-O  OO &5t00y00080#O&##O# O##&#;8ttttt50tttt0ttty88008000805;#;;---;;;-+#>;-55;8800880t-O$-ut880-;0t085000080t;",
"---O   O-;#--;;801*O##&O$80ttt800tt&#---##O&-&#;;8880tu88t0t0000000888;08855;#O-;5;;5-;+%%>>;85;8000t000-O$-uy0t8;58888yt0088808",
"5;;-$O  O$O--;58t08--;;$-800tyt00ty8--;&&#$$;--;5;5;58t88t00888858008t88855*-&O&#&---*;-#*,,;8;8880t8808$o&-y80yt858tutt000888t0",
"5;;-;;O  O$--508*5;;----;50000t000tt05;###O#-----#$*-;;588808850t88t0500055--;&#&#&-;;;8;;6q7;5808008000$O$&0*8t00tttyty00y80800",
"888888-O&$-;;00508->;-$&;880tt00ttt00t05;-###O&--##----;888880tttu88t808885-;;;O##&&;-;058898-;558880000-$-$0*5508t0tytyt0t88008",
"8000088-;-;;0t5884&:>*++#;000tt0tyt00tt085;##O$&OOO---&5880tttyyuuu8080850tt;;8#&#&&*--t888288-800880080$OO$y*;808000ytyt0t080t0",
"8008tyt5580880805=+%%%OOO#5tt000tttt00tt855;-O#$OO$-&-;;800tyuyyuuit800uu00t;50-;---<--y800tt0500t800585$ $-u5-580000ttyt0t08888",
"58000tt055850008-%%%&%O OO#0t000tt0t0t085&--&O&&$#--$;5580tyuyyyyt055580t008000;85588;;t088850880t8085;8# $-uy8;588000tytty000;0",
"500000t;55;5855;&++#&&#%*O#8tt0tt0080005-O&-$#&-#$-&-5880tyyyyyuy8;;8t080055ttytut80t05uut00t0800&;-508;$X$-iyy85;88800ttyu00t;8",
";58tt885;88-8;;-#O+--5--;:-5tt000080tt05$&$$$#&-&-;-5800ttttyyyy05-5080055;500tyiiuty05tuuut0088t0uit85;$ $$u080y0;;80t0ttt0t;58",
"-;580088-:>*-;--#+#;588850-80t0uyy050t05-;O$&&-;--580000800tyyyt5;-80885t8580ttyyiuuiy8000tyy880;880tuut$XO$tt0t808580800t005;50",
"y88;805;#%==&&;;&#-80000ty;8ttttytt0088558--;---;;;t0000t00tttt8*--;500085500ttuyuyuiy85;50tyt805088850y;O$-iytuyuu0t0800tt8;58y",
"OO$O$$         OOOO$$$$-----------&-&$$O O$$OOO$OO$-$$&o$$&$--$$OX  X O$-$$---;;508;00;&$$OO$o$$$$$$&&$-OOO.$$-------;5;--8;---;"
};
