/* XPM */
static const char *gate2[] = {
/* columns rows colors chars-per-pixel */
"128 128 250 2 ",
"   c #080706",
".  c #0B0906",
"X  c #0E0D0C",
"o  c #130E0A",
"O  c #15110C",
"+  c #1C160C",
"@  c #1D180D",
"#  c #151414",
"$  c #191612",
"%  c #1D1A15",
"&  c #171818",
"*  c #1D1C1B",
"=  c #2C0B07",
"-  c #320B05",
";  c #3B0B06",
":  c #3B0E09",
">  c #24140B",
",  c #2C130A",
"<  c #231B0D",
"1  c #2A1C0D",
"2  c #361107",
"3  c #331309",
"4  c #3C1309",
"5  c #341A0C",
"6  c #3C1A0C",
"7  c #2C1413",
"8  c #221D13",
"9  c #2B1C12",
"0  c #211F1A",
"q  c #281F1C",
"w  c #341413",
"e  c #361B16",
"r  c #3C1B12",
"t  c #1F2017",
"y  c #1E201D",
"u  c #2A220E",
"i  c #262114",
"p  c #2C2513",
"a  c #2E2916",
"s  c #24221C",
"d  c #2A261C",
"f  c #27281F",
"g  c #2E291C",
"h  c #322612",
"j  c #3D2414",
"k  c #342B14",
"l  c #3B2D15",
"z  c #33251C",
"x  c #3E241A",
"c  c #342C1A",
"v  c #3A2E1B",
"b  c #373016",
"n  c #3D3017",
"m  c #35301D",
"M  c #3D311C",
"N  c #1F1F20",
"B  c #1F2021",
"V  c #252523",
"C  c #292722",
"Z  c #272825",
"A  c #2C2924",
"S  c #262728",
"D  c #272929",
"F  c #2C2C2B",
"G  c #392724",
"H  c #322D23",
"J  c #392F21",
"K  c #312E2A",
"L  c #2E312C",
"P  c #353025",
"I  c #3C3222",
"U  c #34322C",
"Y  c #3A342C",
"T  c #3D392E",
"R  c #2E2F30",
"E  c #2E3031",
"W  c #333333",
"Q  c #393631",
"!  c #373837",
"~  c #3C3934",
"^  c #3B3B3B",
"/  c #460402",
"(  c #4C0504",
")  c #4B0A05",
"_  c #470C08",
"`  c #530604",
"'  c #5D0503",
"]  c #530905",
"[  c #5B0A05",
"{  c #550C0A",
"}  c #5C0B09",
"|  c #44120A",
" . c #4B150B",
".. c #431B0C",
"X. c #58160C",
"o. c #450F10",
"O. c #461915",
"+. c #4E1C13",
"@. c #531C14",
"#. c #581A15",
"$. c #640302",
"%. c #6D0202",
"&. c #630A06",
"*. c #6B0904",
"=. c #660D0B",
"-. c #6B0D09",
";. c #730101",
":. c #7C0101",
">. c #7B0A05",
",. c #760B08",
"<. c #63130C",
"1. c #6B120C",
"2. c #67180A",
"3. c #73120C",
"4. c #7C130C",
"5. c #6B1512",
"6. c #651B13",
"7. c #751510",
"8. c #7B1713",
"9. c #741A10",
"0. c #49220E",
"q. c #58240E",
"w. c #432412",
"e. c #4C2513",
"r. c #412D15",
"t. c #4A2A15",
"y. c #43261A",
"u. c #432B1B",
"i. c #4B2B1B",
"p. c #532413",
"a. c #5B2413",
"s. c #522A15",
"d. c #522B1B",
"f. c #5C2818",
"g. c #413117",
"h. c #4E3114",
"j. c #43331B",
"k. c #49361B",
"l. c #46391E",
"z. c #4C391C",
"x. c #58351B",
"c. c #513D1E",
"v. c #68260B",
"b. c #792408",
"n. c #7E3A0F",
"m. c #622514",
"M. c #6B2513",
"N. c #6B2A14",
"B. c #672A19",
"V. c #762917",
"C. c #6A361D",
"Z. c #73331B",
"A. c #773519",
"S. c #7A341B",
"D. c #452924",
"F. c #592724",
"G. c #433521",
"H. c #463923",
"J. c #4A3B23",
"K. c #483728",
"L. c #423A2A",
"P. c #533E22",
"I. c #573829",
"U. c #423C34",
"Y. c #433D36",
"T. c #583635",
"R. c #612522",
"E. c #662D28",
"W. c #742C24",
"Q. c #653A24",
"!. c #733223",
"~. c #733A22",
"^. c #55401F",
"/. c #6C421E",
"(. c #554123",
"). c #5B4323",
"_. c #54432B",
"`. c #5A452B",
"'. c #5B482C",
"]. c #484238",
"[. c #544534",
"{. c #644224",
"}. c #644727",
"|. c #444444",
" X c #840100",
".X c #8B0101",
"XX c #830A05",
"oX c #8C0A05",
"OX c #850708",
"+X c #840C0B",
"@X c #8C0B0A",
"#X c #930101",
"$X c #9B0100",
"%X c #930B05",
"&X c #9B0A05",
"*X c #960708",
"=X c #940B0A",
"-X c #9B0C0B",
";X c #83120C",
":X c #871908",
">X c #981609",
",X c #841111",
"<X c #8A1010",
"1X c #8A1D14",
"2X c #981A13",
"3X c #A40000",
"4X c #AB0000",
"5X c #A40B05",
"6X c #AC0B05",
"7X c #A30E0B",
"8X c #AC0C0A",
"9X c #B30000",
"0X c #BC0000",
"qX c #B40C06",
"wX c #BB0B05",
"eX c #B40D0B",
"rX c #BB0D0B",
"tX c #A71506",
"yX c #B61402",
"uX c #AB1613",
"iX c #B11415",
"pX c #852309",
"aX c #952707",
"sX c #8D390B",
"dX c #892718",
"fX c #962719",
"gX c #85341A",
"hX c #B22708",
"jX c #C30000",
"kX c #CB0000",
"lX c #C30C05",
"zX c #CA0B04",
"xX c #C30D0A",
"cX c #D40000",
"vX c #DB0000",
"bX c #D30A03",
"nX c #D80B07",
"mX c #C51008",
"MX c #D51109",
"NX c #E30000",
"BX c #EC0000",
"VX c #E70B03",
"CX c #F30000",
"ZX c #FD0101",
"AX c #F00C0C",
"SX c #FF0C0C",
"DX c #E61313",
"FX c #F51313",
"GX c #FE1313",
"HX c #FF1A1A",
/* pixels */
"|.^ W K c k k l j.z.z.z.z.z.z.G.U K v r.r.r.l l l I ~ ~ H.z.z.G.U R R U G.k.g.I ~ ^ W K v g.k.k.g.r.g.M K R R U G.z.z.G.U U G.G.U F c l j.z.z.j.U E W W R K v l k l j.z.z.z.z.H.~ ^ ^ ^ ^ U.H.G.U F c k k k l I ~ ^ W K c k k c K K v g.k.z.z.H.~ ^ ^ ^ ^ W g u ",
"^ ^ W A c k k k g.j.j.j.j.k.j.M K K v l l l l l l M Y T H.z.k.j.K F F K j.j.l v Y W R K v v j.j.v k h z K W E U I j.j.I K K I I K A c l g.j.j.I K D Z S F U v l k k g.k.j.j.k.G.T ~ W W Q T G.I H A g k k k l M Y W U A c k k g F K v g.j.j.k.G.T ~ Q W Q U d i ",
"W W F A v l k k k v H H M g.l v A A v l k k l l l k v M H.z.j.v A D D A v l k p A F D Z A A H A d % o $ F W W F H H H A D D A A D A v v H H U K V % X # F Y v k p k l g.l l g.g.j.I K F H v H H c c A g k k k k v H A A i i d Z F U M l l l g.g.j.I K F H g s * ",
"Y U A H v v k k k k g g c l k c A A H v h h l l k k l n j.j.M v A D D A v l h i C Z Z S D D S V * #   X Z W W F D Z Z S A A S S D A v v H A A Z 0 #   X Z U v k p p c v v v l l l v H g k a g g k c A A c k k k l v A C i p d A F K H v v v v l l v g g a p 8 % ",
"J.H.M v H H c k k k k k h h k c A D K H k k l l k l g.j.n v H A F F F K v l k a C S Z D F F D Z * # o O * Z F F D S S Z c c A D F A v k v c g d * # o O * d c v g C A A A H v k k l v c h p a c l v K K v l l n j.M A V i p c v A D A A F H v l l k k a p u < @ ",
"J.H.j.J K F g p p p p p u u p p d Z Z A a k l l k k l l k a V Z Z F F H v l k a A S Z D F F D Z s % + $ % V A K A A A H v v g Z F K c k g.l h p 8 % + $ % s c v A Z D D F H c k a k k k i i a k l v H H v l l v M v A V i p k c C V V Z Z A v l k c c a p i < < ",
"Y U U K F Z s 8 < < < < < < < < i i 8 8 * s h h < < < u p i y y d d V A c k h p C S S D F R F A d 8 % % * V c v v v v v r.l h d F K c l g.g.k u i 8 % % * Z F H c g F F c c k a i 0 0 s s d i p p p p i p h h h d s * * * 8 8 8 * * * * % i k c g A A C C d p u ",
"R F F F D V 0 8 > , , , , , , 3 5 5 3 , 7 w r 6 3 3 3 3 5 5 7 w 6 6 e z l k h i C S S D F F F A p p s N V C c v l l l c c h u p C A g v g.g.k p p d s N V S K P v v K K c c k p s * 0 q q e 6 6 5 5 5 5 6 6 ..r 7 7 7 7 7 7 , , 7 7 7 7 , 3 ..w.A S S S S V p u ",
"R F D S Z V i 1 ; / / ( ` ` ` ` ] ` ` ` ` ` [ [ ' ' ' [ [ ` ` [ &.-.<.#.i.M k a C S Z Z D D D A k a d Z Z S A H k k d s s 8 < < 8 q d H v n k k A A Z Z Z A I j.g.v K F F H c a s V c y.@.} &.' ] ( ( ] ] [ [ ] ( ( ` ` ( ( ` ` ` ` ` ` ` ' *.<.G F S S S V 8 < ",
"U K D Z V d i 5 ) ' $.%.%.;.;.%.%.%.%.;.;.;.;.:. X X X X X X:.:.>.>.5.m.d.j.n v g Z D Z C V Z V g g V Z V V V d p p % % % % @ @ < 8 d A c k k c A F Z Z Z A I j.v v H K K K H g d g v i.#.<.-.*.%.%.%.%.;.;.;.;.%.%.%.;.%.%.%.;.;.;.;.;.;. X#X+Xi.F A H A d 8 + ",
"I I K F g a d e ] %.:. X X X X X X X X X.X#X#X$X3X3X$X3X4X9X3X%X:Xv.F.K.G.j.j.g.v g F F d i 0 s s s s * 8 8 8 8 < < @ % @ @ @ < p a a a p p u i V V N N V Z A A A H v J K F K A g c M j.t.t.s.6.XX.X X X.X#X.X.X:.:. X X.X.X X X X X.X.X.X$X9X&Xp.c M j.v h < + ",
"j.I K F g a V e [ ;..X#X.X.X#X#X#X#X#X#X$X3X4X9X9X0X9X0X0XqX5X:Xv.s.T W I j.j.g.k g A A p < % * 0 0 * % @ + + + < > > , , , , 5 j w.w.j 5 5 u i d s s s d V C C V A c v F F F A v l g.g.l v M d.3.OXOX.X$X$X$X$X.X.X.X#X$X$X#X#X#X#X$X$X3X4XkX6Xa.n j.j.g.k < + ",
"j.M H D Z V y w [ :.#X#X.X#X$X3X3X$X$X$X3X9X9X0X0XjXcXkXtXpXV.x.D.I U W U I j.v d s Z V 8 < @ @ % % @ @ + + + @ < , - ; _ _ { { X.X.X.{ ) | e h a a a a a a g a i d g Z S Z S A v l g.l k a A H G @.5.+X#X3X3X3X$X#X#X$X3X3X3X3X3X3X3X3X4X0XkXqXN.l.j.g.l p % # ",
"g.v A A A V * w '  X#X$X#X#X3X4X4X4X3X3X9X0XjXkXkXkXkXyXpXN.x.H.U F F F R K v a 8 % * 0 % + + + + > , 3 2 2 2 4 | ) ` ' $.*.,.,.,.,.,.,.*.&.X.+.+.0.0.0.w.j l k p i g C d C C H v v v v p p d C Z G @.1.4.%X3X4X3X$X$X3X3X3X4X3X3X4X4X4X9X0XcXqXZ.l.M v k p % # ",
"k k k c v c 8 2 $. X#X$X$X3X3X4X4X9X4X9X0XkXvXNXvXlXtXb.F.K.j.M A D F W W F V 8 + O @ % @ + + @ < 5  .} *.;.:.>.XXXX X X.X.X.X#X#X$X3X$X#X.XOXoXXX>.>.-.<.@.y.v k a a g a c v v l v H H p u p a M r.j w.s.b.5X9X4X3X3X3X3X3X3X3X3X4X9X0X9X0XcXqXN.M H A k p < + ",
"k k k l v c < 2 $. X#X3X3X4X4X4X9X9X9X0XkXvXNXvXlXtXb.x.T Y v c A D F F F Z * $ + + + > , 3 2 4 | { -.>..X#X3X3X3X3X3X$X$X$X3X3X4X4X9X4X3X3X3X4X3X$X$X.XOX3.6.p.p.e.w.j k k l l k g A A d p u h M M k a n f.;X&X3X3X3X4X4X4X4X4X4X9X0X0X0XjXvXwXM.P A A g p < + ",
"M M l v H A 8 3 '  X$X3X3X4X9X0X9X9XjXkXvXvXvXlXdXC.I.L.W F g p C S D Z V * % @ + + + > : [ ;.>.XX X#X$X$X$X4X4X4X3X3X3X3X3X4X4X9X9X4X4X4X4X4X4X4X4X3X3X3X&X%XoXoX+X1.@.x k k k s s i d C d p p H H c k k r.s.6.XX$X3X4X4X4X4X4X9X0X9X0XjXcXNXrXF.A g g A d 8 + ",
"j.j.M I U F i 2 $. X$X4X4X4X0X0X0X0XkXvXvXkXeX1XQ.L.T W U A p p d V V s * % @ > > , 2 _ &.:.#X3X3X3X4X4X3X3X4X9X4X4X4X4X4X4X9X9X9X9X4X4X9X9X4X4X9X9X4X4X9X9X4X4X4X3X*X4.<.+.w.h q 8 p i V C i a H H c c k k n t.<.>.$X4X4X4X4X4X0X0X0X0XjXvXBXxXF.L c k A V 8 < ",
"j.j.P U W U d 6 &..X$X4X4X9X0XjXjXkXNXNXkX8XW.T.U.Y H g c c k a p p 8 % @ @ + > : ] ;.XX.X#X$X4X4X9X9X9X4X4X9X9X4X4X4X9X9X9X9X9X9X9X9X9X9X9X9X9X9X9X4X4X9X9X9X9X0X0X9X6X&XoX1.+.e p a a A C a k v J H H v l k k z @.OX3X4X4X4X9X0X0X0X0XjXcXBXxXE.W c k A V p u ",
"j.M H K U H d 6 *..X$X4X9X0X0XjXcXvXNXcXqX1XI.^ ! U a u u p p p p < @ + > , 3 _ [ :.#X3X3X3X4X4X9X9X9X9X9X9X9X9X4X4X9X9X9X9X9X9X9X9X9X9X9X9X9X9X9X9X4X4X9X9X9X9X0XjXjXjX0X4X@X3.X.+.w.j g A a k c v K K H v c g f e 1..X$X4X9X9X0X0XjXjXjXcXBXxXE.W P g A d p i ",
"j.M v c g d s w *.#X3X4X0XjXjXcXNXNXkXqXdXC.J.Y Q U g u < < < 8 8 % @ > - / $.>.#X$X$X3X4X4X4X9X9X9X9X9X9X9X9X9X9X9X9X9X9X9X9X9X0X0X9X9X0X0X9X9X9X9X9X9X9X9X9X9X0XjXkXjX0X9X3X5X&XoX1.@.j a s s d C Z D A A A A c l ..X..X3X9X9X9X0XjXjXjXkXBXxXR.E L H c a s * ",
"M n l k h p % w ;.#X3X9XjXkXcXvXNXcX6X:XQ.J.j.J Y P k u < + + @ % % , ; ` %..X3X9X9X3X3X4X9X9X9X9X9X9X9X9X9X9X9X9X9X9X9X9X9X9X9X0X0X9X9X0X0X9X9X9X9X9X9X9X9X9X0X0XjXjXjX0X9X9X9X0X4X@X3.@.j 9 0 s V C A D D Z H v l a r 1.oX3X9X9X0XjXkXjXkXBXxXR.L U H k p 8 % ",
"k l l l l k 8 2 ;.#X4X9XjXcXNXNXvXwX1Xd.G.Y U H v v k p < + + @ + , _ $. X$X3X4X9X9X9X4X4X4X0X0X9X9X9X9X0X0X9X9X9X9X9X9X9X9X0X0X0X9X0X0X0X9X9X9X9X9X9X9X9X9X0X0X0X0XjXjX0X0X9X9X0X0X4X$XXX<.r p a a k g F K H v l v g d w.2.oX4X9X0XjXkXkXcXBXxXB.I M v h u < @ ",
"v v v v v c < 2 ;.#X4X0XjXcXNXvXwX:Xf.M H F F F g p p u < + < < 3 _ %. X$X4X4X4X4X4X4X4X4X4X0X0X9X9X9X9X0X0X0X9X9X9X9X9X9X0X0X0X9X9X0X0X0X9X9X9X9X9X9X9X9X9X0X0XjXjXjXjX0X0X9X9X0X0X0X9X3X X<.e.j k k c H H v l v v Z Z g w.=.OX3X0XjXkXkXcXBXxXB.M M l p i @ + ",
"Q Y U K A d 8 2 ;.#X4X0XjXcXvXlX:Xp.r.k a d Z Z s 8 @ + + < < 4 [ >.#X3X3X$X#X$X$X3X3X3X4X9X9X0X0X0X9X9X9X0X0X0X9X9X9X9X0X0X0X0X9X9X0X0X0X0X9X9X0X0X9X9X0X0X9X0XjXkXkXjX0X9X0X0X0XjX0X0X9X3X#X3.e.v c k c c k k g Z S Z Z C e { *X9XjXkXjXcXBXxXR.P n v g s % # ",
"^ ! W F Z d % 2 ;.$X4XjXcXcXzXtXa.b k k u p d V * $ O + + 1 4 } XX$X9X9X$X#X X X.X#X$X3X4X9X9X0X0X0X0X9X9X0X0X0X9X9X9X9X0XjXjX0X0X0X0XjXjX0X0X9X0X0X9X0X0X0X9X0XjXkXkXjX0X0X0XjXjX0XjX0X0X9X9X&X9.p.l c k k k a A S Z Z A C y e 3.5XjXkXjXcXBXxXR.U v v A V % $ ",
"^ ! F Z g i * w *.$X9XcXNXbXtXb.s.M k k u p p i % $ + + < 4 *..X$X4X0X9X$X.X:.;.;.:.$X4X9X9X0X0X0X0X0X0X0X0X0X0X9X9X9X9X0X0X0X0X0X0X0X0X0X0X0X0X9X9X0X0X0X0X9X0XjXkXkXjX0X0X0X0X0X0X0X0X0X0X0X9X5X4.p.v k k k g A S S Z v v a k s.b.qXkXkXcXBXxXB.P A Z Z V i 8 ",
"U.Q A d g d * w *.$XjXvXvXyXpXq.j.M c p p u u < $ $ @ 1 4 } .X3X4X9X0X9X$X X:.;.%.;.#X3X4X9X0X0XjX0X0X0X0XjX0X0X0X9X9X9X0X0X0X0X0X0X0X0X0X0X0X0X9X9X0XjXjX0X9X0XjXkXkXkXjX0X0X0X0X0X0X0X0XjX0X0X0X5X9.e.l k k k g A A A v v k k M f.-X0XkXvXBXxXM.M H Z Z V p u ",
"J.H.c d d d % 2 *.3XcXvXyXpXq.g.I K A s 8 < < < @ @ < 4 *..X$X4X4X9X0X9X3X#X X;.%.;. X$X3X9X0XjXjX0X0X0X0X0X0X0X0X0X9X9X0X0X0X0X0X0X0X0X0X0X0X0X0X0X0XjX0X0X0X0XjXkXkXkXjX0X0X0X0X0X0X0X0X0X0X0X0X9X&X4.p.v c k v v c g A g k k k t.9.7XlXNXBXxXM.M M H A V 8 < ",
"c.k.l p Z V 8 2 ;.4XcXbXaXN.h.M U F S s % @ + + < 1 4 &.#X4X4X4X9X0X0X9X3X#X X;.%.%.:..X$X4X9X0XjXjX0X0XjXjXjX0X0X0X0X0X0XjXjXjXjXjXjXjXjXjX0XjXjXjXjX0X0XjXjXjXkXkXkXkXjXjXjXjXjXjXjXjXjXjX0XjXjX0X9X&X9.p.l k l l v c Z Z c c g j @.4.wXvXBXxXM.M M M H Z 8 @ ",
"k.j.l v K Z i ..>.4XkXwXgXx.z.j.U F D V * % @ < < 4 *.#X4X9X9X9X0X0X0X9X3X.X;.$.%.%.%.:.#X3X9X0XjXjXjXjXjXjXjX0X0X0X0X0XjXkXkXjXjXjXjXkXkXjXjXjXjXjXjX0X0XjXjXkXkXkXcXcXkXkXkXkXkXkXkXkXkXjXjXjXjXjX0X9X5X;Xp.v k v U U F F K F Z d h X.%XkXNXxXM.M l v U F s % ",
"I M M I H A d ..XX4XqX2XZ.(.H.I K F Z d * % @ > 4 =.$X0XjXjX0X0X0X0X9X3X$X X$.' %.;.%.;. X$X4X0XjXjXjXjXkXkXjXjXjXjXjXjXkXkXkXkXjXjXkXkXkXkXjXjXkXkXjXjXjXjXkXkXkXcXcXcXkXkXkXkXkXkXkXkXkXkXjXjXkXkXjX0X0X5X9.p.h c U W W F K F D V i w.3.6XvXmXV.M m P Y K s % ",
"U K K P v c s o.*X6XdXZ.x.J.Y K D Z d i 8 @ + 3 *.$X9XjXkXjX0X0X0X0X4X$X.X:.$.$.;.:.;.;.:..X3X0X0XjXjXkXkXkXkXkXkXkXkXkXkXkXkXkXkXkXkXkXkXkXkXkXkXkXkXkXkXkXkXkXcXcXcXcXkXkXkXkXkXkXkXkXkXkXkXkXkXkXjXjXjX0X6X;X+.k v I U K c c Z A a j s.pXbXzXV.J.Y U P c i i ",
"W W W U I c y o.*X5XZ.(.J.H.Y F Z s 8 < @ > , { #X0XkXkXkXkXjXjX0X9X3X#X X;.$.$.;.:.:.;.;.:.$X9X0XkXkXkXkXkXkXkXkXkXkXkXkXkXkXkXkXkXkXkXkXkXkXkXkXkXkXkXkXkXkXcXvXvXvXcXcXkXkXkXkXkXkXkXkXkXkXkXkXkXjXjXkXkXkX4X1.w.l v K A c k A A c k n M.wXxXZ.L.T U c a p i ",
"^ ^ ! W U Z y r oX&Xm.G.T T I c s * + + + , ) :.9XcXcXcXkXkXkXjX0X9X4X$X X;.%.%.;.:.:.:.;.:..X3XjXcXvXvXkXkXcXcXkXkXkXkXkXkXcXcXkXkXcXcXcXcXkXkXcXcXkXkXkXkXcXvXvXvXvXcXcXcXcXcXcXcXkXkXcXcXcXcXkXkXkXkXkXkXcXjX$X1.w.g Z Z c k A A c k a @.&X7XE.~ I v A V 0 * ",
"^ ^ W U K Z s r 3.4.d.I Y Y J c 8 $ + + > | ;.$XjXvXvXcXcXkXkXjX9X4X3X#X:.;.;.;.:.:.:.:.:.:. X$X0XcXNXvXcXkXcXcXcXkXkXkXkXcXcXcXcXcXcXvXcXcXcXkXcXcXcXkXkXkXcXvXNXNXvXvXvXcXcXcXcXcXcXcXcXvXvXcXcXkXkXkXkXcXvXkX0XoXX.h g g a a C A c k u ..4.8.I.T M v g V * % ",
"^ ~ P v c g p h p.f.K.Y I J H d 8 @ + > : &.$XjXcXvXvXvXcXcXkXjX4X$X#X X;.%.;.:. X X X X:.:. X#X4XjXvXNXvXcXkXkXcXcXkXkXcXcXcXcXcXcXcXcXcXcXcXcXkXkXcXcXcXcXkXcXvXNXNXvXvXcXcXcXcXcXcXcXcXcXcXcXcXcXkXkXcXvXvXvXkX6X3.+.j a p i V A c k u h p.f.P.H.n k k d 0 * ",
"~ Y c k k k p c M L.~ Y v c C V % + + 3 ]  X0XcXvXvXNXNXvXcXkXjX4X$X#X X;.;.:. X#X#X$X#X.X X X.X#X4XkXcXcXcXkXcXcXcXcXcXcXcXcXvXvXvXvXcXvXvXvXcXkXcXcXcXvXcXkXcXNXNXNXNXvXvXvXvXvXvXvXvXvXcXvXvXvXcXkXkXcXvXNXNXcX0X*X3.w.k k k g g k k i k j.z.c.z.n k k i 8 % ",
"G.I A g k k A U Q T I v k p s * # # + 4 >.4XkXvXvXNXBXBXvXcXkXjX4X3X$X#X X:. X#X3X4X0X4X#X X X X X#X4X0XkXcXcXcXcXcXcXcXcXcXcXvXvXvXvXvXvXvXvXcXcXcXcXcXcXcXcXvXNXBXNXNXvXvXvXvXvXvXvXvXvXvXvXvXvXcXkXkXcXvXBXBXvXcXjX&X@.k n g.v v k a d H l.c.c.k.g.v g d 8 @ ",
"k.j.K A c v H U Y Y I c p 8 % $ $ $ > { $XjXcXvXNXBXBXBXvXcXkXjX9X3X#X.X X X X$X9XjXcXjX3X.X X X X X#X3X0XkXcXcXcXcXvXvXvXvXvXvXvXvXvXvXNXNXvXcXcXvXvXvXvXcXvXvXBXBXBXNXvXvXNXNXvXvXvXvXvXvXNXNXvXcXcXkXcXvXBXBXvXvXvXwX2.w.g.j.g.l k a A A G.z.j.g.g.v A V 8 + ",
"c.H.Y U v l v M M I P A s % + O + > | ,.9XcXcXvXNXBXNXNXNXvXkX0X4X$X X:. X.X.X$XjXvXvXcX9X3X.X X X X X#X9XjXkXcXcXcXvXvXvXNXNXvXvXvXvXNXNXNXvXcXcXvXvXvXvXvXvXNXNXBXBXNXvXvXNXNXNXvXvXvXvXNXNXNXNXvXcXcXcXvXNXNXNXNXNXzX:Xv.r.l l l k c A Z A H v l l v A V 8 + ",
"c.J.Q W I v l l v J U D 0 $ + + + 3 =.*XjXcXvXvXBXBXBXNXNXcXjX9X3X#X:.;. X.X.X3XcXBXNXvXjX4X$X.X.X X:..X3X0XjXkXcXcXcXvXvXNXNXNXvXvXNXNXNXNXvXcXvXvXvXvXvXvXvXNXNXBXBXBXvXvXNXNXNXNXvXvXNXNXNXNXNXvXvXcXcXvXvXNXNXNXNXbXyX:Xe.k l l k g A Z C g k k v v A s 8 + ",
"k.G.U W U H v v H K U D 8 @ + + + | oX0XkXcXvXNXBXBXBXBXNXcX0X3X#X:.%.;. X.X#X4XvXBXNXcXkX0X4X$X.X:.:. X#X3X0XkXcXcXcXvXvXvXNXNXNXNXNXNXNXNXvXvXvXvXvXvXvXvXvXvXNXBXBXBXvXvXNXNXNXNXNXNXNXNXNXNXvXvXvXcXcXvXNXNXvXvXNXNXbXtXa.k k k k g A S g k l v H H c p < + ",
"I I K F R K v H K R F S 8 + + > , { 4XcXcXcXNXBXBXBXCXBXvXkX9X$X.X:.%.;. X#X$X0XvXBXvXcXkXjX0X3X#X X X X X#X4XjXcXvXvXvXvXvXNXNXNXNXNXNXNXNXvXvXNXNXvXvXNXNXvXvXBXCXBXBXvXvXNXNXNXNXNXNXNXNXNXNXvXvXvXvXvXvXNXNXvXvXNXNXBXlXb.r.k k l v H A c v l v K F H k 8 < ",
"U K F D F F A A F F D V 8 + @ , ) :.9XcXvXNXBXBXBXCXCXBXcXjX9X$X.X:.:.:. X#X9XkXNXBXvXcXkXkXjX0X3X#X.X X X.X$X9XcXNXBXNXvXvXvXNXNXNXNXNXNXNXNXNXNXNXvXvXNXNXNXNXBXBXCXBXNXNXNXNXNXNXNXNXNXNXNXNXNXvXvXvXvXNXNXNXvXvXvXNXBXbX:Xv.r.l j.z.M v H H v c A F U H p 1 ",
"U K D D F F D D F D V * @ + + 2 %.$X0XcXvXNXBXBXBXCXCXNXcX0X4X#X X:.:. X.X$XjXvXBXBXvXcXkXkXcXkX0X4X$X.X X X.X3XkXvXBXBXvXvXNXNXNXNXNXNXNXNXNXNXNXNXvXvXNXNXNXNXBXBXBXBXNXNXNXNXNXNXNXNXNXNXNXNXNXNXvXvXNXNXNXNXvXvXNXBXBXvXyX:X0.b z.z.j.v H H c p d S F F i 1 ",
"I J A S D D S D D Z B % O + + 4 XX9XkXvXNXNXBXBXBXCXCXNXjX4X$X X;.;. X.X#X4XcXBXBXBXvXcXcXvXNXNXvXjX3X#X.X.X.X$X9XkXvXNXNXNXNXNXNXNXNXNXNXNXNXNXNXNXNXNXNXNXvXvXBXCXBXBXNXNXNXNXNXNXNXNXNXNXNXNXNXvXvXvXNXNXNXvXvXvXNXBXCXNXbX&Xq.c M j.g.v v v k p 0 N V s 8 < ",
"j.M H A A A D D Z d * $ + + > ) $XjXcXvXNXBXBXBXBXCXCXNXjX4X#X X;.;. X#X$X9XNXCXCXBXvXvXcXvXBXBXBXvX0X3X#X.X.X#X3X9XkXvXvXNXNXNXNXNXNXNXNXNXNXNXNXNXNXNXNXNXvXvXBXCXCXBXNXNXNXNXNXNXNXNXNXNXNXNXNXvXvXvXNXNXNXNXvXvXBXCXCXBXNXwX2.h l l n v v c k i s * 0 8 < < ",
"j.M v k v H K F c p 8 @ + > : &.4XcXvXNXBXBXBXBXBXCXCXNXjX4X$X.X:.:. X#X3XjXBXZXCXBXNXvXvXvXBXCXBXBXvX0X$X.X.X.X#X$X9XjXcXvXBXBXNXNXBXBXNXNXNXNXNXNXNXNXNXNXNXNXBXCXZXCXBXNXNXNXBXBXNXNXBXBXNXNXNXvXvXvXNXNXNXNXNXNXBXCXBXCXBXzX4.+.j l M M H A c c C C c k p u ",
"I M M v c c F A c u < + + , ) :.0XvXNXBXBXBXBXCXCXCXBXvXjX4X$X.X X X X#X9XkXBXZXCXBXNXNXvXvXNXBXBXBXBXcX4X#X.X.X.X#X3X9XkXvXNXBXBXBXBXBXBXNXNXNXNXNXNXNXNXNXNXBXBXCXZXZXBXNXNXBXBXBXBXBXBXBXBXNXNXNXvXvXNXNXNXNXNXNXBXBXBXCXCXcX*X<.w.c M I H H v c C C c k p u ",
"U U Y U d s Z C p u < + + 2 &.#XjXvXBXBXNXBXBXCXZXZXBXvXjX3X.X:. X.X.X$XjXNXBXCXCXBXNXNXNXNXNXBXBXCXBXNXcX9X$X.X.X.X#X3XjXcXNXBXBXBXBXBXBXBXNXNXBXBXNXNXBXBXBXBXBXCXZXZXBXNXBXBXBXBXBXBXBXBXBXBXBXBXNXNXNXNXBXBXNXNXNXBXBXCXZXNX4X,.0.c H I G.M k p s * s s p u ",
"F F F Z * % * s d p < < @ 2 :.4XkXNXBXBXBXBXCXCXZXCXNXcX0X$X:.;. X.X.X3XcXBXCXCXCXBXNXNXNXNXNXBXBXCXCXBXNXkX3X#X.X.X.X#X4XjXvXNXBXBXBXBXCXCXBXBXBXBXBXBXBXBXBXCXCXCXZXZXBXBXBXBXBXCXCXCXCXBXBXBXBXBXBXNXNXBXBXBXBXNXNXBXBXCXZXBXjXoXp.c U U G.v p 8 % $ # # 8 i ",
"W Z # X o $ % * V d p < @ | oXjXcXNXBXCXCXZXZXZXCXBXcX0X4X#X;.%. X.X#X4XNXZXZXZXZXCXBXNXNXNXBXBXBXBXCXBXNXcX9X3X#X.X.X.X#X4XkXvXNXNXNXBXZXZXCXBXBXBXBXBXBXBXBXCXCXZXZXZXCXBXBXBXBXCXZXZXCXBXBXBXBXBXBXBXBXBXBXBXBXBXBXBXBXCXZXCXNX6Xq.c W W K A s % + o   . $ * ",
"E Z X   o + % s V d p < @ | &XcXNXBXBXCXZXZXZXZXCXNXkX9X3X.X;.;. X#X$X0XBXZXZXZXZXCXBXNXNXBXCXCXCXCXCXBXBXvXjX9X$X.X.X.X.X$X0XcXvXNXvXNXBXBXNXNXNXBXBXBXCXCXCXCXZXZXZXZXCXCXCXCXCXCXZXZXCXCXBXBXCXCXBXBXBXCXCXCXBXBXBXCXCXCXZXZXCXwXm.m W W F V N % + O X # & * ",
"R S % # # % 8 i a p < @ +  .5XvXCXCXCXCXZXZXZXZXBXvXkX9X$X.X X X X#X9XcXCXZXZXZXCXCXBXBXBXCXZXZXZXZXCXBXBXNXcXjX4X$X.X.X.X#X3XjXvXNXcXcXcXkXjXjXkXvXNXBXCXZXCXCXZXZXZXZXCXCXZXZXZXZXCXCXZXZXCXCXZXCXBXNXBXCXZXCXBXNXBXCXZXZXZXZXZXzXM.m U R D Z V * % * Z Z * % ",
"Y K V * * 8 p p k a < > > { 9XBXZXZXCXCXZXZXZXCXNXcXjX4X#X X.X.X.X$XjXNXCXZXZXZXCXCXCXBXBXCXZXZXZXZXCXCXCXBXNXvXjX4X#X.X.X#X$X9XkXcXkXjX9X9X4X9XjXkXvXBXCXZXCXCXZXZXZXZXCXCXZXZXZXZXCXCXZXZXCXCXZXZXBXNXBXCXZXZXBXBXBXCXZXZXZXZXZXbX9.v K F A Z Z V s d U K V % ",
"J.H.K Z s p u p A A i 1 - $.0XCXZXZXCXCXZXZXZXCXcXjX9X3X.X X X.X#X4XcXBXZXZXCXCXZXZXCXBXBXCXZXZXCXCXZXZXZXZXZXCXNXkX3X#X.X.X$X3X9X0XjX0X3X$X3X4X0XkXvXNXCXCXCXCXFXGXZXZXZXZXCXCXZXZXZXZXCXCXZXZXZXZXCXBXBXCXZXZXCXBXCXZXCXCXZXZXZXnX;X@.G K H v Z V d a v g 0 % ",
"c.H.Y K g p p g A A i 1 ; ;.kXCXZXZXCXCXZXZXZXCXcX0X9X3X.X X X.X$X9XNXZXZXZXCXCXZXZXCXBXBXCXZXZXCXCXZXZXZXZXZXZXZXNX0X3X#X.X#X$X$X3X4X4X#X.X$X3X9XjXcXNXBXBXCXCXGXGXSXZXZXZXCXCXZXZXZXZXCXCXZXZXZXZXCXCXBXCXZXZXCXCXZXZXCXCXZXZXZXvX=X#.G U I v H A k k k d 0 % ",
"j.G.Q U c k A A g i % > _ :.kXCXCXCXZXZXZXZXZXCXcXjX9X3X#X X.X#X3XjXBXZXCXCXZXZXZXZXCXBXBXCXZXZXZXZXZXZXCXCXZXZXZXCXvX0X$X.X.X.X#X#X#X#X.X.X.X#X$X9XkXvXNXBXCXZXZXSXGXGXZXZXZXZXZXZXCXCXZXZXZXZXCXCXZXZXCXCXZXZXCXCXZXZXZXZXZXZXZXVXtXv.D.F K H v v v v g V * % ",
"j.G.Y U v v P H p < % > _ XXkXCXCXCXZXZXZXZXZXCXvXjX9X3XoXOX.X$X9XkXCXZXCXCXZXZXZXZXCXCXCXCXZXZXZXZXZXZXCXCXZXZXZXCXBXcX4X#X.X.XOXOX.X.XOXOX.X#X#X3X0XcXNXBXZXZXZXSXGXGXZXZXZXZXZXZXCXCXZXZXZXZXCXCXZXZXCXCXZXZXCXCXZXZXZXZXZXZXZXVXtXM.D.F E U v l l v H C * % ",
"c.H.K A v g.j.M k < @ , ) +XkXCXZXZXZXZXGXGXZXCXvX0X3XoX,X,X*X3XjXvXCXZXGXGXZXZXGXGXZXZXZXZXZXZXGXGXZXZXZXZXZXZXCXCXBXcX0X3X#XOX,X,XOXOX,X,X*X#X$X$X3X0XvXCXZXZXGXGXSXZXZXZXGXGXZXZXGXGXZXZXGXGXZXZXZXZXGXGXZXZXZXZXCXCXZXZXZXZXZXVXuXV.u.H W U v k k k v h 8 @ ",
"z.j.H H v g.j.n p 8 @ 3 } *XnXZXZXZXZXZXGXGXSXCXvXjX$XOX,X<X*X4XcXBXZXZXGXGXSXSXGXGXZXZXZXZXZXZXGXGXZXZXZXZXZXZXBXNXNXcX9X$XoX+X,X,XoXoX,X<X*X$X$X$X$X4XkXBXZXSXHXHXSXZXZXZXGXGXZXZXGXGXSXSXGXGXZXZXZXZXGXGXZXZXZXZXCXCXZXZXZXZXZXVXiX8.t.c Y Y M l k k v k 1 < ",
"n n v v k k l k s % + 2 ;.8XDXGXZXZXZXZXZXSXGXFXVXkX4X$X*X*X#X9XNXZXZXZXZXSXGXGXSXZXZXZXCXCXZXZXZXZXZXZXZXZXZXCXNXvXcX0X#XXX,X,X+XoX#X#X*X*X$X$X$X$X$X3X9XcXCXSXHXHXHXGXZXZXZXZXZXZXZXSXGXGXSXZXZXZXZXZXCXCXZXZXZXZXZXZXZXZXGXGXZXBXlX<Xe.c M G.j.g.n v H d p u ",
"c c v v k k k a 8 % 8 | XXwXDXGXZXZXZXZXZXZXGXGXAXvXjX0X9X9X4XjXBXZXZXZXZXZXGXGXZXZXZXZXCXCXZXZXZXZXZXZXZXZXZXCXvXkXjX4X X;.4.,XOX#X$X$X*X*X$X$X$X$X$X$X3XjXBXZXGXHXHXGXZXZXZXZXZXZXZXZXGXGXZXZXZXZXZXZXCXCXZXZXZXZXZXZXZXZXGXGXZXBXkX&Xa.M j.j.j.j.M H A V p u ",
"F A A c v l l k 8 8 p p.oX0XVXZXZXZXZXZXZXZXZXSXGXFXVXBXBXNXcXvXCXZXZXZXZXZXZXZXZXZXCXCXZXZXZXZXCXCXZXZXGXGXZXCXcX0X4X#X;.%.XXOX.X.X$X*X<X<X*X$X#X#X$X$X$X9XBXZXZXZXSXZXZXZXZXZXGXGXCXCXZXZXZXZXZXZXCXCXFXGXZXZXCXCXZXZXZXZXZXZXZXCXcX7XN.c.c.H.Y U K K D V 8 < ",
"Y U D Z c v v l u u k p.;X0XBXZXZXZXZXZXZXZXZXZXGXGXSXZXZXZXCXBXCXZXZXZXZXZXZXZXZXZXCXCXZXZXZXZXCXCXZXZXGXGXZXBXkX9X4X#X:.;. X.X.X.X$X*X<X,X*X$X#X#X#X#X#X9XNXZXZXZXZXZXZXZXZXZXGXGXCXCXZXZXZXZXZXCXCXCXFXGXZXZXCXCXZXZXZXZXZXZXZXBXzXtXA.).(.J.U F F F D V 8 + ",
"J.H.A Z Z H v l k k l s.b.tXVXZXCXCXZXZXCXCXZXZXZXSXGXGXZXZXZXZXCXCXZXZXCXCXZXZXCXCXCXCXCXCXZXZXZXZXCXCXZXZXZXCXkX0X0X3X X:. X.X.X.X$X#XoXoX#X$X$X#X#X#X#X9XNXZXGXGXZXZXZXZXCXCXZXZXZXZXCXCXZXZXCXCXBXCXCXCXZXZXCXCXCXCXZXZXZXZXZXVXyXaXC.).(.H.H S D D S V 8 + ",
"^.H.H Z S A v l k k k t.b.tXvXZXCXCXZXZXCXCXZXZXZXZXGXGXZXZXZXZXCXCXZXZXCXCXZXZXCXCXCXBXBXCXZXZXZXZXCXCXZXZXZXBXcXjXjX9X#X X.X.X.X.X$X$X.X.X#X$X$X#X#X#X#X9XNXZXGXGXZXZXZXZXCXCXZXZXZXZXCXCXZXZXCXCXCXBXBXCXZXZXCXBXBXCXZXZXZXZXZXVXhXsX{._.(.H.H Z Z D D V 8 + ",
"^.H.H Z Z A v l k u < 6 v.tXbXCXZXZXCXCXZXZXGXGXZXZXZXZXCXCXCXCXBXCXZXZXCXCXZXZXZXZXCXBXBXCXCXCXZXZXCXCXZXZXCXBXvXcXcX0X$X X.X.X.X.X$X$X.X.X#X$X#X#X#X$X$X0XBXZXZXZXZXZXCXCXZXZXCXCXZXZXCXCXZXZXZXZXCXBXBXCXZXZXCXBXBXCXCXCXZXZXZXVXhXsX`.].J.j.H Z Z D F Z 8 + ",
"J.H.K D D A v l k u @ 5 2.>XkXBXZXZXCXCXZXZXGXGXZXZXZXZXCXBXBXBXBXCXCXZXCXCXZXZXZXCXCXBXBXBXBXCXZXZXCXCXZXZXCXBXNXvXvXkX3X#X.X.X.X#X#X#X.X.X#X#X.X.X#X$X4XjXBXZXZXZXZXZXCXCXZXZXCXCXZXZXCXCXZXZXZXZXCXBXBXCXZXZXCXBXBXBXBXCXZXZXZXVXhXgXI.~ G.M c C Z D F C 8 + ",
"Y U K F F K v l k u < 3 X.@XkXBXCXCXCXCXCXCXZXZXCXCXZXZXCXBXBXBXNXBXBXCXZXZXCXCXCXBXBXBXBXBXBXCXCXCXCXCXCXCXCXBXBXBXNXcX9X3X#X.X#X#X#X.X.X.X.X.X.X.X.X$X9XcXCXZXZXZXCXCXBXCXZXZXCXBXCXCXZXZXCXCXCXCXBXNXBXCXCXCXBXBXBXBXBXCXZXZXZXVXuXV.k.m l l k g Z S d p < + ",
"R R W W F A c v c i < , +.;XlXBXBXBXBXBXBXCXZXZXCXCXZXZXCXBXBXBXNXNXBXCXZXZXCXBXBXBXNXNXBXBXBXBXBXBXBXBXBXBXBXBXBXBXNXvXjX9X$X#X#X#X.X.X.X.X.X.X.X.X.X#X9XkXBXCXZXZXCXBXBXCXZXZXCXBXBXCXZXZXCXBXBXBXNXNXBXBXBXBXNXNXBXBXBXCXZXZXZXVXfX!.u.c c k k g A d p u < + ",
"R W W W Z V V C A s 8 < j 9.lXBXBXBXBXBXBXCXCXCXZXZXCXCXCXBXBXNXNXNXBXCXCXCXCXBXBXBXNXNXNXBXBXBXBXBXBXBXBXBXCXBXBXNXvXvXcXjX9X3X#X.X.X.X.X.X.X.X.X.X.X#X3X9XkXNXBXCXCXBXBXCXCXCXCXBXBXCXCXCXCXBXBXBXNXNXNXBXBXBXNXNXBXBXBXCXZXZXZXnXfXQ.U.Y v k g A g k p 1 < + ",
"U K F Z * % * V S V 8 < k M.qXNXBXBXNXNXBXCXBXCXZXZXCXBXBXBXNXNXNXNXBXBXBXBXBXBXBXBXNXNXvXNXBXBXBXBXBXBXBXBXBXBXNXNXvXvXvXvXkX0X3X$X#X#X#X#X#X#X#X.X.X.X#X$X9XkXNXCXCXCXBXBXBXBXBXBXBXBXBXBXBXBXBXBXNXNXNXNXBXBXNXNXBXBXBXCXZXZXZXMXgX'.U.Q P g A d a p p 8 8 @ ",
"G.c $ X o + % N Z V 8 < k m.5XcXNXNXNXNXBXCXBXCXCXCXCXBXBXNXNXNXvXvXNXNXNXNXNXBXBXBXvXvXvXvXNXNXNXNXNXNXNXNXNXNXNXNXNXNXNXBXBXNXkX0X4X3X3X3X3X3X3X$X.X.X.X#X$X0XBXZXZXCXBXNXNXBXBXBXBXNXNXNXNXNXNXNXvXvXNXNXBXBXvXvXBXCXBXCXCXCXZXMXgX_.U.! U A d p s 0 0 * % % ",
"j.k O   o + % s C d 8 8 k a.&XjXvXNXNXNXBXBXBXBXBXCXCXBXNXNXNXvXvXvXNXNXNXNXNXNXBXNXvXcXvXvXNXNXNXNXNXNXNXNXNXNXNXNXNXNXBXCXZXZXBXvXkXjX0X0XjXjX0X4X#X.X.X.X#X4XvXCXZXZXBXNXNXNXBXBXNXNXNXNXNXNXNXNXvXvXNXNXBXNXvXvXBXCXBXBXBXBXBXmXgX_.U.! E Z d 8 % # # # * * ",
"j.c % # $ % 8 p a d 8 8 k p.oX9XcXNXNXNXNXBXBXBXBXCXZXCXBXNXvXvXcXvXNXBXNXNXNXNXNXNXvXvXvXNXNXNXNXNXNXNXNXNXNXNXNXNXvXvXBXCXZXZXCXBXNXNXvXvXNXvXvXjX3X#X.X.X.X$X0XvXCXZXBXNXNXNXNXNXNXNXBXBXNXNXNXNXNXNXNXNXNXNXvXvXBXCXBXBXCXBXcXeXS._.U.W F V 0 % + o   X % V ",
"k.M d * * s d p k p * s c p.4.3XcXNXNXNXNXNXBXBXBXCXZXCXNXvXvXcXcXvXBXBXNXNXNXNXNXNXvXvXvXNXNXNXNXNXNXNXNXNXNXNXNXvXvXvXNXBXCXCXCXBXBXBXBXBXCXCXBXvX9X$X#X.X X#X3XjXNXBXNXNXNXNXNXNXNXNXBXBXNXNXNXNXNXNXNXNXNXvXvXvXNXBXBXCXCXNXlX2XZ._.].^ F s * % $ O X # * s ",
"c.G.A V V Z F A p p * 0 c t.5.*XkXNXvXvXNXNXBXCXBXCXCXBXNXvXcXcXcXvXNXNXNXNXNXNXNXNXvXvXvXvXNXNXNXNXvXvXNXNXNXNXvXvXvXvXvXNXNXBXNXNXNXNXNXBXBXCXBXNXkX9X#X X X X#X3XjXcXvXvXNXNXNXNXNXNXNXNXNXNXNXNXvXvXvXvXNXNXvXvXNXBXBXCXCXnXiXdX~.`.].U.I c s * % * Z Z 8 8 ",
"c.j.H Z D F K H a i 8 i h w.#.,XwXvXvXvXNXNXBXBXBXBXBXNXvXvXcXcXcXvXNXNXNXNXNXNXNXNXvXcXcXvXNXNXNXvXvXvXvXNXNXNXvXvXvXvXvXvXNXNXNXNXNXNXNXNXBXBXBXBXvXjX3X#X X X X#X3X0XkXcXvXNXNXNXNXNXNXNXNXNXNXNXvXcXvXvXNXNXvXvXNXNXBXBXCXnXfX!.I._.].U.G.v C V s C U F 8 + ",
"j.j.v H F K J v A d a p 1 p j 6.6XcXvXNXNXNXNXBXBXBXBXNXNXvXvXcXcXvXNXNXNXNXNXNXNXNXvXcXcXvXNXNXvXvXvXvXvXvXNXNXvXcXvXvXvXNXNXNXNXNXNXNXNXNXNXNXNXNXBXvXjX3X#X X.X.X#X$X9XjXcXvXNXNXNXNXNXNXNXNXNXNXvXvXvXNXNXNXNXNXNXNXNXBXCXMXdXI.U.U.K.H.g.v A C c c F S 8 + ",
"j.j.M J U U M v A Z g p 8 8 k a.>XjXvXNXNXNXNXNXBXBXBXNXNXvXvXcXcXvXvXNXNXNXNXNXNXvXvXcXcXvXvXvXvXvXvXvXvXvXvXvXvXcXcXvXNXNXNXNXNXNXNXNXNXNXNXNXNXNXBXNXcX0X$X.X.X.X.X#X3X9XkXvXvXNXNXNXNXNXNXNXNXNXvXvXvXNXNXNXNXNXNXNXNXNXNXxXS.(.L.Y j.j.g.v A A v v A V 8 < ",
"c.H.I U W Y M v A Z Z d * 8 k s.b.tXbXNXNXNXNXNXBXBXBXBXvXvXcXcXcXvXvXvXNXNXNXNXNXvXcXkXcXvXvXvXNXvXvXvXvXvXvXvXcXcXcXvXNXNXNXNXNXNXNXNXNXNXvXvXvXvXvXvXcXjX3X#X.X.X.X.X#X3XjXcXvXvXNXNXNXNXNXNXNXNXvXvXvXvXNXNXNXNXNXNXBXNXcX8XA.(.H.j.g.g.r.M U U v k A V p u ",
"(.J.I U U Y I v H Z D Z s d c t.v.:XzXNXNXNXNXNXBXBXBXBXvXvXcXcXcXcXvXvXvXNXNXNXNXvXcXkXcXcXvXvXvXvXvXvXvXvXvXvXvXcXcXvXvXNXNXNXNXNXNXNXNXvXvXcXcXcXcXcXcXkX4X$X#X.X.X.X X#X9XjXcXvXNXNXNXNXNXNXNXvXcXcXcXvXNXNXNXNXNXBXCXvXqX1XC.(.G.M v l r.M Y W P c A d i i ",
"(.z.j.v v v H H v H K F g k l r.t.b.wXNXNXNXNXNXNXNXNXNXNXvXcXkXkXcXvXvXvXvXNXNXvXvXcXcXkXcXvXvXvXvXvXvXvXvXvXvXvXcXcXvXvXvXvXvXvXvXNXNXvXvXcXcXcXcXcXcXcXkX0X9X3X$X#X X X.X$X9XcXNXNXNXNXNXvXvXvXcXcXkXcXvXBXBXvXvXBXCXCXnXfX~.{.P.Y H v r.r.M U W W U g i 0 * ",
"z.k.g.l k c H H v v K F g k c v M m.6XcXvXNXNXNXNXNXNXNXNXvXcXkXkXcXvXvXvXvXvXvXvXcXcXcXkXcXvXvXvXcXcXvXcXvXvXvXvXcXcXcXcXcXcXcXcXvXvXvXvXcXcXcXcXcXcXcXcXkXkXjX0X4X$X.X X X.X3XjXvXNXNXNXvXvXcXcXcXkXkXcXvXBXNXvXvXNXBXNXmXgX}.).P.Y K H v v v H U Y U k p 8 % ",
"n l l k k k c v l v K F Z C C g v a.%X0XcXvXvXvXNXNXNXNXvXcXkXkXkXkXcXvXvXcXvXvXvXcXcXkXkXkXcXvXvXcXcXvXcXcXcXcXcXcXcXcXcXvXcXcXcXcXvXvXvXcXvXvXvXvXvXcXcXcXvXvXvXjX3X.X X:. X#X4XjXvXNXvXvXcXcXcXcXkXcXvXNXNXNXvXvXNXNXkX8XS.).c.J.U F A A A A c v M M k p < @ ",
"c c c c c c k k l v H K D Z V d k e.3.&XjXcXcXvXNXNXNXvXvXcXkXkXkXkXcXcXcXcXcXcXcXcXkXkXkXkXcXcXcXcXcXcXcXcXkXkXcXcXkXkXcXcXcXcXcXcXcXcXcXcXcXcXcXcXcXcXcXvXNXNXNXcX0X3X.X:.:. X#X4XjXcXcXcXcXcXcXcXkXkXvXNXNXvXcXvXvXcXqX1XQ.J.H.I K F D Z V d g k l l k p 8 @ ",
"F F K K K H c k k k v H A Z g p 8 9 e.9.qXcXcXvXNXNXNXvXcXkXkXkXjXjXcXvXvXcXcXcXcXcXjXjXkXkXkXcXcXcXcXkXkXkXcXcXkXkXkXkXkXcXcXcXvXcXcXcXcXcXcXcXcXcXcXkXkXcXvXNXNXNXvX0X#X:.:. X X#X3X9XjXcXkXcXcXcXjXjXcXvXNXvXcXcXvXxXfX~.K.~ Y K F D S C d d d A v v H V * % ",
"R R R U K H g p p k l v H g k p < < v f.-XjXcXvXvXNXNXvXcXkXkXjXjXjXkXcXcXcXkXkXcXcXjXjXjXkXkXkXcXcXkXkXkXkXcXcXkXkXkXkXkXkXcXcXcXcXkXkXcXcXkXkXcXcXkXkXkXkXvXvXNXNXNXkX3X X X:.:. X.X$X9XjXkXkXcXcXjXjXcXvXvXvXcXkXzXuX~.'.U.W R F D Z V s i p d H v H A V * % ",
"R R R U I c s 8 9 h l M v k k k u p l s.8.7XjXvXvXvXNXvXcXkXjXjX0XjXkXkXkXkXkXkXkXkXkXjXjXjXkXkXkXkXkXkXkXkXkXkXkXkXkXkXkXkXkXkXkXkXkXkXkXkXkXkXkXkXkXkXkXkXkXcXvXNXNXcX9X$X X:.:.:. X.X3X9X0XjXkXkXkXkXcXvXvXvXvXbXiXdX~._.Y R F D D V 8 < < 8 c I P F D V 8 @ ",
"Y U K H v c s 8 5 r u.I k k k k i p c u.a.,XwXcXcXvXvXvXcXkXjX0X0XjXkXkXkXkXkXkXkXkXkXjX0X0XjXkXkXkXkXkXkXkXkXkXkXkXkXkXkXkXkXkXkXkXkXkXkXkXkXkXkXkXkXkXkXkXkXcXvXNXNXcXjX4X#X X:.:.:. X#X3X9X0XjXjXkXkXcXcXvXvXNXzXfX!.Q.J.Y F Z A A d 8 > , 5 l j.I K D V 8 + ",
"J.G.c g H H d 5  .@.D.Y v k p i d C C c u.M.5XjXcXcXcXcXkXkXjX0X0XjXkXkXkXkXjXjXkXkXjX0X0X0XjXkXjXjXkXkXjXjXkXkXjXjXjXjXjXjXkXkXkXkXjXjXkXkXkXkXjXjXkXkXjXjXkXkXcXvXvXcXjX9X$X.X:.;.;.:. X#X3X9X0XjXjXjXkXcXvXvXvXrXgXQ.c.G.U F g k c d % 7 |  .t.j.j.I A V 8 + ",
"c.k.j p A Z i 6 &.<.D.U c k p i C S Z V g e.4.6XjXcXkXkXkXjX0X0X0X0XjXkXkXjXjXjXjXjX0X0X9X0XjXjXjXjXjXjXjXjXjXjXjX0X0X0X0XjXjXkXkXjXjXjXjXkXkXjXjXjXjXjXjXjXjXkXcXcXcXkXjX9X3X#X X;.;.;.:. X#X3X0XjX0XjXjXcXvXcXlX2X~._.H.I P H c k a p 8 w -.3.s.g.g.v A V 8 @ ",
"k.j.l c A V 8 4 ;.>.+.c k k k a A S Z V s d e.9.6XkXkXkXjX0X0X9X9X0X0XjXjXjXjXjXjX0X0X9X0X0XjXjXjXjXjXjX0X0XjXjXjX0X9X9X0XjXjXjXjXjXjXjXjXjXjXjX0XjXjXjXjX0X0X0XkXkXkXkX0X9X4X$X.X X:.:.;.:. X$X0XkXjXjXjXkXcXlXfX~.[.U.Y P I v A d 8 < <  .%X-Xm.M l v A V * % ",
"I M v v H d % 4 >..X<...j k k g Z S Z d 0 s v a.=X9XjXkXjX0X9X9X9X9X0X0X0X0X0X0X0X0X9X9X0X0X0X0X0XjX0X0X0X0X0X0X0X0X9X0X0XjX0X0X0XjXjXjXjX0X0X0X0X0X0X0X0X0X9X0XjXkXkXjX0X9X9X4X$X#X X:.;.;.;..X9XjXjXjXkXkXlXuXS.'.].^ U H v c C s % > 3 &.9XqXN.M c g A V * % ",
"U K A H v c 0 w ,..XXX1.e.v A S Z A g a p p k e.1.*X9XjXjX0X9X9X9X9X0X0X0X0X0X0XjX0X9X9X9X0X0X0X0X0X0X0X0X0XjX0X0X9X0X0X0X0X0X0X0XjXjXjXjX0X0X0X0X0X0X0X0X9X0XjXkXkXkXkXjX0XjXjX0X3X.X:.;.;.;. X$X9XjXkXkXlX7XdX~.'.].~ P c h p s % + = / >.jXlXV.G.H A g p 8 @ ",
"R F D A v c s w *.#X#XXXX.x H Z Z A k k p a c y.@.3.*X9X0X0X9X9X9X9X0X0X0X0X0X0XjX0X9X9X9X9X0X0X0X0X0X0X0X0X0X0X9X9X0X0X0X0X0X0XjX0X0X0X0X0X0X0X9X9X0X0X9X9X0XjXkXkXkXjX0X0XjXkXjX9X$X X:.;.;.:..X3X0XjXlX8XdX!.Q.].~ W v k p i % $ + - ' #XkXxXZ.L.H A g i 8 @ ",
"R F F F A V * w *.#X$X.X=. .j v Z A k c A A C z u.a.7.*X4X0X9X9X4X4X0XjX0X0X0X0XjX0X9X4X9X9X0X0X0X9X9X0X0X0X0X9X9X9X9X9X9X0X0XjXjX0X0X9X0XjXjX0X9X9X0X0X9X9X0XjXkXkXkXjX0X0X0XjXkXjX9X$X:.;.:.:. X#X4XwXuXdXZ.I.[.U.W U v l h 8 % $ @ 4 ;.3XcXrXE.~ I v A V * % ",
"R F F A Z V * w *.#X3X$X:.&.e.v A g k v H F Z V v r.a.7.*X4X4X4X4X4X9X0X0X0X0X0XjX0X4X4X9X9X0X0X9X9X9X9X0X0X0X9X9X9X9X9X9X9X0X0X0X0X9X0X0X0X0X0X9X9X0X0X9X9X0X0XjXkXkXjX0X9X0XjXjXkXjX9X#X:.:.:.:..X$X-XdX!.Q._.U.~ U H v c p < $ @ 4 } .X9XvXrXE.T M v g V * * ",
"R F g p a i 8 2 %.#X3X3X3XXX+.k k k k k v H Z C c l r.a.7.@X3X4X4X9X9X0X0X0X0X0X0X0X4X4X9X9X9X0X0X0X9X9X9X0X0X0X9X9X9X9X9X9X0X0X0X9X0X0X0X0X0X9X9X9X9X9X9X9X9X0X0XjXkXjX0X9X0X0XjXjXkXjX4X$X X:. XOX@X1X!.Q.[.].L.M v c A d 8 @ + 3 &.oX3X0XvXxXZ.J.j.l k d 0 * ",
"U H g a k a 8 2 %.#X3X4X9X&X1.O.k c c k l v H A c c v u.a.7.@X3X4X9X0X0X0X0X9X9X0X0X4X4X4X9X9X0X0X0X9X9X9X9X0X0X9X9X9X9X9X9X0X0X9X9X0X0X0X0X9X9X9X9X9X9X9X9X9X0X0XjXjXjX0X9X0XjXjXjXkXkXjX4X#X.XOX+X8.Z.Q._.].~ M l k g d s % > , _  X4X9XjXvXxXZ.z.g.l k i 8 % ",
"I I H H v k 8 w *.#X3X4X0X9X#X1.D.A c k k k v v H F A H u.p.1.OX3X9XjXjX0X9X0X0X9X9X9X4X4X4X0X0X0X9X9X9X9X9X9X9X9X9X9X9X9X9X0X0X9X9X0X0X0X9X9X9X9X9X9X9X9X9X0X0X0XjXjX0X9X0XjXjXjXjXcXcXkX0X4X&X<X8.!.Q.{.(.H.M l k g d 8 % @ , _ %.#X4X0XcXNXxXZ.z.n k g d 8 @ ",
"k.G.U U M k s w *.#X3X4X0X0X4X@X#.G c k k k v v H F D Z c u.@.1.+X&X0XjX0X0X0X0X9X9X9X4X4X4X9X0X9X9X9X9X9X9X9X9X9X9X9X9X9X9X0X0X9X9X0X0X9X9X9X9X9X9X9X9X9X9X0X0XjXjXjX0X0X0XjXjXjXjXcXcXcXjX5X2XdXW.Q.).(.c.j.l k a V s % + > ; '  X$X9XjXcXNXxXA.z.n g A V 8 + ",
"c.J.~ Y M l p 6 *..X$X4X9X9X9X$X>.X.w.l l v H H v H Z Z V z u.t.p.9.&X9X0X0X0X0X9X9X4X4X3X4X9X9X9X9X9X9X9X9X9X9X9X9X4X4X9X9X9X9X9X9X9X9X9X9X9X9X9X9X9X9X9X9X4X9XjXkXkXjX0X0XjXjX0XjXkXcXcXwXdX~.~.Q.c.z.k.j.g.l h p s * % > - ( ;..X3X9X0XkXvXxXA.z.n a A V 8 + ",
"c.H.Y U I v p 6 *..X$X4X9X9X9X4X#X>.X.y.v v Z A v v A Z C g v M I d.4.%X5X9X0X0X0X9X4X3X3X4X9X9X9X9X9X9X9X9X9X9X9X4X4X4X4X9X9X9X9X9X9X9X9X9X9X9X9X9X9X9X9X4X4X9XjXkXkXkXjXjXjXjXjXjXwXwXqX2XA.).).c.z.k.g.v v c p i % % > - / $. X$X4X9X0XkXNXxXS.l.b g A d 8 + ",
"k.G.H F K H p ..*..X#X3X4X9X4X4X3XoX-.+.z Z S A v v A Z c c A F Y L.d.6.4.*X9XjXjX9X3X$X3X4X9X9X4X4X9X9X4X4X9X9X4X4X3X3X4X4X9X9X4X4X9X9X4X4X9X9X4X4X9X9X4X4X4X9X0XjXkXkXjXjXjXjXjXwXtXaXgXZ.x.z.z.k.k.k.g.v H A C s % > - / $.:..X$X4X9X0XkXNXmXS.H.H A v k < + ",
"I J A D F F d 6 *..X#X3X4X4X4X4X4X$XOX=.O.G A H v v H H v v H F W Y m y.#.7.=X5X9X9X3X3X3X4X9X9X4X4X9X9X4X4X4X4X4X3X3X3X3X4X9X9X4X4X4X4X4X4X4X4X4X4X9X9X4X4X9X9X0XjXjXjXjXjXkXjXqXtXaXn.{._.z.j.g.g.j.j.g.v g V V 0 > - / ' :..X$X3X4X9X0XkXNXxXS.H.H A H c 9 < ",
"U K D D F D s w &..X#X$X3X4X4X4X4X3X$XOX=.+.u.v k k l v H H v H U K g h y.s.a.9.oX3X4X4X4X4X9X9X9X9X9X9X9X4X4X4X4X3X3X3X3X4X9X9X4X3X4X4X4X4X4X4X4X9X9X9X9X9X9X0XjXjXjXjXjXjXjXqXfXS.C.{.[.].G.l l k l l g.v k i % $ = / $.:..X$X4X4X4X4X9XjXcXrXZ.J.U F K H i u ",
"R F D D K A y w &. X#X$X3X4X4X4X4X4X4X$XOX1.a.w.p p k v K K v v K A a k l M I i.1.XX%X&X&X3X4X9X9X9X9X9X9X9X4X4X4X4X3X3X4X4X9X9X4X4X4X4X9X9X4X4X9X9X9X9X9X9X9X0XkXkXwXqX8X8X8X2XA.).(.K.].~ I l l k k k v c p < + = / $.:..X#X3X4X4X4X4X4X0XcXrXZ.J.Y R R A p u ",
"R F F K J c 8 3 '  X#X3X3X4X4X4X4X4X4X3X$XoX,.{ 7 t p c F K M v A Z c l l M Y Y i.p.a.6.7.@X4X9X9X9X9X9X9X9X9X9X9X4X4X4X4X9X9X9X9X9X9X9X9X9X9X9X9X9X9X9X9X9X0XjXkXlXtXaXgXS.S.Z.{.(.L.Q ^ ~ I l l l k a d 0 8 > - / $.:..X#X$X$X3X4X4X9X9X0XcXrXZ.J.Y R R A p u ",
"Y U U H v k < 3 ' :..X$X3X3X3X3X3X3X3X3X4X3X.X*.o.7 9 i A H v c c H v l l M Y Y M M M i.a.7.@X&X5X3X4X4X9X9X9X9X9X4X4X4X4X9X9X9X9X9X9X9X9X9X9X9X9X9X9X9X4X4XqXqXqXtXaXn./.}.'._._.H.U F W U v l l l k i % % > - / ' ;..X#X$X$X$X3X4X9X9X9X0XcXqXZ.L.U F F A p u ",
"J.H.M v M k < 3 ' :..X#X$X$X$X$X$X$X$X3X3X3X3X.X,.{ 6 p a c h h c v k k k l M M M n n r.r.e.a.6.4.@X#X$X4X9X4X4X4X4X4X4X4X4X9X9X4X4X4X4X4X9X0X0X9X4X9X9X3X&X2X1XgXA.C./.{.`.[.].U.Q F D D A v l n k 8 % % > | ] $.;. X.X#X$X$X$X$X3X4X9X4X9XcXeXE.! F D D V 8 < ",
"c.z.j.l l k < 3 ' :..X#X$X$X$X$X$X$X$X$X3X4X4X3X#X:.{ ..6 h p i c v k k k k v v l v v v M I I D.a.5.3.XX%X%X%X%X&X&X&X&X&X$X3X4X3X3X3X3X5X6XqX8X7X-X-X-X=X;XV.!.{.'.`._._._.].].Q E D Z Z V i h k p % @ , ; [ *.;.:..X#X$X$X$X$X$X3X4X4X4X9XkXeXF.E F Z S V 8 + ",
"k.j.g.l l h < 3 ' :.#X$X$X$X3X3X3X3X$X$X3X4X9X4X3X$X.X*.{ 4 8 s C H v l l v H H v v H K Q ~ Q Y u.e.p.p.a.a.f.M.8.,X+X+X+X+X#X$X$X3X3X5X>XaX2XfXgXS.A.Z.Z.C.Q.{.}.'.].U.U.].[.].U D D Z B * 8 < < < < 3 ) $.;. X X.X#X$X$X$X3X3X3X3X4X4X4X0XkX8XF.E S Z S V 8 + ",
"g.g.v v c i < 2 ' :..X$X$X$X3X3X3X3X$X$X3X4X4X4X4X4X3X#X;.[ w q s d c l v c A A v v A F W ! ! Y M n M I M M j.d.f.6.6.6.6.5.3.>.+X@X=X:XpXS.V.W.Q.`.(.P.P.P.(.).'.[.~ W W ~ K.K.A V V V 0 % @ + > , 4 ) $.:..X#X.X#X$X$X$X$X3X3X3X3X4X4X9X0XjX7XF.F S Z A d 8 < ",
"g.M H A A d i 6 ' :..X#X$X3X$X$X3X3X$X$X3X3X4X4X4X9X9X3X#X:.} | 5 p p p d d g g A A g g A R W Y v v Y Q U P j.k.D.D.y.w.t.e.e.a.B.Z.Z.C.I.K.d.i.L.Y G.j.M M j.H.L.Q F F F F K A V * * 0 i 8 @ > : ) [ %.:..X#X#X#X$X$X$X$X$X3X3X$X3X4X9X9X0XjX-XF.F S A J v p u ",
"j.M A Z Z g i ..*. X#X$X4X4X3X3X4X9X4X4X9X9X9X0X0XjXjX0X4X$X X*.{  .6 e d d k k g g a k g F W U v v Q W U I j.M H A a k l M g.j.c.).(.K.T U M v H H c l k l n M K F D Z D D D Z B * % 8 5 6 4 _ &.;. X.X#X$X3X3X3X3X3X3X4X4X9X9X4X4X9X0XjXjXkX7XF.F S A M l h u ",
"c.G.H Z c v c 0.>.$X3X9X0X0X0X0XjXkXkXkXjXjXkXcXvXvXcXkXjX9X4X3X$X X-. .r h k k k a p h k H U U v v U U I v l k a i p k l j.j.k.z.H.Y Y I M k k p p p k l M l v K F D D F F F D Z s % , | [ ;..X$X3X3X4X9X9X0X0X0X0X0X0XjXkXkXjXkXkXkXkXcXvXvX8XF.F S A v l h u ",
"^.H.H A v v c w.1.@X%X&X&X5X7X8X7X8X8X8X8X6XqXrXrXrXqX6X5X7X7X7X-X@X1.@.x c l l k k p k l v K K H v A A v l k k k h p k v j.k.k.j.j.P H v l l k p p i p l v v c K F A A F U U K A d 8 1  .1.;X=X=X=X=X-X5X7X7X7X7X5X5X5XqXqX6X6X8X8X6X6XeXrXwX2XF.U D A v j h u ",
"^.H.U F A g k k x O.p.a.q.a.Z.Z.F.F.F.F.B.N.N.B.E.E.f.a.m.B.E.F.F.F.i.y.G H j.j.n v H H v v K F Z V V s p h u k l g.k k l g.k.k.n l v v v l l c d s 0 8 p k H K F K H H K U J v v c d d u.f.C.C.F.F.F.F.m.B.E.E.B.N.N.N.N.N.m.f.F.F.m.m.f.F.B.B.J.I A A c k p u ",
"^.J.Y F Z d g g A A v v k n z.H.P F F P M j.j.G.Q W A c M I T ~ ! Y M v H I j.j.g.v K F g c H F Z * % % 8 p u k g.j.l k l g.j.g.k k v v v v v v C * % % 8 d Z F F H v J K K v v r.v A A I z.P.J.U F L U I L.U.U.H.j.j.j.j.j.n v A A v H F F P M H.G.H Z g k p u ",
"^.J.Y F d d d A g g H P v n n k a g v v k k n M F F Z A Z H I I m m k k v M g.g.g.v K F Z A v c s % $ + % 8 i h l g.k k l l l k k k g A A A K A V % $ + % 0 Z Z c c H K F D A H M M A S A H z.G.H D P I U U I j.g.n k k l M k c c g A Z S S Z H j.j.A D F A p u ",
"J.H.Y H p i C A c v H H v l k k p p l l h p c v Z S Z A A H v l l k k v l r.r.l r.M U F Z g v v d * O o $ * s g v v k k v v k k v c Z S S D F F Z * O o $ * V A c v H F A A D A J J A D A H j.j.H A v M H H v l n l p p l l k k k k g A A A Z A H H A D K H p u ",
"Y Y I v k a C A v l v v k h k k d d k k k k g Z S Z v v v v v l l v A A v r.r.r.r.M Y U g p k v U Z X   # * Z F A H v v H H v v H F D S S D F W W Z X   # N Z A v l v v v v F F A A F K I j.g.v v k k k c c k l l v g g v l h p k k v v c g C S A A Z A H v h u ",
"F H c k k a V C c c c k p u p p V V d p p d d V V C c k k l l l k c d d c v l l k v K F i u u g K Z # . # 0 Z A A d k c C C z c H A A V C C D F W Z o . $ * s d c k k k j v H A C S D K M g.l l k a p p p p k k k c C C c h p p p k k l k a d C C V Z C c k u 1 ",
"c a p 1 u p 0 * 0 s s i p u < 8 s V s 0 0 8 8 8 * * s 8 8 1 p p s 0 8 8 s d p p s s V s 8 < < 8 s N & # % * d p i p 1 8 0 * 8 1 i i i i i i s V V * + + @ 8 i p s s p h h h p i i d V C k k h p p u < < < < u u 1 8 0 * 0 8 < < 8 s p h p p p i i i 0 s p u < < ",
"k p < < 1 i * % % * * * i u < % s V * % * % @ @ % % % % @ < u i * % @ % s s p i * * * % @ + + @ % % * * * * i u u u < @ % % @ < u u u u u p % % % % @ + + < u i * * i p h h u u u p s s p u u u u u < + + < u u < @ % * * % @ @ % * i u u u u u u i * * i u < + "
};
