/* XPM */
static const char *gate3[] = {
/* columns rows colors chars-per-pixel */
"128 128 249 2 ",
"   c #080706",
".  c #0B0906",
"X  c #0E0D0C",
"o  c #130E0A",
"O  c #15110C",
"+  c #1C160C",
"@  c #1D180D",
"#  c #151414",
"$  c #191612",
"%  c #1D1A15",
"&  c #171818",
"*  c #1D1C1B",
"=  c #2C0B07",
"-  c #320B05",
";  c #3B0B06",
":  c #3B0E09",
">  c #24140B",
",  c #2C130A",
"<  c #231B0D",
"1  c #2A1C0D",
"2  c #361107",
"3  c #331309",
"4  c #3C1309",
"5  c #341A0C",
"6  c #3C1A0C",
"7  c #2C1413",
"8  c #221D13",
"9  c #2B1C12",
"0  c #211F1A",
"q  c #281F1C",
"w  c #341413",
"e  c #361B17",
"r  c #3B1C12",
"t  c #1F2017",
"y  c #1E201D",
"u  c #2A220E",
"i  c #3B220F",
"p  c #262114",
"a  c #2C2513",
"s  c #2E2916",
"d  c #24221C",
"f  c #2A261C",
"g  c #27281F",
"h  c #2E291C",
"j  c #322612",
"k  c #3D2414",
"l  c #342B14",
"z  c #3B2D15",
"x  c #33251C",
"c  c #3E241A",
"v  c #342C1A",
"b  c #3A2E1B",
"n  c #373016",
"m  c #3D3017",
"M  c #35301D",
"N  c #3D311C",
"B  c #1F1F20",
"V  c #1F2021",
"C  c #252523",
"Z  c #292722",
"A  c #272825",
"S  c #2C2924",
"D  c #262728",
"F  c #272929",
"G  c #2C2C2B",
"H  c #392724",
"J  c #322D23",
"K  c #392E21",
"L  c #312E2A",
"P  c #2E312C",
"I  c #353025",
"U  c #3C3222",
"Y  c #34322C",
"T  c #3A342C",
"R  c #3D392E",
"E  c #2E2F30",
"W  c #2E3031",
"Q  c #333333",
"!  c #393631",
"~  c #373837",
"^  c #3C3934",
"/  c #3B3B3B",
"(  c #460402",
")  c #4C0302",
"_  c #4B0A05",
"`  c #470C08",
"'  c #540403",
"]  c #5D0201",
"[  c #530905",
"{  c #5B0A05",
"}  c #550C09",
"|  c #5C0B09",
" . c #43130B",
".. c #4B140C",
"X. c #431B0C",
"o. c #4B180B",
"O. c #54130C",
"+. c #5C140C",
"@. c #58180C",
"#. c #450F10",
"$. c #4A1B14",
"%. c #531B13",
"&. c #581A15",
"*. c #640101",
"=. c #6C0101",
"-. c #640B06",
";. c #6C0904",
":. c #650D0A",
">. c #6B0D0A",
",. c #730100",
"<. c #7C0100",
"1. c #760A06",
"2. c #7B0B0A",
"3. c #63120C",
"4. c #6B120C",
"5. c #67180A",
"6. c #73120C",
"7. c #7D130C",
"8. c #77180D",
"9. c #681913",
"0. c #7E1313",
"q. c #781713",
"w. c #741A11",
"e. c #49220E",
"r. c #58240E",
"t. c #432412",
"y. c #4B2413",
"u. c #412D15",
"i. c #4B2A15",
"p. c #43261A",
"a. c #422B1A",
"s. c #4C2B1B",
"d. c #542513",
"f. c #5C2413",
"g. c #522A14",
"h. c #592919",
"j. c #413117",
"k. c #4E3114",
"l. c #43331B",
"z. c #4A361B",
"x. c #46391E",
"c. c #4C391C",
"v. c #59361B",
"b. c #513D1E",
"n. c #67260B",
"m. c #792408",
"M. c #7E3A0F",
"N. c #622513",
"B. c #6C2513",
"V. c #6B2A14",
"C. c #672A19",
"Z. c #762917",
"A. c #6A361C",
"S. c #73331B",
"D. c #773519",
"F. c #7A341B",
"G. c #462A24",
"H. c #592724",
"J. c #433521",
"K. c #463923",
"L. c #4A3B23",
"P. c #483728",
"I. c #423A2A",
"U. c #533E22",
"Y. c #573829",
"T. c #423C34",
"R. c #433D36",
"E. c #583635",
"W. c #612522",
"Q. c #662D28",
"!. c #742C24",
"~. c #653A24",
"^. c #743223",
"/. c #743A22",
"(. c #55401F",
"). c #6C421E",
"_. c #554123",
"`. c #5B4323",
"'. c #54432B",
"]. c #5A452B",
"[. c #5B482C",
"{. c #484238",
"}. c #534534",
"|. c #644425",
" X c #444444",
".X c #840000",
"XX c #8B0100",
"oX c #830906",
"OX c #8C0905",
"+X c #850C0A",
"@X c #8D0C0C",
"#X c #940101",
"$X c #9C0000",
"%X c #940A05",
"&X c #9B0A05",
"*X c #940C0A",
"=X c #990A0A",
"-X c #83130C",
";X c #881908",
":X c #991608",
">X c #841211",
",X c #8A1111",
"<X c #891C14",
"1X c #961512",
"2X c #A40000",
"3X c #AC0000",
"4X c #A40B05",
"5X c #AB0B05",
"6X c #A30E0B",
"7X c #AC0C0A",
"8X c #B30000",
"9X c #BC0000",
"0X c #B30C06",
"qX c #BB0B05",
"wX c #B40D0B",
"eX c #BB0D0B",
"rX c #A71506",
"tX c #B61303",
"yX c #AA1513",
"uX c #B11415",
"iX c #842208",
"pX c #952707",
"aX c #8D390B",
"sX c #882A15",
"dX c #8C221C",
"fX c #952619",
"gX c #85341A",
"hX c #B22708",
"jX c #C30000",
"kX c #CB0000",
"lX c #C30C05",
"zX c #CA0B04",
"xX c #C30D0A",
"cX c #D40000",
"vX c #DB0000",
"bX c #D30A03",
"nX c #D80B07",
"mX c #C51008",
"MX c #D6120E",
"NX c #E30000",
"BX c #EC0000",
"VX c #E70B03",
"CX c #F30000",
"ZX c #FD0101",
"AX c #FF0B0B",
"SX c #EA1313",
"DX c #F21313",
"FX c #FE1313",
"GX c #FF1919",
/* pixels */
" X/ Q L v l l z l.c.c.c.c.c.c.J.Y L b u.u.u.z z z U ^ ^ K.c.c.J.Y E E Y J.z.j.U ^ / Q L b j.z.z.j.u.j.N L E E Y J.c.c.J.Y Y J.J.Y G v z l.c.c.l.Y W Q Q E L b z l z l.c.c.c.c.K.^ / / / / T.K.J.Y G v l l l z U ^ / Q L v l l v L L b j.z.c.c.K.^ / / / / Q h u ",
"/ / Q S v l l l j.l.l.l.l.z.l.N L L b z z z z z z N T R K.c.z.l.L G G L l.l.z b T Q E L b b l.l.b l j x L Q W Y U l.l.U L L U U L S v z j.l.l.U L F A A G Y b z l l j.z.l.l.z.J.R ! Q Q ! R J.U J S h l l l z N T Q Y S v l l h G L b j.l.l.z.J.R ^ ! Q ! Y f p ",
"Q Q G S b z l l l b J J N j.z b S S b z l l z z z l b N K.c.l.b S F F S b z l a S G F S S S J S f % o $ G Q Q G J J J S F F S S F S b b J L Y L C & X # G T b l a l z j.z z j.j.l.U L G J b J J v v S h l l l l b J S S p p f S G Y N z z z j.j.l.U L G J h d * ",
"T Y S J b b l l l l h h v z l v S S J b j j z z l l z m l.l.N b S F F S b z j p Z A A D F F D C * #   X A Q Q G F A A D S S D D F S b b J S S S 0 #   X A Y b l a a v b b b z z z b J h l s h h l v S S v l l l z b S Z p a f S G L J b b b b z z b h h s a 8 % ",
"L.K.N b J J v l l l l l j j l v S F L L l l z z l z j.l.m b J S G G G L b z l s Z D A F G G F C * # o O * A G G F D D S v v S F G S b l b v h f * # o O * f v b h Z S S S L b l l z b v j a s v z b L L b z z m l.N S C p a v b S F S S G J b z z l l s a u < @ ",
"L.K.l.K L G h a a a a a u u a a f A S S s l z z l l z z l s C A S G G L b z l s S D A F G G F A d % + $ & C S L S S S J b b h S G L v l j.z j a 8 % + $ & d v b S S F F G J v l s l l l p p s l z b L L b z z z N b S C p a l v Z C C A S S b z l v v s a p < < ",
"T Y Y L G A d 8 < < < < < < < < p p 8 8 * d j j < < < u a p y y f f C S v l j a Z D D F G E G S f 8 % & * C b b b b b b u.z j f G L v z j.j.l u p 8 % & * C G L v h G G v l l s p 0 0 d d f p a a a a p a j j j f d * * * 8 8 8 * * * * % p l v h S S Z Z f a u ",
"E G G G F C 0 8 > , , , , , , 3 5 5 3 , 7 w r 6 3 3 3 3 5 5 7 w 6 6 e x z l j p Z D D F G G G S a a d B C Z v b z z z v v j u a Z S h b j.j.l a a f d B C D L I b b L L v l l a d * 0 q q e r 6 5 5 5 5 6 6 X.6 7 7 7 7 7 7 , , 7 7 7 7 , 3 X.t.S D D D D C a u ",
"E G F D A C p 1 ; ( ( ) ' ' ' ' [ [ ' ' [ [ { { ] ] ] ] ' [ [ { -.;.3.&.s.N l s Z D A F F F F S l s f A A D S J l l f d d 8 < < 8 q f J b m l l S S A A A S U l.j.b L G G J l s d C v p.%.+.-.] [ _ _ [ [ { { [ _ _ [ [ _ _ ' ' [ [ [ [ ' ] ;.3.H G D D D C 8 < ",
"Y L F S C f p 5 _ ] *.=.=.,.,.=.=.=.=.,.,.,.,.<..X.X.X.X.X<.<.<.<.2.9.h.s.l.m b h S F S Z C A C h h C A C C C f a a % & & % @ @ < 8 f S v l l v S G A A A S U l.b b J L L L v h f h b s.%.3.>.;.=.=.=.=.,.,.,.,.=.=.=.,.=.=.=.,.,.,.,.,.,..X#X+Xs.G S J S f 8 + ",
"U U L G h s f e [ =.<..X.X.X.X.X.X.X.X.XXX#X#X$X2X2X$X2X3X8X2X#X;Xn.H.P.J.l.l.j.b h G G f p 0 d d d d * 8 8 8 8 < < @ % @ @ + < a s s s a a u p C C B B C A S S S J b K L G L L h v N l.i.i.g.5.oXXX.X.XXX#XXXXX<.<..X.XXXXX.X.X.X.XXXXXXX$X8X&Xd.v N l.b j < + ",
"l.U L G h s C e { ,.XX#XXXXX#X#X#X#X#X#X$X2X3X8X8X8X9X9X9X0X4X;Xn.g.R Q U l.l.j.l h S S a < % * 0 0 * % @ + @ @ < > > , , , , 5 k t.t.k 5 5 u p f d d d f C Z Z C S v b G G G S b z j.j.z b N s.6.oXoXXX$X$X$X$XXXXXXX#X$X$X#X#X#X#X$X$X2X3XkX5Xf.m l.l.j.l < + ",
"l.N L F S C V w { <.#X#XXX#X$X2X2X$X$X$X2X8X8X9X9XjXcXzXrXpXZ.v.G.T Y Q Y U l.b f d A C 8 < @ @ % % @ @ + + + @ < , - ; ` ` } O.+.+.@.O._  .e a s s s s s s h s p f h S D A D S b z j.z l s S J H %.4.oX#X2X2X2X$X#X#X$X2X2X2X2X2X2X2X2X3X9XkX0XV.x.l.j.z a % # ",
"j.b S S S C * w { .X#X$X#X#X2X3X3X3X2X2X8X9XkXkXkXkXzXtXiXV.v.K.Y G G L E L b s 8 & * 0 @ + + + + > , 3 2 4 4 4  ._ ' ] *.;.1.1.2.2.2.1.;.-.O.%.$.e.e.e.t.k z l a p h Z C Z Z J b b b b a a f Z S H %.4.7.%X2X3X2X$X$X2X2X2X3X2X2X3X3X3X8X9XcX0XS.x.N b l a % # ",
"l l l v b v 8 2 *..X#X$X$X2X2X3X3X8X3X8X9XkXvXNXvXlXrXm.H.P.l.N S F G Y Q G C 8 + O @ % @ + + @ < 5 ..| ;.,.<.<.oXoX.X.XXXXXXX#X#X$X2X$X#XXXXXOXoXoX1.1.3.%.t.z l s s h s l b b l b J L a u a s N u.k t.g.m.4X8X3X2X2X2X2X2X2X2X2X3X8X9X8X9XcX0XV.N J S l a < + ",
"l l l z b v < 2 *..X#X2X2X3X3X3X8X8X8X9XkXvXNXvXlXrXm.v.R T b v S F G G G A * $ + + + > , 3 4 4  .O.>.2.XX#X2X2X2X2X$X$X$X2X2X2X2X2X2X2X$X$X$X$X$X#XXX.X1.>.%.y.t.t.t.k l l z z l h S S f a u j N N l s m h.-X&X2X2X2X3X3X3X3X3X3X8X9X9X9XjXvXqXN.I S S h a < + ",
"N N z b J S 8 3 ] .X$X2X2X3X8X9X8X8XjXkXvXvXvXlXsXA.Y.I.Q G h a Z D F A C * % @ + + + > : { ,.<.oX.X#X$X$X$X3X3X3X2X2X2X2X2X3X3X2X$XXX.X.X.X.X.X.X.X<.<.<.1.;.-.-.-.3.%.k l l s d d p f f f a a J I v l l u.g.9.oX$X2X3X3X3X3X3X8X9X8X9XjXcXNXeXH.S h h S f 8 + ",
"l.j.N U Y G p 2 -..X$X3X3X3X9X9X9X9XkXvXvXkXwX<X~.I.R Q Y S a a f C C d * % @ > > , 2 ` { <.#X2X2X2X3X3X2X2X3X8X3X3X3X3X3X3X3X3X$XXX,.,.,.,.=.=.=.=.=.=.=.,.=.=.,.,.1.>.@.X.t.j q 8 a p Z Z p s L L v v l l m i.3.2.$X3X3X3X3X3X9X9X9X9XjXvXBXxXW.P v l S C 8 < ",
"l.l.I Y Q Y f 6 -.XX$X3X3X8X9XjXjXkXNXNXkX7X!.E.T.T J h v v l s a a 8 % @ @ @ > : [ ,.oXXX#X$X3X3X8X8X8X3X3X8X8X3X3X3X8X8X3X2X$XXX<.,.*.*.*.] ' ' ) ) ) ' ' ' ] *.,.<.oXoX1.4...r a s s S Z s l b K L L b z l l x %.oX2X3X3X3X8X9X9X9X9XjXcXBXxXQ.Q v l S C a u ",
"l.N J L Y L f 6 ;.XX$X3X8X9X9XjXcXvXNXcX0X<XY./ ~ Y s u u a a a a < @ + > , 3 ` { <.#X2X2X2X3X3X8X8X8X8X8X8X8X8X3X3X8X8X8X3X$XXX.X,.*.] ] ] ' ' ) ) ) ) ) ) ' ] *.,.<.XX#XXX1.-.O.X.i j f S f l v b L L J b v h g e 4.XX$X3X8X8X9X9XjXjXjXcXBXxXQ.Q I h S f a p ",
"l.N b v h f d w ;.#X2X3X9XjXjXcXNXNXkX0XsXA.L.T ! Y h u < < < 8 8 % @ > - ( -.<.#X$X$X2X3X3X8X8X8X8X8X8X8X8X8X8X8X8X8X3X2X$X#X.X,.*.] ' ] *.*.] ] ] ] ] ] ] *.*.=.,.,.<.<.<.,.,.1.;.} X.j s d d f Z S F S S S S v z t.+.XX2X8X8X8X9XjXjXjXkXBXxXW.W P L v s d * ",
"N m z l j a % w ,.#X2X8XjXkXcXvXNXcX5X;X~.L.l.U T I l u < + + @ % % , ; ' =.XX2X3X8X2X2X3X8X8X8X8X8X8X8X8X8X8X8X8X8X8X3X$X#XXX<.=.] ] ] *.=.=.=.=.=.=.=.=.=.=.=.,.,.,.,.,.,.,.,..X.X=.{ o.k q 0 d f Z S F F S J b z s r 4.OX2X8X8X9XjXkXjXkXBXxXW.P Y L l a 8 & ",
"l z z z z l 8 2 ,.#X3X8XjXcXNXNXvXqX<Xh.J.Y Y L b b l a < + + @ @ , ` -..X$X2X3X8X8X3X3X3X3X9X9X8X8X8X8X9X9X8X8X8X8X8X3X$X.X,.=.] ] *.=.=.,.=.=.=.=.=.=.=.=.=.,.,.,.,.,.,.,.=.,.<..X.X<.1.+.r a a s l h G L J b z b h f t.5.OX3X8X9XjXkXkXcXBXxXC.U N b j u < @ ",
"b b b b b l < 2 ,.#X3X9XjXcXNXvXqX;Xh.N L G G G h a a u < + < < 3 ` =..X$X3X8X8X8X8X8X3X3X3X9X9X8X8X8X8X9X9X9X8X8X8X8X2X#X.X=.] ' ] =.,.,.<..X.XXXXXXXXXXXXX.X.X<.<.,.,.,.=.=.=.,..X.XXXXX<.+.$.z l l v J L b z b b S A h t.:.XX2X9XjXkXkXcXBXxXC.N N z a p @ + ",
"! T Y L S f 8 2 ,.#X3X9XjXcXvXlX-Xd.u.l s f S A d 8 @ + + < < 4 { <.#X2X2X3X9X9X9X9X3X3X3X8X8X8X9X9X8X8X8X9X9X9X8X3X2X2X$XXX=.] ] *.=.,.<.XX$X3X9X9X9X9XjX9X8X2X#XXX.X,.=.=.=.,.,.<.<.XX#X#XXX6.y.b l l v v l l h S D A A Z e } #X8XjXkXjXcXBXxXW.I m b h d % # ",
"/ ~ Q G S f % 2 ,.$X3XjXcXcXzXrXf.n l l u a f C * $ O + + 1 4 | oX$X8X8X8X8X9XjXjX9X3X3X8X8X8X9X9X9X9X8X8X9X9X9X8X3X$X#X#X.X=.] *.=.,..X#X3X8XjXcXvXvXvXvXcXkXjX8X2X#X.X,.=.,.,.,.,.<..XXX#X$X%X9.y.z l l l l h S D A S S Z y e 6.4XjXkXjXcXBXxXW.Y b b S C * $ ",
"/ ~ G S h f * w ;.$X8XcXNXbXrXm.g.N l l u a a p % $ + + < 4 ;.XX$X3X8X9X9X9X9X9XjX9X8X8X8X8X9X9X9X9X9X9X9X9X9X9X8X3X#XXX.X,.*.] =.,.<.#X9XcXcXcXcXvXvXvXvXcXcXcXcXkX9X2XXX<.,.,.,.,.,.,.<..X$X2X%X7.y.b l l l v S D D S b b s l g.m.0XkXkXcXBXxXC.I S S S C p < ",
"T.! S f h f * w ;.$XjXvXvXtXiXr.l.N v a a u u < $ $ @ 1 4 | XX2X3X3X9XjXjX9X9X9XjX9X8X8X8X8X9X9X9X9X9XjXjXjX9X9X9X3X#X.X<.=.*.*.=.<..X2XkXNXvXcXcXcXcXcXcXcXcXcXvXvXkX9X3X$X.X<.,.,.,.,.,.<.#X2X8X&Xw.d.z l l l h S S S b b l l N f.=X9XkXvXBXxXB.N J S S C a u ",
"L.K.v f f f % 2 ;.2XcXvXtXiXr.j.U L S d 8 < < < @ @ < 4 ;.XX$X3X3X8X9X9X9X9X9X9X9X9X8X8X8X8X9X9X9X9X9X9X9X9X9X9X9X8X#X.X<.,.=.*.=.<.XX3XkXvXcXkXjXjXjXjXjXjXjXkXcXvXcXcXcXjX2XXX<.,.,.,.,.,..X$X9X9X4X7.d.b l l b b v h S h l l l i.w.6XlXNXBXxXB.N N J S C 8 < ",
"b.z.z a S C 8 4 ,.3XcXbXpXV.k.N Y G D d % @ + + < 1 4 -.#X3X3X3X8X9X9XjXjXjXjXjXjX9X9X8X8X9X9XjXjXjX9XjXjXjXjX9XjX8X$XXX.X<.=.=.=.<.#X8XkXcXkXjXjXjX9X9X9X9XjXjXkXcXvXvXNXvXjX3XXX<.<.,.,.,.<.XX8XjXjX4Xw.d.z l z z b v S S h v h k %.0.8XvXBXxXB.N N N L A 8 @ ",
"z.l.z b L S p X.1.3XkXqXsXv.c.l.Y G F C * % @ @ < 4 1.#X3X8X8X8X9X9XjXkXkXjXjXjXjXjX9X9X9X9X9XjXjXjXjXjXjXjXjX9X9X8X2X#X.X<.,.=.,..X2XjXvXvXkXjXjXjXjX9X9XjXjXkXkXcXvXNXNXNXvXkX8X$X.X<.<.<.,..X2X9XjX9X4X7.y.b l b Y Y G G G G S f j @.%XkXNXxXB.m l b Y G d % ",
"U N N U J S f X.oX3X0X:XS._.K.U L G S f * % @ > 4 -.$X9XjXjX9X9X9XjXkXkXkXkXjXjXkXkXjX9X9XjXjXjXkXkXjXjXkXkXjXjXjX9X3X#X.X<.,.,.,.XX3XkXvXvXkXjXkXkXjXjXjXjXkXkXkXcXvXNXvXvXNXvXjX3XXX<.<.<.,.<.#X3X9XkXjX4Xw.d.k v Y Q Q G L G F C p t.6.5XvXmXZ.N M I T L d % ",
"Y L L I b v d #.%X5XsXS.v.L.T L F S f p 8 @ @ 3 ;.$X8XjXkXjX9X9X9XjXkXkXkXkXkXkXcXcXjX9X9XjXjXkXkXkXkXkXkXkXkXkXkXjX3X$X.X,.,.,.<.XX3XkXvXvXkXkXkXkXkXkXkXkXkXkXcXcXvXvXcXcXvXcXjX3X#X.X<.,.<.<..X#X8XkXkXjX5X-X$.l b U Y L v v S S s k g.iXbXzXZ.L.T Y I v p p ",
"Q Q Q Y U v y #.%X4XS._.L.K.T G A d 8 < @ > , } #X9XkXkXkXkXjXjXjXjXkXkXkXkXkXcXcXcXjXjX9XjXkXkXkXkXkXkXkXkXkXkXkXjX8X$X<.,.,.,.<.XX8XkXvXvXcXkXkXkXkXkXkXkXkXcXvXvXvXcXkXkXcXcXkX8X2XXX<.<.<.<.<.XX3XjXcXcXkX3X4.t.z b L S v l S S v l m B.qXxXS.I.R Y v s a p ",
"/ ~ ~ Q Y S y r XX&XN.J.R R U v d * + + + , _ <.8XcXcXcXkXkXkXkXkXkXcXcXkXkXcXcXkXkXkXjXjXjXkXcXkXkXcXcXkXkXcXcXkXjX8X$X<.,.<.<.<.#X8XcXvXvXcXkXcXcXkXkXkXkXcXvXvXvXvXcXcXcXcXcXkXjX8X2XXX.X.X<.<.XX2X9XkXvXcXjX%X4.t.h S S v l S S v l s %.&X6XQ.^ U b S C 0 * ",
"/ / Q Y L S d r 6.7.h.U T T K v 8 $ + + >  .,.$XjXvXvXcXcXkXkXkXkXkXcXcXcXcXcXcXcXkXkXkXjXjXcXcXcXcXcXcXcXkXcXcXcXjX8X$X.X,.<.<..X#X9XcXvXvXcXkXcXcXcXkXkXkXcXvXNXNXvXvXvXcXcXcXcXkX9X8X$XXX.X<.<..X#X3XkXvXvXcX9XOX@.j h h s s S S v s u X.7.0.Y.R N b h C * & ",
"/ ^ I b v h a j d.h.P.T U K J f 8 @ + > : -.$XjXcXvXvXvXvXcXkXkXkXkXcXcXcXcXcXcXcXcXkXkXkXkXcXcXcXcXcXcXcXcXkXcXcXkX8X$X.X<.<..X.X$X9XcXvXNXvXcXkXkXcXcXcXcXkXcXvXNXNXvXvXcXcXcXcXcXkX9X3X#X.X<.<..X.X$XkXNXBXNXkX5X6.%.k s a p C S h l u i d.h.U.K.m l l f 0 * ",
"^ T v l l l a v U I.^ R b v Z C % + + , [ .X9XcXvXvXNXNXvXcXkXkXkXkXcXvXvXcXvXvXvXcXkXkXkXcXcXcXcXcXcXcXvXcXcXcXcXkX8X$X.X<.<..X.X$X9XcXNXNXvXcXkXcXcXcXvXcXkXcXvXNXNXNXvXvXvXvXvXcXcXjX8X2XXX.X<.<.<.#XkXNXBXBXvX9X=X6.t.l l l h h l l p l l.c.b.c.m l l p 8 % ",
"J.U S h l l S L ! R U b l a d * # # + 4 2.3XkXvXvXNXBXBXvXcXkXkXkXcXvXvXvXvXvXvXvXcXkXkXcXcXcXcXcXcXcXcXcXcXcXcXvXkX9X2X.X,.<..X.X$X9XcXNXBXvXcXcXcXcXcXcXcXcXvXNXBXNXNXvXvXvXvXvXcXcXkXjX3X#X.X.X<.<.#XjXNXBXBXvXcXjX&X%.l m j.b b l s f J x.b.b.z.j.b h f 8 @ ",
"z.l.L S v b J Y T T U v a 8 % $ $ $ > } $XjXcXvXNXBXBXBXvXcXcXkXkXcXvXvXvXvXNXNXvXcXcXkXcXcXvXvXvXvXvXvXvXvXvXvXvXkX9X2X.X,.<..X.X$X9XcXBXBXvXcXcXvXvXvXvXcXvXvXBXBXBXNXvXvXNXNXvXvXvXcXkX9X$XXX.X.X.X#X9XvXBXBXvXvXvXqX5.t.j.l.j.z l s S S J.c.l.j.j.b S C 8 + ",
"b.L.T Y b z b N N U I S d % + O + ,  .1.8XcXcXvXNXBXBXNXNXvXcXcXcXcXvXvXvXNXNXNXNXvXcXcXkXcXvXNXNXvXvXvXvXvXvXcXvXkX9X2XXX<.<..X.X$X9XcXBXBXvXcXcXvXvXvXvXvXvXNXNXBXBXNXvXvXNXNXNXvXvXcXcXjX3X$XXX.X.X#X8XcXNXBXNXNXNXzX;Xn.u.z z z l v S S S J b z z b S C 8 + ",
"b.L.! Q U b z z b K Y F 0 $ + + + 3 :.%XjXcXvXvXBXBXBXNXNXvXvXcXcXcXvXvXNXNXNXNXNXNXvXcXkXcXvXNXNXvXvXvXNXNXvXvXvXcX9X2XXX<.<..X.X$X9XcXBXBXvXcXvXvXvXvXvXvXvXNXNXBXBXBXvXvXNXNXNXNXvXvXcXkX8X$XXXXXXX#X3XkXNXBXNXNXNXbXtX;Xy.l z z l h S A Z h l l b b S f 8 + ",
"z.J.Y Q Y J b b J L Y F 8 @ + + +  .OX9XkXcXvXNXBXBXBXBXvXvXvXcXcXcXvXNXNXNXNXNXNXvXcXkXcXcXNXNXvXvXcXvXNXNXvXvXvXcX9X2XXX<.<..X.X$X8XkXNXBXvXvXvXvXvXvXvXvXvXvXNXBXCXBXvXvXNXNXNXNXNXvXkX9X3X#XXX.X.X#X3XjXNXBXNXvXNXNXbXrXf.l l l l h S D h l z b J L v a < + ",
"U U L G E L b J L E G D 8 + + > , { 3XcXcXcXNXBXBXCXCXBXvXvXcXcXcXcXvXNXNXNXNXNXNXvXcXkXcXvXNXNXvXvXvXvXvXvXvXvXNXcX9X2XXX.X<..X.X#X3XkXNXBXNXvXNXNXvXvXNXNXvXvXBXCXCXBXvXvXNXNXNXNXNXvXjX8X2X#X.X.X.X#X2XjXNXBXvXvXvXNXBXlXm.u.l l z b J S v b z b L G J l 8 < ",
"Y L G F G G S S G G F C 8 + @ , _ <.8XcXvXNXBXBXBXCXCXBXNXvXvXcXcXvXvXNXNXNXNXNXNXvXvXcXcXvXNXNXNXNXNXvXvXvXvXvXvXcX9X2X#X.X.X.X.X#X3XjXNXBXNXNXNXNXvXvXNXNXNXNXBXBXCXBXNXNXNXNXNXNXNXvXjX3X2X#X.X.X.X#X2X9XNXBXvXvXNXNXBXbX;Xn.u.z l.c.N b L J b v S G Y L a 1 ",
"Y L F F G G F F G F C * @ + + 2 =.$X9XcXvXNXBXBXCXBXBXBXNXNXvXcXcXvXvXNXNXNXNXNXNXNXvXcXcXvXNXNXNXNXNXNXvXvXNXNXvXcX9X3X$XXX.X.X.X#X2XjXNXBXNXNXNXNXvXvXNXNXNXNXBXBXCXBXNXNXNXNXNXNXNXvX9X3X2X#X.X.X.X#X$X8XvXBXvXvXNXBXBXvXtX;Xe.n c.c.l.b J L v a f D G G p 1 ",
"U K S D F F D F F A V % O + + 4 oX8XkXvXNXNXBXBXBXBXBXBXNXNXvXcXcXvXNXNXNXNXNXNXNXNXvXcXcXvXNXNXNXNXNXNXNXNXNXNXNXcX9X3X$X#X.X.X.X#X2X9XvXBXNXNXNXNXNXNXNXNXvXvXBXBXBXBXNXNXNXNXNXNXNXvX9X3X2X$X.X.X.XXX$X8XvXBXvXvXNXBXBXNXbX&Xr.l N l.j.b b b j a 0 * C d 8 < ",
"l.N J S S S F F S f * $ + + > _ $XjXcXvXNXBXBXBXBXBXBXBXNXNXvXvXcXvXNXNXNXNXNXNXNXNXvXvXcXvXNXNXNXNXNXNXNXNXNXNXNXvX9X3X2X#XXX.XXX#X$X9XvXBXNXNXNXNXNXNXNXNXvXvXBXCXCXBXNXNXNXNXNXNXNXvXjX8X3X$XXX.X.XXX#X3XvXBXNXvXBXCXCXBXNXqX5.k z z z b b l l p d * 0 8 < < ",
"l.N b l b J L G v a 8 @ + > : -.3XcXvXNXBXBXBXBXBXBXBXBXNXNXNXvXvXvXNXBXNXNXBXBXNXNXNXvXvXvXNXBXNXNXNXNXNXNXNXNXNXvX9X3X3X$XXXXXXX#X$X9XvXBXNXNXNXNXNXNXNXNXNXNXBXCXZXCXBXNXNXNXBXBXNXvXjX9X8X2XXX.X.XXXXX2XvXBXNXNXBXCXBXCXBXzX7.%.k l N N J v v v Z Z v l a u ",
"U N N b v v G S v u < + + , _ <.9XvXNXBXBXBXBXCXCXCXCXBXNXNXNXNXvXvXBXBXBXBXBXBXNXNXNXNXvXvXNXBXNXNXNXNXNXNXNXNXNXvX9X8X3X2X#XXXXX#X$X9XNXCXBXNXNXNXNXNXNXNXNXBXBXCXZXZXBXNXNXBXBXBXNXvXkX9X8X2XXX.XXXXXXX3XvXCXBXNXBXBXBXCXCXcX=X3.t.l N U J J b v Z Z v l a u ",
"Y Y T Y f d A Z a u < + + 2 -.#XjXvXBXBXNXBXBXCXZXZXZXCXBXNXNXNXNXNXBXBXBXBXNXNXBXBXNXNXNXNXNXNXBXBXNXNXBXBXBXBXNXcX9X8X8X2X#XXXXXXX$X8XNXZXCXBXBXBXNXNXBXBXBXBXBXCXZXZXBXNXBXBXBXBXNXcXjX9X8X2X#X.XXXXX$X8XNXCXBXNXNXBXBXCXZXNX3X1.e.v L Y U N l a d 0 d d a u ",
"G G G A * & * d f a < < @ 4 <.3XkXNXBXBXBXBXCXCXZXZXZXZXBXNXNXNXNXBXBXBXCXBXNXBXCXCXNXNXNXNXNXBXBXBXBXBXBXBXBXBXBXvXjX8X8X3X#XXXXXXX#X8XNXZXCXCXCXBXBXBXBXBXBXCXCXCXZXZXBXBXBXBXBXNXvXkX9X8X2X$XXXXXXX#X2X9XBXZXBXNXNXBXBXCXZXBXjXOXd.v Y Y U b a 8 % $ # $ 8 p ",
"Q A # X o $ & * C f a < @  .OXjXcXNXBXCXCXZXZXZXCXCXZXZXCXBXNXNXBXBXBXBXBXBXBXBXZXCXBXNXNXNXBXBXBXBXBXBXBXBXBXBXBXNXjX9X9X8X#XXXXXXX#X8XNXZXZXZXCXBXBXBXBXBXBXCXZXZXZXZXCXBXCXBXNXvXkX9X3X$XXXXXXXXXXX#X2XjXBXZXCXBXBXBXBXCXZXCXNX5Xr.v Q Q L S d % + o   . $ * ",
"W A X   o + % d C f a < @  .&XcXNXBXBXCXZXZXZXZXCXCXZXZXCXBXBXBXBXBXBXCXCXCXCXCXZXCXBXNXNXBXCXCXCXCXCXCXCXCXCXBXCXNXkXjXjX8X$XXXXX#X#X8XNXZXZXZXCXCXCXCXCXCXCXCXZXZXZXZXBXNXNXNXcXkX9X3X$X#X.X.XXXXXXX#X8XkXCXZXCXBXBXCXCXCXZXZXCXqXN.M Q Q G C B & + O X # & * ",
"E D & # # % 8 p s a < @ + ..2XvXCXCXCXCXZXZXZXZXZXZXZXZXCXBXBXBXBXBXBXCXZXZXZXZXCXCXBXBXBXCXZXZXZXZXCXCXZXZXCXBXBXBXvXcXcXjX$XXX#X#XXX2XvXZXZXZXZXZXCXCXZXZXCXCXZXZXZXCXvXcXkXkXkX9X3X$X#XXXXXXX#X#XXX$XjXNXCXZXBXNXBXCXZXZXZXZXZXzXB.M Y E F A C * & * A A * & ",
"T L C * * 8 a a l s < < > } 8XBXZXZXCXCXZXZXZXZXAXAXZXZXCXBXBXBXBXBXCXCXZXZXZXZXCXCXCXBXBXCXZXZXZXZXCXCXZXZXCXCXCXBXNXvXvXkX$XXX#X#XXX2XcXCXZXZXZXZXCXCXCXCXNXNXBXBXCXNXcXjX8X8X8X3X$X#XXXXXXX#X$X$X#X3XcXCXZXZXBXBXBXCXZXZXZXZXZXbXw.b L G S S A C d f Y L C & ",
"L.K.L S d a u a S S p 1 - *.9XCXZXZXCXCXZXZXZXAXFXFXAXZXCXBXBXBXBXCXZXZXZXZXCXCXZXZXCXBXBXCXZXZXCXCXZXZXZXZXZXZXCXBXBXBXNXkX2XXXXX#X#X3XcXBXZXZXZXZXCXBXNXvXkXjXjXkXkXkXjX9X2X$X2X$XXX.XXXXX#X$X$X$X3XjXBXZXZXZXCXBXCXZXCXCXZXZXZXnX-X%.H L J b S C f s b h d & ",
"b.K.T L h a a h S S p 1 ; ,.kXCXZXZXCXCXZXZXZXAXGXGXAXZXCXCXCXCXCXCXZXZXZXZXCXCXZXZXCXBXBXCXZXZXCXCXZXZXZXZXZXZXCXCXCXBXNXkX$X.XXXXX#X3XcXBXCXZXCXCXBXvXcXjX8X3X3X3X5X5X3X2XXXXX#X#X.X.XXX#X#X$X$X3XjXvXCXZXZXZXCXCXZXZXCXCXZXZXZXvX*X&.H Y U b J h l l l f 0 & ",
"l.J.! Y v l S S h p % > ` 2.kXCXCXCXZXZXZXZXZXAXGXGXAXZXZXZXCXCXZXZXZXZXCXCXZXZXZXZXCXBXBXCXZXZXZXZXZXZXCXCXZXZXCXCXCXBXvX9X#X.X.XXXXX2XkXBXCXBXNXcXkXkXjX8X2X2X2X&X1X,XoX.X<.<.XXXXXXXX#X#X$X$X2X9XNXCXZXZXZXZXCXCXZXZXZXZXZXZXZXVXrXn.G.G L J b b z b h C * & ",
"l.J.T Y b b I J a < $ > ` oXkXCXCXCXZXZXAXAXZXAXGXGXAXZXAXAXCXCXZXZXZXZXCXCXZXZXAXAXCXCXCXCXZXZXAXAXZXCXBXNXBXBXNXNXNXvXcX8X#X<.oXXXXX2XkXvXNXvXjX8X8X3X2X$X#X#X#X@X>X0.2.<.1.<.XXXXXXXX#X2X5X8XjXcXCXZXAXAXZXZXCXCXZXZXZXZXZXZXZXVXrXB.G.G W Y b z z b J Z * % ",
"b.K.L S b j.l.N l < @ , _ oXkXCXZXZXZXAXFXFXAXAXGXGXAXAXFXFXAXZXCXCXZXAXFXFXAXAXFXFXAXZXZXZXZXAXFXFXVXvXcXkXjXjXjXjXjXjXjX8XXX2.>X>X#X2X9XkXkX9X2X#X#XXX.X.X<.2.>X>XoXXXXXXX0.>X#X#X>X>X#X5XMXSXBXCXZXAXFXFXAXZXZXZXCXCXZXZXZXZXZXVXyXZ.a.J Q Y b l l l b x 8 @ ",
"c.l.J J b j.l.m a 8 @ 3 | *XnXZXZXZXZXAXFXFXAXAXFXFXAXAXFXFXAXZXCXCXZXAXFXFXAXAXFXFXZXCXCXBXBXBXDXSXnXkX9X8X3X3X3X2X2X3X3X2XXX2.0.,X%X2X3X8X8X3X$XXX.X<.1.1.<.2.0.>X+XXX#X%X,X,X%X&X1X1X7XxXSXFXAXZXZXAXFXFXAXZXZXZXCXCXZXZXAXAXZXVXuXq.y.v T T N z l l b l 1 < ",
"m z b b l l z l d % @ 4 ,.5XSXFXAXZXZXZXAXAXFXFXAXAXFXFXAXAXZXZXZXZXZXZXAXAXFXFXAXZXBXvXkXjXjXkXzXzXkX9X2X$X$X$X#X#XXXXXXXXX2.2.+XXX#X$X2X2X2X2X$X#XXXoX0.>XXXXX>Xq.0.>X%X$X%X%X$X3X0XxXMXSXAXAXZXZXZXZXCXCXZXZXZXZXZXZXZXAXFXFXAXBXlX@Xy.l N J.l.j.m b v f a u ",
"v v b b l l l a 8 % 8  .oXqXSXFXAXZXZXZXZXAXFXFXAXAXFXFXAXZXZXZXZXZXZXZXZXCXDXDXCXBXvXjX8X3X3X3X3X3X3X2XXXoX#X#XXX.X.X.X.X2.2.2.XX#X$X$X%X%X$X$X$X#X#XXX>X,X%X%X,X,X,X1X4X3X3X8XqXlXcXVXDXFXAXZXZXZXZXZXCXCXZXZXZXZXZXZXZXAXFXFXAXBXkX&Xf.N l.l.l.J.N J S C a u ",
"G S S v b z z l 8 8 a d.OX9XVXAXZXZXZXZXZXZXAXAXFXFXAXAXZXZXCXCXCXCXZXZXBXvXbXzXcXkXjX8X$X#X$X$X#XXX.XoX2.2.XXXXXXXXXX.X.X.XoXXX#X$X$X%X,X,X%X#X#X#X#X#X%X%X$X$X&X4X5X8XjXkXcXnXSXSXCXCXAXAXZXZXZXZXCXCXFXFXAXZXCXCXZXZXZXZXAXAXZXCXcX4XV.b.b.K.T Y L L F C 8 < ",
"T Y F S v b b z u u l d.;X9XBXZXZXZXZXZXZXZXZXAXFXFXAXAXZXZXCXBXBXCXCXBXvXkX9X8X8X3X2X$XXXXX#X#X.X<.<.<.2.+XXXXXXXXXXXXXXXXXXX#X#X$X$X%X,X,X&X$X$X$X2X3X3X3X3X8XqXlXkXcXvXNXCXZXFXFXAXZXZXZXZXZXZXCXCXCXFXFXAXZXCXCXZXZXZXZXZXZXZXBXzXrXD.`.(.L.Y G G G F C 8 + ",
"L.K.S A S J b z l l z g.m.rXVXZXCXCXZXZXCXCXZXZXAXAXFXFXCXCXCXCXCXBXNXvXjX8X3X2X$XXX<.,.,.<.XXXXXX.X.X.XXX#X#X#XXXXXXXXXXXXX#X#X#X#X$X$X%X&X2X3X3X8X9XjXkXcXvXnXSXSXBXCXCXZXZXZXAXAXZXZXCXCXZXZXCXCXBXCXCXCXZXZXCXBXCXCXZXZXZXZXZXVXtXpXA.`._.K.L D F F D C 8 + ",
"(.K.L A D S b z l l l i.m.rXvXZXCXCXZXZXCXCXZXAXZXAXFXFXCXBXBXNXNXvXcXjX3X$X#XXXXX.X,.,.,.<..XXXXXXXXXXX#X$X$X$X#X#X#X$X$X2X2X2X#XXX#X$X$X3X9XkXkXcXcXvXNXBXCXCXFXFXAXZXZXZXZXZXZXZXZXZXCXCXZXZXCXCXCXBXBXCXZXZXCXBXBXCXZXZXZXZXZXVXhXaX|.'._.K.L A A D F C 8 + ",
"(.K.L A A S b z l u < 6 n.rXbXCXZXZXCXCXZXAXFXFXAXZXAXZXCXBXNXcXkXjXjX8X#X<.<.<..XXX.X.X.X.XXXXX#X#XXXXX#X$X2X2X2X3X3X8X9XjXjX8X#XXX#X$X3X9XvXCXCXCXCXCXZXZXZXZXAXAXZXZXCXCXZXZXCXCXZXZXCXCXZXZXZXZXCXBXBXCXZXZXCXBXBXCXCXCXZXZXZXVXhXaX].{.L.l.J A A F G S 8 + ",
"L.K.L F F S b z l u @ 5 5.:XzXBXZXZXCXCXZXAXFXFXAXZXZXZXCXBXvXjX8X3X3X2X.X,.,.<..XXXXXXXXXXX#X#X$X2X$X2X3X8X9XjXjXkXkXcXvXvXcX9X$XXX#X$X3XjXBXZXZXZXZXZXZXZXZXZXZXZXZXZXCXCXZXZXCXCXZXZXCXCXZXZXZXZXCXBXBXCXZXZXCXBXBXBXBXCXZXZXZXVXhXgXY.^ J.N v Z A F G Z 8 + ",
"T Y L G G L b z l u < 3 +.@XzXBXCXCXCXCXCXCXAXAXCXCXZXZXCXNXcX9X$X#XXX.X<.,..X.XXXXXXXXX#X$X$X2X3X9XjXkXcXvXNXBXBXBXCXCXCXBXvX9X2X#X#X#X2XjXBXZXZXCXCXCXCXCXCXCXZXZXCXCXBXCXZXZXCXBXCXCXZXZXCXCXCXCXBXNXBXCXCXCXBXBXBXBXBXCXZXZXZXVXyXZ.z.M z l l h S D f a < + ",
"E E Q Q G S v b v p < , ..-XlXBXBXBXBXBXBXCXZXZXCXCXZXZXBXvXkX8X#X.X.X<.<.<..XXXXX#X#X$X3X8X9XjXkXcXvXNXCXZXZXZXZXZXZXZXZXBXcX9X2X#XXXXX$X9XBXZXCXBXBXBXBXBXBXCXZXZXCXBXBXCXZXZXCXBXBXCXZXZXCXBXBXBXNXNXBXBXBXBXNXNXBXBXBXCXZXZXZXVXfX!.a.v l l l h S f a u < + ",
"G Q Q Q A C C Z S d 8 < k w.lXBXBXBXBXBXBXCXCXCXZXZXCXBXNXcXjX3X#X.X.X<..X.XXXXX#X$X8XjXcXvXNXBXCXCXCXZXZXZXCXCXBXBXBXBXNXvXjX3X$XXXXXXX#X8XBXZXCXBXBXBXCXBXNXBXZXZXCXBXBXCXCXCXCXBXBXCXCXCXCXBXBXBXNXNXNXBXBXBXNXNXBXBXBXCXZXZXZXnXfX~.T.T b l h S h l a u < + ",
"Y L G A * % * C A C 8 < l N.0XNXBXBXNXNXBXBXBXCXZXZXCXNXcXjX8X$XXX.X<..XXXXX#X$X3X9XkXvXBXCXZXZXZXZXZXZXZXCXBXBXNXNXNXvXcXjX9X2X#X.XXXXX#X8XNXZXCXBXBXBXBXBXNXBXCXZXCXCXBXBXBXBXBXBXBXBXBXBXBXBXBXBXNXNXNXNXBXBXNXNXBXBXBXCXZXZXZXMXgX].T.! I h S f s a a 8 8 @ ",
"J.v $ X o + & B A C 8 < l N.4XcXNXNXNXNXBXCXBXCXCXCXCXNXkX8X$XXX,.,.<..X.X#X2X8XkXvXvXNXNXBXCXCXBXBXBXBXBXBXNXNXNXNXNXvXjX9X8X2XXX.XXXXX#X8XvXCXCXBXBXNXNXNXNXNXBXCXZXCXBXNXNXBXBXBXBXNXNXNXNXNXNXNXvXvXNXNXBXBXvXvXBXCXBXCXCXCXZXMXgX'.T.~ Y S f a d 0 0 * % % ",
"l.l O   o + % d Z f 8 8 l f.&XjXvXNXNXNXBXBXBXBXBXCXCXNXjX2XXX<.,.,.<..XXX$X8XkXNXBXNXNXNXNXBXBXNXNXNXNXNXNXNXNXNXNXNXcXjX9X9X3X#X.XXXXX#X3XvXCXCXBXNXNXNXNXNXNXBXCXZXCXBXNXNXNXBXBXNXNXNXNXNXNXNXNXvXvXNXNXBXNXvXvXBXCXBXBXBXBXBXmXgX'.T.~ W S f 8 % # # # & * ",
"l.z % # # % 8 a s f 8 8 l d.OX8XcXNXNXNXNXBXBXBXBXCXZXBXjX2X.X,.,.<..XXX$X3XcXNXBXBXNXNXNXNXNXNXNXNXNXNXNXNXNXNXNXNXvXcXkXjXkX9X$X.XXXXXXX2XvXCXCXBXNXNXNXNXNXNXBXCXCXBXNXNXNXNXNXNXNXNXBXBXNXNXNXNXNXNXNXNXNXNXvXvXBXCXBXBXCXBXcXwXF.'.T.Q G C 0 % + o   X & C ",
"z.N f * * d f a l a * d v d.2.2XcXNXNXNXNXNXBXCXBXCXZXBXjX2X<.,.<..XXX#X3XjXNXCXCXBXNXvXNXNXNXNXNXNXNXNXNXNXNXNXNXvXvXcXcXcXvXjX$XXXXXXXXX2XcXBXCXBXNXNXNXNXNXNXBXBXBXBXNXNXNXNXNXNXNXNXBXBXNXNXNXNXNXNXNXNXNXvXvXvXNXBXBXCXCXNXlX:XS.'.{./ G d * & $ O X # * d ",
"b.J.S C C A G S a a * 0 v i.9.=XkXNXvXvXNXNXBXCXBXCXCXNXjX2X<.=.<..X.X$X9XcXBXCXCXBXvXvXvXvXNXNXNXNXvXvXNXNXNXNXvXvXvXvXcXcXvXjX#X.XXXXXXX2XkXBXBXBXvXvXNXNXvXvXBXCXBXBXNXNXNXNXNXNXNXNXNXNXNXNXNXNXvXvXvXvXNXNXvXvXNXBXBXCXCXnXuXdX/.].{.T.U v d * & * A D 8 8 ",
"b.l.J S F G L L s p 8 p j t.&.>XqXvXvXvXNXNXBXBXBXBXBXvXjX$X,.*.,..X.X$XjXNXBXBXBXBXvXcXcXvXNXNXNXvXvXvXvXNXNXNXvXvXvXvXvXvXcX9X#X<..XXXXX2XkXNXBXBXvXvXvXvXvXvXBXCXCXBXNXNXNXNXNXNXNXNXNXNXNXNXNXNXvXcXvXvXNXNXvXvXNXNXBXBXCXnXfX^.Y.'.{.T.J.b Z C d Z Y G 8 + ",
"l.l.b b G L K b S f s a 1 a k 9.5XcXvXNXNXNXNXBXBXBXBXvXjX$X=.] ,..X.X2XkXNXBXBXBXNXvXcXcXvXNXNXvXvXvXvXvXvXNXNXvXcXvXvXNXvXkX8XXX,.<..X.X2XkXNXNXNXNXvXvXvXvXNXBXCXCXBXvXvXNXNXNXNXNXNXNXNXNXNXNXNXvXvXvXNXNXNXNXNXNXNXNXBXCXbXsXY.T.T.P.K.j.b S Z v v G D 8 + ",
"l.l.N K Y Y N b S S h a 8 8 l f.:XjXvXNXNXNXNXNXBXBXBXvXjX$X*.] ,..X.X2XkXBXBXBXNXvXcXcXcXvXvXvXvXvXvXvXvXvXvXvXvXcXcXvXNXvXkX3X.X,.<..X.X2XkXNXNXNXNXvXvXvXvXNXBXBXBXBXvXvXNXNXNXNXNXNXNXNXNXNXNXNXvXvXvXNXNXNXNXNXNXNXNXNXNXxXF._.I.T l.l.j.b S S b b S C 8 < ",
"b.K.U Y Q T N b S A S f * 8 l d.m.rXbXNXNXNXNXNXBXCXBXNXjX$X=.] ,..X.X2XkXBXBXBXNXvXcXcXcXvXvXvXNXvXvXvXvXvXvXvXvXcXcXvXNXvXjX2XXX<.<..X.X$XjXvXNXNXvXvXvXvXvXNXBXBXBXNXNXNXNXNXNXNXNXNXNXNXNXNXNXNXvXvXvXvXNXNXNXNXNXNXBXNXkX7XD._.K.l.j.j.u.N Y Y b l S C a u ",
"_.L.U Y Y T U b J S F A d d v i.n.;XzXNXNXNXNXNXBXBXBXNXjX$X,.*.,.<..X2XkXNXBXBXNXvXcXkXcXcXvXvXvXvXvXvXvXvXvXvXvXcXcXvXvXcX9X2XXX<.<..X.X$XjXvXNXNXvXvXvXvXvXvXBXBXNXNXNXNXNXNXNXNXNXNXNXNXNXNXNXvXcXcXcXvXNXNXNXNXNXBXCXvX0X<XA._.J.N b z u.N T Q I v S f p p ",
"_.c.l.b b b L J b J L G h l z u.i.m.qXNXNXNXNXNXNXNXNXvXjX$X,.*.,.<..X$XjXNXBXBXNXvXcXcXkXcXvXvXvXvXvXvXvXvXvXvXvXcXcXvXvXcX9X2XXX<.<..X.X$X9XcXvXNXvXvXvXvXcXvXBXBXNXNXvXvXNXNXvXvXvXvXNXNXvXvXvXcXcXkXcXvXBXBXvXvXBXCXCXnXfX/.|.U.T J b u.u.N Y Q Q Y h p 8 * ",
"c.z.j.z l v L L b b L G v l v b N N.5XcXvXNXNXNXNXNXNXvXjX2X<.=.=.<..X$XjXvXBXBXvXcXcXcXkXcXvXvXvXcXcXvXcXvXvXvXvXcXcXcXcXkX9X2XXX<.<..X.X$X9XcXvXNXvXcXcXcXcXvXNXBXNXNXvXvXvXvXvXcXcXvXvXvXvXcXcXcXkXkXcXvXBXNXvXvXNXBXBXmXgX|.`.U.T L J b b b L Y T Y l a 8 & ",
"m z z l l l v b z b L G S Z Z h b f.%X9XcXvXvXvXNXNXNXvXjX2X<.=.,.<..X$X9XcXNXNXvXcXcXkXkXkXcXvXvXcXcXvXcXcXcXcXcXcXcXcXcXkX9X2XXX<.<..X.X$X8XkXvXNXvXcXcXcXcXvXNXNXNXNXvXvXvXvXvXcXcXvXvXvXvXcXcXcXkXcXvXNXNXNXvXvXNXNXkX7XF.`.b.L.Y G S S S S v b N b l a < @ ",
"v v v v v v l l z b J L F A C f l y.6.&XjXcXcXvXNXNXNXcX9X2X.X,.,.,..X#X8XkXvXvXvXcXkXkXkXkXcXcXcXcXcXcXcXcXkXkXcXcXkXkXcXkX9X2XXX<.<.<..X#X3XjXvXNXvXcXcXcXcXvXvXNXNXvXvXcXcXcXcXcXcXcXcXcXcXcXcXcXkXkXvXNXNXvXcXcXvXcX0X<X~.L.K.U L G F A C f h l z z l a 8 @ ",
"G G L L L J l l l l b J S S h a 8 9 y.w.0XcXcXvXNXNXNXcX9X$X.X<.,.,.<.XX2X9XcXvXNXvXkXjXkXkXkXcXcXcXcXkXkXkXcXcXkXkXkXkXkXkX9X3X#X.X<.<..X#X3XjXvXvXcXkXkXcXcXvXvXvXNXvXcXcXcXcXvXcXcXcXcXcXcXcXcXcXjXjXcXvXNXvXcXcXvXxXfX~.P.^ T L G F D C f f Z S b b J C * % ",
"E E E Y L L h a a l z b J h l a < 8 b f.=XjXcXvXvXNXNXcX8X$XXX<.,.,.<..X#X3XkXvXNXvXkXjXjXkXkXkXcXcXkXkXkXkXcXcXkXkXkXkXkXjX8X2X#X.X<.,..X#X2X9XvXvXcXkXkXkXcXcXcXvXvXvXcXkXcXcXcXcXcXkXcXcXkXkXcXkXjXjXcXvXvXvXcXcXzXyX/.].T.Q E G F A C d p a f J b J S C * % ",
"E E E Y U v d 8 9 j z N b l l l u a z g.q.6XjXvXvXvXNXcX8X$XXX.X,.,.<..X.X$XjXvXvXcXkXjXjXjXkXkXkXkXkXkXkXkXkXkXkXkXkXkXkXjX8X2X#X.X<.,.<.XX$X9XcXvXcXkXkXkXkXcXcXvXvXcXkXkXkXkXkXcXcXcXkXkXkXkXkXkXkXkXcXvXvXvXvXbXuXdX/.'.T E G F F C 8 < < 8 v U I G F C 8 @ ",
"T Y L L b v d 8 5 r a.U l l l s p a v a.f.>XqXcXcXvXvXcX8X2X$XXX<.,.<.<.<.#X9XcXcXcXkXjX9X9XjXkXkXkXkXkXkXkXkXkXkXkXkXkXkXjX8X2X#X.X<.,.<.XX$X8XcXvXcXkXkXkXkXkXcXvXvXcXkXkXkXkXkXkXcXcXkXkXkXkXkXkXkXkXcXcXvXvXNXzXfX^.~.L.T G S S S f 8 > , 5 z l.U L F C 8 + ",
"L.J.v h L L f 5 ..%.G.T b l a p f Z Z v a.B.4XjXcXcXcXkX9X3X2X#X.X<.<.<.<.XX2X9XcXcXkX9X8X9XjXkXjXjXkXkXjXjXkXkXjXjXjXjXjX9X3X2X#X.X<.,.<.XX$X8XkXcXcXkXjXjXkXkXcXvXvXcXkXkXkXkXkXkXjXjXkXkXjXjXkXkXkXkXkXcXvXvXvXeXgX~.b.J.Y G h l v f % 7 #.O.i.l.l.U S C 8 + ",
"b.z.k a S S p 6 -.3.G.Y v l a p Z D A C h y.7.5XjXcXkXjX9X8X3X$XXX.X<.<.<..X#X3XkXcXjX9X8X9XjXjXjXjXjXjXjXjXjXjXjX9X9X9X9X9X3X$XXX.X,.,.<..X$X8XkXcXkXjXjXjXjXkXcXcXcXcXkXkXkXkXkXjXjXjXjXjXjXjXkXkXkXkXkXcXvXcXlX:X~.'.K.U I L v l s a 8 w >.6.g.j.j.b S C 8 @ ",
"z.l.z v S C 8 4 ,.2.$.v l l l s S D A A d f y.w.5XkXkXkXjX9X3X$X#X.X<.,.,.<..X$X9XkXjX9X9X9XjXjXjXjXjXjX9X9XjXjXjX9X9X9X9X9X2X#XXX<.,.,.,..X$X8XkXcXjXjXjX9X9X9XkXkXkXkXjXjXjXjXjXjXjXjXjXjX9XjXkXkXjXjXkXkXcXlXfX/.}.T.T I U b S f 8 < < ..%X=XN.N z b S C * % ",
"U N b b J f % 4 <.XX3.X.k l l h S D S f 0 d b f.*X8XjXkXjX9X3X2X#XXX<.,.,.,.,.XX3X9XjX9X9X9X9X9XjXjX9X9X9X9X9X9X9X9X8X9X9X8X2X#X.X<.,.,.,.<.$X8XkXcXjX9X9X9X8X9XjXkXkXkXjX9X9X9X9XjXjXjXjX9XjXjXkXkXjXjXkXkXlXyXF.[.{./ Y J b v Z d % > 3 -.8X0XV.N v h S C * % ",
"Y L S J b v 0 w 1.XXoX4.y.b S D A S h s p a l i.4.%X8XjXjX9X3X2X$XXX<.,.,.,.,.<.#X2X9X9X9X9X9X9XjXjX9X9X9X9XjX9X9X8X9X9X9X8X2X#X.X<.,.,.,.<.$X8XjXkXjX9X8X8X9X9XkXkXkXkXjX9X9X9X9XjXjXjX9XjXjXkXkXkXjXjXkXlX6XdX/.].{.^ I l j a d & + = ( <.jXmXZ.J.J S h a 8 @ ",
"E G F S b v d w ;.#X#XoX@.c J S A S v l a s v p.%.6.=X8X9X9X3X2X$X#X.X,.,.,.,.,.<.XX2X8X3X8X8X9X9X9X9X9X9X9X9X9X8X8X9X9X9X8X2X#X.X<.,.,.,..X$X8XjXkXjX9X8X8X9XjXkXkXkXkX9X9X9X9X9XjXjXjX9XjXkXkXkXkXjXjXqX7XdX^.~.{.^ Q b l a p % # + - ] #XkXxXS.I.L S h p 8 @ ",
"E G G G S C * w ;.#X$XXX:.o.k b S S l l S S Z x a.f.q.*X3X8X8X3X2X#XXX.X,.,.,.,.,.<.XX#X$X2X3X3X3X3X8X9X9X9X9X8X8X8X8X8X8X8X2X#X<.,.=.=.,..X$X8XjXkXjX9X8X8X9XjXkXkXkXjX9X8X9X9X9XjXjXjXjXjXkXkXkXkXkXqXyXdXS.Y.}.T.Q Y b z j 8 % $ @ 4 ,.3XcXeXQ.^ U b S C * % ",
"E G G S S C * w ;.#X2X$X<.-.y.b S h l b L G A C b u.f.q.*X3X8X3X2X$X#XXX<.,.,.,.,.,.,.<.XX#X$X2X2X3X8X8X9X9X9X8X8X8X8X8X3X3X2X#X<.=.=.=.<.XX$X8XjXkXjX9X8X8X9X9XjXkXkXjX9X8X9X9X9XjXkXkXjXjXjXkXkXkXlX7XdX^.~.'.{.^ Y L b v a < $ @ 4 | XX8XvXeXQ.R N b h C * * ",
"E G h a s p 8 4 ;.#X2X2X2XoX%.l l l l l b J D C v z u.f.q.@X2X3X2X2X2X$XXX<.=.=.,.=.*.=.,..XXX$X3X8X8X8X8X9X9X9X8X8X8X3X2X2X$XXX=.*.=.,.<.XX$X8XjXjX9X8X8X8X8X9X9XjXkXjX9X8X9X9X9XjXkXkXkXjXjXjXcXzXyXdX^.~.}.{.I.N b v S f 8 @ @ 3 -.OX2X9XvXxXS.L.l.z l f 0 * ",
"Y L h s l s 8 4 ;.#X2X3X8X&X4.X.l v l l z b J S v v b a.&.6.@X$X2X3X3X3X2XXX,.=.,.=.*.*.=.,..X#X2X3X3X3X3X3X3X3X3X3X3X2X$X#X#X.X*.] =.,.<.XX2X9XkXkX9X8X8X8X8X9X9XjXjXjX9X8X9XjX9XjXkXkXkXkXjXjXlXwXfX^.~.'.{.T.N z l h f d % > , _ .X3X8XjXvXmXS.c.j.z l p 8 % ",
"U U L J b l 8 w ;.#X2X3X9X8X#X4.G.S v l l l b b L G S J a.d.4.oX#X3X9XjX9X2X.X,.,.=.*.*.*.=.<.XX$X2X2X$X$X#X#XXXXXXX#X#X#XXX.X,.] ] =.<..X$X9XkXcXkX9X8X8X8X9X9X9XjXjX9X8X9XjXjXjXjXkXkXkXkXkXqXyXdX^.~.|._.K.N z l h f 8 % @ , ` =.#X3X9XkXNXmXS.c.m l h f 8 @ ",
"z.J.Y Y N l d w ;.#X2X3X9X9X3XOX&.H v l l l b b J G F S v a.%.4.2.%X8XjXjX8X$X.X<.,.=.*.*.=.,.<.XXXXXXXX.X<.<.<.<.<..X.X.X<.,.*.] ] =.<..X2XjXvXcXkX9X8X8X8X9X9XjXjXjX9X9X9XjXjXjXjXkXkXkXjXqXyXdX!.~.`._.b.l.z l s C d % + > ; ] .X$X8XjXcXNXxXS.c.m h S C 8 + ",
"b.L.^ T N z a 6 ;.XX$X3X8X8X8X$X2.+.t.m z b J J b J S A C x a.i.d.w.&X9XjX9X3X$X.X,.=.*.*.=.=.=.,.,.,.,.,.,.,.<.<.<.,.=.,.=.*.*.*.*.=.<.XX2XkXvXcXkX9X8X8X8X3X8XjXkXkXjX9X9XjXjX9XjXkXkXkXqXfX/./.~.b.c.z.l.j.z j a d * % > - ) ,.XX2X8X9XkXvXxXD.c.m s S C 8 + ",
"b.K.T Y U b a 6 ;.XX$X3X8X8X8X3X#X1.%.a.b b S S b b S A Z h b N U s.8.%X4X8X9X8X$XXX<.=.*.*.=.=.*.*.*.*.*.=.=.,.,.,.=.*.*.*.] ] *.=.,..X$X8XkXcXkX9X8X8X8X3X3X8XjXkXkXkXjXjXjXjXjXjXqXqX0X:XD.`.`.b.c.z.j.b b v a p % % > - ( *..X$X3X8X9XkXNXxXF.x.n h S f 8 + ",
"z.l.L G L J a X.;.XX#X2X3X8X3X3X2XOX>.$.x S A S b b S S v v S S Y J.s.9.7.*X8XjXjX8X#X<.=.*.=.=.=.*.*.*.*.*.=.=.*.*.] ] ] ] *.*.*.=.<.#X3X9XcXkX9X3X8X8X3X3X3X8X9XjXkXkXjXjXjXjXjXqXrXpXsXS.v.c.c.z.z.z.j.b J S Z d % > - ( *.<.XX$X3X8X9XkXNXmXF.K.J S b l < + ",
"U K S F G G f 6 ;.XX#X2X3X3X3X3X3X$XoX:.$.H S J b b J J b b J G Q T M a.&.q.*X5XjXjX3X#X.X<.<.,.=.*.*.*.=.=.*.*.] ] ] ] ] *.*.=.=.<.XX2X9XkXcXkX8X3X8X8X3X3X8X8X9XjXjXjXjXjXkXjX0XrXpXM.|.'.c.l.j.j.l.l.j.b h C C 0 > - ( ] <.XX$X2X3X8X9XkXNXxXF.K.L S J v 9 < ",
"Y L F F G F d w -.XX#X$X2X3X3X3X3X2X$XXX:.$.a.b l l z b J J b J Y G h j a.i.f.w.&X8X8X8X2X$XXX<.,.=.*.=.=.=.=.*.*.*.*.*.*.*.=.,.<.XX2X9XkXcXkX9X8X8X8X8X8X8X8X9XjXjXjXjXjXjXjX0XfXF.A.|.}.{.J.z z l z z j.b l p & $ = ( *.<.XX$X3X3X3X3X8XjXcXeXS.L.Y G L J p u ",
"E G F F L S y w -..X#X$X2X3X3X3X3X3X3X$XoX4.f.t.a a l b L L b b L S s l z N U s.6.OX&X4X5X2X$X#XXX.X<.<.<.<.,.,.,.=.=.=.,.,.<.XX$X3X9XkXkXkXjX9X8X8X8X8X8X8X8X9XkXzXqX0X7X7X7X1XD.`._.'.{.^ U z z l l l b v a < + = ( *.<.XX#X2X3X3X3X3X3X9XcXeXS.L.T E E S a u ",
"E E G L K v 8 3 ] .X#X$X2X3X3X3X3X3X3X2X$XOX1.O.7 t a v G L N b S S v z z N T T s.f.f.B.;X:X3X8X9X8X2X$X$X#X#XXX.X.X.X.XXX#X$X3XjXkXkXkXjXjX9X8X8X8X8X8X8X8X9XjXkXlXrXpXsXF.F.S.`._.I.! / ^ U z z z l s f 0 8 > - ( *.<.XX#X$X$X2X3X3X8X8X9XcXeXS.L.T E E S a u ",
"T Y Y I b l < 3 ] <.XX$X2X2X2X2X2X2X2X2X3X2XXX;.#.7 9 p S L b v v J b z z N T T N N N i.n.iX:X5X8XqX8X8X8X8X3X2X2X$X$X$X2X3X8XjXvXvXkXjX9X9X8X8X8X8X8X8X3X3X0X0X0XrXpXM.).|.].'.'.I.Y G Q Y b z z z l p % % > - ( ] ,.XX#X$X$X$X2X3X8X8X8X9XcXwXS.I.Y G G S a u ",
"L.K.N b N l < 3 ] <.XX#X$X$X$X$X$X$X$X2X2X2X2XXX,.} 6 a s v j l z b l l l z N N N m N u.i.g.f.9.>X*X4X8XjXjXjXjX9X9X9X9XjXjXjXkXcXkXjX9X8X8X9X9X8X3X8X8X2X&X1X<XF.D.A.).|.].}.{.T.! G F F S v z m l 8 % % >  .[ *.,..XXX#X$X$X$X$X2X3X8X3X8XcXwXQ.~ G F F C 8 < ",
"b.c.l.z z l < 3 ] <.XX#X$X$X$X$X$X$X$X$X2X3X3X2X#X<.{ X.6 j a p v b l l l l b b z b b b N U U G.h.w.-X%X4X5X5X0X0XqXqXqX8X9X9X9X9X9X9X8X5X5X0X7X6X=X:X=X*X,XZ.^.|.[.].'.'.'.}.{.! W F A A C p j l a % @ , ; { ;.,..XXX#X$X$X$X$X$X2X3X3X3X8XkXwXH.W G A D C 8 + ",
"z.l.j.z z j < 3 ] <.#X$X$X$X2X2X2X2X$X$X2X3X8X3X2X#XXX1.} 4 8 y Z J b z z b J J b b J L Q ^ ! T a.i.d.f.f.N.V.Z.>X,X@X@X@X@X#X$X2X3X3X5X:XpX1XfXgXF.D.S.S.A.~.|.|.[.{.T.T.{.}.{.Y F F A C * 8 < < < < 3 _ -.,..X.XXX#X$X$X$X2X2X2X2X3X3X3X9XkX7XH.W D A D C 8 + ",
"j.j.b b v p < 2 ] <.XX$X$X$X2X2X2X2X$X$X2X3X3X3X3X3X2X#X,.{ w q d f v z b v S S b b S G Q ~ ~ T N m N U N N l.s.h.9.9.9.9.9.6.2.+X@X*X;XiXF.Z.!.~.]._.U.U.U._.`.[.}.^ Q Q ^ P.P.S C C C 0 % @ + > , 4 _ *.<.XX#XXX#X$X$X$X$X2X2X2X2X3X3X8X9XjX6XH.G D S S f 8 < ",
"j.N J S S f p 6 { <.XX#X$X2X$X$X2X2X$X$X2X2X3X3X3X8X8X2X#X<.|  .5 a a a f f h h S S h h S E Q T b b T ! Y I l.l.G.G.p.t.i.y.y.d.C.S.S.A.Y.P.s.s.I.T J.l.N N l.K.I.! G G G G L S C * * 0 p 8 @ > : _ { =.<.XX#X#X#X#X$X$X$X$X2X2X$X2X3X8X8X9XjX=XH.G D S K b a u ",
"l.N S A S h p X.;..X#X$X3X3X2X2X3X8X3X3X8X8X8X9X9XjXjX9X3X$X.X;.{ o.6 e f f l l h h s l h G Q Y b b ! Q Y U l.N L S s l z N j.l.U.`._.P.R Y N b J J b z l z z N L G F A F F F A V * & 8 5 6 4 ` -.,..XXX#X$X2X2X2X2X2X2X3X3X8X8X3X3X8X9XjXjXkX6XH.G D S N z j u ",
"b.J.L S v b l e.1.$X2X8X9X9X9X9XjXkXkXkXjXjXkXcXvXvXcXkXjX8X3X2X$X.X>...r j l l l s a j l J Y Y b b Y Y U b z l s p a l z l.l.z.c.K.T T U N l l a a a l z N z b L G F F G G G F A d % ,  .{ ,.XX$X2X2X3X8X8X9X9X9X9X9X9XkXkXkXjXkXkXkXkXcXvXvX7XH.G D S b z j u ",
"(.K.L S b b l t.4.OX%X&X&X4X4X7X4X7X7X7X7X5X0XeXeXeX0X5X4X4X6X6X=X@X4.%.c v z z l l a l z b L L J b S S b z l l l j a l b l.z.z.l.l.I J b z z l a a p a z b b v L G S S G Y Y L S f 8 1 ..4.-X*X*X*X*X=X4X4X6X6X6X4X4X4X0X0X5X4X7X7X5X5XwXeXqX1XH.Y F S b k j u ",
"(.K.Y G S h l l c $.d.f.r.f.S.S.H.H.H.H.C.V.V.C.Q.Q.f.f.N.C.H.H.H.H.s.p.H J l.l.m b L J b b L G S C C d a a a l z m l l z l.z.z.m z b b b z z v f d 0 8 a v J G G L J J L Y K b b v f f a.h.A.A.H.H.H.H.N.C.Q.Q.C.V.V.V.V.V.N.f.H.H.N.N.h.H.C.C.L.U S S v l a u ",
"(.K.T G S f h h S S b b l m c.K.I G G I N l.l.J.! Q S v N U R ^ ~ T N b J U l.l.j.b L G h v L G A * & % 8 p u j j.l.z l z j.l.j.l l b b b b b b Z * & % 8 f S G G L b K L L b b u.b S S U c.U.L.Y G P Y U I.T.T.K.l.l.l.l.l.m b S S b J G G I N K.J.L S h l a u ",
"(.L.T G f f f S h h L L b m m z s h b b l l m N G G A S S L U U M M l l b N j.j.j.b L G S S b v d & $ + % 8 p j z j.l l z z z l l l h S S S L S C & $ + % d A S v v L L G F S J N N S D S J c.J.L F I U Y Y U l.j.m l l z N l l v h S S D D S J l.l.S F G S a u ",
"L.K.T J s p Z S v b J J b z l l a a z z j a v b S D S S S J b z z l v b z u.u.z u.N Y G S h b b f * O o $ * f h v b z z b b l l b v S D D F G G A * O o $ * C S v b L G S S F S K K S F S J l.l.J S b N J L b z m z a a z z l l l l h S S S A S J J S F L J a u ",
"T T U b l s Z S b z N b l j l l f f l l l l h S D S b b b b b z z b S S b u.u.u.u.N T Y h a l b Y A X   # 0 S G S J b b J J b b J G F D D F G Q Q A X   # * A S b z b b b b G G S S G L U l.j.b b l l l v v l z z b h h b z j a l l b b v h Z D S S S S J b j u ",
"G J v l l s C Z v v v l a u u a C C f a a f f C C Z v l z z z z l v f f v b z z l b L G p u u h L A # . # d S S S f l v Z Z x v J S S C Z Z F G Q A o . $ * d f v l l l z b J S Z D F L N j.z z l s a a a a l l l v Z Z v j a a a l l z l s f Z Z C A Z v l u < ",
"v s a 1 u a 0 * 0 d d p a u < 8 d C d 0 0 8 8 8 * * d 8 8 1 a a d 0 8 8 d f a a p d C d 8 < < 8 d * & # & * f a p a 1 8 * * 8 1 p p p p p a d C C 0 + + @ 8 p a d p a j j j a p p f C Z l l j a a u < < < < u u 1 8 0 * 0 8 < < 8 d a j a a a p p p 0 d a u < < ",
"l a < < 1 p % & & & & * p u < % d C * & * % @ @ % & & % @ < u p * % @ % d d a p * * * % @ + + @ % & * * * * p u u u < @ % % @ < u u u u u a % & & % @ > + < u p * * p u j j u u u a d d a u u u u u < + + < u u < @ % * * % @ @ % * p u u u u u u p * * p u < + "
};
