/* XPM */
static const char *wall50_2[] = {
/* columns rows colors chars-per-pixel */
"128 128 101 2 ",
"   c black",
".  c #070707",
"X  c #0B0B0B",
"o  c #170F07",
"O  c #0F1700",
"+  c #0B1707",
"@  c #171F07",
"#  c #1F170B",
"$  c #131313",
"%  c #1B1B1B",
"&  c #2F1B0B",
"*  c #13230B",
"=  c #2B230F",
"-  c #232B0F",
";  c #372313",
":  c #332B13",
">  c #3F2F17",
",  c #3F2B1B",
"<  c #2F371F",
"1  c #232323",
"2  c #272727",
"3  c #2F2F2F",
"4  c #373F27",
"5  c #373737",
"6  c gray23",
"7  c #430000",
"8  c #470000",
"9  c #530707",
"0  c #5B0707",
"q  c #5F0707",
"w  c #670B0B",
"e  c #6B0F0F",
"r  c #731313",
"t  c #771717",
"y  c #7F1B1B",
"u  c #432F1B",
"i  c #43331B",
"p  c #4B371B",
"a  c #732B00",
"s  c #473323",
"d  c #4F3B23",
"f  c #4F3B27",
"g  c #4F3B2B",
"h  c #533F2F",
"j  c #3F472B",
"k  c #5F4323",
"l  c #5B472B",
"z  c #474F33",
"x  c #574333",
"c  c #5F4B37",
"v  c #53573B",
"b  c #6B4727",
"n  c #774F2B",
"m  c #7F532F",
"M  c #675333",
"N  c #67533F",
"B  c #775F3F",
"V  c #434343",
"C  c gray28",
"Z  c #4B4B4B",
"A  c gray31",
"S  c #6F5743",
"D  c #775F4B",
"F  c #5B6347",
"G  c #676B4F",
"H  c #6F7357",
"J  c #7B7F63",
"K  c #8B0000",
"L  c #831F1F",
"P  c #8B2323",
"I  c #8F2B2B",
"U  c #972F2F",
"Y  c #9B3333",
"T  c #A33B3B",
"R  c #A73F3F",
"E  c #874307",
"W  c #9B5B13",
"Q  c #875733",
"!  c #8F5F37",
"~  c #9B633B",
"^  c #A36B3F",
"/  c #AF4747",
"(  c #B34F4F",
")  c #BB5757",
"_  c #BF5B5B",
"`  c #836B4B",
"'  c #836B57",
"]  c #8F7753",
"[  c #8B735B",
"{  c #AB6F43",
"}  c #B37347",
"|  c #937B63",
" . c #9B7F6B",
".. c #CB6B6B",
"X. c #D37373",
"o. c #9F876F",
"O. c #A78F77",
"+. c #AF977F",
"@. c #B79F87",
"#. c #BFA78F",
"$. c #DF8787",
/* pixels */
"o o o o o o o o o o o o o o o o o o o o o o o o o o o o o o o o o o o o o o o o o o o o o o o o o o o o o o o o o o o o o o o o o o o o o o o o o o o o o o o o o o o o o o o o o o o o o o o o o o o o o o o o o o o o o o o o o o o o o o o o o o o o o o o o ",
"o z j j z z z z z j j j j 4 j z v z v F F v v v z j 4 j v v v v v F z z z z z z v F v v v v z z z z z j z 4 4 4 j v z j 6 d C l 6 V d z F v z z z z j 4 4 z v j z j < < z z 4 j j 4 j z j j 4 j z z z z j j j z z z z v z v v F z j j j 4 < < < < < 4 4 j j j o ",
"o z j < < < < < < 4 j 4 < < j z j z F F v z z z j 4 j j j z z z v z z z v v j 4 4 j z j j j < : : = : < < j j j z z j j g % : = 1 1 : z z z v j = < < < < 4 j 4 < < # # = = o < 4 j z z 4 j j z z j j j j j 4 4 j j j z z z v v j j j < 4 < < < < < - < < 4 - o ",
"o j i = : < < < - < 4 j 4 < 4 j j z z z z z j 4 j z j j 4 j j F v z j z z 4 4 i 4 4 4 4 < = = = = = = : < 4 z v z z j j g = 5 3 1 : = j 4 z v j = < < < < = : < < = # # = = = : 4 z z j 4 4 j j j j z z j 4 4 < j j z z z z F z j z 4 j < < 4 4 4 < 4 4 4 4 o o ",
"o j < < < 4 j j < j 4 z z z j j 4 j j 4 j j 4 4 j z z 4 j 4 j z j z 4 4 4 < 4 4 < < < < : # # # # # : < j j z v v z z j g 2 3 2 $ 3 2 4 j z z 4 4 4 < < 4 < = = : = # # o o # - < < 4 j 4 j j 4 4 z z z j < < < 4 z z z z z v 4 4 j j < 4 z v z j j 4 j 4 z - o ",
"o v 4 < 4 j z j < j j z j z j j j j j j j j 4 < j j z z 4 < j j j j 4 < < 4 4 4 4 > - # # # o o # # = 4 j z z j v z z z g 3 1 X   6 3 < j v v < < < < < < < = = = # # # # # # : < < < < < j 4 4 4 4 4 4 < 4 4 4 4 z j z z z v j j j 4 j j j j z z z z j j j o o ",
"o F j j z j v j < < 4 4 j v z v z z j j j j j 4 i j j z 4 < j v z j < < < 4 < 4 < = = # o # o o o # : 4 z v G F G F z j g = 3 p 6 5 = < 4 i j 4 = 4 4 < : < = - # # # # = = = : 4 < < < 4 4 j 4 4 4 < < < 4 z j 4 j j j z j 4 z z z j j j j j v F F v v j 4 o o ",
"o F z j z z v 4 < = < < j j v v v z z v z j j < 4 4 4 z j < 4 z v j < < 4 4 < < = = # # # # o o o # < j v F F G F F z z & $ $ $ o $ X < 4 z > # 4 4 4 < : = # # - : @ # = < 4 < j j j j 4 j j j 4 4 < < 4 j z z j 4 j z z 4 4 j j j z v z j z z z j j z z j < o ",
"o F v j z v z < < - : < j j z v F v v z z j j < < < < j z 4 4 4 4 < < 4 4 < : # # # # - # o # o o # 4 z v v F G F F v z j < C 3 V 2 < < j z > : < j 4 < # = # - 4 < : = = 4 4 z z v z z j j 4 z j j < < 4 j z z z 4 j j 4 4 4 j 4 j j z v z j < 4 4 4 j j j 4 o ",
"o G v v z z z : : = < 4 j z v z z z z z v z z 4 < < < 4 j j < j j 4 4 4 4 4 < # # - - = # # # # # < j z z v G H F F v z j < : V X < < 4 j z z 4 z v j < : = @ 4 4 > < < j z v v v v v z j 4 4 z z j = # < 4 4 j z j < < < 4 4 j j z v z j j j < < 4 4 j j v j o ",
"o G z v z v z : - = < < j j j < < < j j z z z : = : # 4 j j j 4 4 < 4 < 4 4 4 # # < : # o : # : j z z z v v G F H F F v z 4 3 D , o < j 4 4 4 4 z z j < < < ; < < < : 4 4 z z v v z z z z j j 4 j < - = 4 < 4 j j j 4 4 4 < 4 j z F z j j 4 4 4 : < 4 j z z 4 o ",
"o F F F z v z < = - - - 4 j < < : = : < j z 4 < = : < j z z z j j < 4 j j j z j < < < # # 4 # < z v v v F F v F F F v v j < C 2 4 < < 4 4 4 j z z z j j < = # = = = : < i j z z z z z z z z j j j 4 - < 4 4 4 4 < z j 4 4 z v v v z 4 4 4 < : < : : < j j z 4 o ",
"o v F v v v 4 = # # # : < 4 : : # # = < 4 j 4 < j 4 z v z z v v j 4 4 z 4 z v v < = < : 4 j < < j z v v v v v F v F F v v 4 : 5 1 < # = j 4 j z j j 4 4 > = # # # # = = < j j j 4 j z v v v z z j < = < < < 4 4 j z 4 4 v v z z z z j < - = = : < < 4 4 j z 4 o ",
"o v F v z v : # # # # - < 4 < = o # = = 4 z j j j z v z z v z v j 4 4 j v z z 4 = # : < 4 4 j z z v v z v v v v v z z v z z C A 3 < - < j 4 j j 4 j i < < = # o o # # # : : < 4 j z v v v z v v z 4 # < < < < z z z 4 4 z j z z v z z j # - : 4 4 4 j < < < < o ",
"o v G F v v < < < # # - < 4 4 : # # = = z v z j z v F z 4 v z j 4 < 4 j j 4 j < # # - < j j j j j F v v v v v F v z z z z j C ; s < < j z j j z 4 4 4 : : : : # = = # # # = - 4 j v v F v F v v z j < < 4 < < z z j 4 j j z z v F F z z > : 4 4 4 z j < < < - o ",
"o F v z j j 4 < 4 # # - < j 4 < = = = = v v v z v v F v < z z i i < - < < = > < # # = : j z z < j z v z z v z z z v z z j j 3 6 $ 4 4 z z v v z j j 4 < = : = = = = = : : : 4 z F F F v F F F v z < # < 4 4 < < j 4 j j 4 z z z v F j j j 4 j z z v 4 4 4 < o o ",
"o F v 4 < : = = > # # # < j j j < < = < v F F v v z z F > z v 4 : < < > > = > > = = @ # < z 4 < j 4 v v z j j j j z z z z z 6 C 3 4 4 z j v v v z 4 < < 4 < < < 4 4 i i j j v v G G G F F F v v z = = = < < < < < 4 z 4 4 4 z z z z z z 4 4 z j v v j j j j # o ",
"o v j 4 < # > = : > # # < 4 z z j < = j v F F v v F j z : 4 F 4 < 4 < j j < j z 4 - = - < j < - 4 4 z z z < > > j z z v z v N : 5 < < 4 z F F z z 4 4 4 j 4 4 j z z v v v v F G F G G G F v v v z < = - - - # < < 4 z 4 j j 4 z z z z 4 4 j z z z z z z z j : o ",
"o v 4 4 < # < : # < - - < j v z z j : z z v z z z j j z : > v j j z v z v z v j 4 < < - < : - = < < 4 j z < : 4 4 j z z z v 2 s = < < z v v F v z 4 < 4 j j z z z z v v v z F v v v v v v v v z 4 < # - - # # < < 4 j 4 j j j 4 j z v z 4 4 z z j z z z z z < o ",
"o F 4 z < # : < # : : < < z z z v z 4 z z v v z j 4 j z < < j v v v v v z z z z v < 4 - < = - @ # : < 4 z > > 4 j z j v v z 3 N < 4 j v F z z z j 4 < 4 j 4 z v v z z v z z v v v v z z v v v j < - < < < < = < < 4 4 4 j j 4 j 4 j z z 4 4 j z j 4 j z v z < o ",
"o v z v z : : : = # : < < z z z v z j z F v z z j 4 z v z z j 4 z j j j F F v z v < 4 - < # = = = - < < 4 < j j z v z v v v C 2 V 4 4 v F j < j j < < 4 4 j z z v z z v j j z v v v z j j 4 4 j < < < 4 j j z j < = 4 4 4 4 4 4 j 4 4 j 4 4 j j 4 j j z v z = o ",
"o v z z v d < : < # - - 4 j z z v z j 4 z v v z v v F z z z 4 4 j v F F v v z z j < < = = = = = - = < 4 4 j j z v z v z z v % 6 : 4 4 v F j < 4 4 < 4 < 4 4 z z v z z v j 4 z z z v z 4 4 = < = 4 j j v v v v j : < < 4 4 < 4 4 4 j 4 4 < 4 4 4 < 4 j j v z < o ",
"o v v j z v z > j 4 : : < < j z v z z < j v z v v z z F v v v z z v v v v v v z 4 < < : : < < = = = : < < j 4 z z z z j j j , N 6 4 4 z z j 4 4 4 < 4 < < 4 j z z v v v j j z z v v z : < 4 4 - < j j z z j 4 j z < < 4 4 < 4 4 < 4 j 4 < 4 < j < < < 4 j z - o ",
"o z z j j 4 j > j f z 4 4 4 z j F F F j z v v z z v F F v v v j 4 j z z z v v z j < 4 4 < 4 4 < < = - # < j j z z j j j j j Z 2 x 4 j z z 4 4 j < = = 4 4 j z z j z z z 4 < z z z z z 4 = < < = - 4 z F v z j z z 4 = 4 4 4 < < 4 4 4 4 < - 4 j 4 4 4 < 4 < o o ",
"o z z z v z z j z z z z z j j z z v F F v j j j z v v F z z j j 4 4 z z z z z z j < 4 4 j j j j j 4 = < j z z z j j j 4 z j % 6 = < < j v z j z 4 # < 4 z j z z j j z j 4 < z z z z j < < < o # o = v F v v z z z j 4 < 4 4 < < < 4 4 < < < 4 z 4 4 4 4 z 4 # o ",
"o z z z j z j 4 j j j j 4 4 4 j z j F F F j z z z z j v z z z 4 < 4 j z z j 4 j j 4 < j j z z z j j j j z z z 4 j j j z z z s A 1 X X o < j z z 4 < < j v z z z z z z 4 4 < 4 j z j = = = < o # - = 4 z v v v v z j j < j j 4 < < 4 j < < 4 4 j 4 < 4 4 j j 4 o ",
"o < 4 j 4 < < < 4 < j 4 4 o + 4 4 4 j z 4 < < < 4 j j 4 < = = o < 4 j 4 < < < < < = - o @ < - = 4 4 j 4 4 j 4 4 < < 4 j j 4 C % o # o o . < j j 4 o o = z z z 4 j j j = = o o o o o o o o o o o - o # < 4 4 4 4 j 4 4 < # < < # o = - = < < 4 < 4 < < < < 4 4 o ",
"o o o o o o o o o o o o o o o o o o o o o o o o o o o o o o o o o o o o o o o o o o o o o o o o o o o o o o o o o o o o o o # # o # # # # . o o o o o o o o o o o o o o o o o o o o o o o o o o o o o o o o o o o o o o o o o o o o o o o o o o o o o o o o o o ",
"< 4 = # o - - - < < = = # o # o = = # 4 < # o o o o < < < < < = < < < < - # < = - - # = o # < j 4 < o = < < - o O * - < < = s g = x = # o $ 4 4 4 < 4 4 z z j o 4 j j 4 4 4 4 < 4 z j = < 4 < 4 < < < < < - # < 4 < # = o # # # - 4 4 < < < < < < < < : 4 z j < ",
"j z j j 4 4 j 4 4 j z v 4 4 o o # j j z z j j 4 4 4 j z z z z z z j j 4 < 4 j z 4 < j j < 4 j j j 4 4 4 j z j 4 < 4 z v v j x x '  .[ h s < 4 j j j 4 j z v z o < v v v F F j z z z v v v j j z z 4 j z 4 4 j z j j j v v v v v z z v z z j j 4 < < < < < z z j ",
"4 j < < < j 4 4 4 < 4 j 4 4 o o < z 4 j z v v j z j j j z z z z 4 4 < < < : < j 4 = j j < < j 4 < < : 4 4 z j j < 4 j 4 z Z N ' [ |  .[ ' 4 - 4 j j j j j z v o < z v j j z j j j z j z z j j 4 4 4 4 j j 4 z j z z z v v F F v z v z z z j j j < = - < < 4 4 j ",
"j j 4 4 < 4 4 j j 4 4 j 4 j < o < v v 4 j v G v z z z z z z z z < < = < > = = : : = j 4 4 4 j j 4 : > j v v j j < z j 4 Z ; D ' ' D D S N < 4 j j 4 < j j z z o # 4 j j z z j j j z 4 j z z z j j j j j 4 4 z j j z 4 v F G F v v F v F z j 4 j 4 = = : < < 4 j ",
"j j 4 4 < 4 4 j v j j j < j < o = v v v v F H F v v v z v j j z 4 4 : 4 < - # : = = 4 = = = 4 j < 4 4 z v v j z j v z 4 3 6 D ' m e 9 N : < j 4 j j 4 < z v z o # < < 4 j j z j v F j z z z z z j j z j 4 z z z z z j v F G G F F F F H H v j j < < # : : < < z ",
"4 z z z < < j z F z z 4 4 j # o - v z z F G J F G F v z z j j F z z j < > : # > # # : # # # < < < 4 j j z z j z j j 4 4 6 C N S x p , : = < 4 4 4 < 4 j z v j o - j < < 4 z j j v G v z z v v v z z z i j j z z z j 4 z F H F G G G H J H G z v j > # # = < : 4 ",
"j j z z 4 < z v v F v j 4 4 o o < z v F v F H F F F z z F v 4 G F F v z z > > z > < < # o # : = > < < j 4 > ; , ; = = u N = 3 h ; u ; ; ; ; ; ; ; : < j z v j o < z < 4 z z v z F H F F v F v v j j z j z j v v z v z j z F H G H H H J H J j F j 4 > = # : - < ",
"z z j z 4 4 v v v v v z 4 j - o < z v F F v G F F F v z F z v H H H F v z j 4 z < 4 = o o # # = : - - 4 > , , , ; ; ; k ` , = c 2 , , > ; ; ; , , ; < 4 j z j o = z 4 j z z z F G J F H F v z z j j F z v z j z v v v j z v G H H J J J H G z v z z i < < < < < ",
"v z 4 z 4 z z v v j v z j j < o = v v v v F v F v v v v j v F G J J z v < > > 4 4 < 4 = # # # # = # = = , , , , : ; ; k { P I ` n p ; > ; ; ; , , ; : j z z j o < j 4 j j z v v F H F F F z z F v 4 F F F v z z z z z z z v F G J J J J H F j v v G v z j j F z ",
"F F z v z j j v v z v z z z < o = v v v v v F z z z v z z v F F F G G G 4 d 4 < 4 > v j - < = # # # # ; , , , > , ; ; k Q y t Q ! k ; > ; ; ; , , , : j j v 4 o < z 4 4 4 z F F v G F F F v z F z v G F F v v z z z z v z j v G J J J J H v z z v z v v j 4 v v ",
"F G F v z 4 j v z v F v v z < o - v v v v v F v 4 4 z v j v F G F F F H j F z > z j F z > 4 > # # < # ; , , ; , ; ; ; b Q P e m ^ b ; , ; ; , , , , ; 4 j v < o = j j 4 z z v v F v F v v v v j v F F G F j z z z v v v v j F F H G G H z v z z v v G v < > j j ",
"G F F z < < j z z F v z z v < o < z z F F F G G G F F G v v F G J F F J z v j z F j 4 j 4 j < = : 4 < > , , ; ; ; ; & t I P e U Q n ; , , , , ; , , : 4 z z < o < z j 4 z v v v v F z z z v z z v F v v v v v z v z z v z v v G G v F F z z z z z v v F z : < 4 ",
"v j 4 < < 4 < > z v z z j z < o o v F F F F G F F F F F v v v F G F G F v v 4 v j 4 z j < j j < 4 j 4 , , , ; & & & & e t L t Y Q m , u , , , , ; , : z D v < o < z j 4 z v v v v F v 4 4 z v j v F F v v z v z v z v F z G v v z v z z z j z z z v v v z i < 4 ",
"j 4 z j 4 < j 4 = z z < j j < o - F F v v F G v v F F v F v v v F F H j F z v v < 4 z j : < 4 z j j 4 , > , ; 9 # & & r a a a E E ~ i u , , , ; , , < z G G j o < z j j z z F F F G G G F F G v v F G H v v G z F v v F v z v j z 4 4 z v v z v v v z z z j j z ",
"4 4 j z j 4 z 4 < z v z z z < o - v F v v v G v v v z v v v v v v v v v j v F v < 4 z v 4 < 4 j v v z , > > ; & 7 & ; L t a a E E R p > , , ; ; ; ; j z z F j o < z z z z v v v F G F F F F F v v v F G v F F v v z v z z v z j z z j z z v z z v F v j z z z v ",
"j j z z j z j j j z v v z v 4 o < F F v j z z z j z z v F z G H j j z z z F v v < < z v z j j z v v F i , , ; & & & 9 t e e k b b n k > > , : ; ; , s z z v 4 o < v j 4 z z z z v F v v F F v F v v v F F G z F z v v j j j z i 4 4 z j z z z v v F v v z v v F ",
"j z v z j j j j 4 < z z z v 4 o 4 v G G F v z z v z z z z z v v F j z j z z G F j j v F v v F F F v z 4 ; ; , ; & # 9 t e t n m m n n , , > : ; ; , 4 z v z = o 4 v j 4 j z z v v F v v v z v v v v v v v v v j v v z 4 j 4 j z j j 4 z j j 4 v v v v z v z v v ",
"z v v v z z z 4 4 < 4 z j v j o j v F F z z j z z v v v z j j z z z j < j z z z : v F v j F [ G z x g 4 ; ; , ; & # 9 t t t n W m Q ] ; ; > ; # u , j z z z < o 4 z z z j z z j z z j 4 j z v F z G G j j z z j z j j 4 < 4 4 j z j z z z j j j z z z z z z z v ",
"v v F z j j j z < 4 < 4 4 z z o j v v j j < j v v v z z j < 4 j < 4 j = < 4 > 4 j z z v G F F ' j s f < , ; , ; ; & w r I I k m Q } $.g = > ; = g , s z z j 4 o < z z z z z z v j j j j 4 j j j j z z v j z j j 4 j 4 4 4 4 4 4 4 j z v v j 4 j 4 z v z z z z F ",
"j z v j j j z z j < < < < j 4 o j j 4 4 < < j v v v j j z > 4 4 : : j # : > > 4 j j v G M G G G z j < 4 4 ; , ; ; & q r Y ^ Q _ Y } @.h = > = < s , , v v z 4 o < z z v v z v j j 4 j < 4 j z j 4 4 z z z j < z j 4 4 j 4 j z z 4 4 z F z < < 4 j j j < z v F v ",
"4 4 j j 4 j z j 4 4 < < = 4 = o z j 4 < : < 4 j v j z 4 z 4 z z z > j = < j 4 4 z F F G G F z z j 4 < < < ; > , ; & e e I Q n  ./ Y  .x % ; ; < 4 , , z z 4 - o - 4 j z z v v z z z 4 4 < < 4 4 4 4 j 4 j z 4 4 z j z j 4 z F z 4 j z z 4 < < 4 j 4 < < 4 z z j ",
"4 4 4 4 < j j j < < 4 4 < < < o v F v j > 4 4 j 4 j 4 z v v v z z 4 4 : i 4 < j z v F v F v x 4 < < : : = , > , ; & t L T m b  .( ( .. .# = , < 4 : j z j 4 - o # 4 j j z v v v z z z j < = < j 4 4 j < < 4 < 4 < j j j j z z z v v z j 4 # 4 4 4 4 < < < 4 j 4 ",
"< < - o o - < : = - - o # + = o v z z 4 j j z z j 4 z j 4 4 4 j z z z 4 j j = o - o o # < : : < : = # # o # # = ; 9 y P T Q m  . ._ ..| # = ; < - < z < - < = o 4 4 < < 4 j z j 4 4 4 < < o # @ o o # < < - o = o # = = = 4 < < 4 z < o o o o 4 4 < < # - = < < ",
"o o o o o o o o o o o o o o o o o o o o o o o o o o o o o o o o o o o o o o o o o o o o o o o o o o o o o o o # o 9 K y I n f ~ Q ^ X.#.# = = o o o o o o o o o o o o o o o o o o o o o o o o o o o o o o o o o o o o o o o o o o o o o o o o o o o o o o o o o ",
"o = 4 4 v 4 # - < < < < < # # o < = = < < < 4 j 4 < 4 4 < < # o o - o # < < < < < < j z 4 4 < 4 < < < - O @ o X X e K P / T d ` Q m ( ) o o # 4 s < < j 4 < # o o - - < < = 4 4 4 < j 4 4 j 4 j : < 4 4 < < < < 4 j 4 < 4 < o < z 4 4 < 4 j 4 < 4 < 4 4 4 4 j o ",
"o j z v F v j j 4 < < < < < < 4 j z j 4 j j j j z z v F v z z z 4 z z 4 < z j j j z j z z z j z z j j < : < X . . 9 q w L ^ m [ ] ` T s o o o = : < < 4 j 4 < j : = z z z z j j z z v 4 z v v j 4 z v z j z 4 j z z z v v v z F G v v z j j z j 4 j z z j 4 j o ",
"o 4 4 z z z < = - - : = = o o # = = = : 4 j j z z z z z z j 4 4 4 j j 4 j 4 < j 4 j j < 4 j 4 i j z j : = < X . . . o o 7 1 6 5 1 # $ $ o . . # & = < 4 4 < < < < < 4 j z j 4 4 j 4 z 4 z v v 4 j j z z j z z v v v v F F v v F F F v j 4 4 4 4 < 4 j z z v j o ",
"o : < j j < < - # - - : = # = = < < : : < j j j 4 j j j 4 4 4 4 j 4 j j j : < < 4 4 < < < < 4 j z z j < : < . . . 7 o o 7 o $ % % # & 3 # . . . # # : : < < : < < 4 4 4 j 4 < < 4 4 j j z v z j j j 4 4 j z z v v v F F F v F F v v z z 4 4 4 < < 4 z v v F 4 o ",
"o z = < 4 = 4 < - : < : : # = < : 4 4 < < 4 j j z j z < < 4 j 4 j 4 4 z z 4 4 4 j j < < < 4 z v v v v < : # . . o 9 7 & ; 2 1 3 3 2 , 6 ; . . . o o # # : : j 4 4 4 4 4 4 4 < < 4 j j j j z j j z v j < j j j z z z z z j j z v v z v v j 4 4 4 4 z z v v F : o ",
"o 4 < = : = 4 < < < 4 4 < : : z v z < 4 < z 4 j z v G z < < 4 j j 4 j z z j 4 j v v z z j z j v v v v s < # . . & 9 7 7 u 3 2 5 5 5 6 6 5 . . . o o # # : < 4 z 4 j j j = = < < < 4 j j z z j z v F F v z z z j j z < < 4 4 j v v F F v z j 4 j j z v v v v 4 o ",
"o 4 = : = # < # # # 4 j < 4 4 z v v 4 z j v z j v F H H F j j z 4 4 j j j 4 < 4 v v z j j z z j z v v 4 : o . . ; 9 9 7 u 5 2 6 s 6 6 6 V o . . X # # = = : 4 j v z 4 < < < < < 4 4 j j j z v v v F F M v z j 4 z z 4 z 4 j 4 z v F F v z z z z v z z v z v = o ",
"o v < > # # : # o o < < < 4 j j z z j z j z v F F G G F M v z j 4 z z 4 z 4 4 4 z v v v v v z z z z z : = . . . s 5 s , 3 5 % 2 5 6 6 5 V = . . . = @ = : j j j j j < , : : < 4 4 4 j 4 j z v v v F F  .H v v F v v j j v v j z z G G v z z v v F v F F z j = o ",
"o z > j > < < # o # : = > < < j 4 j 4 z 4 v F F F F G G o.J v v F v v j j z z z z v F v z z z z z z z < < . . o 5 5 5 , , 2 X $ 5 6 3 & g : . . . - : = : 4 4 j j j < : = = : < 4 4 z v j z v v F G G H O.v v H H G v z z F v z v v F v z F F v F v z v z < # o ",
"o j < j < 4 = o o # # = : - - 4 4 4 4 z v z F G F G H G H +.v v H H G v z z v v z v v v z z z v z z j - : % . # 6 6 6 , s 3 X $ 5 6 = & ; 2 . . - : < < j j j < < < = - < > = < 4 j v v 4 4 z v F F G F O.z z v J H F j z z F z z F F z v v v z j 4 4 < 4 j # o ",
"o j , 4 4 < 4 = # # # # = # = : : < < z v v v F F F G G F O.z z v J H F j z z F z z v v z z 4 j j z i = # < o # 6 V 6 5 6 3 $ $ 5 k & 9 ; 3 X % - < : 4 < 4 < = # # # = < 4 j j 4 v v v < < z v F v F G o.G z z F v v F z z v z v v v v v v v j 4 : < < : j < o ",
"o j 4 < 4 > v j - < = # # # # : > : > < j v v G G F F G H o.G z z F v v F z z v z v z j z z v z z z 4 : = < < = 3 6 6 6 6 3 % % 5 w 8 9 9 3 o # # = : < > < : = # o # = < j z z j z v v < i 4 z v v v v J J o.J J G F G z z z z F F G F v G v j > = < < = < < o ",
"o 4 j > z j F z > 4 > # # < # < z 4 4 # 4 z v v F F F F F J J o.J J G F G z z z v G G F v z j j j j j < < : < - 3 6 6 6 6 3 % % s q 0 9 s 3 o o o # = = - : = = # o = 4 4 j j z z 4 z j < j z z v z v F G F J H J F F H v z z v v v G F v G G v 4 > : : # : < o ",
"o 4 j j v j 4 j 4 j < = : 4 < > j j j i < j v F F F F F G G F J H J F F H v z z v F F G F v v z j z z j i 4 4 < 2 6 6 6 6 3 % % 3 q q 0 u 2 o o # # # # = = : - # # > 4 4 j j j 4 j 4 4 j j z z z z v F F v F G  .J F G F v G O.G v v v z z F F v v j < > < j o ",
"o < < j j 4 z j < j j < 4 j j < j v F v 4 j v v F F F F G F v F G | J F G F v G  .G v F z v v z z z j j z z z 4 1 6 6 6 6 5 % % 3 0 q 9 ; 1 = o # # # # # # < = = = < j < 4 4 4 4 j < 4 j j z z 4 z v v F F F G J J F H H F G O.@.H v z H J B z v v z 4 4 4 z o ",
"o = j z 4 4 z j > 4 4 z j j j j z F F z z j z v v v v F F F F v F H H F H H F F | | F v z z z z j z v z z z z h % 5 6 6 6 5 % % , 9 w q ; % # = = = # = - = : : < : > < 4 < < 4 4 4 4 4 4 j z v j z v v v F G F F G F F F G F H O.` | H G | O.J v F z z < 4 z o ",
"o 4 4 j 4 4 j z j 4 j j v z z j v z z z z z f z v z z v z z v v v v F v F F F F F H v F z z z j z z z z v z z s # 2 6 5 5 5 % 1 9 9 s w , % # < < < : : : : < < < 4 4 : : < < i < 4 4 4 j z v z z z z v v F F G H H H F G F G H J  .J G G G J H v z j j i < z o ",
"o < 4 z j 4 4 z z z z v v v v z z z v v v v j j j j z j z z j z v v v F v F v F F F v v z j v j z z v v z v z < # 2 6 5 5 5 % 1 9 s 5 e 2 1 < 4 4 < < 4 j 4 j z 4 j j : : 4 i = = j 4 z z v v z z v v z v F G H H H H G F v G G F G H G G J H v j z > : < < z o ",
"o 4 j z z z j z z v v F F v z z z z F z F F j j z z j 4 4 j j z z z v F v v z v v z v z j v v v z j v z z z j 4 = 1 6 6 6 5 % 2 6 5 6 g 2 = , 4 j 4 j z z z z z j z z z 4 4 4 = = z 4 z v v v v v v v F F G G H H H J H F F F F G F H F F F z z 4 < : # : < 4 o ",
"o j j z j j 4 < j v v F v F j z v z j F H F z F v z j : < i i i 4 j v v v z v z v v z j z z z z v F v v v z z < = % 5 6 5 6 1 3 6 5 V V 2 # ; z v j j v v v v v z z v v 4 : 4 > j z z z v F F v F v v v F F G F F G F H G v v F F F F F F v v j < 4 : # = < < o ",
"o z z j j 4 4 4 z z z z 4 j v z v z j v v v v z j z 4 : < < : < < j v v F z z z F G G F F v v z z v H H F z z j : % 6 V 5 6 2 3 6 5 V 6 1 & , z v z z z z v v v v z z z < : > 4 j z v v v F F v F v v v v F v F v v F F F v v F F F F v z z j 4 < : > = < 4 # o ",
"o v j j z j j j z z j z j j v j 4 4 < j j j j 4 4 j > < < < : < j v v z v v v z z F G v v v v z v F G G F z z z z < 5 5 5 6 3 3 6 5 5 5 % & s z v z v v v z v z z z z j < : < 4 z z z z z v v v v F F F F j z v v v z z v z z v F F v z z z < = - : 4 < 4 < = o ",
"o F z z j j j z v j z z z z z 4 4 4 = : < - - < - 4 < 4 j < = 4 v v v v z v F j 4 z F j z j z z v z F F v z z z j < 3 5 u 6 3 , 5 6 5 5 1 ; h v v v z v F z z z v j j j < < < 4 j z j 4 j z z z z v F F F v v z z z z z j z z z v z j z z > - : < < 4 < # # # o ",
"o z 4 4 j j z v v z z v v j j z v j : < = = = : : < 4 z z j 4 = v F v v z v v z j z v < z z z v z v v F G F G F z : 2 s , 6 2 , 5 6 3 6 < : f F F v z z z F F v v z z j 4 < < : 4 j 4 4 4 4 j z z 4 z v F F F v z j j j j j v z z z j 4 < j < < < < < 4 < # o o ",
"o z z j = j z v v j j v v z v v F z < 4 < < < < : < 4 j z j j = z F F F v F v z j 4 j < z z v v v v z F F F v F z < 2 p p V 2 , 5 6 s s , : g F F v j z j j z v z z j z < : : < < 4 4 4 j < 4 j j j 4 4 v v v v F v j 4 j 4 z v j z F v i i : : < 4 : 4 4 - o o ",
"o z j j - 4 z v F z j v F z z z v z j z j j < < < 4 j j j j z 4 z F G G G G v v v F j < 4 z v v F v z v v z v v z 4 ; p e p 2 , 5 6 s , : , g v v j j j j 4 j z v v z 4 j = < < 4 j < j 4 o j j z v 4 < z z j 4 4 j j > < j j j j j z z 4 4 : : < 4 < < < < o o ",
"o j 4 4 o : 4 j z z z z v z j j < # = j z j < o # # = # o < 4 = < j 4 4 v F v v z z j z j z z z z v z z z j j j 4 < ; 9 0 9 1 s s s u ; # # < j z 4 4 z j j < h v z z j < : : = j j # # < - - = < - o 4 4 < < 4 < < 4 4 < 4 j z v F F v < = # o # o o - # o o o ",
"o = < o # + - # = j j z z j 4 < o o o # 4 4 # # # o o o o o o o o * o @ - < : 4 - < 4 4 j z 4 - o 4 < # # # o o o o # 9 7 & 1 , s u , ; o . O # - o # < < < < z j j 4 4 < o - o - = @ o - + o o o o o < = o < < # - - < < < < # + o = = o o o o o o o o o o o o ",
"o o o o o o o o o o o o o o o o o o o o o o o o o o o o o o o o o o o o o o o o o o o o o o o o o o o o o o o o o o o 7 & # & , u ; ; # X o o o o o o o o o o o o o o o o o o o o o o o o o o o o o o o o o o o o o o o o o o o o o o o o o o o o o o o o o o o ",
"v z z z z v z j 4 4 j z z j z z j 4 j z v z z v z z z z v z < 4 j 4 j 4 z j 4 4 j 4 < j j v z - o z v z v v F v v 4 : 7 & & & , , ; ; % ; ; g v j j z j 4 v v z z F G F v z z z z v z z v z v z z z z j j z v z j 4 j v z v z < o 4 z z 4 j j j j 4 z z 4 4 j v ",
"v j j z j j j 4 j z j j 4 j z j < < < 4 j < 4 j j 4 j z z j 4 j j z z j 4 z z j j j j z z v v # o z v j j v v z z j : o & # & ; , , = = < ; h v 4 < j j 4 v v z z j v F z j j z z j j z 4 z v v v z < < j j z j 4 < j j j z j # o 4 < j 4 4 z z 4 j v j z j 4 z ",
"z j z v j < 4 j j z j j z j j j < < < 4 4 < < 4 j j z z z z z z z z z v z z z z j z j z z v z # o j z j j F v z z 4 < # & # & ; , ; = 2 4 s h z z < 4 4 4 v v v j z z z v j 4 4 4 z j z z z v z v 4 < < j 4 j j j j j z z v z = o 4 4 j j z z v j j j z z j j z ",
"z z z j j 4 j z z j 4 4 4 j j 4 4 < < 4 4 < 4 z v z z z v v v z z v v v j j z j j z v v z 4 4 o o j z j 4 v z z z j 4 # % o # ; ; & % < s g v z j j 4 4 z v v v j z j z z z j 4 j z z v z v z z j 4 j < 4 < 4 z z z 4 j z F z o o j j j z v v z v j z v z z v z ",
"v v j j j z i z j z z < < j z z j j z j 4 j z v v v v v v F F v v v v z z z j z z z v j j j 4 o o j z j j j j z z s s = % o & & ; & % < s g z j j j j j z z v z j j z j z z j j j v j j z z 4 4 4 z 4 4 4 < j z j j 4 z F F 4 O o j j j z v v v z j z v F j v z ",
"v F z z j j z z j j z 4 : z z v v v z z z v z v v v v F F F F v v v z z z j j j v z z z j 4 < - o 4 < < z z z z v s s = % o # & & & % < s z v z v z z z j z v v z j j j v j j j z v z z z z z j 4 z j 4 4 4 j j z j j z F v z 4 o j z z v v v z z z z z z F v v ",
"z F F z j j 4 j v v z j : : z F v F F v v v v z v v v F F F F v F v v v z 4 j 4 z v j v F v : # o 4 < 4 z z v F F s f z $ $ # = ; = % 4 g z v z z z v z z v v v v v v v F z z z z v z z z z v v j j j z z z z z z j j z v F v z o j z z z v z j z z v v v F z j ",
"v F G G j j j z v F z v : = z F F G F F v F F v v v F F F v F F v z j v z > < j j j j j z z 4 - o 4 4 j z v F v G h f v % X % 1 ; % 1 , s z z z z z v v z z z v F v v v F v j z v z z z 4 j z v z j j z z z v v v z j v v F v z o j j j j j j j 4 j j v v z z 4 ",
"v v v F z v j z z z v v j < z F F G F F v F v v v v F F v v v v v j 4 j z j : 4 z F J H H G z - o 4 j z z z v v F x g z 1 o % 2 1 % 4 ; s z v v z z v z z j v v v F F v F v z z v z z z z j v v z z v z v z v G G F v v v z j j o j j 4 4 j 4 j - < 4 j j z F F ",
"v F F F v F j v v v v j z j z F G G F F F v v v v v F v v v v v z j z z j v < z v v G H G F z o o j j j z z v z z v v v % X % 2 1 % j , , z v v z v z z z j z z v z v z j 4 j v v z z v z z v z z j v v v v F G F v z v v z < : o z j < j j j 4 : : < j v z z z ",
"v F F F v F F F v v z 4 < j z v F F F F F v v v v v v v v v z z z z z j j F F F G G v G F v j - o v z 4 4 z z v v z v v # X 1 2 % % j s s j v v v v v j v z j j z z z j v z 4 v z z z z z z z z v z j v v F F F F v v z z z 4 - o 4 j d j z z j 4 < < 4 z z z z ",
"z v v z v v F F F : j < 4 j j z v v v v v z v v v v v z F v z j z j 4 z z v F G H H G G F v j o o z j z z F z z v z z v & o 1 2 % 1 j s s z v z v F v z z j < < z F G F F F s j j 4 4 j 4 j z z z j z v F v v v v v z z z z j = o 4 z v v v v j 4 < = 4 j j 4 < ",
"z v v G F v F F F z z < 4 z < j v z v v v v v z v F v v v j 4 z j 4 4 j v v v F H G F F G z 4 o o v j z v c o.G v v x v ; X 2 3 % $ 4 , , z z z v v z z j < j j j 4 j z v v v z 4 < 4 j j 4 j j 4 j z z z z z F v F F F v v v < o < j z z z F v z j : < 4 < > > ",
"z z z F F v F F 4 v z < < v F v G v v v z v z z v F v F v : = 4 < 4 4 j v F G G G J F G F z < o o z z z z v H o.O.j j v , o 3 6 % % j ; ; g j v v z j z i < 4 4 < j z v G F J F v z 4 j 4 < 4 4 < < j z v v z F v v z z v v z - o < 4 v z z j z v F 4 < > > j j ",
"j z z v F v v v z j z 4 < z F F N [ F v z v z v v v v F j # # - # j j j z z v H G G F v F 4 < o o 4 j v v v F G O.z v z f 1 5 3 $ < < , , s j v v j 4 < < < j 4 < 4 j j z v v F F z < < > : - < : < < j j z z z z z z j z v j o o < 4 j j z j j j 4 j v v z v z ",
"j j z z z j > z 4 j j z j z F F F G G F z z z v F v z z > # # # = 4 4 4 4 v v F G G v v v j - o # 4 4 z v v v F J v F J c x 3 2 X 4 4 : i j v z v j < : < < < 4 j z v v F v F v z j < : = : = # : : < 4 z z j j j 4 j 4 z z 4 + o 4 < j s z j j 4 j 4 z v z v j ",
"j z z j 4 4 4 z < i z j z v v v F F F v z z v z v v j : - # o # < < 4 j j j z v v z z j 4 < = * # j 4 z z v v G G z F G N g z x < j j < i x v z j < < < - : < 4 z v v v F F F v 4 4 4 > < 4 : # = : < 4 4 < 4 < 4 4 < 4 4 z < o o 4 < 4 < < < 4 z v v F v v H v ",
"z z j 4 : 4 j d z 4 j z z F v F F F v v v v v z z j 4 4 - # @ # j j 4 z z 4 j z z j j z 4 < < o # 4 j z v v v F z v v v c x j s s 4 j j j s h z j < < 4 < : < < v v v v F v F F s 4 j j j j j < 4 4 < 4 i i < 4 4 4 < 4 j j < o o j = < : < < < 4 j z z z v F F ",
"z j j 4 < 4 j j z j 4 z z F F v v v F v v v F j j j < < < # - - 4 j 4 j 4 < < z v v v z j < < # # j j j z z v v 4 v z z f , s s u , j z z s s j < : 4 4 < < 4 j j z v v v v v v 4 4 4 j 4 z z j j 4 < < 4 4 4 4 4 4 j j z j - o o j = - < < 4 < < j j z z z v v ",
"4 j j 4 < < 4 4 j z z j v F v v v F F v v v z j 4 < - = : # # : : 4 > < 4 j j j 4 j j 4 4 4 - o # z < 4 4 j z v 4 z v v g , j i s s j j z z z j < : 4 4 z 4 j z z z z z v v F v 4 j j j 4 > j z j < : < < < < 4 j j j z z j < o o j < < 4 4 z j 4 j z z v z z j ",
"4 j j 4 < < 4 j j j 4 j v v v v z v z z z v z j < - = # : < - < = : < i j j j 4 z 4 z 4 4 4 < # # 4 < 4 < 4 4 z j z z v x x z s , j 4 4 j v j z 4 < j z z j j j j j z z z z j z 4 4 4 4 4 j j j j 4 < < < < < 4 j z z z z j < o o j 4 4 < < 4 4 4 4 4 4 v z j < ",
"4 4 4 4 < < < = = # o # < < < < 4 j j j z z j 4 4 o - = < < < : - : : < 4 4 < < 4 < < - o < 4 o # o # < < = < j j z z z j j z 4 : : < j z z j 4 4 < j j j 4 j 4 4 j j j 4 z j z j 4 4 4 j j j z z < : = < = - < 4 4 4 j z 4 < # o # # - - - < < < - # o o o # * ",
"# # < < # # o o # # o # o o o o # = o # < < # o @ + o # o * - # o + @ O # # o # - o + o o o o + # o o o - < o o < 4 4 < < < 4 j & o # < j < # = : # # : 4 < # o < 4 < @ o o o o o o - o o o o - < 4 4 - # # o @ - # < < < = o o o o o o @ o - < - o o o o # o o ",
"# # # # # # # # # # # # # # # # # # # # # # # # # # # # # # # # # # # # # # # # # # # # # # # # # # # # # # # # # # # # # # # # o o # # # # # # # # # # # # # # # # # # # o o o o o o o o o o o o o o o o o o o o o o o o o o o o o o o o o o o o o o o o o o o ",
"z z 4 < 4 j 4 z v v 4 < < < = o # z j < - - 4 < 4 j j z z j z v z v v F v j j j j 4 < z z z v v j j j 4 4 z j z j 4 4 j : : 4 4 i g 4 4 4 j 4 j j j j z z j < o # j v F z z z j 4 < < < j j j z v j j v j 4 4 4 z j 4 4 z v j < = < < < < j 4 4 z z j z z v z z ",
"j < < < < : < < 4 < < = < = = # # 4 = = < < < 4 < 4 z z j j z v j 4 z F v j 4 4 j 4 4 < < 4 j v v v v v z v v F v z v z j 4 j j i s j z z z z v z j 4 j j j < o # 4 z z z z j 4 < < < < 4 z v v v j j z z j v F v z z z z z z j j j j z z v z j j j j j 4 4 j j ",
"j < < - < # = : = - = = = 4 = o # = = < < < 4 4 4 j j z 4 j z v z j j v z z z j j 4 4 j 4 j z v v v v v v v F F F F F F z v j z h h v z z j z v z j 4 < < j < o # j 4 j j z j < < 4 < = j j j z z j j 4 z j v F F z z j j < 4 4 z z z j v v F j j j 4 4 4 j j z ",
"4 - : = # # # # - # < < = j 4 o # o < 4 j < 4 4 j j v v j z v F v v F F v v z z j j j j z z v v v F F v z v F G H G G G F z j v s s v v v v F v j 4 4 4 < 4 < # # 4 < < 4 j z < = 4 = 4 j j j z 4 = 4 < v 4 z v v z z z 4 j v F G F z j F F F j j z j j j j j j ",
"< # # # # o # # # # # : < z j < # o o 4 4 j 4 < j j z z : v F v j F | H F G v z z j j z z v v F F F F v F F G G H H G H G v v v s g v F v v v j j 4 < < 4 4 < - # < < < 4 z 4 < < < < 4 j 4 j < < : - - v j z v v < j j z z F F H J v z v J J z z z j j z z z z ",
"> # = # # o o o # o = = < j j # # 4 # < < < j = < 4 > 4 j z z v G G H O.v F J z z z z v v F F F F F F F F G G G F F G F H G v v x x v F F F v v j < 4 < < < 4 - # < < < 4 < < < = - < 4 j j < : o # - < z j z F F 4 z j z v v v v H G j z F J F v z z z z j z z ",
": # : - # o o o o - # = : < 4 o # 4 4 < : : j # : > > 4 j j v G M J J O.G F G z z z z z F F F F v F F F F F G v F v v F F F v v v v F F v z z j 4 < : > < < < o # < - < < < < < - 4 4 4 4 4 = < = o o - j j v z G v 4 4 4 j z v v H G F v G J G v z v z z 4 j z ",
": # - - : # o o + # = = = < < o # 4 j z z > j = < j 4 4 z F F G H H F G G F v z z z z z F F F F v v G G G G 4 z v v v z z v z z h x F v z z z < = - : j 4 4 < @ # j 4 < < 4 - - < < j j 4 , 4 # < = - < F z F v j z j < < j v v v F v v F G J F G v z z z j j F ",
"4 - # - - = # o # # < < : < < - # z z z z 4 4 : > 4 < j z v F v G G G F G F v z z z z v v F F v v v F G H G v v z z z z z j z z j h z j z z > - : < < 4 4 4 < o # j 4 4 4 4 4 4 4 < 4 4 < 4 j 4 z < = < F v G F j v F z < v z z z z v F v F H F F F z z F v 4 G ",
"4 < - : < = = # # 4 : 4 4 4 < # # z 4 4 < < > : < 4 < > j v v v H H H G F F v z z z z v F v v v v v F G H H H H F z j j j j j v z z z j j < j : - = = : < 4 < O # z 4 j z 4 4 4 j 4 < < < 4 j j z j j 4 v z z j z v v F z v v 4 j z v F F v G F F F v z F z v H ",
"4 < < < 4 4 < : : z F z 4 4 < o # j 4 j 4 4 4 = < < - 4 4 4 v v F G G G F F v z z z v F F F z v v v G F G H G G G G F z 4 j 4 z v j v G F i > = # # # : : < < o # j j z z 4 4 4 4 4 4 4 4 4 j j z j 4 z v j j z z z v z z z F z z v v v v F v F v v v v j v F G ",
"< # # # 4 j < 4 4 z v v 4 4 < o # < z z < 4 4 : : < : < > < 4 j v G G F G F v z z z v v F F v v v F F F v F F v v z v z > < j j j j j z v j 4 = # o # = < < < o # z z v z j j j j j 4 4 # < < j 4 j 4 z 4 < j j z j j z v z v v z v v v v v F z z z v z z v F F ",
": # o o < < < 4 j j z j 4 j < o # 4 j z 4 4 < 4 : 4 j 4 < < = 4 v F F F F F v z z v v v F v v v v F F v v v v v v z j v j : 4 z F J J J J F d 4 = # # = < < - o # z z v z z z z z z 4 < = < = < j 4 j j > > 4 < 4 j z v v z v v z v v v v v F v 4 4 z v j v F G ",
"< # o # : = > < < j 4 j 4 j < # # < z z < 4 4 4 j : 4 j j j # < v F F F F F v z v v v F v v v v v F v v v v z z v F v z v < z v v G H H H G F f : : : i j j < # # z z z v j 4 j j 4 < < : # < < j z j < 4 4 4 j z j j j j z v v v z z F F F G G G F F G v v F G ",
": o o # # = : - - 4 4 4 < j j o # 4 j j 4 j 4 j j 4 j j j j < = z v F F F v v v v v F F v v v v v v v v v z z v v v z j F F F G G v G G F F G p 4 < i 4 z z 4 < # z z z v z 4 4 j 4 < = < - < 4 j z z z j j 4 j v 4 4 j 4 z z z z z F F F F G F F F F F v v v F ",
"4 = # # # # = # = : : < < j 4 # # j j 4 < 4 j j j 4 4 z j j 4 = : j F F F F v v v v v v z v v v v v z F v z j z z j z z v F G H H G H G F G v s j s 4 j z z 4 < # j j j j j j j 4 < - < < : < < 4 z z z z 4 4 z v z j z j j z z z v F v v F G v v F F v F v v v ",
"v j - < = # # # # : > : , < < o # z j < < < : j j z z < < < j : : z F F G F F F v v v v v v z v F v v v j 4 z j 4 4 j v v v F H G F F H F F v j z z z j j z j < # j 4 j 4 j z z j 4 < < < < < < < 4 v v z j 4 4 z z z z j z z z j z v v v v G v v v z v v v v v ",
"F z > 4 > # # < # < z 4 4 = < o # j < < < < < j j z v j = = = 4 < j v v F G G F F v v z v z z v F v F v > : j 4 4 4 j v v F F G J G H H F v j j z v v z j j j - # z j 4 4 j z z j 4 < 4 < < < : < 4 j j j j < < j v z z j j z z j v v v j z z z j z z v F z G H ",
"4 j 4 j < = : 4 < > j j j i < + # 4 < < < < = 4 j j z z j = 4 j 4 j v F F v G F v F v z v z v z z z v j : : < < j j j z j z F F F G F G z j z z v F v z z j 4 o # v j 4 j j z z j z j 4 j j 4 < < < 4 4 j 4 < 4 4 z v z 4 j z z j j F F v v z z v z z z z z v v ",
"z j < j j < 4 j j < j v v z 4 o # 4 < 4 < < = 4 z j z z z j < 4 4 j z v v v v v v v v z z z z v z j j i 4 < < 4 z j 4 4 j z v F F v v F z j z v v v F z z z 4 o # z z j j z j j z j 4 < 4 4 4 < < < < 4 < 4 < < 4 j j = < j j z j j v v z z j z z v v v z j z z ",
"j 4 : < 4 z j j j j z F v z 4 < # < 4 j j < 4 z z j j z v 4 < < 4 < j z j j j v v z z z z v z j z j 4 4 j j j j j z z j 4 j j j z j j j 4 j v z z j j j j 4 o o # v z z z z z z j j 4 < 4 4 4 4 4 < = : < j < 4 j z j < j j 4 < j z z 4 j < j v v v z z j < j z ",
"4 j 4 < 4 4 v z z 4 z z j 4 4 # # - < j j j j j 4 < 4 j j < = # o = = < < 4 j j z z j j j j 4 < < 4 < 4 j > 4 = < = = o = 4 j 4 j 4 j j < z j 4 < < < o # o o o # j 4 4 j z z j j 4 < < 4 < < # o # o o # < < < 4 4 o + = < # # < < < 4 < < 4 z z z j j j i j z ",
"o # o + o o o o o < 4 < < o o o # o o = # - < = o # = = # = # o o o - - o o @ o o o o o + o @ o o o o # - - o o o # o - o - < # o o o o - - # - o o + o o o o o # - # < 4 4 < < < < o # = o o o # o o o # o # < o o # o + - o # + o o o O # O : 4 4 = = # o = o "
};
