/* XPM */
static const char *wall_ma1[] = {
/* columns rows colors chars-per-pixel */
"128 128 250 2 ",
"   c #080706",
".  c #0B0906",
"X  c #0E0D0C",
"o  c #130E0A",
"O  c #15110C",
"+  c #1C160C",
"@  c #1D180D",
"#  c #151414",
"$  c #191612",
"%  c #1D1A15",
"&  c #171818",
"*  c #1D1C1B",
"=  c #2C0B07",
"-  c #320B05",
";  c #3B0B06",
":  c #3B0E09",
">  c #24140B",
",  c #2C130A",
"<  c #231B0D",
"1  c #2A1C0D",
"2  c #361107",
"3  c #331309",
"4  c #3C1309",
"5  c #341A0C",
"6  c #3C1A0C",
"7  c #2C1413",
"8  c #221D13",
"9  c #2B1C12",
"0  c #211F1A",
"q  c #281F1C",
"w  c #341413",
"e  c #361B16",
"r  c #3C1B12",
"t  c #1F2017",
"y  c #1E201D",
"u  c #2A220E",
"i  c #262114",
"p  c #2C2513",
"a  c #2E2916",
"s  c #24221C",
"d  c #2A261C",
"f  c #27281F",
"g  c #2E291C",
"h  c #322612",
"j  c #3D2414",
"k  c #342B14",
"l  c #3B2D15",
"z  c #33251C",
"x  c #3E241A",
"c  c #342C1A",
"v  c #3A2E1B",
"b  c #373016",
"n  c #3D3017",
"m  c #35301D",
"M  c #3D311C",
"N  c #1F1F20",
"B  c #1F2021",
"V  c #252523",
"C  c #292722",
"Z  c #272825",
"A  c #2C2924",
"S  c #262728",
"D  c #272929",
"F  c #2C2C2B",
"G  c #392724",
"H  c #322D23",
"J  c #392F21",
"K  c #312E2A",
"L  c #2E312C",
"P  c #353025",
"I  c #3C3222",
"U  c #34322C",
"Y  c #3A342C",
"T  c #3D392E",
"R  c #2E2F30",
"E  c #2E3031",
"W  c #333333",
"Q  c #393631",
"!  c #373837",
"~  c #3C3934",
"^  c #3B3B3B",
"/  c #460402",
"(  c #4C0504",
")  c #4B0A05",
"_  c #470C08",
"`  c #540504",
"'  c #5C0302",
"]  c #530905",
"[  c #5B0A05",
"{  c #550C0A",
"}  c #5C0B09",
"|  c #44120A",
" . c #4B130B",
".. c #4C170B",
"X. c #431B0C",
"o. c #58160C",
"O. c #450F10",
"+. c #461915",
"@. c #4E1C13",
"#. c #531C14",
"$. c #581A15",
"%. c #640201",
"&. c #6C0202",
"*. c #630A06",
"=. c #6B0904",
"-. c #660D0B",
";. c #6B0D09",
":. c #730101",
">. c #7C0100",
",. c #7B0A05",
"<. c #730B08",
"1. c #7C0B0A",
"2. c #63130C",
"3. c #6B120C",
"4. c #67180A",
"5. c #73120C",
"6. c #7C130C",
"7. c #6B1512",
"8. c #651B13",
"9. c #751510",
"0. c #741A10",
"q. c #7B1813",
"w. c #49220E",
"e. c #58240E",
"r. c #432412",
"t. c #4C2513",
"y. c #412D15",
"u. c #4A2A15",
"i. c #43261A",
"p. c #432B1B",
"a. c #4B2B1B",
"s. c #532413",
"d. c #5B2413",
"f. c #522A15",
"g. c #522B1B",
"h. c #5C2818",
"j. c #413117",
"k. c #4E3114",
"l. c #43331B",
"z. c #49361B",
"x. c #46391E",
"c. c #4C391C",
"v. c #58351B",
"b. c #513D1E",
"n. c #68260B",
"m. c #792408",
"M. c #7E3A0F",
"N. c #622514",
"B. c #6B2513",
"V. c #6B2A14",
"C. c #672A19",
"Z. c #762917",
"A. c #6A371C",
"S. c #73331B",
"D. c #763519",
"F. c #7A341B",
"G. c #452924",
"H. c #592724",
"J. c #433521",
"K. c #463923",
"L. c #4A3B23",
"P. c #483728",
"I. c #423A2A",
"U. c #533E22",
"Y. c #573829",
"T. c #423C34",
"R. c #433D36",
"E. c #583635",
"W. c #612522",
"Q. c #662D28",
"!. c #742C24",
"~. c #653A24",
"^. c #743223",
"/. c #743A22",
"(. c #55401F",
"). c #6C421E",
"_. c #554123",
"`. c #5B4323",
"'. c #54432B",
"]. c #5A452B",
"[. c #5B482C",
"{. c #484238",
"}. c #534534",
"|. c #644224",
" X c #644727",
".X c #444444",
"XX c #830100",
"oX c #8C0100",
"OX c #830A05",
"+X c #8C0A05",
"@X c #850708",
"#X c #830C0B",
"$X c #8C0B0A",
"%X c #940000",
"&X c #9C0100",
"*X c #930B05",
"=X c #9B0A05",
"-X c #940B0A",
";X c #990A0A",
":X c #83120C",
">X c #871908",
",X c #981609",
"<X c #881712",
"1X c #971813",
"2X c #A40000",
"3X c #AB0000",
"4X c #A40B05",
"5X c #AC0B05",
"6X c #A30E0B",
"7X c #AC0C0A",
"8X c #B30000",
"9X c #BC0000",
"0X c #B30C06",
"qX c #BB0C05",
"wX c #B40C0B",
"eX c #BB0D0B",
"rX c #A71507",
"tX c #B61504",
"yX c #AA1513",
"uX c #B11415",
"iX c #852309",
"pX c #972707",
"aX c #8D390B",
"sX c #882916",
"dX c #8C221C",
"fX c #962619",
"gX c #84351A",
"hX c #B22708",
"jX c #C30000",
"kX c #CB0000",
"lX c #C30C05",
"zX c #CA0B05",
"xX c #C30D0A",
"cX c #D40000",
"vX c #DB0000",
"bX c #D30A03",
"nX c #D90B06",
"mX c #C51008",
"MX c #D7120E",
"NX c #E30000",
"BX c #EC0000",
"VX c #E70B03",
"CX c #F30000",
"ZX c #FD0101",
"AX c #F50C0C",
"SX c #FF0B0B",
"DX c #E61313",
"FX c #F11414",
"GX c #FE1313",
"HX c #FF1919",
/* pixels */
".X^ W K c k k l l.c.c.c.c.c.c.J.U K v y.y.y.l l l I ~ ~ K.c.c.J.U R R U J.z.j.I ~ ^ W K v j.z.z.j.y.j.M K R R U J.c.c.J.U U J.J.U F c l l.c.c.l.U E W W R K v l k l l.c.c.c.c.K.~ ^ ^ ^ ^ T.K.J.U F c k k k l I ~ ^ W K c k k c K K v j.z.c.c.K.~ ^ ^ ^ ^ W g u ",
"^ ^ W A c k k k j.l.l.l.l.z.l.M K K v l l l l l l M Y T K.c.z.l.K F F K l.l.l v Y W R K v v l.l.v k h z K W E U I l.l.I K K I I K A c l j.l.l.I K D Z S F U v l k k j.z.l.l.z.J.T ~ W W Q T J.I H A g k k k l M Y W U A c k k g F K v j.l.l.z.J.T ~ Q W Q U d i ",
"W W F A v l k k k v H H M j.l v A A v l k k l l l k v M K.c.l.v A D D A v l k p A F D Z A A H A d % o $ F W W F H H H A D D A A D A v v H H U K V % X # F Y v k p k l j.l l j.j.l.I K F H v H H c c A g k k k k v H A A i i d Z F U M l l l j.j.l.I K F H g s * ",
"Y U A H v v k k k k g g c l k c A A H v h h l l k k l n l.l.M v A D D A v l h i C Z Z S D D S V * #   X Z W W F D Z Z S A A S S D A v v H A A Z 0 #   X Z U v k p p c v v v l l l v H g k a g g k c A A c k k k l v A C i p d A F K H v v v v l l v g g a p 8 % ",
"L.K.M v H H c k k k k k h h k c A D K H k k l l k l j.l.n v H A F F F K v l k a C S Z D F F D Z * # o O * Z F F D S S Z c c A D F A v k v c g d * # o O * d c v g C A A A H v k k l v c h p a c l v K K v l l n l.M A V i p c v A D A A F H v l l k k a p u < @ ",
"L.K.l.J K F g p p p p p u u p p d Z Z A a k l l k k l l k a V Z Z F F H v l k a A S Z D F F D Z s % + $ % V A K A A A H v v g Z F K c k j.l h p 8 % + $ % s c v A Z D D F H c k a k k k i i a k l v H H v l l v M v A V i p k c C V V Z Z A v l k c c a p i < < ",
"Y U U K F Z s 8 < < < < < < < < i i 8 8 * s h h < < < u p i y y d d V A c k h p C S S D F R F A d 8 % % * V c v v v v v y.l h d F K c l j.j.k u i 8 % % * Z F H c g F F c k k a i 0 0 s s d i p p p p i p h h h d s * * * 8 8 8 * * * * % i k c g A A C C d p u ",
"R F F F D V 0 8 > , , , , , , 3 5 5 3 , 7 w r 6 3 3 3 3 5 5 7 w 6 6 e z l k h i C S S D F F F A p p s N V C c v l l l c c h u p C A g v j.j.k p p d s N V S K P v v K K c k k p s * 0 q q e 6 6 5 5 5 5 6 6 X.r 7 7 7 7 7 7 , , 7 7 7 7 , 3 X.r.A S S S S V p u ",
"R F D S Z V i 1 ; / / ( ` ` ` ` ( ] ` ` ] ] [ [ ' ' ' [ [ ` ] [ *.;.2.$.a.M k a C S Z Z D D D A k a d Z Z S Z H k k d s s 8 < < 8 q V H v n k k A A Z Z Z A I l.j.v K F F H k a s V c i.#.} *.' ] ( ( ] ] [ [ ] ( ( ] ] ( ( ` ` ] ] ] ] ` ' =.2.G F S S S V 8 < ",
"U K D Z V d i 5 ) ' %.&.&.:.:.&.&.&.&.:.:.:.:.>.XXXXXXXXXXXX>.>.,.,.7.N.g.l.n v g Z D Z C V Z V g g V V V V V d p p % % % % @ @ < 8 d A v k k c A F Z Z Z A I l.v v H K K K H g d g v a.$.2.;.=.&.&.&.&.:.:.:.:.&.&.&.:.&.&.&.:.:.:.:.:.:.XX%X#Xa.F A H A d 8 + ",
"I I K F g a d e ] &.>.XXXXXXXXXXXXXXXXXXoX%X%X&X2X2X&X2X3X8X2X*X>Xn.H.P.J.l.l.j.v g F F d i 0 s s s s * 8 8 8 8 < < @ % @ @ @ < p a a a p p u i V V N N V Z A A A H v J K F K A g c M l.u.u.f.8.OXoXXXXXoXoX%XoX>.>.XXXXoXoXXXXXXXXXoXoXoX&X8X=Xs.c M l.v h < + ",
"l.I K F g a V e [ :.oX%XoXoX%X%X%X%X%X%X&X2X3X8X8X8X9X9X9X0X4X>Xn.f.T W I l.l.j.k g A A p < % * 0 0 * % @ + + + < > > , , , , 5 j r.r.j 5 5 u p d s s s d V C C V A c v F F F A v l j.j.l v M g.5.@X@XoX&X&X&X&XoXoXoX%X&X&X%X%X%X%X&X&X2X3XkX5Xd.n l.l.j.k < + ",
"l.M H D Z V y w [ >.%X%XoX%X&X2X2X&X&X&X2X8X8X9X9XjXcXkXrXiXZ.v.G.I U W U I l.v d s Z V 8 < @ @ % % @ @ + + + @ < , - ; _ _ { { o.o.o.{ ) | e h a a a a a a g a i d g Z S Z S A v l j.l k a A H G #.7.@X%X2X2X2X&X%X%X&X2X2X2X2X2X2X2X2X3X9XkX0XV.x.l.j.l p % # ",
"j.v A A A V * w ' XX%X&X%X%X2X3X3X3X2X2X8X9XjXkXkXkXkXtXiXV.v.K.U F F F R K v a 8 % * 0 % + + + < > , 3 2 2 4 | | ) ` ' %.=.<.1.1.1.1.:.=.*.o.@.@.w.w.w.r.j l k p i g C d C C H v v v v p p d C Z G #.3.6.*X2X3X2X&X&X2X2X2X3X2X2X3X3X3X8X9XcX0XS.x.M v k p % # ",
"k k k c v c 8 2 %.XX%X&X&X2X2X3X3X8X3X8X9XkXvXNXvXlXrXm.H.P.l.M A D F W W F V 8 + O @ % @ + + @ < 5  .} =.:.>.,.OXOXXXoXoXoXoX%X%X&X2X&X%XoX@X+XOX,.,.;.2.#.r.v k a a g a c v v l v H H p u p a M y.j r.f.m.=X8X3X2X2X2X2X2X2X2X2X3X8X9X8X9XcX0XV.M H A k p < + ",
"k k k l v c < 2 %.XX%X2X2X3X3X3X8X8X8X9XkXvXNXvXlXrXm.v.T Y v c A D F F F Z * $ + + + > , 3 2 4 | { ;.,.oX%X2X2X2X&X&X%X%X%X%X&X&X2X3X3X2X2X2X3X2X&X&XoX@X5.8.s.s.t.r.j k k l l k g A A d p u h M M k a n h.:X=X2X2X2X3X3X3X3X3X3X8X9X9X9XjXvXqXB.P A A g p < + ",
"M M l v H A 8 3 ' XX&X2X2X3X8X9X8X8XjXkXvXvXvXlXsXA.Y.I.W F g p C S D Z V * % @ + + + > : [ :.,.OX@X%X&X&X&X3X3X3X2X%XoXXXXXXXoX%X%X&X2X3X3X3X3X3X3X2X2X2X=X*X+X+X#X3.#.j k k k s s d d d d p p H P c k k y.f.8.OX&X2X3X3X3X3X3X8X9X8X9XjXcXNXeXH.A g g A d 8 + ",
"l.l.M I U F i 2 %.XX&X3X3X3X9X9X9X9XkXvXvXkXwX1X~.I.T W U A p p d V V s * % @ > > , 2 _ [ >.%X2X2X2X3X3X2X2X3X8X2X&XoXXX:.&.:.>.XXoX&X2X3X8X3X3X8X8X3X3X8X8X3X3X3X2X*X6.2.@.r.j q 8 p i C C i p H H c c k k n u.2.,.&X3X3X3X3X3X9X9X9X9XjXvXBXxXH.L c k A V 8 < ",
"l.l.P U W U d 6 *.oX&X3X3X8X9XjXjXkXNXNXkX7X!.E.T.Y H g c c k a p p 8 % @ @ @ > : ] =.OXoX%X2X3X3X3X8X8X3X3X8X3X&XoXXX>.&.%.%.&.XX%X&X2X3X8X8X8X8X8X3X3X8X8X8X8X9X9X8X5X=XOX3.@.e p a a A C a k v J H H v l k k z #.@X2X3X3X3X8X9X9X9X9XjXcXBXxXQ.W c k A V p u ",
"l.M H K U H d 6 =.oX&X3X8X9X9XjXcXvXNXcX0X<XY.^ ! U a u u p p p p < < + > , 3 _ [ >.%X&X2X2X3X3X8X8X8X8X8X8X8X3X%XXX>.:.' ' ' &.XX%X2X8X8X9X8X8X8X8X3X3X8X8X8X8X9XjXjXjX9X3X$X5.o.@.r.j g g d k c v F K H v c g f e 3.oX&X3X8X8X9X9XjXjXjXcXBXxXQ.W P g A d p i ",
"l.M v c g d s w =.%X2X3X9XjXjXcXNXNXkX0XsXA.L.Y Q U g u < < < 8 8 % @ > - / %.,.%X&X&X2X3X3X8X8X8X8X8X8X8X8X8X3X%XXX:.%.' ` ' &.oX2X8X9XjXjX9X8X8X8X8X8X8X8X8X8X9XjXkXjX9X8X2X4X=X+X3.@.j a s s d C Z D A A A A c l X.o.oX2X8X8X8X9XjXjXjXkXBXxXW.E L H c a s * ",
"M n l k h p % w :.%X2X8XjXkXcXvXNXcX5X<X~.L.l.I Y P k u < + + @ % % , ; ` &.oX2X3X8X2X2X3X8X8X8X8X8X8X8X8X8X8X3X&XoX:.%.' ' %.:.XX&X8XjXjXjX9X8X8X8X8X8X8X8X8X9X9XjXjXjX9X8X8X8X9X3X$X3.#.j 9 0 s V C A D D Z H v l a r 3.+X2X8X8X9XjXkXjXkXBXxXW.L U H k p 8 % ",
"k l l l l k 8 2 :.%X3X8XjXcXNXNXvXqX>Xg.J.Y U H v v k p < + + @ @ , _ %.XX%X2X3X8X8X8X3X3X3X9X9X8X8X8X8X9X9X8X3X2X&XoX>.%.%.&.:.>.oX3X9XjX9X8X8X8X8X8X8X8X8X9X9X9X9XjXjX9X9X8X8X9X9X3X&XOX2.r p a a k g F K H v l v g d r.4.+X3X8X9XjXkXkXcXBXxXC.I M v h u < @ ",
"v v v v v c < 2 :.%X3X9XjXcXNXvXqX>Xh.M H F F F g p p u < + < < 3 _ &.XX&X3X8X8X8X8X8X3X3X3X8X9X8X8X8X8X9X9X9X8X3X2X&XoX>.:.:.:.:.>.%X3X8X9X8X8X8X8X8X8X8X8X9X9XjXjXjXjX9X9X8X9X9X9X9X8X2X@X2.t.j k k c H H v l v v Z Z g r.-.@X2X9XjXkXkXcXBXxXC.M M l p i @ + ",
"Q Y U K A d 8 2 :.%X3X9XjXcXvXlX>Xs.y.k a d Z Z s 8 @ + + < < 4 [ ,.%X2X2X3X9X9X9X9X3X3X3X8X8X8X9X9X8X8X8X9X9X9X8X8X8X3X&XoX>.:.:.:.>.oX2X3X3X3X9X9X8X8X9X9X8X9XjXkXkXjX9X8X9X9X9XjX9X9X8X2X%X5.t.v k k c c k k g Z S Z Z C e { *X8XjXkXjXcXBXxXW.P n v g s % # ",
"^ ! W F Z d % 2 :.&X3XjXcXcXzXrXd.b k k u p d V * $ O + + 1 4 } OX&X8X8X8X8X9XjXjX9X3X3X8X8X8X9X9X9X9X8X8X9X9X9X8X8X9X9X8X2XoX>.:.:.:.>.%X2X2X3X8X9X8X9X9X9X8X9XjXkXkXjX9X9X9XjXjX9XjX9X9X8X8X=X0.s.l k k k k c A S Z Z A C y e 5.4XjXkXjXcXBXxXW.U v v A V % $ ",
"^ ! F Z g i * w =.&X8XcXNXbXrXm.f.M k k u p p i % $ + + < 4 =.oX&X3X8X9X9X9X9X9XjX9X8X8X8X8X9X9X9X9X9X9X9X9X9X9X8X8X8X9XjX9X&XoX>.:.:.:.XX%X2X3X3X8X9X9X9X9X8X9XjXkXkXjX9X9X9X9X9X9X9X9X9X9X9X8X4X6.s.v k k k g A S S Z v v a k f.m.0XkXkXcXBXxXC.P A Z Z V i 8 ",
"T.Q A d g d * w =.&XjXvXvXtXiXe.l.M c p p u u < $ $ @ 1 4 } oX2X3X3X9XjXjX9X9X9XjX9X8X8X8X8X9XjXjX9XjXjX9XjXjX9X9X8X8X9XjXjX8X&XXX:.:.:.>.XX%X2X3X8X9XjXjX9X8X9XjXkXkXkXjX9X9X9X9X9X9X9X9XjX9X9X9X4X0.t.l k k k g A A A v v k k M h.;X9XkXvXBXxXB.M H Z Z V p u ",
"L.K.c d d d % 2 =.2XcXvXtXiXe.j.I K A s 8 < < < @ @ < 4 =.oX&X3X3X8X9X9X9X9X9X9X9X9X8X8X8X8X9XjXjXjXjXjXjXjX9X9X9X9X8X8X9XjXjX8X%X>.:.:.:.>.oX&X8XjXkXjXjX9X9XjXjXkXkXkXjX9X9X9X9X9X9X9X9X9X9X9X9X8X=X6.s.v k k v v c g A g k k k u.0.6XlXNXBXxXB.M M H A V 8 < ",
"b.z.l p Z V 8 2 :.3XcXbXpXV.k.M U F S s % @ + + < 1 4 *.%X3X3X3X8X9X9XjXjXjXjXjXjX9X9X8X8X8X9X9X9X8X8X9X9X9X9X9X9X9X9X9X9XjXkX9X2XoX>.:.:.>.>.%X9XkXkXkXjX9XjXjXkXkXkXkXjXjXjXjXjXjXjXjXjXjX9XjXjX9X8X=X0.s.l k l l v c Z Z c c g j #.6.0XvXBXxXB.M M M H Z 8 @ ",
"z.l.l v K Z i X.,.3XkXqXsXv.c.l.U F D V * % @ < < 4 <.%X3X8X8X8X9X9XjXkXkXjXjXjXjXjX9X9X9X9X8X3X2X2X2X3X9X9X9X9X9X9X9X9XjXkXkXjX8X&XXX>.>.>.:.oX8XjXkXkXjXjXjXkXkXkXcXcXkXkXkXkXkXkXkXkXkXjXjXjXjXjX9X8X4X:Xs.v k v U U F F F F Z d j o.*XkXNXxXB.M l v U F s % ",
"I M M I H A d X.OX3X0X1XS._.K.I K F Z d * % @ > 4 -.&X9XjXjX9X9X9XjXkXkXkXkXjXjXkXkXjX9X9X8X3X&XoXoX%X2X8XjXjXjXjXjXjXjXkXkXkXjX9X3X%XXXXX>.:.XX2X9XkXkXjXjXkXkXkXcXcXcXkXkXkXkXkXkXkXkXkXkXjXjXkXkXjX9X9X4X0.s.h c U W W F K F D V i r.5.5XvXmXZ.M m P Y K s % ",
"U K K P v c s O.=X5XsXS.v.L.Y K D Z d i 8 @ @ 3 =.&X8XjXkXjX9X9X9XjXkXkXkXkXkXkXcXcXjX9X8X3X2X%X:.:.oX2X8XjXjXkXkXkXkXkXkXkXkXkXjX8X2X%XXX>.>.XXoX2XjXcXcXcXkXkXcXcXcXcXkXkXkXkXkXkXkXkXkXkXkXkXkXkXjXjXjX9X5X:X@.k v I U K c c Z A a j f.iXbXzXZ.L.Y U P c i i ",
"W W W U I c y O.=X6XS._.L.K.Y F Z s 8 < @ > , { %X9XkXkXkXkXjXjXjXjXkXkXkXkXkXcXcXkXjX8X2X&X%X>.%.%.XX&X8XjXkXkXkXkXkXkXkXkXkXkXjX9X8X2X%XXXXXXXXX&XjXcXcXcXcXcXvXvXvXcXcXkXkXkXkXkXkXkXkXkXkXkXkXkXjXjXkXkXkX3X3.r.l v K A c k A A c k n B.qXxXS.I.T U c a p i ",
"^ ^ ! W U Z y r +X=XN.J.T T I c s * + + + , ) >.8XcXcXcXkXkXkXkXkXkXcXcXkXkXcXcXcXkX9X3X&XXX:.%.' %.>.%X3X9XjXkXkXkXkXkXkXkXcXcXkXjXjX9X2XoXXX>.>.%X8XkXcXvXvXvXNXvXvXcXcXcXcXcXcXcXkXkXcXcXcXcXkXkXkXkXkXkXcXjX&X3.r.g Z Z c k A A c k a #.=X6XQ.~ I v A V 0 * ",
"^ ^ W U K Z s r 5.6.g.I Y Y J c 8 $ + + > | :.&XjXvXvXcXcXkXkXkXkXkXcXcXcXcXcXcXcXjX9X3X%XXX&.%.%.&.:.oX&X8XjXcXcXkXkXkXkXcXcXcXcXkXkXjX3X&XXX>.>.oX3XjXcXvXvXNXNXNXvXvXvXcXcXcXcXcXcXcXcXvXvXcXcXkXkXkXkXcXvXkX9X+Xo.h g g a a C A c k u X.6.q.Y.T M v g V * % ",
"^ ~ P v c g p h s.h.P.Y I J H d 8 @ + > : *.&XjXcXvXvXvXvXcXkXkXkXkXcXcXcXcXcXcXcXkX9X3X&XoXXX>.:.>.>.XXoX2XjXvXvXvXkXkXcXcXcXcXcXcXkXjX8X2XoX>.>.oX2X9XcXNXvXvXNXNXNXvXvXcXcXcXvXcXcXcXcXcXcXcXcXcXkXkXcXvXvXvXkX5X5.@.j a p i V A c k u h s.h.U.K.n k k d 0 * ",
"~ Y c k k k p c M I.~ Y v c C V % + + 3 ] XX9XcXvXvXNXNXvXcXkXkXkXkXcXvXvXcXvXvXvXcXjX8X3X3X2X&XoXXX>.>.XX%X9XcXvXNXcXcXcXcXcXvXvXvXcXkXjX3XoX>.>.XX&X8XcXNXvXvXNXNXNXNXvXvXvXvXvXvXvXvXcXcXvXvXvXcXkXkXcXvXNXNXcX9X;X5.r.k k k g g k k i k l.c.b.c.n k k i 8 % ",
"J.I A g k k A U Q T I v k p s * # # + 4 ,.3XkXvXvXNXBXBXvXcXkXkXkXcXvXvXvXvXvXvXvXcXkXjXkXcXcXjX2XoXXX>.>.oX&X9XcXNXNXvXvXcXcXvXvXvXcXcXcX9X%X>.>.XX%X8XvXBXNXNXBXBXNXNXvXvXvXvXvXvXvXvXvXvXvXvXvXcXkXkXcXvXBXBXvXcXjX=X#.k n j.v v k a d H x.b.b.z.j.v g d 8 @ ",
"z.l.K A c v H U Y Y I c p 8 % $ $ $ > { &XjXcXvXNXBXBXBXvXcXcXkXkXcXvXvXvXvXNXNXvXcXcXcXvXNXBXvX9X2XoXXXXXXXoX2XkXNXNXNXvXvXvXvXvXvXvXvXvXjX%X>.>.XXoX3XvXCXBXBXBXBXBXNXvXvXNXNXvXvXvXvXvXvXNXNXvXcXcXkXcXvXBXBXvXvXvXqX4.r.j.l.j.l k a A A J.c.l.j.j.v A V 8 + ",
"b.K.Y U v l v M M I P A s % + O + > | <.8XcXcXvXNXBXBXNXNXvXcXcXcXcXvXvXvXNXNXNXNXvXcXcXvXNXBXBXNXkX2XoXoXXXXX%X9XvXNXNXNXNXNXvXvXvXvXNXvXjX&XXX>.XXoX2XvXCXBXBXNXNXBXNXvXvXNXNXNXvXvXvXvXNXNXNXNXvXcXcXcXvXNXNXNXNXNXzX>Xn.y.l l l k c A Z A H v l l v A V 8 + ",
"b.L.Q W I v l l v J U D 0 $ + + + 3 -.=XjXcXvXvXBXBXBXNXNXvXvXcXcXcXvXvXNXNXNXNXNXNXvXcXcXvXBXCXCXvX9X2X%XXX>.oX8XkXvXNXNXNXNXNXvXvXNXNXvXkX2XoXXXXXXX2XcXBXBXBXNXBXBXBXvXvXNXNXNXNXvXvXNXNXNXNXNXvXvXcXcXvXvXNXNXNXNXcXtX>Xt.k l l k g A Z C g k k v v A s 8 + ",
"z.J.U W U H v v H K U D 8 @ + + + | +X9XkXcXvXNXBXBXBXBXvXvXvXcXcXcXvXNXNXNXNXNXNXvXcXkXcXvXBXBXBXNXcX9X&XXX>.oX2X9XcXNXNXNXNXNXNXNXNXNXNXcX8X%XXXXXXX&XkXNXNXNXBXBXBXBXvXvXNXNXNXNXNXNXNXNXNXNXvXvXvXcXcXvXNXNXvXvXNXNXcXrXd.k k k k g A S g k l v H H c p < + ",
"I I K F R K v H K R F S 8 + + > , { 3XcXcXcXNXBXBXCXCXBXvXvXcXcXcXcXvXNXNXNXNXNXNXvXcXkXcXvXBXBXNXNXvXjX&XXXXXXX%X3XcXNXNXNXNXNXNXNXNXNXNXcX8X&XXX>.XX&XjXvXNXBXBXCXBXBXvXvXNXNXNXNXNXNXNXNXNXNXvXvXvXvXvXvXNXNXvXvXNXNXBXlXm.y.k k l v H A c v l v K F H k 8 < ",
"U K F D F F A A F F D V 8 + @ , ) >.8XcXvXNXBXBXBXCXCXBXNXvXvXcXcXvXvXNXNXNXNXNXNXvXvXcXcXvXNXNXNXNXvXjX&XXXXXXXXX&XkXNXNXNXNXNXNXNXNXNXNXcX8X&X>.&.>.%XjXvXBXBXBXCXCXBXNXNXNXNXNXNXNXNXNXNXNXNXNXvXvXvXvXNXNXNXvXvXvXNXBXbX>Xn.y.l l.c.M v H H v c A F U H p 1 ",
"U K D D F F D D F D V * @ + + 2 &.&X9XcXvXNXBXBXCXBXBXBXNXNXvXcXcXvXNXNXNXNXNXNXNXNXvXcXcXvXNXNXNXNXvXjX2X%XoXXXXX%XjXvXNXNXNXNXNXNXNXNXNXcX8X%X:.&.>.%XjXvXBXBXBXBXBXBXNXNXNXNXNXNXNXNXNXNXNXNXNXNXvXvXNXNXNXNXvXvXNXBXBXvXtX>Xw.b c.c.l.v H H c p d S F F i 1 ",
"I J A S D D S D D Z B % O + + 4 OX8XkXvXNXNXBXBXBXBXCXBXNXNXvXcXcXvXNXNXNXNXNXNXNXNXvXcXcXvXNXNXNXNXvXkX8X2X%XoXXX%X3XjXNXBXBXBXNXNXNXNXNXcX8X%X:.&.>.&XjXvXNXBXBXBXBXBXNXNXNXNXNXNXNXNXNXNXNXNXNXvXvXvXNXNXNXvXvXvXNXBXCXNXbX=Xe.k M l.j.v v v k p 0 N V s 8 < ",
"l.M H A A A D D Z d * $ + + > ) &XjXcXvXNXBXBXBXBXBXBXBXNXNXvXcXkXkXcXvXvXNXNXNXNXNXvXvXcXvXNXNXNXNXvXcXjX8X%XoXoX%X&X8XvXCXCXBXNXNXNXNXNXcX8X%X:.&.XX&XjXvXNXBXBXCXCXBXNXNXNXNXNXNXNXNXNXNXNXNXNXvXvXvXNXNXNXNXvXvXBXCXCXBXNXqX4.h l l n v v c k i s * 0 8 < < ",
"l.M v k v H K F c p 8 @ + > : *.3XcXvXNXBXBXBXBXBXBXBXBXNXvXcXjX8X8XjXkXcXvXBXBXNXNXNXvXvXvXNXBXNXNXNXvXcX9X&XoXoXoX%X8XvXCXZXCXBXNXBXBXNXcX8X%X:.&.XX&X9XcXNXBXBXCXZXCXBXNXNXNXBXBXNXNXBXBXNXNXNXvXvXvXNXNXNXNXNXNXBXCXBXCXBXzX6.@.j l M M H g c c C C c k p u ",
"I M M v c c F A c u < + + , ) >.9XvXNXBXBXBXBXCXCXCXCXBXNXvXkX8X%X%X2X9XcXNXBXBXBXNXNXNXvXvXNXBXBXNXNXNXvXjX&XXXXXoX%X8XvXZXZXZXBXBXBXBXBXcX9X%X:.:.XX&X9XcXBXCXBXCXZXZXBXNXNXBXBXBXBXBXBXBXBXNXNXNXvXvXNXNXNXNXNXNXBXBXBXCXCXcX;X2.r.k M I H H v c C C c k p u ",
"U U Y U d s Z C p u < + + 2 *.%XjXvXBXBXNXBXBXCXZXZXZXCXvXkX9X&X>.:.oX3XcXNXNXBXBXBXNXNXNXNXNXBXBXBXNXvXcX9X%XXXXXXX%X8XNXZXZXZXCXBXBXBXBXvX9X&X>.:.XX&X9XvXCXZXCXCXZXZXBXNXBXBXBXBXBXBXBXBXBXBXBXBXNXNXNXNXBXBXNXNXNXBXBXCXZXNX3X<.w.c H Y I M k p s 0 s s p u ",
"F F F Z * % * s d p < < @ 2 >.3XkXNXBXBXBXBXCXCXZXZXZXCXcX9X2XXX&.%.>.&XjXvXNXNXBXBXNXNXNXNXNXBXBXBXBXvXcX8X%XXXXXXX%X8XNXZXZXZXCXBXBXCXCXNX9X%X>.:.XX&X9XvXCXZXCXCXZXZXBXBXBXBXBXCXCXCXCXBXBXBXBXBXBXNXNXBXBXBXBXNXNXNXBXCXZXBXjX+Xs.c U U I v p 8 % $ # # 8 i ",
"W Z # X o $ % * V d p < @ | +XjXcXNXBXCXCXZXZXZXCXCXZXCXcX3XXX:.&.:.>.oX2X9XcXBXBXBXNXNXNXNXBXBXBXBXBXNXkX8X%XXXXXoX%X8XNXZXZXZXCXBXBXCXZXNX8XoX:.&.XX&XkXBXZXZXZXZXZXZXCXBXBXBXBXCXZXZXCXBXBXBXBXBXBXBXBXBXBXBXBXBXBXBXBXCXZXCXNX5Xe.c W W K A s % + o   . $ * ",
"E Z X   o + % s V d p < @ | =XcXNXBXBXCXZXZXZXZXCXCXZXCXcX3XXX:.:.>.>.XXoX2XjXvXBXBXBXNXNXBXCXCXCXCXCXNXkX8X%XoXoXoX%X8XNXZXZXZXCXCXCXCXZXNX8XoX:.&.XX2XcXBXZXZXZXZXZXZXCXCXCXCXCXCXZXZXCXCXBXBXCXCXBXBXBXCXCXCXBXBXBXCXCXCXZXZXCXqXN.m W W F V N % $ O X # & * ",
"R S % # # % 8 i a p < @ +  .4XvXCXCXCXCXZXZXZXZXZXZXZXCXkX8X&XoXXXXXXXoXoX%X2X9XvXBXBXBXBXCXZXZXZXZXCXNXcX8X%XXXoXoX%X8XBXZXZXZXZXZXCXBXBXcX2XXX:.:.XX2XcXCXZXZXZXZXZXZXCXCXZXZXZXZXCXCXZXZXCXCXZXCXBXNXBXCXZXCXBXNXBXCXZXZXZXZXZXzXB.m U R D Z V * % * Z Z * % ",
"Y K V * * 8 p p k a < > > { 8XBXZXZXCXCXZXZXZXZXSXSXZXCXcXjX9X8X3X&X%XoXoXoX%X2XjXvXNXBXBXCXZXZXZXZXCXBXcX8XoX>.XXoX&X8XBXZXZXZXZXZXCXBXNXjX&X>.:.:.XX2XvXZXZXZXSXSXZXZXCXCXZXZXZXZXCXCXZXZXCXCXZXZXBXNXBXCXZXZXBXBXBXCXZXZXZXZXZXbX0.v K F A Z Z V s d U K V % ",
"L.K.K Z s p u p A A i 1 - %.9XCXZXZXCXCXZXZXZXSXGXGXSXCXvXcXNXNXvXkX3X&X&X%XoX%X2X9XcXNXBXCXZXZXCXCXZXCXvX8XoX>.XX%X&X9XBXZXZXZXCXCXZXCXcX8XoX:.:.>.oX8XNXZXZXSXGXGXSXZXZXZXCXCXZXZXZXZXCXCXZXZXZXZXCXBXBXCXZXZXCXBXCXZXCXCXZXZXZXnX:X#.G K H v Z V d a v g 0 % ",
"b.K.Y K g p p g A A i 1 ; :.kXCXZXZXCXCXZXZXZXSXHXHXSXCXBXBXZXZXZXNXkX8X2X&X%XoX%X2X9XkXNXBXZXZXCXCXCXBXcX3XXX:.XX%X2XjXBXZXZXZXCXCXZXBXcX3XXX:.:.XX%X9XBXZXZXSXGXGXSXSXZXZXCXCXZXZXZXZXCXCXZXZXZXZXCXCXBXCXZXZXCXCXZXZXCXCXZXZXZXvX-X$.G U I v H A k k k d 0 % ",
"l.J.Q U c k A A g i % > _ >.kXCXCXCXZXZXZXZXZXSXHXHXSXZXZXZXZXZXZXCXNXkX8X&X&X%X%X%X&X3XkXNXBXCXZXCXBXcX9X2XXX:.XX%X3XkXBXZXZXZXZXZXCXBXcX8XoX>.XXoX2XjXBXZXZXZXSXSXGXGXSXZXZXZXZXZXCXCXZXZXZXZXCXCXZXZXCXCXZXZXCXCXZXZXZXZXZXZXZXNXrXn.G.L K H v v v v g V * % ",
"l.J.Y U v v P H p < % > _ @XkXCXCXCXZXZXSXSXZXSXHXHXSXZXSXSXZXZXZXZXZXBXzX0X2X%X+X@XXX%X8XkXvXBXCXBXvXjX3X%X>.:.XX&X9XcXCXZXZXZXSXSXCXBXcX8XoX>.oX&X3XkXBXZXZXZXSXSXGXGXSXZXSXSXZXZXCXCXZXZXSXSXCXCXZXZXCXCXZXZXCXCXZXZXZXZXZXZXZXVXrXB.G.F E U v l l v H C * % ",
"b.K.K A v j.l.M k < @ , ) @XkXCXZXZXZXSXGXGXSXSXHXHXSXSXGXGXSXZXCXCXZXZXFXMX0X=X:X:X@XoX%X3XjXvXNXvXcX9X&XXX:.:.XX&XjXNXZXZXCXCXGXGXSXBXkX3XXX>.oX2X9XcXCXZXZXSXGXGXSXSXZXSXGXGXSXSXGXGXSXSXGXGXZXZXZXSXGXGXSXZXZXZXCXCXZXZXZXZXZXVXyXZ.p.H W U v k k k v h 8 @ ",
"c.l.H H v j.l.n p 8 @ 3 } -XnXZXZXZXZXSXGXGXSXSXGXGXSXSXGXGXSXZXCXCXZXSXGXFXzX7X1X<X+XoXoX%X3X9XkXcXcX9X%X>.>.>.oX2XcXCXZXZXCXAXGXGXSXNX9X&X>.>.oX3XjXNXCXSXZXSXHXHXSXSXZXSXGXGXSXSXGXGXSXSXGXGXSXZXZXSXGXGXSXZXZXZXCXCXZXZXSXSXZXVXuXq.u.c Y Y M l k k v k 1 < ",
"n n v v k k l k s % @ 2 :.7XDXGXSXZXZXZXSXSXGXGXSXSXGXGXSXSXZXZXZXZXZXZXSXSXFXMXwX4X&X%XoXoXoX&X8XjXcX9XoX:.>.oX%X8XNXZXZXSXGXGXSXZXCXcX3XoX>.>.oX3XcXBXGXGXSXSXGXHXHXGXSXZXSXSXZXZXSXSXGXGXSXSXZXZXZXZXCXCXZXZXZXZXZXZXZXSXGXGXSXBXlX$Xt.k M J.l.j.n v H d p u ",
"c c v v k k k a 8 % 8 | OXqXDXGXSXZXZXZXZXSXGXGXSXSXGXGXSXZXZXZXZXZXZXZXZXSXGXFXbX9X3X&X%XoXXXoX&X8XjX8X@X:.XX%X2XjXBXZXZXSXGXGXSXCXNXjX%X>.:.>.%X8XvXZXGXGXSXSXGXGXHXGXSXZXZXZXSXSXZXSXGXGXSXZXZXZXZXZXCXCXZXZXZXZXZXZXZXSXGXGXSXBXkX=Xd.M l.l.l.l.M H A V p u ",
"F A A c v l l k 8 8 p s.+X9XVXSXZXZXZXZXZXZXSXSXGXGXSXSXZXZXCXCXCXCXZXZXZXZXSXSXCXvX9X2X&X%XoXoX%X&X2X=X1.1.+X2X8XcXCXZXZXZXSXSXZXCXcX8X@X=.&.>.%X9XNXZXSXSXZXZXSXSXSXSXZXZXZXSXGXGXCXCXZXSXZXZXZXZXCXCXGXGXSXZXCXCXZXZXZXZXSXSXZXCXcX4XV.b.b.K.Y U K K D V 8 < ",
"Y U D Z c v v l u u k s.:X9XBXZXZXZXZXZXZXZXZXSXGXGXSXSXZXZXCXBXBXCXZXZXZXZXZXZXZXCXcX9X3X&X%XoXoXoX%X+X#X#X%X3XkXNXCXZXZXZXZXZXZXBXkX2X>.*.:.XX2XjXBXZXZXZXZXZXSXSXZXZXZXZXZXSXGXGXCXCXZXZXZXZXZXCXCXCXGXGXSXZXCXCXZXZXZXZXZXZXZXBXzXrXD.`.(.L.U F F F D V 8 + ",
"L.K.A Z Z H v l k k l f.m.rXVXZXCXCXZXZXCXCXZXZXSXSXGXGXCXCXBXBXBXCXZXZXCXCXZXZXZXZXCXvX9X2X&X%XoXoXoXoX%X%X&X9XNXZXZXZXCXCXZXZXBXcX9X&X:.&.>.%X8XcXCXZXZXZXCXCXGXGXSXZXZXZXCXCXSXSXZXZXCXCXZXZXCXCXBXCXCXCXZXZXCXBXCXCXZXZXZXZXZXVXtXpXD.`._.K.H S D D S V 8 + ",
"(.K.H Z S A v l k k k u.m.rXnXZXCXCXZXZXCXCXZXSXZXSXGXGXCXBXBXBXBXCXZXZXCXCXZXZXZXZXZXCXcX9X3X&X%XoXoXoX%X2X3XjXBXZXZXZXCXCXZXCXvXjX2XoX:.:.XX2XjXNXCXZXZXZXCXCXGXGXSXZXZXZXCXCXZXZXZXZXCXCXZXZXCXCXCXBXBXCXZXZXCXBXBXCXZXZXZXZXZXVXhXaX|.'._.K.H Z Z D D V 8 + ",
"(.K.H Z Z A v l k u < 6 n.rXbXCXZXZXCXCXZXSXGXGXSXZXSXZXCXBXBXBXBXCXZXZXCXCXZXZXZXZXZXZXCXNXjX3X&X%XoXoX%X2X8XkXBXZXZXZXCXCXZXCXcX8XoX>.:.>.oX3XcXBXZXZXZXZXZXZXSXSXZXZXCXCXZXZXCXCXZXZXCXCXZXZXZXZXCXBXBXCXZXZXCXBXBXCXCXCXZXZXZXVXhXaX].{.L.l.H Z Z D F Z 8 + ",
"L.K.K D D A v l k u @ 5 4.,XkXBXZXZXCXCXZXSXGXGXSXZXZXZXCXBXBXBXBXCXCXZXCXCXZXZXZXZXZXZXZXCXvXjX3X&XoXoX%X&X3XjXNXZXZXZXCXCXZXBXkX3XXX:.:.XX%X8XNXZXZXZXZXZXZXZXZXZXZXZXCXCXZXZXCXCXZXZXCXCXZXZXZXZXCXBXBXCXZXZXCXBXBXBXBXCXZXZXZXVXhXgXY.~ J.M c C Z D F C 8 + ",
"Y U K F F K v l k u < 3 o.$XkXBXCXCXCXCXCXCXSXZXCXCXZXZXCXBXCXBXNXBXBXCXZXZXCXCXCXCXCXCXZXZXCXNXjX3X%XoXoX%X%X2XkXNXCXZXCXCXCXNXjX2XXX:.>.oX2XjXBXZXZXZXCXCXCXCXZXZXCXCXBXCXZXZXCXBXCXCXZXZXCXCXCXCXBXNXBXCXCXCXBXBXBXBXBXCXZXZXZXVXyXZ.z.m k k k g Z S d p < + ",
"R R W W F A c v c i < , ..:XlXBXBXBXBXBXBXCXZXZXCXCXZXZXCXBXBXBXNXNXBXCXZXZXCXBXBXBXBXCXZXZXZXCXvXjX2X%XoXoXoX%X3XjXNXBXBXBXBXvX9X&X>.:.XX%X8XkXCXZXZXZXCXBXBXCXZXZXCXBXBXCXZXZXCXBXBXCXZXZXCXBXBXBXNXNXBXBXBXBXNXNXBXBXBXCXZXZXZXVXfX!.p.c k k k g A d p u < + ",
"R W W W Z V V C A s 8 < j 0.lXBXBXBXBXBXBXCXCXCXZXZXCXCXBXBXBXNXNXNXBXCXCXCXCXBXBXBXBXBXCXCXZXZXCXNXkX3X%XoXoXoX%X2X8XkXvXNXNXkX2XXX:.:.XX&XjXNXCXZXZXZXCXBXNXBXZXZXCXBXBXCXCXCXCXBXBXCXCXCXCXBXBXBXNXNXNXBXBXBXNXNXBXBXBXCXZXZXZXnXfX~.T.Y v k g A g a p 1 < + ",
"U K F Z * % * V S V 8 < k B.0XNXBXBXNXNXBXBXBXCXZXZXCXBXBXBXNXNXNXNXBXBXBXBXBXBXBXBXNXNXNXBXCXZXZXCXNXjX3X%XoXoXoXoX%X3XjXcXcX8XXX&.%.:.XX3XcXCXZXZXZXZXCXBXNXBXCXZXCXCXBXBXBXBXBXBXBXBXBXBXBXBXBXBXNXNXNXNXBXBXNXNXBXBXBXCXZXZXZXMXgX].T.Q P g C d a p p 8 8 @ ",
"J.c $ X o + % N Z V 8 < k N.6XcXNXNXNXNXBXCXBXCXCXCXCXBXBXNXNXNXvXvXNXNXNXNXNXBXBXBXvXvXvXNXBXCXCXCXBXvXjX3X%XoXoXoXXX%X3X9X8X&X&.' %.:.%X9XNXZXCXCXCXCXBXNXNXNXBXCXZXCXBXNXNXBXBXBXBXNXNXNXNXNXNXNXvXvXNXNXBXBXvXvXBXCXBXCXCXCXZXMXgX'.T.^ U A a p s 0 0 * % % ",
"l.k O   o + % s C d 8 8 k d.=XjXvXNXNXNXBXBXBXBXBXCXCXBXNXNXNXvXvXvXNXNXNXNXNXNXBXNXvXcXvXvXNXBXBXCXCXBXvXjX3X%XoXXXXXXX%X&X&XoX%.' %.XX3XcXCXZXCXBXBXBXNXNXNXNXBXCXZXCXBXNXNXNXBXBXNXNXNXNXNXNXNXNXvXvXNXNXBXNXvXvXBXCXBXBXBXBXBXmXgX'.T.! E Z d 8 % # # # * * ",
"l.c % # $ % 8 p a d 8 8 k s.+X8XcXNXNXNXNXBXBXBXBXCXZXCXBXNXvXvXcXvXNXBXNXNXNXNXNXNXvXvXvXNXNXBXBXCXCXBXBXvXjX3X%XXXXXXXXXoXoXXX:.&.>.%XjXNXCXZXCXBXBXNXNXNXNXNXBXCXCXBXNXNXNXNXNXNXNXNXBXBXNXNXNXNXNXNXNXNXNXNXvXvXBXCXBXBXBXBXcXwXF.'.T.W F V 0 % + o   X % V ",
"z.M d * * s d p k p * s c s.1.2XcXNXNXNXNXNXBXBXBXCXZXCXNXvXvXcXcXvXNXBXNXNXNXNXNXNXvXvXvXNXNXNXBXBXBXBXBXBXNXkX3X%XXXXX>.>.>.>.>.>.oX3XcXCXZXZXCXBXNXNXNXNXNXNXBXBXBXBXNXNXNXNXNXNXNXNXBXBXNXNXNXNXNXNXNXNXNXvXvXvXNXBXBXCXCXNXlX1XS.'.{.^ F s * % $ O X # * s ",
"b.J.A V V Z F A p p * 0 c u.7.;XkXNXvXvXNXNXBXCXBXCXCXBXNXvXcXcXcXvXNXNXNXNXNXNXNXNXvXvXvXvXNXNXNXNXNXBXBXCXCXBXcX8X%XXX>.>.>.>.XXoX&X9XNXZXCXCXCXBXvXvXNXNXvXvXBXCXBXBXNXNXNXNXNXNXNXNXNXNXNXNXNXNXvXvXvXvXNXNXvXvXNXBXBXCXCXnXuXdX/.'.{.T.I c s * % * Z Z 8 8 ",
"b.l.H Z D F K H a i 8 i h r.$.:XqXvXvXvXNXNXBXBXBXBXBXNXvXvXcXcXcXvXNXNXNXNXNXNXNXNXvXcXcXvXNXNXNXNXNXNXBXCXZXCXNXkX3X%XXXXXXXXXoX%X3XjXBXZXCXBXBXNXvXvXvXvXvXvXBXCXCXBXNXNXNXNXNXNXNXNXNXNXNXNXNXNXvXcXvXvXNXNXvXvXNXNXBXBXCXnXfX^.Y.'.{.T.J.v C V s C U F 8 + ",
"l.l.v H F K J v A d a p 1 p j 8.5XcXvXNXNXNXNXBXBXBXBXNXNXvXvXcXcXvXNXNXNXNXNXNXNXNXvXcXcXvXNXNXvXvXNXNXNXBXCXCXNXvXjX3X%XXXXXoXoX%X3XjXNXCXCXBXNXvXNXvXvXvXvXNXBXCXCXBXvXvXNXNXNXNXNXNXNXNXNXNXNXNXvXvXvXNXNXNXNXNXNXNXNXBXCXbXsXY.T.T.P.K.j.v A C c c F S 8 + ",
"l.l.M J U U M v A Z g p 8 8 k d.,XjXvXNXNXNXNXNXBXBXBXNXNXvXvXcXcXvXvXNXNXNXNXNXNXvXvXcXcXvXvXvXvXvXvXNXNXNXBXBXNXNXcXjX3X&X%XoXoX%X2X8XcXNXBXNXvXvXvXNXvXvXvXNXBXBXBXNXvXvXNXNXNXNXNXNXNXNXNXNXNXNXvXvXvXNXNXNXNXNXNXNXNXNXNXxXF._.I.Y l.l.j.v A A v v A V 8 < ",
"b.K.I U W Y M v A Z Z d * 8 k f.m.rXbXNXNXNXNXNXBXBXBXBXvXvXcXcXcXvXvXvXNXNXNXNXNXvXcXkXcXvXvXvXvXvXvXvXNXNXvXvXNXNXNXvXkX9X2X%XoXoX%X&X8XjXcXvXvXvXvXvXvXvXvXvXBXBXBXNXNXNXNXNXNXNXNXNXNXNXNXNXNXNXvXvXvXvXNXNXNXNXNXNXBXNXcX7XD._.K.l.j.j.y.M U U v k A V p u ",
"_.L.I U U Y I v H Z D Z s d c u.n.>XzXNXNXNXNXNXBXBXBXBXvXvXcXcXcXcXvXvXvXNXNXNXNXvXcXkXcXcXvXvXvXvXvXvXvXvXvXvXvXNXNXNXvXcX8X2X%XoXoXoX%X2X9XkXcXcXcXvXvXvXvXvXBXBXNXNXNXNXNXNXNXNXNXNXNXNXNXNXNXvXcXcXcXvXNXNXNXNXNXBXCXvX0X<XA._.J.M v l y.M Y W P c A d i i ",
"_.c.l.v v v H H v H K F g k l y.u.m.qXNXNXNXNXNXNXNXNXNXNXvXcXkXkXcXvXvXvXvXNXNXvXvXcXcXkXcXvXvXvXvXcXvXvXvXvXvXvXvXNXNXNXvXcX9X&XoXoXoXoXoX%X3XjXcXkXcXvXvXcXvXBXBXNXNXvXvXNXNXvXvXvXvXNXNXvXvXvXcXcXkXcXvXBXBXvXvXBXCXCXnXfX/.|.U.Y H v y.y.M U W W U g i 0 * ",
"c.z.j.l k c H H v v K F g k c v M N.5XcXvXNXNXNXNXNXNXNXNXvXcXkXkXcXvXvXvXvXvXvXvXcXcXcXkXcXvXvXvXcXcXcXcXvXvXvXvXvXvXvXNXNXvXkX3X%XoXXXXX>.XX%X3X9XjXkXkXcXcXvXNXBXNXNXvXvXvXvXvXcXcXvXvXvXvXcXcXcXkXkXcXvXBXNXvXvXNXBXBXmXgX X`.U.Y K H v v v H U Y U k p 8 % ",
"n l l k k k c v l v K F Z C C g v d.*X9XcXvXvXvXNXNXNXNXvXcXkXkXkXkXcXvXvXcXvXvXvXcXcXkXkXkXcXvXvXcXcXvXvXcXcXcXcXcXcXcXvXNXNXvXkX8X%XXX>.>.>.XXoX&X8X9XjXjXkXcXNXNXNXNXvXvXvXvXvXcXcXvXvXvXvXcXcXcXkXcXvXNXNXNXvXvXNXNXkX7XF.`.b.L.U F A A A A c v M M k p < @ ",
"c c c c c c k k l v H K D Z V d k t.5.=XjXcXcXvXNXNXNXvXvXcXkXkXkXkXcXcXcXcXcXcXcXcXkXkXkXkXcXcXcXcXcXcXcXcXkXkXcXcXkXkXvXvXNXNXvXkX3X%XoXXX>.>.>.XX&X3X8X9XjXcXvXNXNXvXvXcXcXcXcXcXcXcXcXcXcXcXcXcXkXkXvXNXNXvXcXcXvXcX0X<X~.L.K.I K F D Z V d g k l l k p 8 @ ",
"F F K K K H c k k k v H A Z g p 8 9 t.0.0XcXcXvXNXNXNXvXcXkXkXkXjXjXcXvXvXcXcXcXcXcXjXjXkXkXkXcXcXcXcXkXkXkXcXcXkXkXkXkXkXcXNXNXNXvXjX8X&XoXXX>.>.>.XXoX&X3XjXkXcXvXNXvXcXcXcXcXvXcXcXcXcXcXcXcXcXcXjXjXcXvXNXvXcXcXvXxXfX~.P.~ Y K F D S C d d d A v v H V * % ",
"R R R U K H g p p k l v H g k p < 8 v h.;XjXcXvXvXNXNXvXcXkXkXjXjXjXkXcXcXcXkXkXcXcXjXjXjXkXkXkXcXcXkXkXkXkXcXcXkXkXkXkXkXkXvXvXNXvXcXjX8X&XoX>.>.>.:.>.oX2X9XkXcXvXvXvXcXkXcXcXcXcXcXkXcXcXkXkXcXkXjXjXcXvXvXvXcXcXzXyX/.].T.W R F D Z V s i p d H v H A V * % ",
"R R R U I c s 8 9 h l M v k k k u p l f.q.6XjXvXvXvXNXvXcXkXjXjX9XjXkXkXkXkXkXkXkXkXkXjXjXjXkXkXkXkXkXkXkXkXkXkXkXkXkXkXkXkXkXcXvXvXvXcXjX8X%XXXXX>.:.:.>.%X3XjXkXcXvXcXkXkXkXkXkXcXcXcXkXkXkXkXkXkXkXkXcXvXvXvXvXbXuXdX/.'.Y R F D D V 8 < < 8 c I P F D V 8 @ ",
"Y U K H v c s 8 5 r p.I k k k k i p c p.d.:XqXcXcXvXvXvXcXkXjX9X9XjXkXkXkXkXkXkXkXkXkXjX9X9XjXkXkXkXkXkXkXkXkXkXkXkXkXkXkXkXkXkXcXcXcXcXcXjX3X%XoX>.>.:.>.XX&X3X9XkXcXcXkXkXkXkXkXkXcXcXkXkXkXkXkXkXkXkXcXcXvXvXNXzXfX^.~.L.Y F Z A A d 8 > , 5 l l.I K D V 8 + ",
"L.J.c g H H d 5  .#.G.Y v k p i d C C c p.B.4XjXcXcXcXcXkXkXjX9X9XjXkXkXkXkXjXjXkXkXjX9X9X9XjXkXjXjXkXkXjXjXkXkXjXjXjXjXjXjXkXkXkXkXjXkXcXcXkX8X%XXX>.>.:.>.XX%X3XjXkXkXkXkXkXkXkXkXjXjXkXkXjXjXkXkXkXkXkXcXvXvXvXeXsX~.b.J.U F g k c d % 7 O...u.l.l.I A V 8 + ",
"b.z.j p A Z i 6 *.2.G.U c k u i C Z Z V g t.6.5XjXcXkXkXkXjX9X9X9X9XjXkXkXjXjXjXjXjX9X9X8X9XjXjXjXjXjXjXjXjXjXjXjX9X9X9X9XjXjXkXkXjXjXjXkXcXcXkX3X%XXX>.:.:.:.XX&X3X9XjXjXjXkXkXkXjXjXjXjXjXjXjXkXkXkXkXkXcXvXcXlX1X/.'.K.I P H c k k p 8 w ;.5.f.j.j.v A V 8 @ ",
"z.l.l c A V 8 4 :.1.@.c k k k a A S Z Z s d t.0.5XkXkXkXjX9X9X8X8X9X9XjXjXjXjXjXjX9X9X8X9X9XjXjXjXjXjXjX9X9XjXjXjX9X8X8X9XjXjXjXjXjXjXjXjXkXkXkXjX3X%XXX:.:.&.:.XX%X3X8X9X9XjXjXjXjXjXjXjXjX9XjXkXkXjXjXkXkXcXqXfX/.}.T.Y P I v A d 8 < <  .*X;XN.M l v A V * % ",
"I M v v H d % 4 ,.oX2.X.j k k g Z S Z d 0 s v d.-X8XjXkXjX9X8X8X8X8X9X9X9X9X9X9X9X9X8X8X9X9X9X9X9XjX9X9X9X9X9X9X9X9X8X9X9XjX9X9X9XjXjXjXjXjXjXkXkX9X2X%XXX:.&.&.>.XX%X&X3X8X9X9X9XjXjXjXjX9XjXjXkXkXjXjXkXkXlXyXF.[.{.^ U H v c C s % > 3 *.8X0XV.M c g A V * % ",
"U K A H v c 0 w :.oXOX3.t.v A S Z Z g a p p k t.3.*X8XjXjX9X8X8X8X8X9X9X9X9X9X9XjX9X8X8X8X9X9X9X9X9X9X9X9X9XjX9X9X8X9X9X9X9X9X9X9XjXjXjXjX9XjXjXjXjX9X3X%X>.:.:.>.>.>.XX&X2X8X9X9XjXjXjX9XjXjXkXkXkXjXjXkXlXyXdX/.].{.~ P k h p s % + = / ,.jXlXZ.J.H A g p 8 @ ",
"R F D A v c s w =.%X%XOXo.x H Z Z A c k p a c i.#.5.;X8X9X9X8X8X8X8X9X9X9X9X9X9XjX9X8X8X8X8X9X9X9X9X9X9X9X9X9X9X8X8X9X9X9X9X9X9XjX9X9X9X9X9X9X9X9XjXkXjX2X%XXX>.>.>.:.>.XX%X2X8X9X9X9X9X9XjXkXkXkXkXjXjXqX7XdX^.Y.{.~ W v k p i % # + - ' %XkXxXS.I.H A g i 8 @ ",
"R F F F A V * w =.%X&XoX-...j v Z A k k A A C z p.d.9.-X3X9X8X8X3X3X9XjX9X9X9X9XjX9X8X3X8X8X9X9X9X8X8X9X9X9X9X8X8X8X8X8X8X9X9XjXjX9X9X8X9X9X9X9X9X9XkXkX9X3X&XoXXX>.>.>.:.>.%X3X8X9X9X9X9XjXkXkXkXkXkXqXyXdXS.Y.}.T.W U v l h 8 % $ @ 4 :.3XcXeXQ.~ I v A V * % ",
"R F F A Z V * w =.%X2X&X>.*.t.v A g k v H F Z C v y.d.9.-X3X3X3X3X3X8X9X9X9X9X9XjX9X3X3X8X8X9X9X8X8X8X8X9X9X9X8X8X8X8X8X8X8X9X9X9X9X8X9X9X9X9X9X8X8XjXjXjX9X8X2X%XXXXX>.&.:.XX%X2X3X9XjXjXjXjXkXkXkXlX7XdX^.~.'.{.~ U H v c p < $ @ 4 } oX8XvXeXQ.T M v g V * * ",
"R F g p a i 8 2 &.%X2X2X2XOX@.k k k k k v H Z C c l y.d.9.$X2X3X8X8X8X9X9X9X9X9X9X9X3X3X8X8X8X9X9X9X8X8X8X9X9X9X8X8X8X8X8X8X9X9X9X8X9X9X9X9X9X8X8X8X8X9X9XjXkX9X3X%XXX>.:.:.>.XXoX&X8XjXjXjXjXkXcXzXyXdX^.~.}.{.I.M v c A d 8 @ @ 3 *.+X2X9XvXxXS.L.l.l k d 0 * ",
"U H g a k a 8 2 &.%X2X3X8X=X3.+.k c k k l v H A c c v p.d.9.$X2X3X8X9X9X9X9X8X8X9X9X3X3X3X8X8X9X9X9X8X8X8X8X9X9X8X8X8X8X8X8X9X9X8X8X9X9X9X9X8X8X8X8X8X8X9XjXcXcX9X3X%XXX:.:.:.:.XX&X8XkXkXkXjXjXlXwXdX^.~.'.{.T.M l k g d s % > , _ @X3X8XjXvXxXS.c.j.l k i 8 % ",
"I I H H v k 8 w =.%X2X3X9X8X%X3.G.A c k k k v v H F A H p.s.3.@X2X8XjXjX9X8X9X9X8X8X8X3X3X3X9X9X9X8X8X8X8X8X8X8X8X8X8X8X8X8X9X9X8X8X9X9X9X8X8X8X8X8X8X8X9XjXcXcXcXjX3X%X>.:.:.:.XX&X9XcXcXcXkXqXyXdX^.~.|._.K.M l k g d 8 % @ , _ &.%X3X9XcXNXxXS.c.n k g d 8 @ ",
"z.J.U U M k s w =.%X2X3X9X9X3X$X$.G c k k k v v H F D Z c p.#.3.#X=X9XjX9X9X9X9X8X8X8X3X3X3X8X9X8X8X8X8X8X8X8X8X8X8X8X8X8X8X9X9X8X8X9X9X8X8X8X8X8X8X8X8X9XjXjXkXcXkX9X2XoX>.>.XX%X3XkXvXvXkXqXyXdX!.~.`._.b.l.l k a V s % + > ; ' XX&X8XjXcXNXxXD.c.n g A V 8 + ",
"b.L.~ Y M l p 6 =.oX&X3X8X8X8X&X1.o.r.l l v H H v H Z Z V z p.u.s.0.=X9X9X9X9X9X8X8X3X3X2X3X8X8X8X8X8X8X8X8X8X8X8X8X3X3X8X8X8X8X8X8X8X8X8X8X8X8X8X8X8X8X8X8X8X9XcXcXkX9X2X%X%X&X8XkXNXBXvXqXfX/./.~.b.c.z.l.j.l h p s * % > - ( :.oX2X8X9XkXvXxXD.c.n a A V 8 + ",
"b.K.Y U I v p 6 =.oX&X3X8X8X8X3X%X,.o.i.v c Z A v v A Z C g v M I g.6.*X4X8X9X9X9X8X3X2X2X3X8X8X8X8X8X8X8X8X8X8X8X3X3X3X3X8X8X8X8X8X8X8X8X8X8X8X8X8X8X8X8X3X3X8XjXcXkXjX9X8X3X9XcXvXnXbXqX1XD.`.`.b.c.z.j.v v c p i % % > - / %.XX&X3X8X9XkXNXxXF.x.b g A d 8 + ",
"z.J.H F K H p X.=.oX%X2X3X8X3X3X2X+X;.@.z Z Z A v v A Z c c A F Y J.g.8.6.-X8XjXjX8X2X&X2X3X8X8X3X3X8X8X3X3X8X8X3X3X2X2X3X3X8X8X3X3X8X8X3X3X8X8X3X3X8X8X3X3X3X8X9XjXkXkXjXkXcXNXNXbXtXpXsXS.v.c.c.z.z.z.j.v H A C s % > - / %.>.oX&X3X8X9XkXNXmXF.K.H A v k < + ",
"I J A D F F d 6 =.oX%X2X3X3X3X3X3X&X@X-.+.G A H v v H H v v H F W Y m i.$.9.-X4X8X8X2X2X2X3X8X8X3X3X8X8X3X3X3X3X3X2X2X2X2X3X8X8X3X3X3X3X3X3X3X3X3X3X8X8X3X3X8X8X9XjXjXkXkXcXNXNXbXtXpXM.|.'.c.l.j.j.l.l.j.v g V V 0 > - / ' >.oX&X2X3X8X9XkXNXxXF.K.H A H c 9 < ",
"U K D D F D s w *.oX%X&X2X3X3X3X3X2X&X@X-.@.p.v k k l v H H v H U F g h i.f.d.0.+X2X3X3X3X3X8X8X8X8X8X8X8X3X3X3X3X2X2X2X2X3X8X8X3X2X3X3X3X3X3X3X3X8X8X8X8X8X8X9XjXjXjXjXjXjXkXqXfXgXD.|.}.{.J.l l k l l j.v k i % $ = / %.>.oX&X3X3X3X3X8XjXcXqXS.L.U F K H i u ",
"R F D D K A y w *.XX%X&X2X3X3X3X3X3X3X&X@X3.d.r.p p k v K K v v K A a k l M I a.3.OX*X=X=X2X3X8X8X8X8X8X8X8X3X3X3X3X2X2X3X3X8X8X3X3X3X3X8X8X3X3X8X8X8X8X8X8X8X9XkXkXqX0X7X7X7X1XD.`._.'.{.~ I l l k k k v c p < + = / %.>.oX%X2X3X3X3X3X3X9XcXeXS.L.Y R R A p u ",
"R F F K J c 8 3 ' XX%X&X2X3X3X3X3X3X3X2X&X+X<.{ 7 t p c F K M v A Z c l l M Y Y a.s.d.8.9.$X3X8X8X8X8X8X8X8X8X8X8X3X3X3X3X8X8X8X8X8X8X8X8X8X8X8X8X8X8X8X8X8X9XjXkXlXrXpXsXF.F.A.`._.I.Q ^ ~ I l l l k a d 0 8 > - / %.>.oX%X&X&X2X3X3X8X8X9XcXeXS.L.Y R R A p u ",
"Y U U H v k < 3 ' >.oX&X2X2X2X2X2X2X2X2X3X2XoX=.O.7 9 i A H v c c H v l l M Y Y M M M a.d.9.$X=X4X2X3X3X8X8X8X8X8X3X3X3X3X8X8X8X8X8X8X8X8X8X8X8X8X8X8X8X3X3X0X0X0XrXpXM.). X].'.'.K.U R W U v l l l k i % % > - / ' :.oX%X&X&X&X2X3X8X8X8X9XcXwXS.I.U F F A p u ",
"L.K.M v M k < 3 ' >.oX%X&X&X&X&X&X&X&X2X2X2X2XoX:.{ 6 p a c h k l v k k k l M M M n n y.y.t.d.8.6.$X%X&X3X8X3X3X3X3X3X3X3X3X8X8X3X3X3X3X3X8X9X9X8X3X8X8X2X=X1X<XF.D.A.).|.].}.{.T.Q F D D A v l n k 8 % % > | ] %.:.XXoX%X&X&X&X&X2X3X8X3X8XcXwXQ.! F D D V 8 < ",
"b.c.l.l l k < 3 ' >.oX%X&X&X&X&X&X&X&X&X2X3X3X2X%X>.{ X.6 h p i c v k k k k v v l v v v M I I G.d.7.<.OX*X*X*X*X=X=X=X=X=X&X2X3X2X2X2X2X4X5X0X7X6X;X,X;X-X<XZ.^.|.[.].'.'.'.{.{.Q E D Z Z V i h k p % @ , ; [ =.:.XXoX%X&X&X&X&X&X2X3X3X3X8XkXwXH.E F Z S V 8 + ",
"z.l.j.l l h < 3 ' >.%X&X&X&X2X2X2X2X&X&X2X3X8X3X2X%XoX<.{ 4 8 s C H v l l v H H v v H K Q ~ Q Y p.t.s.s.d.d.h.B.q.:X#X#X#X@X%X&X&X2X2X4X,XpX1XdXgXF.D.S.S.A.~.|. X[.{.T.T.{.}.{.U D S Z B * 8 < < < < 3 ) %.:.XXXXoX%X&X&X&X2X2X2X2X3X3X3X9XkX7XH.E S Z S V 8 + ",
"j.j.v v c i < 2 ' >.oX&X&X&X2X2X2X2X&X&X2X3X3X3X3X3X2X%X:.[ w q s d c l v c A A v v A F W ! ! Y M n M I M M l.g.h.8.8.8.8.7.<.,.#X$X-X>XiXZ.Z.!.~.]._.U.U.U._.`.[.}.~ ! W ~ P.P.A V V V 0 % @ + > , 4 ) %.>.oX%XoX%X&X&X&X&X2X2X2X2X3X3X8X9XjX6XH.F S Z A d 8 < ",
"j.M H A A d i 6 ' >.oX%X&X2X&X&X2X2X&X&X2X2X3X3X3X8X8X2X%X>.} | 5 p p p d d g g A A g g A R W Y v v Y Q U P l.z.G.G.i.r.u.t.t.d.C.S.S.A.Y.P.g.a.I.Y J.l.M M l.K.I.Q F F F F K A V * * 0 i i @ > : ) [ &.>.oX%X%X%X%X&X&X&X&X2X2X&X2X3X8X8X9XjX;XH.F S A J v p u ",
"l.M A Z Z g i X.=.XX%X&X3X3X2X2X3X8X3X3X8X8X8X9X9XjXjX9X3X&XXX=.{  .6 e d d k k g g a k g F W U v v Q W U I l.M H A a k l M j.l.U.`._.P.T U M v H H c l k l n M K F D Z D D D Z B * % 8 5 6 4 _ *.:.XXoX%X&X2X2X2X2X2X2X3X3X8X8X3X3X8X9XjXjXkX6XH.F S A M l h u ",
"b.J.H Z c v k w.,.&X2X8X9X9X9X9XjXkXkXkXjXjXkXcXvXvXcXkXjX8X3X2X&X@X;. .r h k k k a p h k H U U v v U U I v l k a i p k l l.l.z.c.K.Y Y I M k k p p p k l M l v K F D D F F F D Z s % , | [ :.oX&X2X2X3X8X8X9X9X9X9X9X9XkXkXkXjXkXkXkXkXcXvXvX7XH.F S A v l h u ",
"(.K.H A v v k r.3.$X*X=X=X4X6X7X6X7X7X7X7X5X0XeXeXeX0X5X4X6X6X6X;X$X3.#.x c l l k k p k l v K K H v A A v l k k k h p k v l.z.z.l.l.P H v l l k p p i p l v v c K F A A F U U K A d 8 1  .3.:X-X-X-X-X;X4X6X6X6X6X6X6X4X0X0X5X4X7X7X5X5XwXeXqX1XH.U D A v j h u ",
"(.K.U F A g k k x +.s.d.e.d.S.S.H.H.H.H.C.V.V.C.Q.Q.h.d.N.C.Q.H.H.H.a.i.G H l.l.n v H H v v K F Z V V s p h u k l j.k k l j.z.z.n l v v v l l c d s 0 8 p k H K F K H H K U J v v c d d p.h.A.C.H.H.H.H.N.C.Q.Q.C.V.V.V.V.V.N.h.H.H.N.N.h.H.C.C.L.I A A c k p u ",
"(.L.Y F Z d g g A A v v k n c.K.P F F P M l.l.J.Q W A c M I T ~ ! Y M v H I l.l.j.v K F g c H F Z * % % 8 p u k j.l.l k l j.l.j.k k v v v v v v C * % % 8 d Z F F H v J K K v v y.v A A I c.U.L.U F L U I I.T.T.K.l.l.l.l.l.n v A A v H F F P M K.J.H Z g k p u ",
"(.L.Y F d d d A g g H P v n n k a g v v k k n M F F Z A Z H I I m b k k v M j.j.j.v K F Z A v c s % $ + % 8 i h l j.k k l l l k k k g A A A K A V % $ + % 0 Z Z c c H K F D A H M M A S A H c.J.H D P I U U I l.j.n k k l M k k c g A Z S S Z H l.l.A D F A p u ",
"L.K.Y H p i C A c v H H v l k k p p l l h p c v Z S Z A A H v l l k k v l y.y.l y.M U F Z g v v d * O o $ * s g v v k k v v k k v c Z S S D F F Z * O o $ * V A c v H F A A D A J J A D A H l.l.H A v M H H v l n l p p l l k k k k g A A A Z A H H A D K H p u ",
"Y Y I v k a C A v l v v k h k k d d k k k k g Z S Z v v v v v l l v A A v y.y.y.y.M Y U g p k v U Z X   # * Z F A H v v H H v v H F D S S D F W W Z X   # N Z A v l v v v v F F A A F K I l.j.v v k k k c c k l l v g g v l h p k k v v c g C S A A Z A H v h u ",
"F H c k k a V C c c c k p u p p V V d p p d d V V C c k k l l l k c d d c v l l k v K F i u u g K Z # . # 0 Z A A d k c C C z c H A A V C C D F W Z o . $ * s d c k k k j v H A C S D K M j.l l k a p p p p k k k c C C c h p p p k k l k a d C C V Z C c k u 1 ",
"c a p 1 u p 0 * 0 s s i p u < 8 s V s 0 0 8 8 8 * * s 8 8 1 p p s 0 8 8 s d p p s s V s 8 < < 8 s N & # % * d p i p 1 8 0 * 8 1 i i i i i i s V V * + + @ 8 i p s s p h h h p i i d V C k k h p p u < < < < u u 1 8 0 * 0 8 < < 8 s p h p p p i i i 0 s p u < < ",
"k p < < 1 i * % % * * * i u < % s V * % * % @ @ % % % % @ < u i * % @ % s s p i * * * % @ + + @ % % * * * * i u u u < @ % % @ < u u u u u p % % % % @ + + < u i * * i p h h u u u p s s p u u u u u < + + < u u < @ % * * % @ @ % * i u u u u u u i * * i u < + "
};
