/* XPM */
static const char *mural2[] = {
/* columns rows colors chars-per-pixel */
"128 128 15 1 ",
"  c #6B4727",
". c #774F2B",
"X c #7F532F",
"o c #875733",
"O c #8F5F37",
"+ c #9B633B",
"@ c #A36B3F",
"# c #AB6F43",
"$ c #B37347",
"% c #BF7B4B",
"& c #CB7F4F",
"* c #CF8353",
"= c #D78B5B",
"- c #FFA35B",
"; c #DF9363",
/* pixels */
"%$+OoXOOoOXo++OXo+O+O#+$@%@@+O@@#%@@@o@o@@%#@##o$@*%%%;%%O%$$%*##%#o%=#$$+#*$%%#@@&%@@$#+@$$$$%*%O%%##@#@$+O%%$%#@+$@@%*$O#%$OO+",
"%$##O@O#+%OO%#@%%$O#@XXXOOX%O@$O+%%%@@%X$#oX$OO%$@*$%%$$#O*$%$%%%%%O%@%%$*+%%$%%%%%%+X%@O%$@@OX%%OO@@@@+@%OO$&X#+$O%$+%#O+OO$#++",
"%%@@@@+$#%@O#@##$@O$#$@%%$@+@O$&$%%%o%$O$O@O+OOoOO*o+o#%@@@$*%**%%%$%O#%%$%$%%$%$%$@+#++O%#X@X@XOO#OO+o@#O++%@o%%+O*$$X@%%+%$@O$",
"%$+%X@%+%%%++OX@+OO@O&X$$$+O@@%%%**X.X@O$O$%$%%O@@@$@X%$%+@@%$*$%*%*%+O&%*&$$%$$$%*%Oo&++%$*@@$O##%O+@+@Oo O%%%$@+O$$@o$#OX$%o#+",
"%$OX#@O@+%XO%#$@@%#$@$@*@+$$$#+O@$%*+*%OOoO+XO$O#@$%@$%%$O#@%**$%%$#@$$O$*$@%%*@%%**$$@+@#@O@%#O%+$%%+$+++#O#$.XOOXO$OX$#@@$%O$+",
"%*O.$O##o$#O%%O#XXO%#@%$#O*%@@%%*%*%@%*+%$@%$@$&%+%$%%$%$o*@%%$%%*$@o@$O%$$+#$%%$%$%%%+*@@$@@OX#%@$#%@*%%%%@%$%*=*$$*$X*%#o$%X+@",
"**$oO$%@O%X#%%+XO%@*$$@XO##%$%+@+#o#+%%@%#=%##%@#@+*#@$%$O%$%%%%***%X%$$$$@*O$$%@$%%@@%%@++$@@@OOO@o$*%;*$;@$OO$;%*%%+O$%oO*%@$@",
"%%*O@O@%O$o@$%%+@$%*+$%%%@$*%#@$$%+$+@%@%O@ooO+@@oO%@+%%+o#$$$$%%%*%X$#@%%$*%o$%%%$$#o@%@O+#@@@%$$@.$X%%@O*@%O#O%*@@%O@%#o*%OX+@",
"%$%$@%%%%$.@OXOO+OoOO$%%%X%%%#@*%*%X$@%$%o$%*@@#*%%%%+%%%*;$&%$$%$%%o%@@$*$@@@+%$%%%Xo$$$X@#%$$$##*%$O%@%%$O*+#%$%$O%o%%%#;%%%@O",
"*$$X%O#@.$.@%%*#@+$%%%%$%+@#*%+XX+$#+OO$@+O@@@+#+O$o@@+X+O##$%%%*$%%%$OO%$$%$%@+%%%++%$$+%%#$@#+.#%@X+%%%OO+%%%%$O@+#$$#$%$%@+@@",
"**@X%@O@@+X@@oooXOOoO@@$%%O%+@%%%%%%%$@%$%+O++$#%@%*%$*$%&#@$%;%**%%%@%O*%%$%%%%&%@X%**%#O+@+#%%%@$%%o.OX+@O%%%$o%%+*o$@%$@@@%&#",
"%%@@#Xo#$+.$%@@@O+$@$OO+O##oo#+o@#$%#%+$+@o$@.O+OO*XOoOo#%%$%%;%%%%*$O%@$%%*$$$%+$ $*$%$+*$+O*@@@#@%%%%%%%X#%$#+$@@%%@O$%%$#OX&+",
"%%@o@O@@O%O#@+@@#@%$@++@#+@@o@##@$o@%+O%X@$+%+#O%+=#O+X%O@$@$;*%%%$$%O%@$%%%%%%%+O%$*%$%+$@O@*$@@#O+#@oO+@@#%%++#o*%$++%*$@$@=%+",
"$$&X%O@%O%.@$@Oo OO#@@%$+@#%o@#o+@XO$o@%@@++#@O$%O%@O$%&%%%@$*%%$$*%$#*@%%*$%%%$%@%@@@o%O%+@$$$@o$++O+o+o@@O*+XO%O##$O@*%++$@%%+",
"$%$X$o*%X$X#%%%%#%%*$@O#%#$#%$$@O$o@+oO$@@@@#@+X@@$OO#XO.#&@%@%%$%%$$O@O*%*%$%%%%+%%$+#%@%@X%$%O@%@XO@%$%%%++..%%++@%$@*@##$@+$+",
"%%#@%$%$%%X*@@@#$XOO%OO@#@+@oo@O+%%+%O+$+%%%$%%%#O%=%+o@$+@@#%%%%%$%%%@#$%*%%$%$%@@$$+$%O%OX@%$X#*#@O%%o.X@O#@%%$%%*%+$%X@$$X%$+",
"$%@OXOOO.+o$+@*$@O+O$OO@@#%#@@$oO#+@$o$+#%o@.oXo@+%%*%%%o@%@%*;%$%$%%#+O**%$%$$$%*+$O*%$O%##@$%oX@OO$@*+$;o$$+OOXXo+$@%%@O+O#*=+",
"%$%@%$%$%%.$+++#@%O@@O@o@@$%OX@%@$+@$+X*@O@$%%;$#+%$%$O@O$%#$$%$%$%%*$O@$$%%%*@%%*O#o%%@@%%*#$%@%$OX$%@+$O$@%@;$@O%$$@$X+@X$+$#+",
"%%$o$$%OO+o#&@@#%#@%@X#$@O+%%$+*@$o@@O#$#O+++O++#+%%*O%O#$%#%%$%%%%%$%O$O$%$$%%$%$O@$%*%O%o@+$@@*OO.O$%O%o$O%O$$##%#+O@@o$$@@%#@",
"$%%+O@o@O@X%%@Oo@$ $$X@%X+O@.@#%#*##$++%+O+O@O+%$@*$#++@$$$#*%*%$%*%$$@@o@*%$$%@$%@X%*%%X@@%o+#%*%+X#$%+@O%O%X$&@%*@+X#O#OO@@@%O",
"$$$$$@O%$%.&@@$@$%X%%@$.@+$$$@O%*;%%$@O%@@++@@o@$O@% o+#%%%#%$%$%%$%$%%$X%*%$$%%%$#o@$%@o$*%$%%OX*OX&%*@#+%+$X$#O$$$ooO%%%%*OO%O",
"%%@oX@+XOOo+$@O+$*OOO+*%#@O%%@O$%*#o++O%++@@@XO#O+@+@@@O+@$O$$$%%%$%%%%@o@@@$*%$%%%O@$$%+%%%$%O$%&X.%%%++#=#@O#@O+$O@X+%%%$%O$%O",
"@$%O$%*%+%X$$%%#@$@o@@%$#o$%%%+$&*O# %%%@@%@oOO#%+#%%$*$%##$%%$$%$$%$%;%+@%$%%%%%%%+%$$$+%%%%Xo%#$oO#%%$%%%#*%$@XO%#$O@$%#$$@$*.",
"$%@+#%%+$@.&+##@OoXO$@%%@#$&%%@$@+$XXO+@#oooooo+OO$@%OOO@O%%%$*$$%%%%%*#$#$%%%%%$%$@%;%%@$%$+@#@@$O%O%%$%%*$$#@#%%$@%@$$OX#+*@*@",
"%%%@@$%XOoX*O@#$+@O@$+%$#X@#%%@%o%%%$$$@@%X+XoX##$%O@X+@@+$%*%%%*$$*%%%+@+#@%@@$#*;#%%%%@%*%@%Oo%%+@@O$$+#@##..%%%#X%@%o$$+.O%#+",
"%$%+#%$o+$X#%$*%%*O#$@**@OoO@$+ooX+OO+$@O%$#X#*%$@@O%$$O+@$%O$%%%$;*%%@O%%%%@O@+++@#*%%*O%%+O%+$%%O++$.XoX@+#OO%+O$O%+oo@O+;%*#@",
"%%*$$$%O%%.#$$@%%*X%@$#&$@%#@%O%%$@%%*$$+%%OXO$@%+++*%#O#+%O%*%%%%%$%@#%%%$OXO+#+%+O%$%*@@O@+@X$%%o@+@#+@@$#$+O%$%$O%O@%++o%$%%@",
"%%%#$$%O$@o$&$$$%$X#$@%++OoO@@+%*$$#$$$%@%$O%@$O$@@O+$@#*O+%%*%%$%;%+%%%%%#Ooo++OOo@oX+*$@@+%%+$+@OOo$$%+Oo$@$@@@%%X$O%%*@&$@$%+",
"$%@$X%$+$%O%@%@@o#.&$@$OO+O%+%O$+#+OoO $O%$+@O+@%@$oO@o#%O$%+$*%$%$%+%*%%%$O.#+o+.O%@O+%$O#$@#%@@ .O+@ooOXo+@$+$@%#o+O+O@%%@O%%@",
"$@@+X@%O$%X%o@OOOOo%$+#%$+@++XO%#%@%%$@.O@%$%o%@%@@OO$#$@@$@%%$$%$$O%**%%%@OO*%%OO@O+O@*%%*#OooOXO.$@@@%$+O@O%%%##XO%+%%%%%OO*%@",
"%$*%+@@OOOoO$o%$$*@*%#OO.oXoOXO+$%%##&#$o%@XXOOO%$@@@#@%%@@+%%*$%$o*$%%%%%%Oo%$$%+.@o$$*%+#@%+X+$%O$*%$o#+++$O#X+O%$$O%**%%O++*$",
"%$@@#+$@O%o#@o+@ooOO#$%$%%*%@%%%%%%$$$$$$%%$%$%%$$%*%%$%@%*#@%%$$O$%$%$$%%%%OXO%$+$%#%%%*X@&%%%%%-=OoOo@@%$@+O@%$.OO%+$$@%%O%#@$",
"%%%$o@@+%$.%#$+O@%%%*@%*$%%$%$%*$$$$$%%$$@$%$$%$%$@$%%*$$$%*+%%*$+%%$%%%*$%%%$Oo@+%##$@%%.@@oOOOOO@@+OO+O++@#%%$#@O%%@#+OO$O@%+$",
"%%$OO@@@o%+*@@oOOX.%%O$%%%%%%*%%%$@%*@oXO.XX++%%%%%$%%%%%%%%*%%%@$*%$%$%%$%;*+#**%;$=*%***#%**%%$#$$#@%*%%%*$%$OOO+@$+o%O%%.%$#o",
"$%$#%$##%$+%@%$@$%OX%+%%**%$*%%$%$%%$OXo.XXX.Xo%%%%%%*$%%%$%$%*@@@$%%%%*%%*%@#$%**=@%$%%**%$*%%$%$&%**%%$%%%$$@$##@@#@@@o$@X$$O+",
"$@+ $$%#o@O%#%##O@O#%@$%$%%%$%%$$$*@..X..XX.XXoo%$%*%*%$%%%%%%@@%%%%%%*%$$%%+%+@O$O@O%$%$%%%$%%$$$*%%$$$%$%$%@@@@%#X%O@@%#@$%#&@",
"%%%$$@+@*%o%#.OXo+O%*#%%%%%%$$$%%$#X...XXXXX.XX.o%%$%*%%$%$%$O@%$$%%$%%%*%%*$%$$%@*%*%%%%%%%$$$%%$*%$$$%%%%%$O#OO@+#%+.O@@@$OO%+",
"$$$.@++O+@@&%$%%%$$%@+$%%$$%%$@%$+....ooooX.....X$$**%$%$$$%*O$$*%$%%*%**;%*$$%%%O$%$@$%%$$%%$@%$$$$$$%%%$%#@@X@@$O$%+OO$@O$o@%@",
"$$@@@$@@@%@$#O@#O+++@+#%%%%$%%@$%ooOX...++X.+@@%@%%*$%%%*@%%@*$@@#@oX+@+%%*OO$&%O@$$@O##%%%$%%@$%%%*%$$$%$%$%%%%$@@%$+%*$XO%@O%O",
"$$$X$@#@@@+&$**#@O%#@@%%%***$$%%OOoXXXXX+O@$+#@OO%*$$%$$%%$#+@@$$@O%$@@+%$%@@###@%%$+%+@++%*$$%%**%%$%%%$%%%O%%*#O*%*O%%#@X%#X#o",
"$%%%##$@$%o%$*+++%%#$@%%%%%%%$*ooX+X.oXoOO%*&o+%o$$$@*%$$%@O%#@%*+X#+@@@%%$##%+@##;%##XO%%+$%$*%%%;%$%%%%$%*@@**O$$%*O%%##@%+.#O",
"$*@OO@XOO@+$@$%#O@=**$%%%%**%%%XXO.OOOOX@+$%$#+@+%$%$*%$$%%$o$$@$@O$@OoX%%&%@+@$@$=*&#o@%%*@%%%%%*$****%%$%@@+$O$%%$$OO##OO%O#$@",
"%*@O+O@O@%+@%*#+o@$%$+$$$%%%%$OO.X.oXX.oX%%%$;*%@%$*$@@$*%+%O%%@$@OOO@#O**%$@#O#@$*%#oo$$%%%+%**$$$%%%$%%*%X$*@$%%%$$o$+$.#%o%@+",
"%%$##*%$$#O@+@X%%$+@#@%%%$$%%.XXX+XO.XOXX%%%%*%$@&;$$%$%%%+@%%%%$$OO##Oo$$$%+$$%#+%*#OX%%$$%$X$%%%%%$%*%%%@%OO#%%*%$$.@+@O%*X+$@",
"$%@O+$+oXo%@$Xo%$#@%O@$%$%%%XXOXXOXXOo..o%$$%%OO&%*%*%;%%%+#$*%%@+O+*O%#$$%$$XX+$#$%+OO%$%%+$%#X%%%%%%$$%+$$%;O%*%$%%@@$%$$%@O#+",
"%%$+@$O@#@%@+oX$$$$@$@%$%+OX+O+oOo.o XXX@%%%%%#@$*%$*%%%%$@#*%%$$@O$o$@oOO##XO@oO$%@#O@X%%#+%%o%o%$$@%$%o$%%%#@%$%$$$OX$+##@O@$@",
"%%*O+%.$O%#$@o@@$%O@$o@$@#%$%XXOXoo.XO.X+&%$%$X%%%$$%%%%*O%#@+%%&%+@O%$@@$#%@%%$#OO#+ O#O%+$%+$*%o#$%%$$#*%$%O$%%%%$*@%$$O..+%%@",
"$%#oO#O%O%@@@+@@%*o@%+$$X$$$%+X#.OOOoX..O#O@+O#O$%*%%*$%*+#@O#@%%%OO@@%%X$#@$%$$@&+$Oo#X%X#$%o%%$%$$%%$o$&$%O%*$$%%$%@%%X$@@.@#@",
"$%@+O@@$X@%$@+@$*#oX$o%%O%%%$#XXO@.oX..O$OO%%*$X%$$%%%$$*O+O+*+$@%#@O@@+@+@@+$O+@@@OO.+%%%##O%$%%$$O#$+@$%$%O*%%%$%%$@%%o$@+X$#+",
"$%%Oo%@oXO%#@O%*$#XX@o$$O@%*$OXooXoXX.OXO@.O*+#@%%$%%$$%%#o#%@+$@$#+@OXX@o$+OO+#OO@++.@$%%%%X$$$$$%$+++$$*%O*%$%%$%%$o%*%%O+@%@$",
"%$@O%%O$O%%%@%$%%*$$@+$%%X$%%@o.o+%.oOoX@X@.+#O@o%$%*%%%*$@*+@@o$$$+#@%@$@#&%#+@%%O@X+$%%$$%%.O%%%*$$@O%%%*+**%$$%$O##%$+$+%#%$O",
"*;@OO@O%O+#@O+O$+#$.#+%*%.#%%%$o..$X o@Xo.oo@%*%#O%$*%%%*@%*%%%O*$%+ O+$#.O#OOO+%X@oO$%*%$$%%%%X@$*$@$%%%$@#O&#OXoOO$+XX$%$=$.#O",
"%*%*%*%$$$@$@o+@O%@@++*%%oX%@$$XXO@+oO+X+ooO+%$%*O$$%$%%%$%%*###%%$%O#OX@O#@@OOXOoX+@*%*%%$%$@%$@O$@$$$$$@o%O%#@++o%%@%*%$$@#%@O",
"*%#OOOoX.o##@OXOO%O$+O%%%O@$@%%@@O@+O+$XOo@O@@$*+%$%%%%%$+%%*%$%%%*$O@#@OO#$@#@%+%#$@%$*%$%*%%%%*%OO%%*%$O$%O%$+O$o%$#OO+ooX#X#@",
"%$#@##%%%@+#@O+@.%@#@@%*%OO%$%%$o#@$X#X.O#oO$#%OO%$%$$%%&@$*%$@%%$$$+@+o%##O++@+.O.O@$$%%%$%%%%;$%%%+O%%O@$@o*%oO#+%$O@o@X@o@o%O",
"%*$+XOoOXO*$+.O#++$O%O%*$Oo@%%$$%@@@ooO$+O@+$@+%+%$%%%*$+@%%$$O%*%%$o+O@O#@@OX#Oo+@+#*%%****%$%*$*;%*#+@@%$%o###%O###o@%O#+$@%%#",
"$$#o@@O+OX$#O.o%o$%X$+%#%OX@&%%$$O@O%o@o#%@@O@#$$%$%$%%$O%;%*#@*$%%%%O@@%@+$@#$+XOXo$$%%%$%%$$%$%%%%;%*%%$$$.@Oo+Oo#$@%%OOO$o%$+",
"$%%@o%$$%+%#X $$O%$X#+@%*@XX%%*$$%O$*@+#$$@$O%@+O$%%$*%%O$$$%O%*$@$%%++$%$$*#$#$++O@%$%%$%%%%$%%%*%**=@@#+#%XO+@%$O%$#;$O@O*O%#+",
"$$@OO%%$O+$#.$%%%%%$#@#%%%#+#$%%%%$@$O$*$%$O%%%@#@$%$%%@@$%%%#$*$*%*%oO@+oOX@.OOO@o@&$%*%%%%%$%%$$%$+X&%=&O%oO$o$%+X@O**%$%%@X@O",
"$%%+O%%$O+*#.X%$O+%+#@#%%*@@#%%%$%*@oO+%%@O%$%%o$o%$$@$#$%$$##$%%$$%%Oo@o++OO+#@@+X$%%$*%%$%%%$***;%$$@##*%%O+O%$#O*%O%#@#%%$$*O",
"$$%.#O%%X@%$oO@@@@@+#O$@**O%@%%$%$%++@X&@@$%%$%@#$O%$*%%@$%*o*%%$%$$@+o#.+@oO+#@$$+#%$$%$%%$%$$$*%*;%$@@$$@%OO#$o@%*%O@OO@%@@#&@",
"%%$X%o%$X@#%O+%#%#%%*%@@%%X%+$%%%%@OOX@O$*$%$*%#@$@#%$$@@$%%+$%%%$$%%+OO@@@X#.O+#oo%%$%%%%$*%$%%$$@-;%$+@@++o%#&@%@$%%@%$&%%%$#@",
"%*$XO*#$o+%#+$X+*%#O##$$%#O+##%$%$@$%$Oo%$@%@%$%@##O$%$@+%%%X#%%%*$$%+X+%o$oXo+@@O%$%$%%*%@%$%%**%+%%%O+$%X%O%%#O%%$$@@@@@@O%%%@",
"%$@@O@.%@#%@X@$$$%$%%+@%%O%#OO#%%Oo%+X#%*$%$%%$%%$#$+$$+$%%%+$%*%%%%$O#X@OOO+@oOX$+@%%$*%$%%$%$$%%+%%@$%O%O*.OO#X+o%X#O@.O%@@O#@",
"%$%$%%#%O@$&.+OO+$#@$@$%@@%@+o@;$+$@#%O%%$$%%%$%$O%$+*$@@#$%+%$*%%%*$X.+@o@XOOO$O+o#%%$%%%%%$%%%$$o$#X%o#%O*o%+XoX+@%#&O@*$%%@%+",
"$$$O%@O#@O%%@%@%+O+#%@$%@$%#%%X%X@%%$o$*$%$$%$$%%$$@#@%##%%$+#$%$%%%@o$@O$+Oo+o#%%$#%$$@$$%$$%$%$%o$..+o#$O$O#@O%$OOX@#++$$$@+*+",
"%%$#%$$%$$*%@$*%$@%+$O$%o%+%$%*O$*%@%O%%%$*$$%%%*$X+@+%%#%$*@##%%$%$o$#$OO@$O$@@@+oO%%$*%$$%%%%%%%O@O.@O+%X@@%%$$$o%$OOX$#@%#@@@",
"%$*$$%%#X+%%@+&;%$@o#+@+$@%%$%%$o%$%+#%*$%%%$$%$$%%@$$$@+%@#@%%$%%%%O@#@X@@O@O@@X+@@%$@$%%$*;%$$$*+##@%%@@#%o%#**%O%$@@##%#%##$+",
"$%%%%*%O+*%$@X#%$%%O*O#O$%$*;%*;#@$%+%$*%$%%$%%$$#$%#$@#@$%%#$$%%$%@@O$OO@oO#@++X@O@%%$%@$%**%%%$$O#+OoO+O$%@%%%%$@%$OO$O*#*OO%$",
"$%%*%%O@@$%@+@#%+@+O#@@$%$%**%%%$O@O$%@%$$%@@@#@#@@#*OX#O%%%#%%%%$%#+#@#X++@@@@+X$XO**$$$$$%%$$%$%+@@@++@$X@o$%%+OX%%$%%+@O@+%&@",
"%$*%%O$o$$%$@%%*%=$$*$@O@$$%%$$%$%O$+ooOo#O@$OoO#OXOO@$+o$%$#%$%$%%$X@%@#+%+O@%O+$.@@%*%%%$%%%$$%%#$++@@%%*%@O@$O@O%$+%#@#O$.+#O",
"%$%%X#++%$*$OOO@oO %XO#+%%$%%%$$%%%#o#OO%%*%*%$#%%%O=*%$@$$%%%%%%$%%O@*%@$oO$#+@@%O%+*%%%%;%%$%%%=O@X$*;$#%%O$%%%+O@%@%%%$O$@#%@",
"$$@$o#+@$%%$OXOoOoXOO$#+%%;%%$%%%=%@OO*;%*;%%$%+%%$OX%%%O%%$#%%%%$%%X+O@@O#++$%OOoX%O$%%$%%%%*%%%$O#.o+Oo+o@O%%$O$*%%+%%*@$$$$$O",
"%$*o+@@+#+$@O+*%@@@%%+$@@%%%%*%%%$$%+O%*%*%;%%%@+O@oOO%%$%%$#$$%%%%$O@#+#$$#++O@#OO%@%%%$%%*%%%$$%@#%%*%$&O%O%%%&@%%$+%%;#oo$%%O",
"$%$O@OO@+OO#+$$%%$$%%%%#+%%*%%%$$%%%%O*%$*%%%%%%@OoO@+%%=@%+%#$@$%%%XO%##+%OO$+@@%+$#%$%%$*%%%$$$$@$O%%$$@@%O*%%%*+$%$%**@#o$$$O",
"%$%@#+%%%%%#O%$%%*%%%*$O@$*%%%$$$$%%*X%$$%%%%*%%%%+#+%@@*@@%X$$*%*%$X%@#O@+$@++O@#O%#@$$%$%%%%$%%$#$oOO+O@$OO*$@OOO+%$%$*O%+%%$+",
"%%*@%%.%*@%%+$$$%$%%$$#@#$%%%%$%%$*%$@X*%%*$%*$%%%O%%=%+%+@##o%$$%%$o$+O$O$@@O#++%+%$O%%$$@$%%%$$%#%%%$$%+O$o*@+@@#@O@%%$O#o%%*O",
"$$%%%@X&$@%$O#$%*%%%$$%%+$@$%%%$$%*%@X++%%%$$*$%$%&+%%%%o@@+Oo@%$$@%o$+$@@#O$$O@$O@$$o$$%$*%*%$%*%O$$%%$#@X@OOOOOoo#@@$$%o@o@$%@",
"%%%$$%$*%O##@%%%%%$$$$@##$*%*%$%*%%o#%%@+%$$%%$$%%$$@$$$%oO$%$O#$%%%X@$$O@#+%OO+@O%%%+%$$%$$%%$%%$@$%$%OX$%%O*%++OO@#+@.O#$#O+o@",
"%%$o$%$$@O%%+$%$$$%%%%##O%$$%%$%%$O@%$%$O%%%%*%%*%%$@+$$@+#%%%%O$$#@o@%+@@@#+O#@#O%*$+@$%$%$$@%%%%$$%#OX@@%%X*%**%@++$@%%$%*%*$O",
"%%%+X%%$#O$%+#%%$%%*$$O@+$%$$@%%%O%$%$%%$+%%%*%**%%%%%o#@oo%X#%%@%$$X+@O@+%$@O@+%$%$$%@%$%$$%%%%%%@*@OO@O%$%o%*%%*X$%@@ooo@+@%+@",
"$%$@+#$%OO&OO$$%*;%$$*@##%$$%%%%O$%*%%%$$@O%%%*%%*%%%%$oOOX*X$@++*$%oO#.#@#+@@#O++%@$%+%%%*$$%%$%$+@.@Oo#$#$ %%##+O$$@$++$@%#@O@",
"$$$@$#$$#%X#O%%%$$%@$%@+$%*$$%%o#Oo+OOoo.OoO@#%%$%%%%$%$o%@%X%%%OO$+@@+@@+@#.$OO.#$$%$O%%%%%%$%%$$+$%%@O&@@@.@$OoX@O$+OXO#X#o@+@",
"*@%@#@$$@+@+X#$@@%$$%$@##%%%%$O%oO@@@$$@%@$+@O$@$%%$$$$%%O$@@+@#oO@+++o#@@@O@@+.O@@%%$.%*%%%*$%$*$$%%$XX#@$++$O+##O**@O$%#@O+%$+",
"%%@@O%%%@%%+O$$@%@@%%$o@%%%%*O%$*+%$O@O@$+$@o@$%%%$%%%$$%$oO@$*OO.OO$OO@++O+OX++$$%$%%X$%;$%%$%%%$@#%#$@#OX++$++Oo$%$@$%o+$$@*%+",
"$%@O#%@%$+$OO+$%$$%$%%O#$*$%O#%%%$%%%%%$%%$%$OX$%$$*%$*$$%%%@o%#OO@OO@O$Xo@O@OOO$%$$%$@@$%%%%%%%*%+X*%$*O++@O$%$OO$$%@%#oO.X.%%+",
"$%%%o@O@@%$O+#$%$%$$%$@+O+%#o@%%*$%**$%%%$%*%O@%%@$**%%%*$$*%%O+O@$o++O@O#$@O@X%$%%$%$+%$%%%%*%%%%O%%&@$%$oO@$%$#$@@oO*$@%#@$.O+",
"*%$%@O$o@X$@$#%%%%*%%%O#%%$OO@$%$%$%$%%%$%*%%%X$$%%%%%*%%$;*%%#O#%@+@$@O$@@##+$$%$%%%*@%$%%*%%%$$*%O#%$#+#%@@%%%%%%++O%+++@+O$$@",
"%%%%o#+OOo#+@#%%*%%%$$@@#$O$@+$$+%$*=%*%%$%%%%$$%%$$%*%%%%%$%*%%%%%X@%+@o@@$@+%$*;%*%*@%%$*%%%$$$%$@%+*+%#@$O*O@+#%%+@%$+@OOO%%+",
"%%%=o+#+$*%@@$$*%%%$$$+#$@%$@@O@$@+%$%@$@O#+*%%#$$%%%*%%$%;%%%%%%#@oO@@$#o#O+%%%%*%*$$@$%$%%%%$%%*@+$O#@%@+$@o$%%%$%%@$##@+O%@%$",
"%%%$OOOOo*%@#$$%%%%$%%@&+$@oO+O%@$+*O@#$@$+@%+%O$$$*$%*%$%$*%%*%%%#Oo@%#@@O+%%*%*%$*$$@%$$@$%%%$$%O$%%%%*+@%#o%O%%#o@+%*%@$*#%%@",
"%$$%O#*+@%$@#@$@$%%%$$#@$%+@+@@$%%O%O$+#@%@@%@%o%%$*%%$$%$%%%**%%%+o#+#%@o@$%%*%%$$%$$+$%$*%*%$%*%$$$%#%&oO$Oo$O+@%$+@%$%%$*X@$@",
"$$$$@%*O@@@O+%$*%*%$%*#O#o%O$%$*%@@@%$oOOOo.oXoX@$%%%%*$%$$*$%%%%%XOOO+%O%%$*%$$%*%%%%$$$%$$%%$%%$@O%@@#++X$O%%%$OX%%@$%*%#.%@@@",
"$%%O%@@@+$#O+#%$$%%$%%@o$#%@.XoOOXXXXOOoOX.OX@Oo+*%$*%%$$$$%$%$$%%+X#+O$$$$%*%%%$$%%##O$%$%$$@%%%%@%#o$%%@O%OO@%$O%+%@%%%%O$+O$@",
"%$#$O%%%$$%O@%$%$$@%%%O%%@#+OOoOoOoOO++X#O$@O%@@%%$*%%%**%%%$%%%*$O+XO#$#@#+@oOoOoO@@%@%$%$$%%%%%%+%%@+%*@+%O+o@+*O$@@$%$O#O$@*+",
"$%%o@#ooOooO##%$$%%%%%o%$@O@#%@+X#o#O+@o@O+Oo#@O%%%%*%%%%$*%$%$%%@Xo@%$##%O$%$%@$$%*$%%+%%*$$%%$%%@$&%#$*##*@@#%*&#$#+#%*@OO%%%+",
"$%%#O+$#%$%@#$%*$$%%$%o%o@X@#@+%+o@@O#@O@O@o@+%@#%%%$%**%@$%%%%*%@@@$%$#%%O%%$%$o%$*%$%O%%%%%$%%$%+$#Xo$#%@$%o##+$+#$X$%#@@@+##O",
"%%%O@$%@+Oo@#%%%%%$%%@@##@$+O%$@@+%&*@@X@%%++O%%X$%%$%%*$%$*%$%%%O@#$%%%%%%;%%**@$%$%$@O*%%%*$%$*%+@ooX.#$o##$%$@+@@#@@$.%%$$&%@",
";*%Xo%#%$+$X#%%%%*$%$$@%O##$+$&X+$$O@@$+@#$%#@$%+#$@%%%$@%@%$%%$@X@#$%$%=X%%%%$%$o%%%*%o$%$%$@%@%$@%@XO%%OO$O%$$.%#.@++$%%+@%##@",
"*%*%%$#&*@oO#%$%$%%%%$$$$O+$+O#@O@#@O$++O%$@@%$%+o%%%%%$%$%%$%$%@OO%%%%%&#*%;*%%$X%%$$%O%%%%$%$%%$@@%%%@%%%@X%$o.$#X#O%OooO+#%%@",
"%%;%%%$o$#%O&%%%$@%%$O$@@%+@+@#++$%O+@$.%O%OO@o*%o$%%$$$$%%%$%%%O@+%%$%%%#$*%%%$*X%$%$$.**$$$$%%%$@##%%#@$@#@%X+oO@o*+$#%%$@$@%$",
";%%%%@.O#+$@%%%$*@%$%o$@@$O@@#+%@$%@O@@XOOO#%%X$&%+$%%%%$$%$$%$%O%#=$%%$+&$%%$$%%@%%%$$O&%%%%$$%$$@$%@@oX@%@+o%o+%Oo.@%O%%$@$@+@",
";**=oXOO%@$O##$%%%%%%o$X$+#+$+$O#O@@+%&oO@@O+%O%&%#$%$%$*$$%%%%OO$@%$$%$O%=*%%$*%#$*%$$O%;*%$*$$%%@%%O*%$o%#$%@#$$%X#o%%*$$$%$$+",
"%$%O.X+$$+=@#%$*%*$*%O$o%&$$##@O#%+@O*%O++O@+$@&%%++%@%$%%$$%%%.O$$%%%%$X**%$@%%%@%*;%*##***%%%*$$#%%X+#%O$@$%@@O@$+#O%@@*%$+XO+",
"*%%%@#%$$#O+@+%%%%%*;+*@##$#$#@*@#@#@$@@+#O#O%O%%%@#$%%$%$%%*%Oo+@$**%%%X%%%%$*%%@%%%$%%$%%%%*%%$;#%%*%%%%%@@%%%$@+@$+$$O%$%@#@@",
"%$%*#OO@#++@$#*%%%%%%O%%%%O$@$@$@&++@$#$+$O#o@+#%$#o%%%$%%%%%$O.@+$%$%%$$$%%%$$%$+*%%%*%O%$%*%%%%%@+O+@#%@@+@%%$%%@XO#%OO%%$O%+@",
"%%$%$%%%%#%O%@$%$%*%%@&+$$O#@@%%$%O#%@@%##@@O@%O*%%o$%$$%$%;$%OO@O%$%@$$@%$*%%**%O%*%%%%+%%%*%%$%;@%%@+oXO%$+$%%OX+O@O%#%%%Oo@+#",
"%%%$%@XO+%$@%%**%%%*%.%%++%$#%%@O*@$$@%$O@@##@#X%%$%#$%%%%%*%@.o@O$%$%%O%%$@%%*$%+%%%$%%@%*$%*%$%$$%%##o$%%$$@oX.XX$%+@%#+$oO$O$",
"$%$&O@X+@ooX%%*$%%%%%O%#%#*+#%$O$O%o#$$+@@+#O##@%%%%+%%%$*%%%%X+O+$%%$@@%*$$$%$$$+%*%%$$#**%%$$%$%@%*%+@%%%@$OO$+O%$%@%@@%%@+O@%",
"%%$+@$ %@*$o#$$$$%%*%+$$*%&+++@$$@%X*+@O@#@@O+O#@%%%O%%%$$%%%#XOo@%$%$%+%%*%$@$@%@@@%%$*@@%%%*$%$$$$@%%@O$%%%*%@@$%%%+%+#O%$O@$@",
"$$%X%$XO%%*O#+$@%%$@%+$*#@#@$$+%#+%o%##o#+#%+@O#X$%%@$*%%**$$$OX@$@%%$%+*$%$%%%$%$@$%*%%@@$*%%$$$$@@o+#%O#O+%%$+%O%%%@*$Oo$@+$%@",
"$$@.#@XX%@%o%%%$%$%$%#%%@%+#%%++@O+@@@#O#$#@@+%++%$%+$@%%*$%%O+O+%%%$%%#@%%%$$*$*$o%*$%%%@*%%%**%%@$%%%*#oX+$+@.$@@%.#%%+@%#+$%$",
"$%%%$OOO #%o$#*$*$%%*O%@$%@%@O%O##@@@@%%@OO$+O@#++%%@$$$%$$%*.XO@%%*%@%+%%%%$$$$$$$%%%%$$X%*%%%%$*@$%$%Xo%@%@*++#o%%O@%%OO@#o+$+",
"%%%*OoOOoo%O##$$$$%*%O%+O+%&+@@%O%@@O@#X#@O=O+@#O@%%@%%$@$@%%oO#O$%%$%@@*$$$$$%%%%$+$%$$%.%$%**%@$@%%%O$%O###o#@@$o+o#$%OO$@$%%$",
"%$%%#OOX@#$o##%%%%$$$+$O%+$O%&##o@@$O&%#@@O%OOO%O@$*##$%%%$$*OX#+$%@$%O$$%$$%*%%%%%o%$%%$o%%$$%$%$@*%.O% $%#$@%@@$+$#O%%XO@@.%%$",
"$$%++@+@@@$o%*%%%%%$%O%$@%@$$#@$@@+&%#+%.@+%%####$%@%@%$$*$%%XO@O%$%%@O#;%*$$%;%%%%@@%%%%@%%%$@$%%+%OO#oO%$@%$%@$%%*%@*%+$@#X#$+",
"%%@O.O$$=+@X#%;%%%%%%@%%%*%%%#O@%+@##@%+@#@$@%*@O#%%%O%$$$$&%+.$O*%%$%.$%%$$%%%=%%**O;*%$@%%*%%%%%@XOX*++%%#$Oo#+OO@$$*@O++#X@O#",
"$*%%@@o+#=$o@%%=%%**%#*%$%%%*%%%%#%%%%*$%*%@@%$@$+%*$X$$$%%%#.O$o@%%$@+%$$%*%$%*%$%%$%*%*$%%%$%$$$@+@+*%%$@+$+@#@@#OO#%*%%$%+$+#",
"@@%o.O%@#$%+@#%*%$%%*@*%%@%@#@@++@XXXo@+#@O++@@$@%%$%O%$%$$%%OO;@*%%$@@$$$@%$$%%%***%$$%;%%%;*%$@%$+@XOOOoXo@$oO#$+oOo@O%%$%o+O#",
"$$$#OOXo++@o##%%%**%$@%#%&%%*%%%$$%%%$*%%*%*;%*;%%$%%%$%%%%%$#@*%#$%#+$%$%%$%%%%*%%%$O%%%%$%%$@$$%$OOX&;%%*o$@#%@%$$@+@+%$%%O@%+",
"@$%OX+O#%.%O##%%%$%%*@%$@@%$#$++%%$+O@#O##o##$*@%##%@$+*%%%$XO@$O*%*$O;%*%%$%%*%%%$$%+@+Oo+%%%%%$%+%$#%*%%*@$#@*+++O@@#@%$$%@O+$",
"$%%%#+@O+#%O@#**%$@%%+oOX++XX..o.XOX.o@O@#@+@+$@@$%@$%%%%$**O@$$+@%$*O;%*$%%$*%%%$$$$%OO+X#%=%%%%%@%o.**%$@#%@@Oo@%#%@o**%@**$O+",
"%%%@@#O@#@$O$%%%%%$*%@@%$%#%%$%%$*%*;%*@%%$@$$%%%%*%%%;%*%$*XO=%+O@@$@$$$$$%$%%%%$%%$*+@%%o%$$$%**@%OO#&@@#%$X.+@%%$@+#O$@+#+;$$",
"%$%$%O++%$%o%=$%%%$$&@$$$@O%%%$$%*%%$%*o%*@O$*%$%%%%%%%%%%%#oO;;@$%$%+$$$%%$$@$%%%$$%*$O@O+O%%%$%$@%%$$++%X@%Oo*%%%$$$$O###*@%#%",
"%%**@@%#@O@X%$%$*%%**+#%$*%@+$%%%%$%$%%+$*%#O#%$%$%%%$%*%%*%%o%%@$$%%$O%*%%%$%**%$%*%%%%%$$O@%%%$%O+#+@@+#+#&O$$$@##@#OO$#.Oo%O%",
"%%%;#%%+%$%X#%%$@%%*$@#$%$$%+O#$#%$*;%*@%%$%%+o##@%%$%%$%*$$+O%%@%O#%%#o@%%@$*$%%$%%$%%+%$%%@+#@%$@%$%%$@%%%@%@@@+OoO#%%O&#%$@$%",
"$%%%%$+o%%$ %%*$$$%$$o$%$%$@.++@O@$%%%*O=%%%$%$*%@++%*$%$$%$$$$%@%$%%%%%%$@+o%%$@%%%%%@#%%$$%*%@oX+@@@+OXo%@@X%#+X@$#@#X$+%%+o@&",
"$%$%$$@@+@@X@%%*%$@$@#@$+oO+@OOOOoO@O#*%@%%#$**%%$%%#@X%%%%$%$$++%$%O$@%$%*%$@@oX#%%%%#&%$%*%%$%$%@o#$@@@OXoO%X@oX+@$#@.%+%@ooO+"
};
