/* XPM */
static const char *mural1[] = {
/* columns rows colors chars-per-pixel */
"128 128 15 1 ",
"  c #6B4727",
". c #774F2B",
"X c #7F532F",
"o c #875733",
"O c #8F5F37",
"+ c #9B633B",
"@ c #A36B3F",
"# c #AB6F43",
"$ c #B37347",
"% c #BF7B4B",
"& c #CB7F4F",
"* c #CF8353",
"= c #D78B5B",
"- c #FFA35B",
"; c #DF9363",
/* pixels */
"OX+Ooo@$Oo++@O$OOOOO+%OO+@@%O$@@#%@@++@#@OO##+%O++$o%%%$*%%%+#+o+O#@*=*;+%+$+%%%$%*%$$%#@OOOoOO+XO@%%%++O+@X%%O+%$OX.+%*oO%%X%$%",
"$@#@O%%*%#%%%O%%$XOOO.O##$$*O%$#####@##@@+@%#@@*$%*$%OO+%$@#O$%%%%%%%O#%O*O$+$%%%%%%%$#XXXXOXXXOXXOOX%$@%%@X$*XO$%%%$O%%O+$%O$$%",
"%%$*%%%*%#+%$O%%*%@%%%%%%$$$oO#$$%%*$%$*$%%$O@O#XX+oOX@++OOO@+++O@#OO+@%OX$$@%$%$%$%oOXXXO+XXXXX.oOOO+%%%$%+%@OO%@X+X+$%@@$%O*$%",
"+++@XO+#*+@*@O$%%$%$%*$$$$$%%$+#%+@OXXOoooO#@$%$$%%$$%%$%*$#%$*$%*%;%%$*O@*@@%$$$%%OoX+OXOX+o@OO@++OoXO%*%@O%%+#%$#$$%%$oX@$O$*$",
"%$%%%+.%%OO%$O%%%%%%%%%*%*%%$%@+%O@%##+OXXoO@$*%%%*%%*%%$$$$%**$%%$$$*$$#%$%%%*@%%#+XXOOO+OOXOoOOO+@++X@%$$X%&XO$$$%%$@$OO*$O**$",
"+#OX+@O+oO%O%O%$%$%%%$%%*%;*&X+O#%*%*O*&%#OOoX#%%%*%**%%%%*$%%$%%*$@%$$$&$$%$$%%@+XOOOO@+O#++XOO%O++@O+@%%%O%@@@;*$#%%$*$O%$O%$%",
"$%$%%#%$@@@@%X%$*;%*%%%%%#++X@%X+@#$$*%;*$;%$OO@%%%*%%*%%%%%%%%%***%%%**$$@*%$$%.XOO.X+OOOO+XOOXXXXXX@O$*$;O$@%X;O+OOo$$O.%*O%%%",
"%%*%$%%*%OOO#O%%%*%*$%%OOOO#$$#O@#$OO++%*#%@#@@O$@%%%$%%%%%%$$$%%%*%$$;%%%$*%$#XOOoXX.XoOOo+OX+O+@$@#+@O;%;+%@@O$;%*%$$#@o&%o$$%",
"%$%%@*%%%@+%%#*%*%$*$%$+@OO%%#O++#=@X.+##%$%*%%o*%%%*%%%%*;%%%$$%$%%@%%%$*$@@$%XXoo+O.XX+OOOOXXOO$%+O+%O%%$O%O@$@%%%*%$O+@@%+%$$",
"#O+++@O++X+o+%*%%$$%**%%%+%%%OO+$@$@@oO@O%XOOOXO+%*%***$%*%%$%%%*$%%%*$%%$$%$%XOOoOOOOXX+OOO+OOX@%;=%+O+%%$O$+o+@%*%**%O+@++O@@$",
"++@$#OOO@%#X*%$$%*%%$%#O@%#OXO#*%#%%O+O@OOXoOOOoO*%**$*$%*$$$%;%**%%%%*%*%%$%O@++OOoO++O+OOOXO*$%%+OO++@%%$X%%%$%*%**$*$%*$$O$%O",
"%OX@$XOO%OX%*%%%$$%%*$$O+@$.X+oOO%%%%%%@OO@#OX$OX#*%%%%$%%%%%%;%%%%*$%@+XOO@O@@O++.o+XOXO+O.X+o$%%%OOO@@%%%+%#oOXX+OOOXoOOOO@#;%",
"%%@OO+@Oo@*%%$$%%$%%%%%%OX#OX+OoXXXX+O++X$O#%#OXO#;%$$$%*$%$$;*%%%$$%OO#$%%OOOOOX+OO+OXOOXOOX+%$$$$%@#O$#%%O%@$$%%;%+$$%*$#O@*%%",
"$$*%%%%%%%$$**%$@%%*@@OOXO+OX@OXoXX.oO@OX+O++O@OO@%%$$%*%%%$$*%%$$*%++*%%%*o@+$+O@OXXOoOXO+@XO%$%$$@@#O#$%$X*%$%%%%#@X++@%%$@%%%",
"$%%$$%**%%%%%%%%$*%#oXOOOO+OOXOXOoOO..OXO@%OO%X+o+%$%;%*$%*$%@%%$%%$O@$$%O*@oOO%#oOOXOXOOOoOO$%%%%%%@@+@%%%X$@X$%*%$O#%+O%*$#O%%",
"%%$%%$%$%%%%$%%%$@O+OOXOXOXXXOXX++@OO%%#O%%%#%@O+O%=%%$%$@$$%%%%%%$%X%%%$@%O+oOO+@XOOXXOXOXX$%$$**;%$X@@#%%X#$@%$%%=$OX@@@$$o#%%",
"$%$%%%$%@$%%%$*%@O+OXOXXXO+OXX+OXXOOo@%XO=%*$%$XoX%%*%%=%$%$%*;%$%$%O%%$**Oo$@XXO+OXo+OXXO+O$$*%%$@O+.@+%;%+$%$$$$%%%+%=@X#$+%;%",
"%$%%%$%$%%$%%$@$OOXOXO+.OOO+XXOO@XXOXX.@O%$*%#=+OO$$%$%$$$%%$$%$%$%$+@%%*$$o#%X@OO+XoOO.OOO%#$%%;$$$X%@*$%$+$@$@%%%$@Xo$$Oo%@@%$",
"%%%%%$%%$@%%*$#XoXXOXXOoXOXOOOO++XXX.oOX#$$@%#XXOO%%*$%%$$%%%%$%%%%%oO$%$$%+X%@+OXOOOO+oXOXOO+%%*$%@.$%$%$$O$%o+%%%%#O@%X$+%##$%",
"$%*%$%$%$%%%%@oX.X.+O+@O.XOO.X+O+##XXX+%%%%OOOO&+%*$%%%$$$$%*%*%$%*+XX%%$@+O+o@OXOO.X+OO.X@%oo$#++OX$$%%%%%o##$**%*$@o$+Oo$%$#*%",
"$$$$$@%%$%$*OOXOOO#*+XOXO#@XX.Xo#=#O+O@%$%%#OOOO+XX%@@$%%%%%%$%$%%$OO@#%$%*%+X@$OXXXoooo.O*Xo%%%%=%O+%*%$%%@@$O%*$$%+.$O%O%*#+%$",
"%%$%%%%$%%%@OOOXX%+X@O%o@+O@O+$$**@XX+#%$*%%O$O+OX%%%@%%%%$$$$$%%%#OOo#%%@@@$%o$OoOO.XXO+%OOXO$%%*$%%%%%$*%#@$o@%$%%@O++O+oO@X%$",
"@$*%%%*%@%%@OOOX@$XOXO+#+O+%@$$$*%OX.@@++++OO+oOXOo%%$*$%$$%%%$$%$OO@$$;$@%+@@O#@OOOOX+o+OOO@O@%%$$#$%%$%%%#$%%%$$%%%$*$%$%*$O*@",
"$%%%$%%$%$%+XXXO$ooO%#OOXO@$OO@%%*O@++@+OOOXXXO@O+O$%*$$$@%*%$*$#O$%OO@*+X$%%%$oOOOO+@O$$XO++@oOOO+@*%%$%%*%@%XOOOOOOOXXO@%%%+*%",
"%%%%%$%$%%$@XO+#O@%OO@O+ooO+O$O*##O$oO%@OOXXXXOO+@&%%%%%$%%**%%%+o++$%+oO+%@@%#%o%@OOOO@#@$#OO#%%+O#*$%%$*%@@#+%%$##%%%%%O@$@O%$",
"%$%$%%$%@$OOOX*%OO$%@O#*O@+@Oo@@@O+++*%+O@XOOX+oXO%%%%%$$**%%%*%+o#*$%++#%#%@$%%OO+O@+%#+#$%+%@%@O@$$$$%$%%o@$%$$@#%$%+O+O+;#+%%",
"%%**%$%$%%XOoO.O%*#@o%O$#XO@$@XOOO.#%$XOO%%XXO$+OOO**%%%%%%$%*%%%OOXO*O%O%+$%%$$%@@O+OO+oOOOo%%=%%.#$%%$$@$$@@O++#@@#@#%@@%*%#%%",
"%%%;%$%%$XOO+@$$@oX+O%@O%XXX++%+#o@$%oXO@OXOOo@oXo+%$%%%%$%%%*%%@$@+@#%%O%@@@+#@+%o@XoO+XOXO*%%%%@X+$$$%$*%%O$%*%+@+@O@O%%*%$+%*",
"$%%%$%$%$XoO$*%$+Oo$@%@O$OX+XX#%%@@O.X+OO#$%+XoXOO@$%@$%%%$*$%*%$$X#OO%OO+%%$*%++%*+O+OOXX@O$%*$$Oo@%%$$%$$$O@OOOO#$XX+#+XOo$X%*",
"$@%%$@%%@XX++O$%%$O++#$+OOOOXoO@@@O+O+o+#@%%@OOOoOX%$%%$%%$*%%$$%$%+O@%#%o@O%*%%+$#+O#%&%O@O@$$$$X #$$$%$%$@o%%%@$O@@@+$%%$@$+*%",
"%$*%%%%$OOO+%%%$O@+@OO%#X%%OO@OX+OO@#+$@@@O+$oO++O$#%$@%%*$%%%*$%$o+@$%%%#O%%%+@OOX$%%%*%+#o+%#@X%O@*%%$%$$@O%%$%%@OOO@**%%%%O%%",
"%$$%%%*#.OO%@@%$+XO$%&#O@O*$o+@+O@##+o$O@%X+OXXOXX%*%%$%%%*$*%%$$@XOO#$$%%O%+$@OO%o$*%%%*O+$@++OO-%@%%%%%*$$X%$%*%O@$@+%$%%%%X%%",
"%%**$%%oOX@*$$$$+@@+*%$+O$o@$$%%O$+X@%%O$O+%XXX@Oo@$%%*$$$%*%%%**%%%oO%%*$###O#O+#@@*$@%%+X@@+%#%%@#$%%%%%%$O%%+@XX@@@@+X.+@%O$*",
"%%*$%%+OO+%;O#@@#+.o%%#$@O#O+#OOOOX%*%+@&o#o+XO+@X%$%%%%%%%%*%%%%$*O$X$%%$%@#%%#+O#*=%@+@%%@++OO$$O#$@%*%%%&oOXXXO#$$$@$oO@O%o$@",
"$%$$%%oOO$*%$%$%%@&#%+O@$%#@%$%$O#&%*$+OO+%%XXOO%o%%%*$%%%$%$%**%@#o$+%*%%*%+%$%$%%+O@%%*#OO*$%@@@++**%%$%%%O$%%#$$@@#+@#$@%%+#$",
"$@$@%$+OooOO+++OXOOoO+O#@OOO$#$X@$&OXOO$%oO$$OOO%X$*%*%$%%%%%%%$%%$O%%+%$$%%#++Oo@%%%%$OX#%%O$$@o@$+%$$$%$%$O%&$X%%%OX%$%$%%%O%%",
"%%%$$OOO$$O++o++@@%%*OOO##+oO@O++o@#$X#$OOO%#OOXOO%$%*%%$%$%$%$%$$O%X%O@*%%**%$$%%*%=%O@$%%%$$$%@X&+@$$%%%%%o%%@.O%$OX@%%$%$*o%$",
"$$*$%OOO**%**@+#ooXOOXXO+@O%%@OOXo+XOXO@Oo+X%XXX+++**%$%$$$%*%$$*$o%#&%O*;%**$%%%$$%%oo##XoOOX.O+X$@X$%%%$%%X@XX@$$+OoOO@%%%@O$%",
"$$$$+OXO#$%OOXOOooOoOO+#OO$@O@ooO%@#OX+$@@%$%OOOo#X*$%%%*@%%**$$%O%.$%+O$%*%%$%*%%$$o@%$O+OOOO+@$%%&@+$$%$%$O%#+OOo@+@@&O.+O#+$%",
"$$%%@+@O%$@+O+OO+$+OXOOO@%%+@$++@$@OXOO#@oO%$OOOoO+#$%$$%%$%$%%%$@++@@@@+$%*%**%%;%$.$#+O@@@oXO++$%%$O%%$%%%X#%*$O#@@oOOXO#O@O@$",
"$%%*@XO$&%O++@oOO+@O##%+OO@%%X@O@+@@@$OOO#O+*O++X$X$@*%$$%@$%%@%#+%%+X@%@%$%**%%%*=OoO+###%@@+%+@+=$+O%%%$%*+$*%O+#$*#%%$*%%%O@$",
"$*%$+oX$oOOOOXXOo%*+++OO@%**O%+%@*o&$@%$#$%@$$OOO%X%$*%$$%%%$$$@X%&%#oO$o+%%%$%%%%#%+$OO#O+$OOOOo+X**+%%%$%%X@O@OOOXXXXoXXOX@+$%",
"%*%#O@OO++OX@+XOO**%$#$$$+$%@%+%++o@#+O@O*$$$%++O@o*$@@$*%$%%%%O@O%O%XO#++$$**$%%@+OO#@O+@@O@@%%#OXO$@@%%*%%X*+%O@%$$%%$$@$$$@@$",
"%%$$@@@oo@XXXo##$$%*@@O#O@+##$O%@@O%#%%%#@%%%*OO+*@@$%$%O%%%%%@O$$O%+*O@+XO%$%$%@@O&$$%$OXX@%+OO@%%%@%@%%%%%O&%$*%OoXXXOo@%*%o#*",
"$%$O+X%$@@Oo+XO+#@+%o@$%O@%O@#O$%%+%+O#@@OXO%;OO+%+%*%;%%%$%$*o@XO%O%o$X$oO@*$$%X$$%XOoOOOOOX@OOOOO@%%X#%%$$O%OO+@$%%%$$%OXO#o@%",
"%%$OXo%%$$OOXOO+@@@$@O+X$%$@$OO%@%O$@+o$@#O@%%OOX+O@*%%%%%%**++#++OOXO#XO%$+O@OX+%%$$@@+++#$%@OOX@$$@%X%$%%%O#$%#@+@oXX@+%$$@+@%",
"%%*OO+$$#%X#OO#O+%$+o..OO$#@%OO%#O@@$$++$+@X$$@OOOXX%%%%*%%%=O*O%@OO%%OX+@@@O@%O+#@+oO+@OoOX@++*+XO+%%o$%*%$O@$%%%%++O#$%$$%%@@%",
"$%%##+%%$$+O$@O#O*@%OOO$#$O$%$+%$@*$@%$$O%XXX$+XXX+O%*$%*$%%%O$%%%OO@%oO#@%+$$XXO+O+@#+XO+@$%X+@O@&@O%@o$%$%@@*$$%=X%@$%%*Oo#OO%",
"$%$%%O%$$O@%@+#@*@@$oO+#O%+%O#O##O$$OO$+$%@@$%O+XXXO%%$$*$%$@@%%%%*$%$@$$%%%%*#X#O@o@@%%%@@OO%@O+@#$Oo#X$%$%@@%%%##$X$O++O+$$@@$",
"$%%%$O%$%O*%O@O*$@#$OoOX%%O*$O+#+O%$Xo@$#%@O*%XOOOX%%$$%%$$%O+%*$$%%$%%$%%*%%%$#$%%%$@$$%%%@$XX@$$OO$O%X$*%$$+$%$o#%Xo%*%%%*$@O*",
"%$%%%X%$%O%*+$O%$++Oo@O%%#O%%OO+O#*$X%X@@+@$+%OoXOX%*%%%*%%*O#$oXo$$O#%oO$%*%%%O%*$$@$$%%$$O%@#ooO++@+%O%%*$$@%OX$oOO%%%$$%%%@O$",
"*;%*@.%%$X$$oo$@*$$X$O+*%O@%%#@$%O*@.O$OO+OO$&$OoOoX*%%%*%**o$$$*$#%++@#$Oo@$%$X&$%$%%%*%$$X%%%+@@+OOo#+%$%%+@*%#%%%X%O$%%%=%O+$",
"%*%*%+%$+O$%+@@$@%%oOX@%%@O%OX+%%+%#O@Oo#o+O@%#O+OXX%$%%%*%%+@%%%$+@@$O+@X*$%%%o@$%%%*%*%%$O$@%@O%#oo+#O@%$%@@$%*%$%O%O*%%%$$@O%",
"*%$*$X%$o@$$O%@+%*%@+O+%%#%$@%O%$@*%O##o#$X+%+X%o%$%%%%%$%%%@@+OO#&@O$+X.@OXXX@%O*%$*%$*%$%@#@@+&%%$%+++$$$%#+$*%#%%X+O%@$$%%@#%",
"%$$%$O$@O@@$@%%O#%*%O#%*%@$%$%X$%o%*O@X.#$$Oo&O%$%$%$$%%*%$*@O$%%+o$o#$@+o#O#%%*o@$%%$$%%%$+OO+#O%%*%%$O@$$@+@%%%%@@+$@@+#$$%@@%",
"%*%%%Oo+X@*%+#$o%%%%@%+%+%o@%%o$%O#*O$#O@%$%%@O*%%$%%%*$$$%%+O%%$#$$%#@$o+##+$%Oo+%;%*%%***@O@O+O*;%*$%%%%$%@O@@$$@$@@$%@$%$%%O%",
"$$%%%@XXO$$$+%$O@$oX+%++%@#O%$O#$++%O$$@@%%$%%$$*%$%$%%$%%;#$@@@#X%@%$@@+@$O#%+@OO+%$$%%%$%@oXOXO&%%;%*%%$$$@O@O+@oOOO+oOO$$@%O$",
"$%%$%%O@@o%$XOo%$$+@%OOo+OO$O@%OO+#$+%%@o$@%%%%$$%%%$*%%%$$$@@++#+oO+$+#%$%%+o$#+%O$%$%%$%%@OO##$#%**%%**%%%$O#@%@#%#%=*#$X&@%X%",
"$$@%%%O$%+@$X#@O++%XXOOOOOO+o+OO+O@%@%$%o%%%%%%$$%$%$%%%%$%%+@$*+@O%#X@+@@XO%$%$@$+o%$%*%#%+$$%%$X%$$$*%;*$*%o@XXOO@+O+$++$$%%X%",
"$%###+@$%%+@@%+OO$XOO+$#O$@+O#O%#O@*@%%$O$%%$%%%%$%$$@$%%%$$OO$oOO$%%+O%OOO%%%*%%*%$O%$&@O##O%$**+;%$$$%%;%*&O%%*$#%$$$OOO@+#$+%",
"$$XX$#@%$%%O++@%#$%+@o%@+%X#oO@$%O#$@$%=o%$%%$%$%%$%$*%*%$%*X%%%+$X#OO%O++$$$$*%;*%$#@$%$@%$O$$$*O+;%$@%%%%%$o*%+X@+oOOOOO@%%%+;",
"%%o+OO@$$%OO+o+O+o%O@@oXO%O@#o#%#%+%O$%%+*$%$*%$$$$$%$$%%$%%o$%@#oO#O%O$O@#O%$*%%%@@OX+%%%$*o#%%$#+-;%$%%%%$@+%$@@O+#%$%%*$+%%O%",
"%*$%$&XXXXOX@%@%$o#X**+oXXX$O+%O@@+$%@$#O$@%@%$%%*$%$%$$@%%#O$%@@+$$@o#O%O%+oX+@OO+%%$O%*%@%$O%**%O%%%$$%%%%$+%O#O#%%%%%%$%X@*o%",
"%$@%@%$%%$O+.##$O%OO%@@%o#%@XXX+O#O%$o%$+$%$%%$%%%%$%$$%%%%%@$+#%%#%X%O@@O$%%$$%+%%@%%+@%$%%$O$$%%O%%%%%%%%*#O*#@%$*@O@%%**%%%O%",
"%$%$%%$%$%o@X$#%O+$*$+O%X+#+@#$;O@X%$O%%O$$%%%$%%$%%%*$$%%$###X+%O%%$O+O++%%$+@#O@o$%%+X%%%%$OO%$$X#%%%$%%%*@XXXOXOOX++XoOXX@%O%",
"$$$%%%$%%$%$@%O%+@OOO@+%@O+@O@+OOOo%$X#%o%$$%$$%%%%%%%%%$%%@@O$%+%+%O#OO#@%#O%O%$$+%%$#XX$%$$%X%$%@+@$%$%$%%$O#O++O&@@%@@O+O@%+%",
"%%$$%$$%$$$#@#@$O#@+@@O%X%$%@o*%%+oO%oX%#$*$$%%%*%%*%%%*$%$%+@O%O@%@#%OO@O%@O=X%$%$$%%$*$O$%%%@#%@+O%@@%$%%$&O%$$$$%$%$$%$+%O$.%",
"%$*$$%%%%%##@%+%+@%o$@O%O%%%$o%X@$o$%@O@X@%%$$%$$%%$%$%$@%@@O+%o$o%OO%OO+%%+O%&%$%;%%$@$%O+*;%$XX++@%%%%$%%*@O%**%@#Oo%%*%XOo%X%",
"$%%%%*%%%*@@@%$#X%%+%@O%O%$*;O*$$%o$%%X+Oo%%$%%$$$%%%%%$%$%%+%@@@$OO+@+$@$$$%%%%%%%;%%$%@oo**%%$XXoO*%$%%%*%&OXOOO%%#@X++*X*X%O*",
"$%%*%%%$$$@++*%O+&%+OO@*O#%*%O%+++OO*%O%%+@$$%%%%$$**$$$$%%%o%+%@#O$OO%@#%%%%%%*%%O%**$$$$o%%$$%o+OX@%%$%*%%#O*$OXOO+@@$#$X$o%@%",
"%$*%%%$$$$@#@%O*O@##&@#$X#$%$#@++%OX%%O@%*OO*@@$*%$*%%%%$$%$+$$O$O$O+o%OO%*%%%;%#O.*$%*%%%O%%%$$%OOOOX$$%%*%&O$%%%$%$%%%%$X$X$+$",
"%$%%%%$%%$$%o%%$O+@%X+@%O%$%@+@O@OOO%$+##%*@@%$%%%%%;*%$*$$%@@@@$X$+%O*+O$$%OO#&$#O#O$%%%%*+%$%%%@@%%@+$%*;%$X%%%%%%%%%%%%O$o#O%",
"$$@$%%%$$%+%O%%%++@$@#+%@%;%Oo@+#$@o@$&$OO=%+$%%%%%%%%%%%%%$O%O%O@O#@o%OO%+$@+%&%$$%%#%%$#@O%*%%%X$%%%%%O@%;$O%$%$*%%$%%**O$o@O$",
"%$*%*%$%*%o@o%*%+o@%OOO%+%%%O%$+#@@++%%@O$O%@O%$%$*%%$%%**%$++@%@OOo$O%X@$+@#X#%%$$%%*%%$%#@#%%$$+O%%$*%$+%%$O%%*%@%$%%%;*+$O$O$",
"$%$$%%$%%$o@+@$@@OO%%*%%O%%#@%%$$@#+%%*#X+%+OOO%**%%$%%%;*%#@O$XO@@@@O%&@%*$$#$@%%$%#&@#$@@$O%$$$$O%++O@$@O%%+%%%=O*O%%**%OXO$O$",
"%$%$$@%%%%OXO#$%#$O$$@O%@$*@@%O++@@++%%$@XO@O+X%%;%*%%%**%$#O%#+$*X$%+#OOXO+OXXooXOOoXXo+oX@X%$%%$@O@X%@OoOO%+$%%@O#+=%$*$O+%%O%",
"%%**%%$%**O+%XO@@@O@#+@$+$%#O%@+@$*$o$%*%%#@O+X%%%%%%=%$*$%#+$O#$@X$%@OOoo@OOOX#@@OX+XO#OX.O@O%$$%*%@oXO@OOX$+$%@O@#+%%%$$Oo%%@$",
"$$%*%@$*$%XO#X@#*%O+@@%%O$@OO%+@O%$%O%$$%%%@o@X$$%*%%%%%$$$@+%o%@XO%%OoOOOOX@OoOOOXXOoXoOo+O+XO%*%%$$%OX%OOX#O$$%$$@@$@$%$O@%%+$",
"%%%$%%$*%#X+%O%O@%oO+@@@O$*@@%++O@@@X#%$%%$$$@O$%%$%*$$$%$$@@#O$Xo$%%X@@@O#%$+O+O@@O$$$++##@O%$%%$%$%$%@%+@O$#%%*%%$$+X$$%%%%*O%",
"%%$%*%$$%#O@%o%Xo$OX#O%@+%$X+#+@++@#+#&$%*%%%*%%*%%$$$$$$%%##O$#O#Xo$$*#$%%%%%+%$+O%@##$%O%OX@%%%%%$%$%%$#OOO+%*#@@+@#X@#O@#O*O$",
"%%%%%%%$%@O%%O$O$O%+O@+$@$@OO+O@O%%#O#%%$*%%%*%**%%%%*$%*$%+#O+O$+@%%$%%$%*$%$X%**+o+#@O+O$+%%%%%%%*%%%$$%$%%O%%@@%%%%O%$$%$@*+%",
"$%$%$%$%$@+$#o$@#%%+@*%%O%O$O%@$O$+#@%%$$%$%%%*%%*%%%%%%$$%@@+OO@+O+#$$@%%%%#%O+$O@XX@$O@O*X$X%$%$%%$$%$%%%$+X%%OO%%%%O$%$%+$%o%",
"$$$%*%$$*%O%@O%%O+%+O%#%+$@$+#O+#$%%@+%$%%%$@%%%$%%%%$%$%%$OX@@#O@O$@%#%*%$@.%#@@X+XOo%OO@+%%O#%$$%$%%*$*%%$#.$@Xo%$$$X$%*$OX%O@",
"*@%%**$$%+@%OO$oXo$$@$O%@@O@#@O@+$OX#+*$*%%$$@$@$%%$$$$%%%$O#%@o$.@%%%XO%%@X@$$@%.X#Oo.+%%O%*OO$*$%%%$$%%$$@#X%%OO$**%O$%%#XX%@@",
"%%$%$%%%%@@%#o#XOXO%%#.%$o%#%#O@$$%O#X$%%$$@$$%%%%$%%%$$%$$O$%@@OO#+%oO%O$+$%@$%$o@O+@XOO=O%OOO%%$%%%%%$%%$%$O%@@X$%$$X+%$#+.&#@",
"$%@$%%@%*@$$@.$%OO#$%%O$$$+##@%%@O%+%O@$%%$%$$%$%$$*%$*$$%#O%#%%@OX@$$@XO$$$$%$%$OOO%@OX@++%%@O%*%$%*%%*@@$*@X$O%+$$@#OO$%@%@$+@",
"$%%%$$$@$o$$@X#@o+@@@#O+@+@%$#@%++$+*+O%%$%*%$%*%@$**%%%*$+#$++@O%++%%$O#%%$$$$%$++O++O$OO%#%+O+%%$%%*%*%$%%%+%o@@@$+O+X@#@+XOO@",
"*%$%%%%@$o$%@+@%#O*%#%o$+$+X@$#%O@+O+o+%$%*%%%%$$%%%%%*%%$$&$@*O%##+@*#X*%%O%%%$%$O@@%@@+O$+%%#X$*;%*;%%$%%%%@@o$%%#O@$$#%@$$%##",
"%%%%%%%%$X%%O#@%&$%@O#o%@$o@%#%$+%O*%+O%%$%%%%*%%%$$%*%%%%O#%*%O%%%%&*X$$%$@@%%$*@O%@+@++#@@%%OO$%*%*%;%%%$%$#@%$%**@%%%#%%$$%$+",
"%%%=%%%$*@%*o%X*#%%$O@$%O#*@%#+@@Oo%%#+$%$%%*%%%$$%%%*%%$%@O%%O%@$$@%%O%%$+X#%o%%#@*oo@o%$X@%%$@+*%$*%%%%%%**+@@OoXOOO+OOOXO+%$$",
"%%%$$%%%$+%*O%O@%#%$@%$+$$%O$@+$@%%&OO+$%%$*%%%$$$$*$%*%$%X%@O#%%@$+%X%#O$@o###%*OO*oo@#o#XX%%%#X%$$%%%%*%%%;@$O@%&$$$%*%+$%@%$@",
"%$$%%%*%$+$*+#$oO@$%+O#+$%#O$@+$@&O#OOO@$%$%%%%$%%$*%%$$%$O#o+*X@%@%%@#*O#oX#$@O%++%O+OoO$%$*%$+O%*%%*$%*$%%%O@$%%%OOOOXO%$*%$##",
"$$$$%%*#+O$@@$@*@%%$+%@o+X@O%#+%@#O#+@$#%$$@$%%%$$%%%%*$%#o*O$@@#%OO#%O*O%OO%$X+%*%%O@@OX#$$@%$#%@$%%%$$*$%$%%@%%*$%%%$%%%##%#@#",
"$%%$*%$$O$%+@+%$@++$###Oo$@%$#$%@%O$XO%o$%$*%*%$%*%$*%%$$@X%O##O%#%@@#o@O+o#%%O@$O%%O@+OOO%OX@%%#+$%%$$%%$$%%++@O+o+OOOOoO@+Oo@+",
"%$$%*%%%X@%O#$$$@$o%$%O%O%+@$+$@@@O%XO%+@$%$$%%$%%$*%%%**o$$@@%$&o#&+@+@$O#$@$X+@O%%+*O@+O$+O%%%OO$%*%%%*%%*%@OX$%O$#+oOO%$+X$%O",
"$%*%%$$%O$@O%o#$@o#$%@$%O#++%O#%$$O%$@%O@%$%$$@%%%%%*%%%%O*%#@X%O$XO#O@X$O#$o$O#+O@%+%O+++%oO%%$O@$$*%%%*%**%$+@#%@@XoXO+Oo+*%#@",
"$%%$%$%$O@$+%OO*@OoO#%O#o@O@@+%@$@O$#+@+#$%$$%%%%%%%$%**%.X%#%@*+$%O#+@X%O@%O$X@#O@%##@+@##O%O%%#$O$%$%%%*%%*@@@@%#%*@##**$@%%#.",
"%%%%%$%$O%$+%%O$%@+@%@X%+$#+%+%X%%@%%#O$@%%*$$%%$$%%$%%*$O$*#O%O%O%@+#Oo%@$*+%+%@+$@@#oO@@+#*X%$*%o@%%$@%%%$%%O$$%$$%%#OX$$O@%%O",
";*%%%*%%@%OX%*O@%%$@$@+%@%$*%o&.%@%$@%O@O%%%%%$%%$$@%%%$@O@%@+##+$O$O%X%%%+#@%X#+o@@%%@%O%X$O.%@%@O%$$%%%$*%%%X$@%OOO%+XO@@X@@%O",
"*%*%%$%&%@%OOO@@#@%#$@O%O%@$o.$o%o%%$%OOO*%%%*$%$$%%%%%$%X%$o%X%+#O$%O#%@*@@%#O@OX%#@@@@+%O$o+$%%+O#%%%$%%%%@%X%$#Xo@#%%X$$@O%%O",
"%%;%%%$%%+%O*#%%#O%#$X%%@+$%@O$O%O$O%%@@o%%%@%$*%$$%%$$$$O%O$$+%$O%O$Oo%@@+#%@@O+o%+$@+@$*X$X@@%%$O#%%%%@$$%%%X*$O.o@+O%o%@@O$&O",
";%%%%$%@@o@#%+%$#X$$%X$$$@@@O$@O%o@+%$@#o$$%%%%$%%%$%%%%$X$O#O$O*@%$@@@+#@$O%O@O@@%o%@@X$%+$o$o%$$OO%;;$@%%%$%O$O@O@@$%@OOOOX$#O",
";**=$%%O@*$@%O$%+@$%%o$$%O%#@$O+#O$+%*;++$%%$%*%%%*$%$%$*XO$$O%O%++%OO%X$+=O%+#@O$@$%@+X$=$%X*O$%%#O%**%$%%$%%O*+$X@@@%@$@+$%$#X",
"%$%%$$%o#%@##O$*%*+*OO$%O$$$+$OO@##O%@&o$X%$%%%*%%$@%@%$%O$$#%O$+%O$#+%o@#&%$.$%#@@@=%$O@**#O#O%$$+O%%$$%%$$%%X%@@o$Oo%%%*%$@$+X",
"*%%%%%%o$@*@#@%%$%@*#O*%O#%%@%+*$+%+%@$O@O$$%%$*%%$%$%%$%X%$+%X%##++#%+O@%=%@@$%@+%O%@$@%#%$$$O$$;@o%*%%%%%$$%X%$@X%X%$*$%o%%%#o",
"%$%**%%O+@&@%#%@@%+%##%%++@##*O@O;%O@O%+%O$$$%%%*$$$%%%$%O%+%@#O%O#OO%o%&$+%$#O%O+%O%$*@%#$+%O=@%%Oo%%%%%%*$$%O$%%O++%%@%%O$$*#X",
"%%$%$%%O%$$@%+$#$#*%O%*%O++++%%%@%++%O$O%+@$$%%$*%%$$%$$%X%@$@%X%$+$o@o%+%O*O%O*+#%+%@#O@$%$*O$+%;%@O%%%%$%%%$o*$#+o.O+@%$O$$$#X",
"%%%$%@#O%%o@%%**+O%O@%%%@%#@$%@$O;$+$@#+@$O%%%%%%%$*$$%%%O@%#O+#O%$@$O@@%$+O@%@$++%O$@@@@%*$%@%o%$*OO*%%%%%%%$o%$%%$%$O@$#OO$%$X",
"$%$%$%OX%O$.%%*$%#%%+$%%+%@X@&%#o$#@#$%@O%O%$%**%%%%%%%%@@%%%%$%#%$%%$@%%*$$$%$$$%%*%%$$***##$#O$%%o+*%%%%%$*=O*;%%$%%@O%%%%%%$O",
"%%$%%$@O$@$X$%$$@+%*@%$$%%#X+@+%@%O+%@@$O%O#%$%$%%%%$%%%@O%$$#@@@O#O+OOoOO+o+XOXOO+o+#@&@@$$$&#o$$*O+$%%%$%%%*O*%;%%%$@X*%%$%$$X",
"$$%$%$%OO%%o@@$@O%$.%%$*@@+O%%+#$$###@@%@$O%%%$%@$%%%$*%@++XoOO%$$.%%$%$*$%$%%%$%$%$%*OOo%$*%OXO$$%+Xo$%%*%$*%X*%%%%%%#+%%$%O%%o",
"$$@%%$+O*$%X%%@$+$%X%*%%@@o##%+@+@+$+OO%+*O#%$%$%%$%%$@%#@$%%$%%$%%%$%%%@%%%$$*$*$%%*$%%%%*%%%**%%%$oO%*$$$%%$X%$OO+XOO@O+O%@@%O",
"$%%%$%@OO%%O$#+$*$+@*$%%@$@%%@$%##+$o%@*O$X%%$%%$@%%*$$$@O$%*@$@%%%*%@%%%%%%$$$$$$%*%%%$$%%*%%%%$*%$@X%%$%%;%*O%*$%*$%%@%%%=%@$.",
"%%%*%@@@%%%O$#oO@@O%%%%$@$O#$@@#$%+$o$O%+%@#$%$%$%%%%*%$+O@%%%%%%#%%$%$%*$$$$$%%%%$$$%$$%$%$%**%@$%%%O*%%%%%$$O%%$$*$%@O*%%%%%%O",
"%$%%$%X@*@@o$+%#+$O$$%$$%@@+$&%+@O@$#%@%%@%+$@%%$%$*$%$%@+$$*%%%$+o.$%$%$%$$%*%%%%%$%$%%$%%%$$%$%$%*%+@%@%%%%$O$$$%%$$%O$%*$$%%O",
"$$%@$%X$$O$X%*%%++#$%$%%$O@#+O$O%O@$@#O%+@%O%%%$%%%@%%%$$+$%+$%@%%oO#@$$;%*$$%;%%%%%%%%%%*%%%$@$%%$%*$+$%%$%&$O&%%%*%%%O$$$$$%%.",
"%%$%%@X#@%++$%;%$O%%%%%%%+%%%$@O%O#%&#+@%O$O%%*%@%%%%%%$$X@OO#@$$&@@O+XoO#ooOOO@OO+@O#@+O@@%*%%%%%%%%%+$%*%%%%X$%%%*%*+o$%%*$%@X",
"$*%%$%.$%$$X%O%=#+**%;*%$O#%*o%O%O$%@%@%%+%X$%%$%$%*$$$$$+$#OXXX..OOOX+O++##O+%*%O@@$#$O@OOoOo#@###$$$+%;*%$%$X@$%%%*%%*@O##O#$X",
"@@%%$@O@X@%O@o%*O#%%*%*%*o%%%O%O$O@@@@#%;O%+o@%*%*%$%%%$%OO#%%%@%*%%$$$$$$@%$$%%%%@*%*$%#%*%;%#@O@+.OO+$%%$%%$X#$O.XOXO@OOoOOO#o",
"$$$%$+o+@$@@o+@%O**%$%%$%O@#*+#+@+#o@+#$%#%@$+*;%%$%%%%%%X%%*%*+%%**%%%%$%%$%%%%*%O%$$%@O%%%%$@$$%%$$$@*%%*%%$O%+O@+XOO@XXo+o@%o",
"@$*%$+@%%@@O$#%O%$%%*%%$%#$%%%@@O%@++O*+%$O$@%*%;%%%$%$*%o%$$%$X$*%;*$;%*%%$%%*%%%O#%%%%O$$%%%%%$%$%%$%*%%*$%%X%%%%+X$$%%$%#%%*@",
"$%%%$O%%%O#O$$#+%$@%%$%%$%O%%$$OO%O#+o%+%@+$O$*%%%%%%**%%X***;%X$$%%;%;%*$%%$*%%%$+@$%%%+$%%=%%%%%%%$$**%$@%%%XO%%%XO%$**=#O@@@+",
"%%%%%O+@+@O@%$O%%%$*%$$%$%O%%$%%#*O*=O*$%%X%X$%%%%*%%%;%*O$*%*=O$@&%%%$$$$$%$%%%%$%+$*%%$$%%$$$%**%%%%%%%%$*%$XO$%%O#oO+$*%%%*%@",
"%$%$*o%$%oo+%@$%%%$$%%%$$@X%%%$$%*%%$O%O#*.@X*%$%%%%%%%%%O%$$*-#@@%%%%$$$%%$$@$%%%#O%**%$OX+%%%$%$%%%%$%%%$$&%X&%*#X%*%%*%$*%%%#",
"%%**$+@OOO@OO%%@%#O@@ooOX+O+XoO+Ooo@@@%*%*O$O%%$%$%%%$%*%O**%%%%%@OO+##%**%%$%**%$$@%%%%%$$#O@O+@%@$%%%$*%%**$+O#++X#%$%%$$@O%%$",
"%%%;O+@O$O#OXOooO##&+OXX@$$%%+@OX$$%&OO$@%o%@$%%%%%%$%%$%O$%%%%%%%%%@Oo+%*%@$*$%#$%O$%%%%$%%$*%@OXOO$%%$X@%*$%X+$$@@+%%%%*%%O$%$",
"$%%$o@#@@XXO$#*$$$%$$$#%OOOOo#%%%$X@##%@$OO@+#$*%%$%%*%%$X%$$$$%%%$%%%#@OO@%#*%@+%%O%%$%%%$$%*%$%%@+OO#XoO%$$#OO$%%+O++%$$%%O#$$",
"$%$O*%$oXO$X%%%*%$@$OOOoO@@XoOOOoO+%%$%@OO%OO+*%%$%%#*%%%O%$%@X+$%$%$%$%$%#+XoOXo%%O%%%@XO%*%%$%$%$%%%O*O@@$@%O#$$%%$%$%%$%%$$%@"
};
