/* XPM */
static const char *longwall[] = {
/* columns rows colors chars-per-pixel */
"128 128 52 1 ",
"  c #80552F",
". c #845731",
"X c #865933",
"o c #8D5D36",
"O c #905F37",
"+ c #925F38",
"@ c #906037",
"# c #946239",
"$ c #9B653C",
"% c #9F683D",
"& c #A0673E",
"* c #A2693F",
"= c #A56C40",
"- c #AA6E42",
"; c #AE7144",
": c #B37346",
"> c #B37446",
", c #B47447",
"< c #B37548",
"1 c #B77548",
"2 c #B77648",
"3 c #B87648",
"4 c #BA7849",
"5 c #BB784A",
"6 c #BB794B",
"7 c #BD794A",
"8 c #BF7A4C",
"9 c #BF7D4F",
"0 c #BF7D50",
"q c #C07B4B",
"w c #C07B4C",
"e c #C27C4D",
"r c #C67E4E",
"t c #C87F4F",
"y c #C57F50",
"u c #C67F50",
"i c #C87F50",
"p c #C8804F",
"a c #C68050",
"s c #CA8051",
"d c #C88153",
"f c #CE8252",
"g c #CB8354",
"h c #CB8454",
"j c #CE8555",
"k c #D28757",
"l c #D38857",
"z c #DD8D54",
"x c #D58B5C",
"c c #DA8D5A",
"v c #E2925A",
"b c #F09958",
/* pixels */
"34,7173:43844747e37,++Oo##**$*4r7rbcsr777r13777r7rw3347r3->r373*-7=#@@==*&#=3747r34;%4$#:$7jr-##377jsr777r11$=7e41#=347r3-,r3433",
"#$*eee3434>41447773%o+:w7877,*=77qahwr7777477334474:4387474q743=:e,:77-,$$X*1777q7=#+:-$#-7q7*O#47-qwr777731@#O#O#*;438734373$=*",
"##-rr=@##X@@@@#wee,%-137383ee-*7er7r4r733431333>,q7747,737eee37:*;;:3-%:$$$*1,;eer*$$##-1:=1-$7:77$47r7331*##*$#X#=447,4*$$#$#$$",
"@O=ew$o@@o$;#@#3rr##;3443434e,$-ejewsr314r3e3877rr4ee,773,441-$$@@#$*$+@@@##-347rr$$#:33,$@$-*=%ws$;rr313;#*:747r,@$4,77*@:>$X@$",
"*$$>4#@,1$*-,-O-es;3117rerrq11;%418187e47s37re34qha743e3133;3*-,=:,:73:#=73*$:44eh;%$17r1,e3;#$-7:$#37e1$*;7re34qh1#$,e-@@oX#$$$",
"3==7,==33--:8e$-re:ie77rersw77-$w>113317347rskw7rsesw73rj3w81#;3e>77177*-73-=4w7rs>*-77r:,sq4%#-r;@#:11;@*4rskw7rs4;$777;#%$**=*",
"f3*37ae7ju747e434=-jsa:37re,#@#&irws,341:3,rqr74418j1-##1r43#-wwfr747ae;8se7-*3441-*;a14=-e;1-;wf:@*@@=@O,,r7r74418j<e181;41>w77",
"ee3re337e;$@$w7sj-=ej;o#=3$#$;$#7e4s7843;$-3qr7sk8,7;=$3ss7,$,13er4re34,;77q4-3sk8:ejs47$o@#=7,3ee;3;;-#,1;37r7sk8,e44e7rrw13e13",
"444e33et:$$;e738r:=74$$$:4=3ra=#,4,78::e=#$,rq38fj:7=3eerer4*e71444e337r,,7qe--wsg;777ree7e-ej7144;,,;$;47>1rq38fj:7:$werer7sa41",
"w77711wr=*rerer41,174#*$#-r:$$@$;7e7414e:$13rer3rv83$,q77rf7%14ew7771:*$#;r*&#;4w4:773777rfwrw4ew-$#$:$-q773rer3rv473$477rfee=-e",
"fe7747e3;=7es77s>*,44@-=#=,==@$-weerr47rr*7rs77see41$-74esr8--8jse77;-$O#--$*#-s3**77*:4esr8e18jr*#$-,$3r4rts77se1=--#34esr8w$;j",
"qe3737r7=$31r,77==774$=,1;#o@*4<=r7r7e17e%$=r,777777;$;33r71$,eh7333##;;@#$@*$$1:$$,>$$>3r7477ej,#-e47$1e:w3e,47=$$$$;713r744%;j",
"717e7r44:@*747w1@=744%**,:o#$O%$$,474q777-$@*3w7,373;*:4es11*;as=@=:$-$oo$141-=3=+-*,;-=es17e1as:#;774$347e,$*71#=33=%74es,7e=$,",
"3e7e73s3,;#37e1:O$134:$#:-$=####$7erew74r1##$8133;,3,$;4e71;$,8w*%%=$#%oX%#@#%$1>o-,,-7*771re38w3;%ee1-4e43-$=%=*;;##$r7q71ee=#=",
"434se7q77-#37743#;;371+$w4aw$$X+$133rr4777-O$347e7;17;O-r7s>$4,4$*=%$$*$#$@@#@-74$$*433*w7sa78,47-O-r;=77743-:$#:4#+@*74r7sa7;X$",
"744377471e=$143,=47477#$=8e4;;:;+=777r4344=$#-33fj7474#=4s8$=>77*--$@$#%#$##@o@:s:*$;;-*-ae4:>7w74-#7;%3433=$*$$**#-,$,74ae4:=O=",
"-471:77err-#1r37#;>1au%@#4ra73ua#*77s73,r7-#@;3e77>1au,$:e7*13uh--=#o#$#$$@o@##77-$$4>*#*wra73ug34-$r-$,r48-$:=-oOo:9-:11wra7;*;",
"=743443,e4w*-s31-:,37w4;O#131731#-w7w7e,rw=%::1ea:,>$;7$=7,#:714,##,3,-o$:#oo%@;a;=:;-$:#1431714=--#1**,rw4*#>1-$oXo##=u744313#@",
"-e47:7w,=#:=@174-;;33171;$471771#=431334374>:$3re1-#@@*#-e4#;7743$=7:78:1,$@@@@*8:@--=$-$4w4177=#$=$-#=447e7#-7w*XX##@#:7ew413$$",
"-e3347r=Xo$$o,13:317747ee*13,4r7&717:w1>1>77=#:rs4=#=#O$7w1$;7re1:>--qr3;:$;;3::s3*:=-#3w;73,4r-o$#+;-*>3,e3O:o:s;###:#3sw73,3=*",
"$::4383$**oo=1;-1ere447w:O#37:#@*1474e171#X$-$-qhr:#@@@*71=#3rr7,*o@=8744*@171;3ke-,-3=:;*-1773$$#*$:#*73::;#*$*srrw3,$3w1-37r;$",
"=:747,3$#XX#-q,=;477we77-#O,7,%@*3qe>=774$+:3==4r7=O$17747;#34337=@#-,7,;o=e47;-r=o-=7;;;$;771:=$O@$= -777;1*@$$e7q7w-*747,774=#",
"@;ee,74$@#:,7q7=;3,qre3:+*$-137-$,8x1,7q,*>$*:%433-:7er717:=1ee3:7*3,77-@o%777$$3@$77;#%>$1814-#*@=j;#-q77417-#*4373-#;717783e-$",
"*=743e:%,3777se><e8re334*,;@#771-7ef43e7:*>#$;%,3w:$7r717r1=3wre47-,3e1,*@>77:@=7%3s;@o*7$73;e;$,77f1$:747he41$-37r-$$-37rr33-$-",
"-=43771*=744347>=737711-;r3#@$$@*7e43ea713,-77$,7e-#7e33711:447477;>77471-:4,#o-;=:7=o@-t:374p:-8we41*,7rjr7er-37e4$$%:3717q3$#,",
"=$31:7,$:res71;%-err743$=eq1:$##$jer7717:>1>1-%7q3$;4747473*3jse44=$;77er>3sw-o-;;:-==4w4:;4wr=;8jer4$=7errrea=,q3:1,$:747ae1;w7",
";;3347;$eeeh834-*,r373:*-rr,$3,=-4re717r:-;:3*#e8-$,;374rq==7rrees-$44>=:*:hw3$--*;$-=77;1>771$-e7ee4#=rr88e73;a7;33-#=7re447-;%",
"7337:7;$187q47;$=>34e4-;344--7e**a7q713r-==:1#$:,-#,wr7ee>o=eewrwh-#;=$@@-774*X-:*%---w##:$47:$-8s7q4#=rw1387=-7,,,33$*re33ee:8r",
"3;:347=*;343333-;3;:,:$;74>*=87=#,rr77w7*;-;:$$1*#-133477-@-r34r77*$$*$$$;4,*#O;,*Oo$-1$#=X:71$:3eer4$;74r473=-w*=7:*@-7711we:3r",
"*;-434=17317:4,*,47:-$$1%=,#*7w:#-rr71re:->7e3*==*:33>,771$-e3wr:7$$$#=34>;#XO;8;-;=-47;@;$,7w7137rr4#:e337re-*1***@@%>77477e3wp",
"$-:47,437eer744#-43$@@;4$,=X-4e3@-777rw,-;:1t-@-77e433747,@-r77q4r;%-O=43*#$:37,;$-*$7=;;-@;r7ew17774$-3747re*=e7>$#:174731rr777",
"*#-e,773:8sree,-:3:#$>37,4=;$7r>@$117733-;1:e*O-zz77r377r1$=4737:7-*;$=3,==ewe,q:$*=%:==-1$,eer413414$=437e:$=77zp=7e377e7e4,*-4",
"*$-73e1,3ere77,$=,,*13-3:o$1$7ee%@,ew774==;-e=#3q747q7447:#$;*$$$,=$=#$:1*,r743e-#*-*413-=$31rerr74e7$-44>$X#,e77*=eq7447474;$;4",
"=$-7rj873,74q7w&=1w*3-*-$$:3$:re-$,74gsr3u91f44717:eee41:4-=3*#Xo-=*:*#41#-4q7re-o=;$:87,:$47ere7e373-,r7>=-wes7;#%eee41:773,$=$",
"*$4q7r77fj47s7r--wr$$%@#-74*@-7s*@4rer7733-:s7e43ws74717ee-%;#$#o===--=3s--7s7e4-$,,$::3;=*3737s,37r7*:3-%$,q4e4:$;74717wr34:$:=",
";;7r1es77e73773$%e-#::#@o$$##;77;*1e1ws747:-77431r41437777$%3=:;X$;-=#*73%*17744-$=-:3-=##:7777777er-$r4*$$#$&11$**:43777q43:#=;",
"733errr17aa777>$;e;##*=#X#$$%=33:-##-7r1;,8:77,37e,37744,4-#3-;3**==-$$:,*-47713:$*:,:,%**e73343174e3*e1;777>-:%#:$=q744,41,,$=-",
"18etkse74444433%;1;*$oOOX$*%==e3e,**=4e7----431:1117473:;1-;7*$4%-;;,*%41$#1431::$*3-*>=*:r314r3e4rre;77-:13>>:@#;#=773:;177,=#;",
":177er4re137774%;e*#-,33>,,;##r37,337e7r1=*,q44:7r41337747-;3=O@o===;;%,e;#4q44:4=$;-*1-3e7e47s37,777*1w#@#=$#oX;r-#1377474r>;%;",
"17sj4esrh4>7rs3;:7**$##$#$@$#@>7eesj4esr,-=:rs37se47474r7r,=3*#@o->=#==-s1o:rs37r%#1--,:88317377eesj;%rw=:$=;r17s7-$,74r7rw7,-*;",
"3re777sesj47qe3=7s*,1err,-@@oX;1ree777seq1;:ee7ers4q4rrs17,=e-$;$;:$@@%*ss@=ee7r,$@*=;e13:341:4,rew7,$r7=e14774e;$@#,rrs17w784-;",
"w7717777ekswese=-r:%%117=O#O$--;3r717777>74:eseqerfr473773-=4=$1===o@#+$es=-esee:*:=-=:;73w4371;3r713$13*-*@#*%;%$*$:73773,31:$1",
"re47s7u7rr1,37e:=1$:-$%-*%+=,@=,:747s7u7::==4qes1477r7ssq3;-;*o@#--#;#$%8r-$3qes:$=:,-917w:;e47>:7487$e1%=#@$-,s1>1%:qssq333;3=*",
"71e713444e37343*34*774w7su*##*-717r71344==$;3347777r77rrs4-=w;o#@=;%*o#$$8:#,447:$=7:;8:ja14777717rw-@,,$7141347774e77res4,373$-",
"37w314733473474*-4$*$#%$=*%;;$;74ew31473*=;-4744777171srr4:*3*o@o-:#==*o@14$,7441$=:1=9:trss73e84ew3-$3>$,413433:--=-,srr471,=#=",
"743747433473747-::##:441848-$&$=77174743;=;-74773>>3477441-=4*Xo#-=oo@@o@;4$-477,#@$--4*88re7ra47717:#1-#*@@@@#$$@O#$4744113,*@1",
"ere3747337;;743-*:#@$$:17=o##**;e7e37473;-**74387374r733777=3$o@@*-@o$@o#:;$@-3w-#$$:=>=717erejrq7e1-%7,##XX@@%743-:;13377e4>=$=",
"43374771ee3,314=@**-*#$$#*%#$$$*r74747713;==31377s71337834;=e=#;@#-$:43%*=:-@-471-==:=,=3re8w7ees747;#3:%,,:1:344i7:--7834773-=:",
"34433qr883;4777=$-#@@#&$o##@=1;$7r4337r81*&:7774313:34re47;=7==1#$;@o$$#=#=,$:74,$$#:;e-147383eeer43-%e;$,;;477$#$1=@$we474773$:",
";7447r7e77;>7e1-@@+=*@$@$##;34-$:7447r7r:-$-7e1:133388e447-*:=#=&$:#@$@##$*,:13,:###1-7*4443434e3744,*47$3-*7e1:-;33;#,447:w:7$*",
"$3747re7e1;434,*O##4-$*###%4rr-@;3747re77=$=33,4e837ees4143#@*$@#$;$o$#@#@*4,-,47%#$,3e&,7rerrw1,374:%74*;-133,47717=#,73474*1*@",
"=:;4;:33w37r437;O@o44414,:4ers7*34;4::333$$*$#3474;747er47,#$%#@***#X$=$$#*e-#341$@::-7-17eerseew4;4=@,,*=*-$==$#$O1*@:r474-$,$o",
"*1r4:373731re7:;#o$177e7e137rr7*$7r4184--%;;*$;37::117e7e4:*4:=%%=,#o@oX@#@$$o$47**@o@;*3-37rer77wr4-$44$,,--,*%*oo@oO;4w1:===*:",
":831;14-ew,7js>;$*$33378w7777er7$;31;41==$4-$7wer47e,37w777*,$@$#$*oX@o.%$@#a;$7;*$**o@$-$374erree11*#,,$#$$#*:ee3,%#o@$#@$:3,*$",
":3171:737r7rsr3-#$*;1;7w331wew87#*:473;;:=#o$37s8re71;7er7,*:*@#oo@$=%:-;4;-r;=-@$$#$@$=@$:wew8r4,17:#48$--=;;3sese7,#=:=;3711,$",
"7e333re7r77re17=o$$,347rq4e8171e-@@@$@@,4sw$rf7eujw7734373,$@@o##-311e41773$#@@@=7*o*14**1e8171wr413,$13$9877r7eujw77**3=>47131-",
"177171747337req,#O$:7473e344ehrr=@OO@#*177:$17137rjr4,,3747$#@o#=771714473,##$$#,e7=*:3*7374ejre7747,$7;#41747137rjr1#*3147e71:3",
"1>7143:7771,r7e811=,:,7337we31rr*=:$,7$:,q;#,q47rsrrr7713374-%#:1,7143:777:o=-*-37r;$>7*17we31rr:377;-3-#7474747rsrrr$=1:,8x87%%",
";:7471777337qq4774*77773334747ew--:*43*,77,%7747331aje8737es4:47:>73417773:O$1$-7q7,*44$=44747e8wr7e4$$@-74ee747331sg*$$$4ef3-$o",
"o$7478343374re777r*4474743;37134==:%77=7re3*447wkh,3hsre8we4,;3e477--834331#37*,7se,%,1&:3;3713333474###;e7ww47wkh,4u-;118e4:-,4",
"o#174747148,re743,$34443738r7erw*%;*1:*ej4;%3431rl7>eqer8jer7;7j477:;q4713;o74$,,;33=3;#338r7er73:,q1@@*37334431rl7,7*-r8jee7-7k",
"$>433ew48ex177477:O4e4w411334717=$417:#1=#o=78773zk374re77eee*4e74413ew484-X#+@$$oX#%##$,133471733744@o*:7477w773zk37$-w747;r77,",
";4w7337er7s733:*-:$13:,4e43:,744*@o#*#$=$:->-*4rre7177rw8s7q3$8ee4w7337er3*#*$-;-*o$$X.#-33:,747r3773#@*-r4we,4rre737*$##$%;-$*$",
"::,471>43q4373##@#@4w3747433774w*-3131;*:33,%=4177777e8e3eere-7r3:,471,434$:48:1:+=7:@#@$333774re74,###;$47w773177777=-e17e7*=$$",
"337337,31wr77=;r=O$7337447e3747w-;1##$#4$o$+*44711747rw137rr8$3e437337,3,7%$$#@$#@$,==3#=7e3747wer3%$4:;$:74774711744*=337rre-%=",
",3744777,8e77;3w=#$7713377q74433=**#$##:*##@*1343:;337ew1447,$4e13744777,3$$*$#@@O$1==>$:qq74433471*=q7;-87;,3343:;31%:817473=$=",
"71333ree1777,#1rr$$7773erree4w73#%-#-,=;:*@-43e77e::47r4;#o#*#,,71333ree13#@-1;e7OO+@==$-eee4w77443#*77*=17843e77e::3%;-$#o#$#X#",
"77377qekaer7-#:77;#777133741:,44=-4*-4:47;O$7rj,wke74ree*@@$$=3477377qeka7-;4;-77*;>#:-o=741:,4477-#-*,;=s3:4rh,wke71*O$$@#=%$*>",
"47rereq74rrq==sje,-w774317743734=-4*=1-;4s$*:rr717r4err-#=1,$=3e77rereq77e*=3,,je34*$;;o$774373447-@$+*;*se1:rr717e4e;;74811=31r",
"4re314rere4e=;p711=1e8373ww,3744#*7-:7=#<e,=,4414474ew71X;7r=*4e4re314rer7$-18=>=37=77:#%we,374744;$$o$3=7s1:4414474r--s,17e--;r",
"7e7118rrhes1#=414,$1rr1;ewe71331#$$$*;*=##$,74717744ete=+,4w;$:14r7118rrh8=#$,%@$#@O;;$X;8e7133447=$-11<*38r74717744e:=37347**=1",
"37747e8g74wr;-7-:3$1epe37ek77377$$-8$$:7:-::es47ae7jfj7-$4774$:747747e8g71$$*14,7--$$*&-7ek773774r,**#-;=7rees47ae7jj8*47777-;=7",
"::737r7747r7=1-#*;$gjj477qe7w34r*-1773rr==-=7ere337rrje-$w4wr$;1::737r7744*,e1-7s-=1er347qe7q34r47=$=*:*#,774ere347rt1$,4r47,;=1",
"4re7r3wr3373*7:*#*#wrje47r4ws433$$437e84==:-4re33erewee;*43eg$333re7r3wr3,$17-;e4=*=-47-7r4ws41477-#-*--$,r74re33erew7*#374e4:;3",
"3174733443r4$3-$-1=7we7esw4ek73;*##$=313;-:-7r711er437r:-7--7$:,317473344,$-7:;33:1*-:4=se4ek73;37-*,*=#$4e77r711er447*$--4e;:-,",
"43:7e474rer:$7*$*,*,47rehserr3387$$$@$#$$==*37747e1eewe-*:%$:=4443:4e474r7-$11:::44$*1e,hserr338r7;&;:-*$31137747e1ee87:,#$$$4,3",
"7q74sr41471;$4==-;$7ewe7eqsw84131:77:=###=*=:;737r71738-$4=-#$7w7s77sr4143#@@#+@@$-$#=4377u8841334;$*:--*117>:737r7173847e3$#=#*",
"@$#-7737r71:#-*$$;$;73847rw71:33:,q744w7=*=@#=74r334717=$,-::$471r,77737r7,3-*#@#%1-#@$$#*$-,:33:,;#$#3=$:,14re7r3347171778:--#@",
"=@#$$,7771,-$7$*$==:71717781313337474743*=:#@@o#,333eer:*;%:1=77747w737771,13ew3e1334,4;##$@#:333q=#*#===:7331747333rerer31:*,13",
"7,=@@$;1,77;#;#*#==>eerer31,377e377e4777&-=*:#Xo@*,4wer,%;-74=e777e13743177331747333eeree1;#$-1e37-;=,-;*-3131:77434wersr7e773,7",
"777,;$o$;e3-$:o%$-%*7ersr7e7w7qq74477w371=--4,:-#$#$;4e:$,*;##we777477774r1131:77437wer3-*-38-@%33=@*%*;1=8731777re334erre74-,,e",
"334333$#=;8>#;#*#,-$,4erre771eree41:7747*$=-e8::1,$o+-,=#,==o-8333433834j88731777re3347;-**;17-$$@@*-=-:;@,7e834371371>7477,-:;4",
":4r3e73>$$3:-7+##=;#41>747437377317we3,;#*==e747137;#*;$O*$*$*-714r3e7471:37e834371371>73733734-oo@&1-$$;#*7q747137ee3;;341=:--7",
"37s373,;#$3:;7$*#=4*73;;34,3747e,477773:#$=%rew4874;$$,-$:-:$$=337s373,;:137q,17137ee3;;34,374q;@=$#:,-*;@#:rew487334;:77wr4>=;1",
"7377rw3;=O>%;7=:$:1#:;:77471338x>17,31:1**;*s84747q4*@:-#%$3$%@=7377rw3;;>1,e$;787434;:77471338x=;=O-=*-1;#=s84777744314334:;*:7",
"1:41e1:,:$=-:4$*$;7$@-14188737es73:;1,14*==$377ee7re=$3-*-#,#-$$,:41e1:,134,a84747747314388437es=$:*#;$-4:##,q7ee7re;7777173;=17",
"471;11133=*=*4$=%1e3$$=w,8re8we437747713*===47re77rr-#,=*;$1$>#X>71;1113313:377ewre74e7e,8e$;8e4*=7:#3=-33,&-7re77rr4743744;>:--",
"r47>:347e==;;1=,=3774w*=37er8jer74r7r774==:-4re3ejke*#4-*3@,*:1=;47>:347er71734e74777r74377=-jer1=e3*4-$#*e-@$;3ejke4777ee:7e113",
"7774174wr**:*1-:*4je37-%=:e774ewqrr11a43q,>-7r7,7rsh=*w;$7@,#;;:$:74,737e4,4438u4ej747er71rr47ee:;i:#4-#==-$#%$=3ras41874r,4:;>3",
"$%+#gs7wq%*;$7*%+$*$$3*@O#%##$$--##@@%---;=*3473r8re=;s:$:$w##**;%@@*$@$$@@@#$@@#:rw-3e4-:rw8s7q=$77*>=#==###$$#$$$#$$%$###*:=*%",
"@%#o1r444#=3=1#$%,1::17,%-3>$=#%$4=@@o#$$;=$@o$-317e1-h;$,$7#=,773*$;$#O**;%%@+o$$$$@$%@@$;r3eer=*43#-:,w713:;4>#*,7*=u3*::7;->7",
";,7-3w4;>#=4*;$==%****==-37:1,3:474e3:7e-$*@=;#-rre83=e-$,$:#=--:37re73-171eq1:17=;$:373,$=337rr=*4w$-;*=**=->-;>7e787e477747;;7",
"$:w::338w@;,#=$;-o$#$X@@#;7:1-*$334773w,,*;$,:O-43733=r;*;#:=$@#=1w71:18r7ee744w7:7*1;37:@-w177q=*77*1:+######O*$>7171e7e444e**7",
"#13@-w131$=;#;$;:*1:;>3-1,3:-:=$-#@@@#$>;*==3;X;7443,*3:*;#,$-:,:,,#=::1337334,w7-%#:%347$;41333;*11$,;**@@@@@XO@######$%##&;-$3",
"%18#:733:@=1-1*-=o#@@@@o@$+*%@@$$#Oo#$@;;*3*,:O;77re:$4=*,$:@@##@*$$=;-**$,,$@$#@@-%;#@+-$$rr74e4177--,:34771,4744e7ee7,e7113=$8",
"*8:#,743:$=:$:$=*-71:$-=-78147$=1-1113*-,;--e,o*77eee-7:*;#:%--=3:;,37--#o*;#:43-$**:=:$*#;e7e37=X,4*#*=7e77e83477eerserr313e;%3",
":7;#,ree1#=-o*===-7e4137777s,17ee7347e--,-,$44#;41477$w;$1#**@#XO@@@-;@$@XOooo,7$#=*:=3:,#-f,37r-=33$#*&7w77q7474147rere7e4-3:$-",
";4;#4weq7$*==q--;;e447;=;:,w,,-:74,37s;3:*=Ow7$-e47:=@4=#;$;$#**$$$o#$$$$##@$$#$#=<*,::$-o=r3w77,-3779::741,re84e47:7773317-;=$4",
"143-s:eee$-:;s-*-@@#,34=#o;--=;$@@@%*##-,-:=41o*3714;%3*#:#-,-eej77sa;87w3737t3:1=*#,$:=:o,3:,44-#,e4$-=47r744:>37177e7:341;:%$4",
"$,:%77743=>:@=o$-=-%,;,-*=--=-===->:w3::-*-%44#-4373:@=-$:#:$#=,34;,8::--:3>-;*$=;*#3;7$*o=43737;#4e1-4-:4177734437477,3w43--#@4",
"-u,*isj7:%=:#@o=;#o@ooX$@oo@@$@@*##o@$*;,*,*r>#;47e7-$3:o=$;$XO%$$@$=%*@Xo@@@@@@@$*$-*;=>o$137474$,7;;::3111i11747e7;37r;:7*;$%r",
"=;;#,we73$*-*#o--#$oXOo+#@##@@@$-=#O##@-4=>*w4#-13js;$1;#:#>#O@#=##o@$$#oo@@*@@$#$-$$-3$,#=71338a-34;;-;7731r73313js>77w147-;=#,",
";s:#77337$%1e7===$g0$$:e77-*1177w4:,4f-,e;-Our$-77rr,#->$,o;--,18u434::*-411e-#$#$:*-=,;4*,7737e3$:3:e-,re73js8377rr447r77:-:*$:",
":w;$3j7wr==3jr*=44rr114e7:;,4,74e773wr$;4,a*eu$:4r733#=-#:#:$$-;34,14s47ew31gr3,>;:*:*1=3@;371771$44-:*:qsjrrfee4r71717w434>3=#;",
"=7,#7r:77->rrs$--=-=-*$$*&####$@@*w777*,4---r4%:ssre7$=-o;#,%==$$$#@%%o$-:=$%=#$#;-#,=4,1#,437e4;%e7:,-:7e7wr7r7asre7337:44--=$1",
"=r7#4q7e7==er7*-1$$#$#*47:434;#o$%@$:3=;3;3,73=387r77%==#:$-#-443er777377737e7e7;::*,=:*3$347e47:#,q=-==7rer77r777r7e834747=;=-7",
"-4;#,7337=-r73-,:=;3q3,4e-:1:-#@$$.#*$&77:4>77*-seqq3$*:$3#>##*:1;3737-$%-3-34e4*;;*3-,*7#=33s84:#;3;;;1ere77er4seq7474eee,::=*1",
"-3%#3wese;-q77==3$*$#$*==*$*=-$*$*****-:3-,$77$;7ere7*=-$;@-$##@$$O$**=;=-***=%$*-=*:=>*1$-77r7:;$,4;*-:7e47ewe77rre7777741=-**3",
"-4;#3:7w7-$4e8*=-;e7443r7744773131>;w:$=,:7*rw@-4ese7%41-:$3=*4,,,,14;47471477731e:%>-1;3$17we737=:,>:=-3e71sr313wse77jfj47:,--4",
"-7;o11314;*1se$=-#=$*%***;**$$##@@@@%$o*1$1=,3$-38773=1:**#,$#$##Oo#;#@@***$=$+#@*=$,=>$-**4373,1=-7:=$@$$*=&*-*&=-747rrje4-,-$:",
"=3:@,e;;4$$737*-=-77377,-43=8814::3371,:1=7$,7*-1333r-==@$$r=;74,114ee;-3;3717w314=#;;4$%==7rw37,$%1;$=#@@$$o#$#@#o-r7ewe7e3;&#3",
"@:3-;4743;*737==**13e41133,:73333434>4-1817*4r=1e47e3=*$#3*a:,33::33714311w7177::1-*:=,&-$=;r7444==7%==-,3%@@-,7-##,34447re441=7",
"#14;*73w84*3ee$:-##*##@oX#$$=$@X@$o@##@=177*;r=-w7374:-e77$3*$oXO$@@o##$$#$##$@*#*--;#=#=-:-144;7,=7;#*-1e711ee784==3saewe7;:>#=",
"#81,;7,,17$:3e$=:=341a3,,7;$-:7713,34;;:7==,34;=;7er73*733$--:777e>374:::w711e77;=-$=*-*;;w;;,774;=7,*=;4>1,11e3;7:;77173741>*=7",
"=431*:1771$=44;;**7w=*$*#:3;71e4*#$**@#-e=$=,7:=3e71,4=413#-*$:74-:78:-7713133rr$=3-,$$$=$--73e71**4:$-$@$Oo@o@@$e-*,747171,$=#3",
"=:11$:ee74=*77**-*:;o#*$#*3%:-;=##.O$#@:e=*-7e:$77w371*wew&;*@---$*:,--::,:;>:;>$-=@-#-*:O==777,4-$19$=$@@@@$#$O$1;=w44eere7$$#;",
"$,>1138h7e==r7$$=@$##@##X--O@#oX#$oX*##-4>>;:e7$47err4$4ee=:=#@X+@X#*$#$@##@$#@o@-=#,;3=;$>$:47;8;=:7$-8ersr37e1#--;re7wers,$-=;",
"=-1-=17ses7:77*$;;7ee734:=:$#@@oX=%**;=-,::;4r1#;,1ak7-,4e1:--1:47:;3:33$we1-,w7,1*=7:,*:$;#,71:;;%4-$;17errrr73%*=>k7334er7*=#=",
"X*::*77e7e1:rr=*=*3skw7r4=4=,,>sre,:::>,r,-:esg#:43r77;33,--1-3:*=XX@##:$*==**,3=*#-j-=-7$,$,47ss,#:=o%-rfrejsj1$==;e7473,7;&*#>",
"$=:1*;17rr=-7e-=*%4rrsjk8;7>7wrser77334-4=*-3e,o;41jrr;4r4#=%#$@o#XXoX#-*73347r7:3=7e=1,4-4-4erser$3:%-;r717qq3;*==1rr4wr713*-$,",
"$:47-;174w;*er=$#%4re4rs4-1;731::837;@#*1**--44#;44rew-3e3$==#-=#*$=;%*7-13-:q1=$=:e7$>;u=,-74418s-a3$,,717733q4#-=;rw7we3,:$=%7",
"&=7q==3s3,:*8e=#$=7rrr8r:;e=@*=#@#-*$@$%:**=;ea==73s3,-,q1$;::j33737w=$3#o$@$$@@@=$%7*--:%7-1sk8,7;s,#=:3:474ea4#==>4,747447;--1",
"$=771:7q7w-$1q=*$:jke317:=1-$$**X=4==,,$:=--=4,%>e7q7w;-34#=;;je7777s-*w-;;;3:-;;73-3--$:$3-7wfj:4=::$*:44wer711*-==784;3714,;;e",
"=1r4:-74733=;3=$;*7re;77;:7-43rv477:,>*$:-7::17>=77473-3r1$;7:eq47r44=-:;173;371e7*$-@;=:;4=74rv81$;1%*-71rr7171@=,=7178r7e7,--e",
"@1e7:$77er:$7r-*==7rr477;;11es771371=#@%;;==;:44$;77er>:41$-==qrese7,#=;$88-3r3w1>#$7$=$;*,=7see4,$1r$@>7eeq3,47#$-%7re3347--$#w",
"*us7,#:3>r1*11$%=>jke47q--=$:-$$#*=*;%$#*$;=*:w3$143,r->,;$-*-weehs73=$=X$#@##+$$,,;3-1;==3*777784*1r%@*374744w4$==%,r43:,q;=-$w",
"*4e4=X3w,3-#::+*$;ssg74e;-;@@#oo*377;#$OX=71*%e1#-78,3=,37:-$=377ee47$$;*,;,,;:7333-e$-,;-e*:3,37,#47=#*,77471r1o$=-1313377;-=%8",
"o-r3=O,r3--##:=**,8rq7rt--,$@ooX#*$-:7;$@;=1>=7,$,7r3;*733$-*=1737r34$$>@o#%$@%*$r3=3;81=-s*-43;11%:7e%-777r7ee,@=;;4->e371#-%@;"
};
