/* XPM */
static const char *drfront[] = {
/* columns rows colors chars-per-pixel */
"128 128 17 1 ",
"  c #5F4323",
". c #6B4727",
"X c #774F2B",
"o c #7F532F",
"O c #875733",
"+ c #8F5F37",
"@ c #9B633B",
"# c #A36B3F",
"$ c #AB6F43",
"% c #B37347",
"& c #BF7B4B",
"* c #CB7F4F",
"= c #CF8353",
"- c #D78B5B",
"; c #FFA35B",
": c #DF9363",
"> c None",
/* pixels */
"&%&&%%&&%%&&%&%#&&%&%=%&%&&&%&&&&=%%%&&&&%&&%%&&&&=&&&:&=&&&&&=&&&&&;;=:=&&=%&&&%&=&%%&%&&&&&&&=&%&=&&%&%&%&&&&=&%#%#&&=%%&&%&%&",
"&%&=&&&=&&=&&%&&&%+++X$#+o%&O@%++%OO%%&&##&==&&=%&=%&&&&&&-&&%&&&&&&&&:&%=&=&%&&&&&&&%%%%&%&%&%&&%&&%&%#&&%&%=%&%&&&%&&&&&%&&%%&",
"&&@=&&&=&==&&&&&=&O+++#++o%+o+&@@&#O#%&&&%%&=&&&%%=%&%&=&&&&=&==&&=&&%=&&%&=&&%&%&%&%%%&&&&%&&%%#&&&&&&&&%&&&#&&&%%=%=&&&=%&%=%&",
"&@o#%&&&=&&=&&%&&%&oo$%##o#+O$%oo&@O=&=&%&=&&&&%%&&##$$#$&##%$&%&=&:*&%=&&=&%&%%%&=%#%%%&&#O+=&%-==&%&&&=$+$&&&&$##@#&%$&$o@&%=%",
"&%o+&%#&&&%&&&&&&&&++&&$@=$$O+%+o%#+%%&&%&&%%$*$$%%#@#@+++++#%%#$%###&###&#%#%*@&&&&&%#%&&&@o#=O+#&-&=%&&%&%&=%#$$$%#+XO%&#+&==%",
"&=#X&&&&%%&&&&&%&%&++%&&=+#&#o&+o%#O&%%#&&%$%#$#@+#@##++++#O@+O++$+o@+++#++@++#@+@#%$%=&=&%#+#%++O++-&*&%%%&&%@+@+oo++o@&&@+&&%&",
"==&o&&&%&&&-&&&%&*+++&&&&#&=++&&+##+%%&&&$@+Oo+O++O#++#O++++++++@##O++#@OOX#+OO+X+O+#$$%&&%#O#@oo+ooo+O@+o@@@@##%#$#%+Oo$@+@%&&&",
"&&&+%&&=&&&%%&&@+@@$%&&+$&&=@o&&&%#+=%%$#+o..X>>>>>>>>>>>>>>>>>>>>>>>>>>>>>>>>>>>>Oo++@#$#&#O#$O@-$#+++@=#%=&&&&&-&&&$@#$%#+$%%&",
"&%$+#=&&&%%&&&&+@@%=%&&+@&&&#o#=+#@+&&&##O..>>>>>>>>>>>>>>>>>>>>>>>>>>>>>>>>>>>>>>>>++O+#&&#O#%o%=:&%#&&&&%&=&&&=&&&=&&&&*#+&&%%",
"=%$+&&&&%%%%&&@o&%%&==++=&&&#+%%%%@O&&&@+Xo>>>>>>>>>>>>>>>>>>>>>>>>>>>>>>>>>>>>>>>>>>O+O@#&@O@&@%=;:&%&&&&%&&&$&%&=&*=*#&&++$&&&",
"==$+&&&&%&&%*OoO&=&&%&+&==&&++*=+$+O&%%#O+>>>>>>>>>>>>>>>>>>>>>>>>>>>>>>>>>>>>>>>>>>>>Xo@#&#o@###%%$$##%$%##&#@$#@+##++o==+o$&:&",
"&&@@%%&&&%%&@+@+%%&&+Oo%&=&#+@#&+&#+&%+@o>>>>>>>>>>>>>>>>>>>>>>>>>>>>>>>>>>>>>>>>>>>>>>X@#&@+@+OOOO+OO+Oo##%&oO#O+##$+oO%&#+&&:&",
"&&oo&&=&%&=%Oo%$&%&++++&&%&&+@&%o@@o&&#@>>>>>>>>>>>>>>>>>>>>>>>>>>>>>>>>>>>>>>>>>>>>>>>XO$&$+%%oo###%$%&#&&&&&%%&&:&%%##*%@o$:=&",
"%%@+&&&&&&%#@@&%#&&@O++&%&=&+o&%o#@X%&#+>>>>>>>>>>>>>>>>>>>>>>>>>>>>>>>>>>>>>>>>>>>>>>>>X#&$o@&++%%#%&%&%&%%=&%&&&&&%%&=&&#o$=&&",
"%&+o%&==&&&++$&&%&+=&O+&&&&&#o&&&&#+#@$O>>>>>>>>>>>>>>>>>>>>>>>>>>>>>>>>>>>>>>>>>>>>>>>>+#%#+@&$&%&&@@&$&&%#$#@%%*%##&%&$&#o&#&&",
"&&oO&%&%&&+#o+++%o+@&+o&%&%$++%%@=&+&#@o>>>>>>>>>>>>>>>>>>>>>>>>>>>>>>>>>>>>>>>>>>>>>>>>O@#+o##O##$@+o++&#++@#+++++@#+oOo+@o#&&&",
"%&oO&&%&##+++o#&+=@+%+o%%&=&+o@+&%#+$+#X>>>>>>>>>>>>>>>>>>>>>>>>>>>>>>>>>>>>>>>>>>>>>>>>O@&#o@$OXoOOOO@X%#O%%&%+ooO#=&O#+##o&=:&",
"&%+@&%&%%+o+Oo#+&=o&&+@#&&==+o++:%@o$+X@>>>>>>>>>>>>>>>>>>>>>>>>>>>>>>>>>>>>>>>>>>>>>>>>+@&%o@@+@Ooo+$#%oOo+O#=oO#%$%+o@%%@+$%&%",
"&&+$&%#ooX+@@ooO&%o+%O+&%&%&@++==%oo++Oo>>>>>>>>>>>>>>>>>>>>>>>>>>>>>>>>>>>>>>>>>>>>>>>>O@##O#O&+#OO.o$$%+@@+OOo#&$++O#$%%#O%&%&",
"%$&#%Oo&ooO++@&%#%X@&Oo&#%&@Xo@+==+o#OOO>>>>>>>>>>>>>>>>>>>>>>>>>>>>>>>>>>>>>>>>>>>>>>>>X+%#.++++=&#ooO+$&###Xo@#++o$$&%%%@O*&=&",
"%%#o%X+%oO%+o@%&&&%@o%O$&&%+oXoO=:+O&+@O>>>>>>>>>>>>>>>>>>>>>>>>>>>>>>>>>>>>>>>>>>>>>>>>X+*+o#o+@:&&&#@+#&OoOOoO@++%##%&&&#@&=&%",
"&&#+#+&o++&X++&%%=%XXO@oOO%#+Xoo==oo#Oo+>>>>>>>>>>>>>>>>>>>>>>>>>>>>>>>>>>>>>>>>>>>>>>>>O###o#oO&=%&&&#&$=-###$@%%&&&#&&&&@o$%&%",
"#%&o&&@OX+++++&%%%%&o+o&+O&&@+%%==+o+@++>>>>>>>>>>>>>>>>>>>>>>>>>>>>>>>>>>>>>>>>>>>>>>>>+#&#+###&%$%#%&%#%&&=&&&%%&$&%=%$%#@%&=#",
"%&@+O+O%&%&=%%%%%&&%&&&&%&==&&&&&&+O#$+#>>>>>>>>>>>>>>>>>>>>>>>>>>>>>>>>>>>>>>>>>>>>>>>>++%@+#&%&%#+@+%%@#=&&&%%&&&=&=%%&%#O*&=&",
"&&$+Oo+%&&&&%&&&%%&&&%&%&%&%&&&&%&++$+@@>>>>>>>>>>>>>>>>>>>>>>>>>>>>>>>>>>>>>>>>>>>>>>>>+#*%o#%&&$@o@o+&%*&&&%%&&&%%&&&&&%#o%&&%",
"&%$o&&%&#%&&&%=&&==&&&==&&%&#%&&&%@+&$##>>>>>>>>>>>>>>>>>>>>>>>>>>>>>>>>>>>>>>>>>>>>>>>>O#&&O%&&&&@o+oo@%&&&&%&&&%&&&-&&&%%#&=&&",
"&&&@&%&o++o+OoX+++o@o++#+o+o++%&&%X+&$++>>>>>>>>>>>>>>>>>>>>>>>>>>>>>>>>>>>>>>>>>>>>>>>>O@&#o#&-&&Oo@O#++o+@@#+##$#%&%%&$&$@&=&&",
"&&%#&%&#$@&&*$$$%$$*$&&&&$##OX+&=%oo%@++>>>>>>>>>>>>>>>>>>>>>>>>>>>>>>>>>>>>>>>>>>>>>>>>O@##+#&&&#+o+o%$o+O+Xoo+OOO+%&&&&&%O$=&=",
"%&%+%&%&%&&&&=&%#%#=%&%&%&%&%oO&&=Oo@@o+>>>>>>>>>>>>>>>>>>>>>>>>>>>>>>>>>>>>>>>>>>>>>>>>O+#@o#=%%+o@#O%%%Oo#@+O#$+OoO#&&=&@o$&&=",
"%#$+%#&&%&%=%&%&&&%&%%&&%#+&%Oo+#&o+&#++>>>>>>>>>>>>>>>>>>>>>>>>>>>>>>>>>>>>>>>>>>>>>>>>+@@@o@%%%++$+o%&+++##%O%&%$#O+%&&&#o$==&",
"&%&+&&&o+++X+++oo@o@++@+o++o+++X$&+o$%++>>>>>>>>>>>>>>>>>>>>>>>>>>>>>>>>>>>>>>>>>>>>>>>>+##+O#&=%&&%$+&$+@%$%++%&&&%Oo+&=&#O&&&&",
"&%%+&&=OX++++++OOOO@+&&$$%&$+%%%&&+o$#++>>>>>>>>>>>>>>>>>>>>>>>>>>>>>>>>>>>>>>>>>>>>>>>>@+##X#&&&;;%#+&&#&%%@XO%&###@oo%%&#O-%&&",
"&&&@%&&#%##&#####$$#&&&=%&&%&%&=%%oo$#++>>>>>>>>>>>>>>>>>>>>>>>>>>>>>>>>>>>>>>>>>>>>>>>>OO@@O#&&+@@+oO+++%&&+OOoOo+#@+#$&#@O&&%=",
"&&=o&&&&@$#:&%&&&%#&&&%&&&&&&=&&&%X+=#@+>>>>>>>>>>>>>>>>>>>>>>>>>>>>>>>>>>>>>>>>>>>>>>>>+##@+%&&O@@$#+O+@&$&$%#@++%&&&$&%&#o&&%#",
"%&%o+&&++o@%&&%&==:&&%&&=&&%=&&%&%++=&@#>>>>>>>>>>>>>>>>>>>>>>>>>>>>>>>>>>>>>>>>>>>>>>>>+##++#&%&%&&==@#O#O+%%&&&&=&%&%&$%OO&=%%",
"%#@X&&=#oo++==&&%&&&&&%&%##++&&%%%@+&#++>>>>>>>>>>>>>>>>>>>>>>>>>>>>>>>>>>>>>>>>>>>>>>>>X+$+o#&%%%=&&%%$OOO+&&&&&&&&&%&%&%+O&&=&",
"&&$O+&&&%++#=&%%&&=&-&#@#+O@O@$&&%+O%#+@>>>>>>>>>>>>>>>>>>>>>>>>>>>>>>>>>>>>>>>>>>>>>>>>O+#@o@%&&%=&%%$$#OO@#$#oX+#%&%#&&%+o&%&%",
"%%&o&=&&+#+#=%&&&%%$#oo$$%@#+OX+%%oo%###>>>>>>>>>>>>>>>>>>>>>>>>>>>>>>>>>>>>>>>>>>>>>>>>o+##O@@$+OOOOO+##+#+Xooo@+o+&&&&%&#O@&&&",
"%%#O@&%&++@+$o&+oOoOoo+++++O+oXo+&+@&#++>>>>>>>>>>>>>>>>>>>>>>>>>>>>>>>>>>>>>>>>>>>>>>>>o@%+O+oo++++Ooo+&%&$O+O$%&+O#&&=&##O&&&&",
"%%#O&=:++O+@@@+++#+oX+++++@@oo++@&++%%#@>>>>>>>>>>>>>>>>>>>>>>>>>>>>>>>>>>>>>>>>>>>>>>>>O#*%o@$#$&&&$#@+oO+@oO#%#+@O+o@&%&@o*%%%",
"%&&@#%&+$#@#%%###%&&%&#&&&&&%%=#+$#+%%@@>>>>>>>>>>>>>>>>>>>>>>>>>>>>>>>>>>>>>>>>>>>>>>>>O#&#O@=&&&:&%&&&%+@$$#$@++@##+@&%=$O&%%%",
"%=&o%&%%&&&&&%$&&&-===&&&&=&++&&&=+@=&$+>>>>>>>>>>>>>>>>>>>>>>>>>>>>>>>>>>>>>>>>>>>>>>>>o#&$O%&&&=%====&&%&&%%&&&&&%%%%&%&$o&%&&",
"&=&$+%&$&=&%==%&&==&%%%%%&&#++==%%O+&%+@>>>>>>>>>>>>>>>>>>>>>>>>>>>>>>>>>>>>>>>>>>>>>>>>X#&$O#==%%%&&&%&&=&&%:=&&&&%%&&%%#@O&&%%",
"&&%+O=&O+##@@&%&&%&=%%&&&%%%@o&&&&@+%%#+>>>>>>>>>>>>>>>>>>>>>>>>>>>>>>>>>>>>>>>>>>>>>>>>o+%$+@&&&&&&%&=&&&&&&=&&&%##%#+&%=#@#%&=",
"%&%%@%&+oO+o=%%&%&%&&&%&%&&+o+&%&&++&%+O>>>>>>>>>>>>>>>>>>>>>>>>>>>>>>>>>>>>>>>>>>>>>>>>X#&#o#&%&&&&&&%%&&%%&:&@+Oo$&+O%&%@O#%&&",
"&&%oo%&#o++#%&+o%&&%&&&%&&+O&+&&%&+o#%++>>>>>>>>>>>>>>>>>>>>>>>>>>>>>>>>>>>>>>>>>>>>>>>>o#&@O#&&%&%%#&%&%&&&&&$+oOoo$@O&%&@o@&&&",
"&&=#+=%%o+o&&&&%%&&&%##%&&#+&%%#+#+o&%++>>>>>>>>>>>>>>>>>>>>>>>>>>>>>>>>>>>>>>>>>>>>>>>>O#&@O@%=&%&%&&%&&=&%&%%&+%+O=#+%&%@o%&&&",
"%&&Oo&&&o++o%&##%&$%####&%%%&%&&o$%@&%+O>>>>>>>>>>>>>>>>>>>>>>>>>>>>>>>>>>>>>>>>>>>>>>>>O#%@O@&&%&==&&%%%&%&%&$oo%&O&#+&&=@o#&%&",
"%&%$O%&#oo+#@#+o#++ooX++++&&+&oo+@@O&#+O>>>>>>>>>>>>>>>>>>>>>>>>>>>>>>>>>>>>>>>>>>>>>>>>+%&#o#%&&%%%&%%%%&%*#+++@%#+%#+&&&#O+&&%",
"%&&+o&&%@&=&&&&=%&&&%#%%&++&$oooO%+o%#@O>>>>>>>>>>>>>>>>>>>>>>>>>>>>>>>>>>>>>>>>>>>>>>>>o$&$o@%%%%&%%&&%%=&$+OO&&%#+%O+=&&#+o&%=",
"&%#++&&%&&&=&&&&&=%%#%%&&%%O+X&&&&@o%%++>>>>>>>>>>>>>>>>>>>>>>>>>>>>>>>>>>>>>>>>>>>>>>>>X@%$+O&&&&=%%&&&&&=+@&&%%%o@&##&%%$++&&%",
"=:&%X#&&%#%%%&%%=%&%&&&=&%$$&&&%&%@o##@+>>>>>>>>>>>>>>>>>>>>>>>>>>>>>>>>>>>>>>>>>>>>>>>>.+%+O#&%&%=%#%&&&@OOO==&+++&#O%%&&#@O&&%",
"&=&&O=&%%%%&&&&%&&&%%%=&&+oOXo#&&&oo&$@O>>>>>>>>>>>>>>>>>>>>>>>>>>>>>>>>>>>>>>>>>>>>>>>>.#%#oO&%&&%#%%%%%+o$=&%&#O#&#O%=&&#oo&&&",
"=&%@o%&%#%%%&&##&==%%%&&+##%o++$%&++&$@X>>>>>>>>>>>>>>>>>>>>>>>>>>>>>>>>>>>>>>>>>>>>>>>>.+&%+#&&=&&%&&=&$oo$&&$#o+&#o$&&&%@XO&=&",
"&%%oo%&&&%#%&&&%%&=&&&&@+@=&+ooo&&+@&$X >>>>>>>>>>>>>>>>>>>>>>>>>>>>>>>>>>>>>>>>>>>>>>>>X#$#O#&:%&&=&&&&@oO#%&+O#=&#+&&&%%@o#&=&",
"&=$O+%%&%%=&=&%&=&&&&&&#++%%@+%%&&o+&@X.>>>>>>>>>>>>>>>>>>>>>>>>>>>>>>>>>>>>>>>>>>>>>>>>o$*%O@&=%=:&=%&%O$%&&oo@&&%&%&&&%%#oO&&&",
"%%&$+&%%&&%%&&%&&%&%%&&o++%&#+&%%&o+&+X.>>>>>>>>>>>>>>>>>>>>>>>>>>>>>>>>>>>>>>>>>>>>>>>>o@&#oo&%&&&&:&=#+#%$+oo$&&%&&&&&&&#o@&&%",
"%&$#+&%%&%&%%#&&&&&&&oXo@&&++%=%%&+o&@X.>>>>>>>>>>>>>>>>>>>>>>>>>>>>>>>>>>>>>>>>>>>>>>>>o#&#O@&&&=&==&%@$&&#O#o@&%%&%&::%&@++&%&",
"%%##+&&%&&%%&&&&&&&%o+oo+&&O$%&&&&++%#Xo>>>>>>>>>>>>>>>>>>>>>>>>>>>>>>>>>>>>>>>>>>>>>>>>O#&#O+&&%%&%%$++-*+@#%++%&&&&&==&%$+$&&&",
"%&&$+&&%&&=%%&&%&%oo++oo+=&o%&&&%&@+%@oX>>>>>>>>>>>>>>>>>>>>>>>>>>>>>>>>>>>>>>>>>>>>>>>>+@$%+#%===:&%+o+&@++#&$O=%%=&&&%%%%+*%=&",
"%%$@o&&&%&&&&%&&oOoo&o+@==OO$&&%&%+o%@oO>>>>>>>>>>>>>>>>>>>>>>>>>>>>>>>>>>>>>>>>>>>>>>>>o$&#+O%%=&=:&OO%#+@++&&O$%:=&&=&&&$+#&=:",
"&&%$+%&%%&&&=%&%@o++##o#&&o$&%&&&&oo@+oX>>>>>>>>>>>>>>>>>>>>>>>>>>>>>>>>>>>>>>>>>>>>>>>>O##%XO&&%%=;%O##+&&$o*&$#&&%%*&&&=#O#&&&",
"&=%$o=&%&%&%&&+++O+o@=&%&Oo&&=&%&%+o&#XX>>>>>>>>>>>>>>>>>>>>>>>>>>>>>>>>>>>>>>>>>>>>>>>>O#O#OO&==&&&@OoO&&&&$@#%oO#@O+O+$%#o#=&&",
"&%#$X&%&&&&%X++O%++++o%@O+&=%%%&&%oo$+OX>>>>>>>>>>>>>>>>>>>>>>>>>>>>>>>>>>>>>>>>>>>>>>>>o+%#o+%%&&$@+O$&&&&=%#+Oo++#@&=&&=%O&&=&",
"&%&#+&%&%&%@X+oOoOo&*&&+o%&&%&&:%&o+%#+o>>>>>>>>>>>>>>>>>>>>>>>>>>>>>>>>>>>>>>>>>>>>>>>>o#&%O+&&%%+oXO+#&&&=&$##$#&%#==&&=@X$&&&",
"%%%$+&%&%O++&&o&$$%=&@+&&&=&&&&&%#o+%#++>>>>>>>>>>>>>>>>>>>>>>>>>>>>>>>>>>>>>>>>>>>>>>>>X+&@oO%&%&+OXO$$&%&&&&=%&%%=%&&&&%@oO&=&",
"&&%#+%%+Oo@@=o&&%%&&&+O&%&&&%&=&&=OX&$+O>>>>>>>>>>>>>>>>>>>>>>>>>>>>>>>>>>>>>>>>>>>>>>>>X+@%@+&&&&&&&##&%&&%=&&%%%%&%&%%&%OO+%#&",
"&%=#o&&+++#&&&=:&=&O@+&&&&&&%&&%&&o+&$@O>>>>>>>>>>>>>>>>>>>>>>>>>>>>>>>>>>>>>>>>>>>>>>>>X#@$@+%%%==:&&&&%&&=&&&==&&&%&&&=&@Oo&%&",
"%&&$+=&++@++@+++o++@@&&&&&%%-&=:&&o+&%Oo>>>>>>>>>>>>>>>>>>>>>>>>>>>>>>>>>>>>>>>>>>>>>>>> +&%+$&&%#%&=&$&&&=&*$#$$#%##++%$=@+o&&=",
"%&&&+&&ooo+%&=&++@&++%&=&OO@++%&%%o+=$Oo>>>>>>>>>>>>>>>>>>>>>>>>>>>>>>>>>>>>>>>>>>>>>>>>.+$#+@%&@+@+++O++#+@+O++XXO++++#%%@oO&=&",
"&%&%+&%%%%&&=&&=+#%+@=%+ooo++oo+#&+o&$o.>>>>>>>>>>>>>>>>>>>>>>>>>>>>>>>>>>>>>>>>>>>>>>>>o#$%O#%%$++OOoOoOO@#&%#%#&%&%&%&&%@o+%%%",
"&%$%o&%&&%=&%&-+++#@o&=&&&%&&&##&&++&@O.>>>>>>>>>>>>>>>>>>>>>>>>>>>>>>>>>>>>>>>>>>>>>>>>o%-%++&&%#@@%#&=%&=&&%&&&&&&$&&&&&#oo%&&",
"%%##+&&%%&=&&&&+o+&++=&&&&:&&%&&&-+o&@+O>>>>>>>>>>>>>>>>>>>>>>>>>>>>>>>>>>>>>>>>>>>>>>>>X#&%+#&&&%%&&&&=&=&:&&&%&%=&&$&&==$oo%%%",
"&%=$@&%&=&&%%==+Oo%++%&&%&&&&=&&&%o+$++o>>>>>>>>>>>>>>>>>>>>>>>>>>>>>>>>>>>>>>>>>>>>>>>>X+%&+#&%%#&&&&=&%=&&+&&&==&&#+@&:=$oO&&%",
"%&%#+&%&&%&%&%%++o%++$&&%&&=*&&%%&+&*#+X>>>>>>>>>>>>>>>>>>>>>>>>>>>>>>>>>>>>>>>>>>>>>>>>XO&$O#%%%o$&=&&%%&&%O%&&&:&=$#+&=&@Xo%%%",
"&%&#o#&&&&&%&&%o+@@+O@@##@%$&&#%%#+#&+o.>>>>>>>>>>>>>>>>>>>>>>>>>>>>>>>>>>>>>>>>>>>>>>>>XO#&O#%&&o@#%%&=&&=#O&%&&&&&$@+#=%$+O&%&",
"&&=&+&%&==&=&%%%#@&$#%###O+%o+O+&%@&$+Xo>>>>>>>>>>>>>>>>>>>>>>>>>>>>>>>>>>>>>>>>>>>>>>>>.O+#+@&%%O@$&&%%&&&$o$#&%&=&$O+%%%@o@&=%",
"%%&&+#%=%&&&%$%&=&&&%%&&%#@%$#$o%&@$&@X.>>>>>>>>>>>>>>>>>>>>>>>>>>>>>>>>>>>>>>>>>>>>>>>>Xo&&$@%&=o+#%&&%&&%@O+@%&&%&&oo#&%@o&&&&",
"&&&#+&#@$@&%$#@$&&@@%%@%&%=&=#OO+#Oo$+o.>>>>>>>>>>>>>>>>>>>>>>>>>>>>>>>>>>>>>>>>>>>>>>>>.+##@+%&&o+#&%&%&=&@+=&&=&&%#o+$%&$O&=%&",
"&&%+@&oo+o+++oo@oo+o+++oo+oO+oO+%+O%%+o.>>>>>>>>>>>>>>>>>>>>>>>>>>>>>>>>>>>>>>>>>>>>>>>>oO$+oO&&&$&%&%&&%=&%#=&==&&&&&$&=%#@&=&%",
"&&&+O&+o&&&#&&#&@+&=%@%+#%&#o#++%#+o#+o.>>>>>>>>>>>>>>>>>>>>>>>>>>>>>>>>>>>>>>>>>>>>>>>>X+#@X#&&&&&=&&&%%&%&&$=&&=&&&&&&%%+o&=&&",
"%&%+O&o+%%=%&%%&=:&%%=&&%&%%O%@+&@+%%@o.>>>>>>>>>>>>>>>>>>>>>>>>>>>>>>>>>>>>>>>>>>>>>>>>O+&+o+&%&%&&%%&%&&&%#&&&%&&###&%$%#+*&%&",
"%%%+%&$+=&&&%&&&%%&#%&&&&&=%++$$&@o+#+..>>>>>>>>>>>>>>>>>>>>>>>>>>>>>>>>>>>>>>>>>>>>>>>>++$#O@&&%#@@&&=%=&&%%#%#%&@ooo@%&=@+$&&&",
"=#&++=%%&&%&#&%##&%%&%&&&&&&#@++#+o%&@O.>>>>>>>>>>>>>>>>>>>>>>>>>>>>>>>>>>>>>>>>>>>>>>>>@+$#+#&%&o+O+%%&&%%#%%&&&&O#&o@&&&@o$&%%",
"&&%+o&&&&=&&&%%#oXX+&%#&=&&&=o+o=@+&%+. >>>>>>>>>>>>>>>>>>>>>>>>>>>>>>>>>>>>>>>>>>>>>>>>+$##O%&&O++O@&&%&&%&%%&%&%O@%++=&%@o@=&%",
"%&#o#&#&=&%%#+oooo+o++o#%=#++o++&@++&@X.>>>>>>>>>>>>>>>>>>>>>>>>>>>>>>>>>>>>>>>>>>>>>>>>O@$#O&&&+@#+#&&=##%=&%&&&$o+&O@&%&@+#=&%",
"%&&++%#+#%#ooooo+@oo@++Xo+@#&&++=@+=&+X.>>>>>>>>>>>>>>>>>>>>>>>>>>>>>>>>>>>>>>>>>>>>>>>>O#&@O=&&+#%$O=&=&%&&&%&%%#O+&+#%&=##$##%",
"=&%O@&+XO++#&%&&&&=&&&%%&&&%%&&&&@o@$+X.>>>>>>>>>>>>>>>>>>>>>>>>>>>>>>>>>>>>>>>>>>>>>>>>O#&++&&%o%:&+=&&%&&&&&&&&&@@#@O%&=#o+&%&",
"&&&O#&+++%&&&%&&=&&&%%&&&&%&&&-&$#o&-@O.>>>>>>>>>>>>>>>>>>>>>>>>>>>>>>>>>>>>>>>>>>>>>>>>+@*#O&%%o%=&+$:&&&%&%=&&%*####O%&&%oo&&%",
"&&&##$&%=:&=&&%=&&&%%%%&&&=&&&%%&@o+&#+X>>>>>>>>>>>>>>>>>>>>>>>>>>>>>>>>>>>>>>>>>>>>>>>>+#$$X&%&O%&%##&&&&&==&&&@#o@&#+&&&#++=&=",
"&&&o+&&@+@+@oOoo+o+o&&%==&&&%%&&&$++&@@X>>>>>>>>>>>>>>>>>>>>>>>>>>>>>>>>>>>>>>>>>>>>>>>>O#@@O&&%o#%%+#&&=&&&:&=#O@++%@O%&##+o&&&",
"&%%o#&&+$&%=+oo#%&++o%&=&++ooo%&&%o+$@oO>>>>>>>>>>>>>>>>>>>>>>>>>>>>>>>>>>>>>>>>>>>>>>>>+@@++@%&$+=&%=%&=%&&&&%@+++@&&@o&&#@O%&&",
"%%%o#&&o&%%#O+O=&=$oO&&&#o+o++O@&+Oo=#++>>>>>>>>>>>>>>>>>>>>>>>>>>>>>>>>>>>>>>>>>>>>>>>>O$Oo##%&#@%&&%%%=%&%&&O+$$o@&&#@&&$OO%&&",
"%&&o$&%oo@+Ooo+oo+oo&&%&%&&&%%+@&&Oo$#+O>>>>>>>>>>>>>>>>>>>>>>>>>>>>>>>>>>>>>>>>>>>>>>>>@#%oO@&&##%&&o#&&%%&&#O&%+o+&&&+@&&O+&&&",
"&%%+$&&&%%&&%&%&%%#&&&&&&=&o$&&&%@o+$#++>>>>>>>>>>>>>>>>>>>>>>>>>>>>>>>>>>>>>>>>>>>>>>>>+$%+X#&&##%&=++&=&&=&$o$&+O@%&$++&#+o%=&",
"%&=OO%%&&%&&&%&%%&&&&&&&%+o#@+%&%#O+$##O>>>>>>>>>>>>>>>>>>>>>>>>>>>>>>>>>>>>>>>>>>>>>>>>+$&@oo&%##&%=&O+=&==&%o&&Oo@%%$+$&#O+&&&",
"%&&oO%&%&%&=&&&=%%&&%&%&%OX&&@%&%&o+%@#+>>>>>>>>>>>>>>>>>>>>>>>>>>>>>>>>>>>>>>>>>>>>>>>>@$&$+O&&@#%%&%O+&=&&=#O&$OX@=#&O#=#OO&%#",
"&&&++%&%&&%=&&&&&&%&&%%&%@+&@+&%&#++-@++>>>>>>>>>>>>>>>>>>>>>>>>>>>>>>>>>>>>>>>>>>>>>>>>##&%#@&%$@%&&#oX&&&%&%O#+Oo+&@oO#&%+O=&&",
":=&++=&&:&%#&=&&&=%&%=%&&+@=@O&#&&+o$#O+>>>>>>>>>>>>>>>>>>>>>>>>>>>>>>>>>>>>>>>>>>>>>>>>+#%$oO&#@o&#o+&#&%=&&%oOO@+oo++$&&@O#&&&",
"=&=+#%&=&&&&&&%&%&&&&=&#OOo+oX+X@@++$#OX>>>>>>>>>>>>>>>>>>>>>>>>>>>>>>>>>>>>>>>>>>>>>>>>@$&#o#%&#O@o@&&%$&&&#&++O%Oo@$&&%%$Xo&&&",
"&&:$#&%&===&:=&&%#&&%%&&++%&$+o+&%+o$#@O>>>>>>>>>>>>>>>>>>>>>>>>>>>>>>>>>>>>>>>>>>>>>>>>#&%@o@&&$oO+&&&&#%%&&&##o@oO=&%&&&&Xo%=&",
":&&O#%#+++%=&++o=#&%&oo%=#o%%+&&&%++&%O+>>>>>>>>>>>>>>>>>>>>>>>>>>>>>>>>>>>>>>>>>>>>>>>>#$&+o#%&+o#%&&&#+$&&%&*++$O+&&&&&&&+o%%&",
":==&+&$Oo#%&&oo+&&&&&oO%=&+&@oo&%%+o&*%O>>>>>>>>>>>>>>>>>>>>>>>>>>>>>>>>>>>>>>>>>>>>>>>>@*&$o%%%&+&$O##ooO&%&&%@++oO%#&&=%@oo%%%",
"&%*$@%&O+&-=&+o@&=%=&oOo&:@+o@o%&&++&&#+>>>>>>>>>>>>>>>>>>>>>>>>>>>>>>>>>>>>>>>>>>>>>>>>+&=%O#&=@o=##%ooO+%%&&%&+oo@%&&&&=#o.%#%",
"=&&$#&%$$==&%@&&&&&=:&*&&=@@+O%=%%@+&$+O>>>>>>>>>>>>>>>>>>>>>>>>>>>>>>>>>>>>>>>>>>>>>>>>#$&#o%&&o%*@+=OO++&%%&&%+.X@%$%=%&@+O&%&",
"&%&&@&&&&&&#++=&&&&&&%&&=&&&&=&&%:@O&&@+>>>>>>>>>>>>>>>>>>>>>>>>>>>>>>>>>>>>>>>>>>>>>>>>@$$++#&&++@#+$#+#%=%%#+++#O+&&&#&&&Oo=%&",
"&&%$o&&&&%$++o%&%&=&&&=&&&+O#@$&&&oO=%@+>>>>>>>>>>>>>>>>>>>>>>>>>>>>>>>>>>>>>>>>>>>>>>>>+$&#+#&%#=&&%+OO#%&&$+o@$&=&#&&&&&$oo%%%",
"&&&#o#%&&&#@++==&&&=&&&&&&++@++%&:++&%@+>>>>>>>>>>>>>>>>>>>>>>>>>>>>>>>>>>>>>>>>>>>>>>>>+#=@O%&%&%&@&@@O$&&&&+O@o$%%&%&=%%$Oo&&%",
"%&%%O&&%&&OX++++&&&&&%&&&#@%&$+o&%@o&&#O>>>>>>>>>>>>>>>>>>>>>>>>>>>>>>>>>>>>>>>>>>>>>>>>+%=+X@%&%#OX+@##+&&%*@@=&+#$&&&&&&#++&%&",
"&&%@o%#&&=oo##oOo++=&&%%=*@$&+o%%&+o=&++>>>>>>>>>>>>>>>>>>>>>>>>>>>>>>>>>>>>>>>>>>>>>>>>o@&#O%%&%%$oO+##OoO++%$=&-++&%&%=&%OO%%%",
"%%&#+%&&&&=&%#%+&&%#&&%=%%+++@#&%%@o&&+O>>>>>>>>>>>>>>>>>>>>>>>>>>>>>>>>>>>>>>>>>>>>>>>>o@%%O%%%%%$OOO#&O&&%&#++OOO+%&==&&$+O&&&",
"%%#@+%&%=%&%&&&%&%&%&=&&%&##+$%%%%+$&#O+>>>>>>>>>>>>>>>>>>>>>>>>>>>>>>>>>>>>>>>>>>>>>>>>o$=+O+==&&&@##%*o$$#@ooXOOO%&&&:&=&$O%&&",
"%&&$o&&&#&&&%%=%=%&&=%&&&&=O+#==&&+o&$+O>>>>>>>>>>>>>>>>>>>>>>>>>>>>>>>>>>>>>>>>>>>>>>>>X#&%O+&&%=&+oo&#o@#&#%$$$@$=%&&&&&&#O#%#",
"&&&&O#&&&&&#%%%%+@#=&&&%%&&@+#&&%=+%$@+.>>>>>>>>>>>>>>>>>>>>>>>>>>>>>>>>>>>>>>>>>>>>>>>>O@&##&=&#%&#++&&O$&&%%&&&%%=%&%&=&&+O&&&",
"&%&#o&%&=%ooooOO++o%%&%%&%&o+&=&#%O&&%+X>>>>>>>>>>>>>>>>>>>>>>>>>>>>>>>>>>>>>>>>>>>>>>>>X#&#o@&%&%&$Oo#%.$%OOoOO#%&&%%&&%&&Oo&&&",
"%%&+o&%&%&%#+@++#$#%&%&&%&&+o$&%&%+%&#oX>>>>>>>>>>>>>>>>>>>>>>>>>>>>>>>>>>>>>>>>>>>>>>>>o%&#O@#%&&%#+o@@##+o+oO+oO#=&&=&&%$Oo&&#",
"&&%$o#%%:&=%o#&O++&&&&&&&=&++%#%&&o&=#+X>>>>>>>>>>>>>>>>>>>>>>>>>>>>>>>>>>>>>>>>>>>>>>>>X#&#+#&&&&&++&%#O#$$#@%#O+$=&==&&&&#o&#%",
"%=&$+&#%&*@o$&$#++%@$:=&%&#+@+&&&&+&&%#o>>>>>>>>>>>>>>>>>>>>>>>>>>>>>>>>>>>>>>>>>>>>>>>>+#=@O@&%%%%+o%=&@$&%%+$OoO#&=&&=&&&+O%%%",
"##&$o#&#oO++oo@@+o++@&=&=&*@+$&%%%o%%##o>>>>>>>>>>>>>>>>>>>>>>>>>>>>>>>>>>>>>>>>>>>>>>>>X@&o@%&%#&=#Oo+++OoOX##OOoX&&&%&&&%+O%&%",
"%%%$o#&#ooO+oO##O+$+o&&%&&&+@+&&%%+&%#OX>>>>>>>>>>>>>>>>>>>>>>>>>>>>>>>>>>>>>>>>>>>>>>>>o#&+o##%%&&#o#&&$#&%+#%+$O@&%%&&&%%#o&=#",
"#%=+O&&&&%&+oo%$+o&#=&&%&&=+++%%&&o#%%+ >>>>>>>>>>>>>>>>>>>>>>>>>>>>>>>>>>>>>>>>>>>>>>>>o#&O.%=&%&#O#%&=&&=$@%$@@++$%%%&&%%++&=&",
"%&&++&&&&&&+oo@@+o#&&%&&%=&++O#%%%X$%#+X>>>>>>>>>>>>>>>>>>>>>>>>>>>>>>>>>>>>>>>>>>>>>>>>o$&#o@&=&&#O#%==&%#%#&$O+@+o$&#&=:&@@&&%",
"&&&#@&%&==%+O++$++%=&%%&%&#o+o#&&&+o##@X>>>>>>>>>>>>>>>>>>>>>>>>>>>>>>>>>>>>>>>>>>>>>>>>+&&@o%&&&&@O+$%-&%##@++XO#OOo+@#%=%#O:&&",
"&%&O@&&%&%%@@%+@##%%&&&%$XO&&@o#%&oo=%$X>>>>>>>>>>>>>>>>>>>>>>>>>>>>>>>>>>>>>>>>>>>>>>>>O##+O#%&%++OO#oO++oo%#o++@XO+@##%&$#O&&&",
"&&=$O&&&%&#%&&&%=&&==%%@+#&=&%O+%%++%##o>>>>>>>>>>>>>>>>>>>>>>>>>>>>>>>>>>>>>>>>>>>>>>>>o++@O#&&&@+#$$&%=&&+&%&oO%#%&&%&&%$OO&&=",
"&&&=+=&%*%&&%&&%#&&=%&%%&%%&&%&&%%+o&#+XXX..XXXooXoOXooXoOXooooOoooooOoXo+O.X+XoX...   .oO#@O#&&%%&&%&&%#&%+#&$##%@&&&#+&=&++%&=",
"%&&&&&&%&&%#&&=%%%&%%%%&%&%%#&&&&%&&%#+OoX.....OooXoo+ooXXoXXXXXooXoXooooXooX+OX.XX.   oXO+#%&%&%&%#&&=%%%&%%%&%%&&&&&&&%%&&&%%=",
"%&%&=&%&%&%&&&&=&%#%#&&%&%%&&&&&&%&&&#+o..X...OooXooOOoooooXXXX.XoXOX+oOoO++ooOoooX.  .XO+@&&%%&%&%&&&&=&%#%#&&=%%&&%&%&&%&&%%&&"
};
