/* XPM */
static const char *bigmural[] = {
/* columns rows colors chars-per-pixel */
"128 128 54 1 ",
"  c #7D522E",
". c #80542F",
"X c #835631",
"o c #865833",
"O c #8C5C35",
"+ c #905E37",
"@ c #925F38",
"# c #956139",
"$ c #9B653C",
"% c #9F683E",
"& c #A0673E",
"* c #A2693F",
"= c #A66B40",
"- c #AA6E42",
"; c #AD7044",
": c #AE7144",
"> c #B27346",
", c #B47347",
"< c #B27446",
"1 c #B47447",
"2 c #B87647",
"3 c #B77648",
"4 c #B97748",
"5 c #B7784C",
"6 c #BB7849",
"7 c #BA784B",
"8 c #BC794A",
"9 c #BF7B4C",
"0 c #BE7B4E",
"q c #C07B4B",
"w c #C07C4B",
"e c #C07B4C",
"r c #C37D4D",
"t c #C47D4D",
"y c #C87F4F",
"u c #C37E50",
"i c #C67F50",
"p c #C87F50",
"a c #C6804F",
"s c #CB824F",
"d c #D2874E",
"f c #C78050",
"g c #C78152",
"h c #C98050",
"j c #CB8252",
"k c #CA8354",
"l c #CD8555",
"z c #D08657",
"x c #D28757",
"c c #DE8E54",
"v c #D58B5C",
"b c #DA8D5A",
"n c #E3935A",
"m c #F09A58",
/* pixels */
"=:=%=-**148$*86>>4:$44#>18rlt:*3*<mbhr883>$O>-*844=*#:-r*=$8:$$+#>:-384>-$=$#-681=-#3-->8-*-868t>$>uh8:883:$:w-884**366>#=16=$-*",
"$>rrr>$>381$$86618**4*=8>38r-:6-=:ak9t6688-$OOoOo$*Oo+=3*1$$#*>#=:>>rt68:*%#O-8q>$-%1*==-4=4r31886rf9e-88-=*-6*>63#o163>$366#o=*",
"$>trh-*>818**>$1:e$$=$:8-46<=834i38r*##$3641111>:888461644>8e*##*->eht8r1$:>$=>r6=$=6-$*:3$9r-$$*$$*$->44,=$>6$-16#$38-:#3r6-=9-",
"=*=$6:$-34r$*4$$8>*1#*-4:36=4>#1496=#$oo:t4r=$38tt6q8<884>441:481348tr46:#**o=6r64-=134441-8r3333f:=4::338#=39-<he#:9<>>#-6-#$8-",
"=**O$-<1688<er*$:*=----e68e$:$*81=4Ooooo=h48>-O#=16=$*>-*--$-16,*-*@=->>::$-::341rr4>38trtte33tr838383>6>=###-6-$=*$#O*>&>>#$-t:",
"#@16>*$:488:rx-==$*-r:*q188--#*>8==oo$oo#48t36>-6e=t:#oO$o++$OOo+XOoX+#OO+O#$*@##$$$*64e8th8e986t<334336448thxe8tpri884i9$$-t48=",
"-=484%+$9i8164$=#o+9h3##$<=$*-=3t1>#o>>$#13t-:3-:=:t-#Xo##oOo++##O$O+$:4hr888q>:-*>8*$oO#$$%:,1>er8t>:>::31r8r64316><h39i8#@>rr-",
"166t8:-=*$+##*49:O#rl9=1=#o#3:#-4>=#+*$+=>:1*4-==#o$*$oo$#OoO@oO#@O$#o*<rt888t8hx9,q:OX+XooOOOXo##o$OOXXOoXo##+*=#O*3xr8kf-*3r3=",
",44q4>3>1>463841,r:888tte>-*iu*=1-#+OO-9-61>:$*1ik::1->:8-$#$%####O#oX=te868r838hk:6*o#O$$#O##OXoOoOO. oX$#*:*#-36$$-9trt=##*4e*",
"=*-%$$*--6h:<rt4tn9886w83*>>r8-=*$8-OO3:$68>-8r4tn9886888th9r84:$:86>*==#o$$###O#-#$$oOo+#$@#+O#@O#OooooO#%*-$#O$f-%=6888>>*>-8-",
"888<=:9--r88h88hrr44868634r9r39h8>8=@$89>4tr-38hrr648686rht9r3:3e=>866e>41$->118<-=-:===::>*=#$--$$$#@#***-:>-:6>$$$-686r>=-*=99",
"4r4>$#e4-r93t18888888t844t8688rl1-=#+8:$->e>&:8888888t844t8688,f6--848t838&O*>88:==43==-*:**1-8r>8>96r34e>94r16884$$-t634436:>r6",
"%:r-$=4--88868e6>4868884rh16e3fh6:==*6>368r>&1e6,4868886rh18e113=o-t8t6466*#$6e8=*=181:#>$O*-#-*$*%6688868r668e6,4=@=qr:>i>49>>>",
">r8:$*t:*t888r341-144><-683rr49r>*#:>=*3r64-*8344:1464r6e83tr---$$-r84h416##$r36-#=3:$:$==><:$***1$rq=4-18448r344:--=4t=$*$==@$-",
"4488=--1-h88614>*=-3-@@#$-fi8e163%#o**#6886:=168r8:48686t8hf8-==##$hr88898=::868:$$3<%$$:$$$=$$#*-#>r=1--8688868q8*=-6848>ui84==",
"$:8:#3%>*t84-O==$48-*133=-86><8r:*:-=$#1644==:34hl8688686fr6=%86=-*6886838#o$4448=-6>$=*$66*=*:##$*44$3**6444644hl--=868-$36>>1-",
"*:8=#-*3<t43-%=3O#:1:$#O-8rf84ik*oo*8%=>t68==84r88>3ff833rr4$:ih-=-4>88rt3oX$r4r-#$4re1-=8>3>*1$o#$3t#>$$3966r4r88*->i8-o#*98135",
"486:*$%:>8e6-==4:#:3:4>13-$33833=1*#$==1te3*-94rf>>348ru64-=:434=-346641t>OO$r4r9O*6:*6$%##$O#+#$*-44+6%$8618h4rf1$-$8t9-1$131$=",
"-64=+*--%338=$:1-#&>+O$:8-=63881$:4=Oo#3688>--8tt>oOoXOo###+@##*-468>8914>oo$88y8X#6:$3><88*-6:$$#O>-O1*#6rr468tt3$>:>83*--831$*",
"$>4-$%$$#463%#-3>=-4=:3-:-64>6t:$$*4-$$:416-*:4th1oOoooO#OooXO##$64468t4:<OX#61tt#-8>*#$*#*#+=:*:e$1##>#O>r8>63th8*>$18r>=-4>1-:",
">>:3144>=966=#$-1-63-6648%=4888-1*o#-*$64>-$*>68k9#+ooOOOo ####+$:>649868=XX*3:4l%et-#>4>@*$=1:O*>+1##-+#->>:r68kt>6*188-o#488:=",
"=$#@#O:>->>r6:==>$*8er=+:816831*=41@Xo*886-=-=66t3oo+$OOoOoOOXX#=18681849*Xo$8<3t+4883==14>=1-#O#$@4+X>O+1:36846t8=1-6q8>>>88::=",
"$-::=>=:$3688--->*=qt:+>4889344*349l*$*888=*1>886>OoO##OXoOOXOO+$8rr18843*oo=r84t$>r6=$OO###=$$O*1=kO#>##663888844-1-6t--8683er-",
"1144-*#*&6888,>:>-<tr:=:$3r3:r3:48r4$*:864=>-=t644#oO#OXo#$#oO#$=4664r314*OO*hr86*8t4>=--O&$*r:O+=:9O#8+O3kr68r648>3:98$O$$*##==",
"-=$*>r41*r6661<988388:*-$8886a>=8er-:6:8tl88>>r686#oO#oooX#OOoo+=86488684=oo$6881=38<>18=###*--$=>:-o%3o$htrrhe688*4-64461e843>-",
"3>*#@*46:trh8>$::3tt8:13=8r4et-66l8:>*$8rh>933hr8>oXXOoOoO$OO$#$1463>88rt:O#=4>83*rt>>89$#=*3t43<>$-O$$o@tttrkhr81$1*36888t94lh:",
"$$=&$%O#-erk93=##%t3-$1-$3t881=888>--@=tt9-8>-rh-o*:$=:-<:==#****=$1664<t=o#=866>#e4848e$*=$>8:$$%-=O#$#$4er8rrh9-*3$>86r:OoO:t1",
"8r$XX->*%88846$#@=34:=3-+>8863189f*>1$-te4*11-tr$+$##$O##Oo$=&==+$#:>8914=oO*8>88$<6r8t4=#-3>883696=o+$+O>4968tr1>%3-884$=*$8-#=",
"48:$*6t>#363$#$:6$O:1#$*36>38-*:*:*8>-386t=3--89*O$$+$+$#&$$*$O$==<448t4:$Oo$6688#->86848-==-e8r483$o%#oo868388e**=3-:683-*=$o$:",
":6*$#361=434#$@$=:->:$-484464$o###-:%$8r46:98>63$o+$*Oo+o@%@**=#o=:649668*XO#6491$63>886833=-e93>-=+X##@O<8trt43=$$4-=1831>8-$*-",
"3>#O@O:>-ert844>64838>1->641::4*:--$O#>386:9r>8r-=81-=1=>-*-1*-3-$=881849-@+*881:+>4888te-XO:11=++*+o+OXo$8tht8r81:8=-866&*r:*--",
"#@48>:##$9htr9$#:4,13##OX-e4<4:#o$-$$*:446:64-r8f-*=-$#>-*=**---=$1r18843=#+=r18--$3464833Oo#+#oXoo$#OXX$$1rttr8cd-q8=88>#=#=-$-",
"88&##->-$8tr6::>3>481:=*--r>*-&r>-64$*=668><4=r8e->888446484>3896:664r4,4$+O*84e--=868343:$OX#oO@$#$$OOX=4$-86q8w6-w6-86-$:*#*$-",
"q-1->l93$>88-+-831tre68>+=8=<=>1-641+--thx9yp:h83=:rrr63>888668>3-88tl984#oo-8tr-->re69886-#$#+oO+XoX###=l>:hrh831*r6>83=*>-#%$$",
"4$-==r843f68,>1649h8681*>88-%=-#O188$>%4hh-rt-r64<r846168e4>:>e3-$888t88h>oO>9r4=<:86838888#OoO#.XO#@#O#-=@#t9t6438e1:386-=1OO=&",
"#+9$o=t6=884-4643t:>444*1re*14*<>=*##=#@$4>64=443=oXoO##O$:>=+#$*-e:-8h88=OX*864*-+*64886ry:###+oO$#O+$1=$-@=86434-33:884=-3#O>>",
"=#*>>4=$-rf8-13488O+686*#>t>=::1$##$$$@o+-384=,48e>38644>43:348383*=*=63e:#O=834=*&>446616t1*=OooOO###$#*=1=*8148:-46=46:#=1*O:=",
">1$$*$$#$366*$1:>>=$184>%$r==63=8$##--OoX$-61-3>3338684>:38866184936f-884%oo*63>$$-#O#1>:et3:64O+o@#$$*+#=-:#>3>3==83#>#Xo-:*$=-",
"->4488:3=>488$oo##O#3484**38$=-#=#$$*$$+#:=86-6>8t634488686t368833-$=-3tr$oO=86>:-$*o#684r8e48h>$oOo$---$#$-$=6>81331$6>$&-=#@$-",
"$O#$#*-->1<88>>8p4#3684-$$>36:*$3$*=@*-$*:=wr448he68686t8t96389>36-:#$rtl=XO:h484:$-#$3t89438488e$##O-4*-%%:--48h:183*184t96368&",
"%=*44-1*>f688:4rtu$86te:+#383>4:r1>866h-<6>r6>8rth6q6tph34-#$84>4e*=@+erh,o#:r8t1>**$-rh3>463>61t:*##-4$:<*::*4rt31r4-8->8e6er4&",
"*&1=%>44-hhe6=4rr9>t63#*$:84483:4-:3888-:9rr618qrtht68498$=33&=6e8:+$-38r3##>hrr>>8:-:498496483:6:OX#=-O=:4-:--rr>it6-##64,4686=",
"1=$=:**-=e331-rh41#-6$6h>#X#e68<>=-86:t-->-31>rh4688t8hh<-44:1:3tr661-i8t:oX=rrh-@#=e>hh8e>:r68<1:OO$=3#$==*==-h4=48t=$>8444:48*",
"=$$*$#$1$8481$3886=6*3ttl9*--8883=16$$>-%-:81-68888t88tr11>39t-1e3r6#=468-XO-6688-#-4:rrlf3688881-#Oo*-*13==$$=88-3t4$-$86,39t8:",
">68*#384=1846866888>-3httr>9-6e8434>$=3>:=143-46888383hr>3--<$#4686##,946$o#-8668>$>6*fttthh844:#$#XX*:OOO$=:$$>8:34-#>#:683446-",
">6-OO464=18486884<<--884e8>4-eh64#OOO##O$=168-4861<4688<=>*-$Oo186-==8644*Oo=8884>$=:>64e9r83-$$=$#Xo*-#=*=#$$$-4*:6=$#o*3344>1-",
">t8$$3-*=4::8649848=88348:###6lt88e344834--:8=>98486t841>3-=Oo#:rt>$-6844*  =649843%=$=483<$#:::36:Xo$-$$*$*=#$=4-41*$o#>8r6448-",
"-4$$=#=3:64143488h8#>6:-$=#-&3rrh8686883r->34*>88h834484-4*-8%O$4:#%*q83r=XX=3488h8=>--968*3:--39-#oo*-#--*#O$$$326:=-+#1688r48=",
"-:-$*8r9-::6888643>&46-#O#1>=>trrt6448t94$-68:36434>46t8:8<-884->$&*$6t8e$ O:q86434*>13r4=-46$-6<:>oX*1$*=#*:8=#>-3-=3*-686qq86=",
"=$#$3t8t=>:>8r3,34-*9e:$+OO+*-8r48668t8t3-:>8:>1344499r>38>--t>-3:34-=8r8= X:t31344=34668->6>*$<>$>OO--=$*o$-t=$=*4-=8-168>rrr6:",
":88==9r8:::44616r9=4rr>#:64>8>e3,4868tr88*:46=:6r948rrh-:68=@6--68-13=q8r$ o-616r94---483=8re>==3:4#O->*-$#$-8=o$-3*-#>8468838q=",
"ut:=+-44->8t648684$6688%-88:>3ree6:6>>444=8t8*1686:868t,>86-:>*-x6O>-#349$O#-48688>-1>1t4=8rt4-*86:*X$=#=-=*>41#$--=-#,t68688fr=",
"6t3#X#36->3tr8:481-868r=833*#4t88et639881:tte=-48:>338t:868>>$#-te=1=$848&o#>8:4868=1<188O-8tr1=>et4*==$:$--4:+#*$$#>*18r68tr46=",
"<8<:*-4::138lf<888:e348=6>#:=6ttrr33:4468>re8:4rt68r348144e:-4::t4=3*+3:8*X#kf>88tr->>:e1$#1611>->:3=$#$=*::=##=--:=#*-e88er44r>",
"$##*$#<4-88tht668<1>3:6-3>*>=49t6338868r>>648-4h9tr83:-==#=--36-1>$4:+444*o#4t668te$>--8*>--<*=6$*$:%%-=+-=##*-*=:-3$$-rt86833r-",
"*=$##=$3>18tr3838-44466<8>-%-83et634e848>rhrh31rile881$:<1=--::=:6*>:*38e$O#34838ee=11:8$>:-$$$:>%*$:=-$#1>#:e:=>>=8-:-68468348:",
"#$*$*$#=-:48tr84<=81644=:#*-rktt886868rt<6388--68tlt6--*>3:=-:$-=<%*>O>64#oO4r844re=41===364:==-8-$1*=<=1--$--##>-1r$=&4868r831=",
"$#**$**1>631t8r9>-e-$O1-#*=*13tt>4866r83=6686::8thttt::*-1:9==O-=-$:>-:88%oX8qr948t-:>=$$-3=$#---3:##**#-:=%=-O#<<ee-1=3449v981=",
"$>1*=#O$->48rq684--==-<*$=#-$>t9et8r88e4-16rr:>8463fl>1=:88r36:>--:6>:888$oo4w688q8:36-=1$$$-$--=-$-*@#$*$#>#*31$*>e49-848rh888:",
"=-#O##O---86tr88>-:84==-=3-#=$46446888rt388ee->rxk14h46=>&#@$:>1=:=4:<46,OOo8r888hr>34$46>O*6:@@$>161+O$46=3-381-:,>9t:89er63tr>",
"$#O:48>==-r3tr88=$-84,:$-499*-ee4>18413t43448--4tx9<8=$%:h>=-83:@3464868>@oorr86468441#184>18r-+Ooo#OoX-,##1-34>$69*66*e9lrt88r6",
"*$#>3r9*-8v38868:#*8r::$:344*$>84486e64r:4688-:84cx46--33-$=**=->4-+>re88$$o486883>>e<-633*>68=*>18-=*#*%O#8-488=sl*61*888rrtrq-",
"=$>-#<68>3h846t8-*>34-=$864>$%18r488t43k:r6er$:ttr834=*>:4-**$##$<**$48re###:6t8443-3==6r1$:1q:=:>88r-=t8>=r:=6t446$68-69k8q84t:",
"+XXO#oo#=6648r36-#X-e-:=86,#O#4tr8668669=98e8-:4888863>4O@$=><%<=-#>83163$oO4r3668-*8-36q:=488:%=-66864t8$=r3-63884-8r:94rrtttr>",
"#&=>:,$$*4t8686h=$-:4>>=486*$%3err63684t=<868-:833863:--$-1rr>-1=>:=1814>$##:86h94483*364*84868=$*>>>84t-#-64-6833-*8t-:48ttr8r-",
"&484486*%1r8rt8r$+O+@+++$**==$>46838tr88-88:1-:64>:43>>3$>>>-*-3$>:#1888:@##6t88>64:>*341-q8664=-=#4rr66$@-:>=1641*>48:4388843e>",
"=1:*=t>*=-r8688t-+-#13+*11=$#$3864886883:4896=488r>>3=:<$-$=*@*=->$o*trt:OO#388tr33>>-4q>8rr4e8:+#>q>8468:>96-188r*-68><3444314*",
"$O$6==:>:1t88888=O*$=4++3>==$#>6886616te>k4>8>63exr83>:e>348r1>:>4488qrxr#+O6888866>383>$463>161$>6=*6ttru->83<3ex>16t:3t86rr46=",
"==$$$=>*-8t88ill9:-$*6-=1:-==$<6684>:3861kr3>33838t661>6-81-8>-3>1trtrq93$OO3illr68:384$*886484:*84>:3634-13>6:63833rt1>8r48re81",
"=t8<:4>%:68r8tt83=>**6483-*$-=18648868q>6rh3>=<466868->t*>8r8*-8-er436tr9#o#4tt836r:8e>*3ee>4864*:1866%$*$e3>6*:61*3tr>e348t6>6,",
"=t811e,=>4h416636-=$=84:8---=$>6686t8tr6>6et8:>388664>34-=384*=>:88339ttr##@>664668:8t*#rer83441$=-t8e*=$O3t88==84*6rh3>846q4>3*",
"=8868r>:->et86838--#-rr>3=1--*6q6tth34r:18trr6:8fr8lf4*6-=#$>==1--868r9k3OO$4883886-6r*<qrx88488>8te$*:=$#8rrk1-h1=lhl>18888q43-",
"$>436t1=*<trrh68h-:=>i644=*>:$1t684886t1>4888:4r468tr6>4*#o-:+-=*&848t891+@*rh68f643r4:888r8r46t=#>8>$#=&$386rt:>>-ttl3-8t6eh61*",
"=t-*96>*-:886rtr6=:$8kr63-$:3$>68686er9=<4t861344rtr3::8-$<:4=:::<r8t4et:Oo%6rtr>=*-:4r68t6eh636->83>>34,#996tr=#-8rer6>he6rx88-",
"=3$*16-#::t86tr44:4$13ert=*<9$>:486tre3$8rr883-33et61--1:19e>o==-*668446:O$*4tr:O#$##48rhr6rx84:-=6r8->6e=888r8=$%e64q8-khrtt43&",
"=>O*68>$4<r88t833:>#*4trf:-4>#>et8rr6t4$38333-=68r3r8::1$*r#O$>>--:8r6864#O#4t8*-8>*:$-8khrtt44e8@884r63$#>3488-<63rre6-rqhe9r9-",
":t-$rt-*>-3348848-=$-4r64=,<-$>446886h4*r838<=-48t834=-3**%#o#>4-338ht63:+XO386-8r:-r9-$8ehe9634:+486h83$O:8>>8-3t83843=8tq833e>",
"-r14*>464-38>>848>-#=>963--:=#>4>188686=83,369:6t4463$->:$**+#>4*3>888484oX$>><=8t6=646*$re83>44=$46488$*O=34tr-844>:-1*8893438<",
"-:19=-8:>-134tr8t=-**>834-*#*$-4486868>$38844>>684448-48*#O=O*44:-3e8488<X #4t>-t44:4383=*934344-##$=1OX-$>4438-34>#=$4>t43>48t>",
":-$$$-$#=-8443868=-#-8r84&$#==>r488r68>=4r3>3>*886484->e$--#*-66-=>34864-OO$34==844-9rtrr$*>488t-@>:<1O+##-343:=68-$@:88t8r8ert:",
"::-6*18-=14343>8e=-+=6>h4=-=3=1r86688e>>4$$$$--88tr4>*=6$$-$o$>8>>:68888-#X#44*=q61-ertht6=-e8qr1$$$=#$#$#>e436-6t-*#*34tr8836t1",
"=**6=41$9-9843888><#-63r8=-=-=1rr63>88::#O#-$>:648344**=+#>*+>11-#=449481oo%43=-8t6=46rttr1$:rtr1$=$$#=O$$-qr93=38*#OO-$38864tt:",
"&=:4>31#=%48r9466-=#6>#43-=$:$-8438rr4=*OoO+=6:8348r8##$O$*@#-=>>:>>r868$Xo%89>-48-*83<8686:$188-$>=*$##oO-8qq3-34=$#*-#1633re8>",
"*=>4=*:O*=48q8683=:*14-:41**>*:r168888-=o+*=-->898461$=:=-=&#$->3$-#341:#Xo$884=164-r4::46,4==8r--:###OoX#=1tr6=86%O#$:$3rt8834-",
"-*=8-*1$#*41tre69--&*->86-=%=*:v<38143*o%14>>$=868863#O*#*$>-*-:8==>-84:$oo#tre>684$>:>886833*=v=O$#=$X###-3hr1-88:+#-1$>46e6>41",
"*$1*##=##=83h9688-1-$>3>>-=-$$-h84>:33=$*OOo$*-rr8tr=:>$*$#**--=3*#+#->3=OO#f98:18e-:436399848=e:$>#oooooo=<4w4:r8>$X$6=338844e>",
"$#oOooo#=-6>488re>1:=88e:-->>3:1488488=%->--=*:r88tt3&-*=*#==6*$66#o#O>6:#o#388>1tr1-r8r19tr9e4*--4#$=+O##=86q8:88>-##1=3669re>*",
"*:8>:3366<83846r8=##=ew>::-1-3$486t8tr-#*$>::-:4rlxr4*=&##O$=>-:t61+XO=8-#O#8466:684*r8648rt9lr:***==-$+##1e6t6=rl4=&$6=4r>8t33:",
"%->1->:-:>3886rf8>u3*6r61*-6:-=:rth34f-$fr-163:38yhk8=4==1&:=4-:8q88=#3r>OX#86r4*tlt-6rt83tr88t8*$-O#*@*-=:68t3&8h3-$#6:4h3eq463",
"=*++$$##=-,4rt838>=#$8t8>--4-9:-448861$$8r=>1-:6t9tr866-=-$-:843rfr8f38e-o.#et8>-ehr*4t838te9k88*o$$*##$-$=<483=t9>*#-8488eh88hr",
"--16444>1-8rt838t1:-#8r3::-8=@=*-q6831=-8>-3:$<4448rtr>$$*$->8:>q668tt66-=%-t836:r99:,r4>99r4re-@#$*#O*=-=$3>>4=44-=#$>14e3t1886",
"=36$$#1:>-4tr4>4t-==$1<#*-*>1$*#$86r8:-->-=-3:18ttr9e81:*-$:8e->44rtre6::3>1w4>41644-:866ee344*$=$*3$o$*OO*>6t8-tt:*$-$-38868e81",
"*:81:-=*-=rr866e81*=$-48:--43-*$#48er3-*8:>>>$>6648494:###:8r3==33et444e:-e:866e=1t8>%4838re>#$$$##=*-*#&#=>44:-66-@@$>1e888r344",
"#O##OO+$#*86683tr:$@o4t88=:33>OO#34431--:=$>-**8866464$*=16884=:68r3r834=-6<683t-*66>=t8r9t:oooX#+#$##$#o$$>44=-86=#*##448888684",
"#%=*#+=#=$88t8re34$OX*664:-tt81:*488e8==-1$6===888trtr=+*$###$*>48t83844&-83t8re-=68>$368e3%*#$#$##$$-&@#$=e43:-886--*>>4e446444",
"=&1$o@#:>-88668446:@o*1188:88e463>6441=1-r68:>><88rrtt*>8<=:-::-8t446864&>8>4686>=8e>$>188=$$*$$+O-*##$$$,-qre=-889-*trr3636t4r<",
"-:43398>-#34>188468:#$486--p148tr846w<=3$663=8-16368t8*184:6833$48444rr>+:4*$:881*6t1$186$#-#$$=$$$@$$%$$*:8qw->63<$-tt8-r68h48=",
"-4>-3$:===3468868hf83-38>-=e4e888868tt6t3*#=e8>3r68>8-*-4:>4-49:r8648eq-->4:-:q68>u88:>1=##*$**O$*$$:>=*#*11tr-1r61$188>*48468te",
"44*:uO>*-=88rhr666468:661%-3>1643449l>$#$*=$##+:48388>$-6-:>-:8>xrtth>9-:>8>>4r68=:6q>4:#O$$+o$+O#=-:$$$$-r866*:48:$1r8:-83>61t8",
"<8$=r-4=:=r966>>484>9:98--:64846448rh3i8:3>464*>64868-$>6$18=*->ht6rr88*=48--->>4:->r:4$$O-*#$$$#$=-*&,$#**888*>441$381>-6483:4q",
":r$#->3===38q84664868=:e<-*34868rr686:-*=$Oo#oO168r8>=-e-$r6>=->tk88hhl=$1>-:>466>=68-=$$o$OO#+-=#$*=>$:4>#>p3##*==#-388$:r68<3r",
"3-#=>*##:%33p33868r8-*688:-83449xl86r811t41>r83334lf>#-9>-88::--lr686e8=*>>-1-3866-4>-#O###$#+#33$*=+*34eq=>t8*>:>i4#O##@>88q83>",
"9>**>-*16*13t84434lf:$4t4>=8848rr8338l8etr84lh9488tt1O$t1=>8:=:=xl86r83=-61*,344346u<-*=$*#*$#*<=#*#>f8etr:-lr@#==43><=:#->8e33>",
"-:$*-f69e:64lf9488tt>$8t8=%48388r884et>8qhltthrr4t843@*e>-6q>-=$88338l8*$84@-8948839>#$-$oo###$$:$%1et>88h9>hh8e>>:%#OO%#:68t4:-",
">6:$4t*361ltthrr6t843*6e8==648r66tt8886r8r8et8t8fhtr4#$8=-69--4-tq84et::*rk41rrr6t3=>##**@O$-==$#=r8888r8r:>t8t8fft88311*3498684",
"=e>$4q-86-6et8t8fhtr6=4r6*:68r68866868448trt88t898tq1-*8:>81=-4-4tt88q3:>8443>t8fh8-$#@%=$%#*=$#:36868448t:888t898t8r96886818488",
"-<$+$>=:4-8t88t898t86-689==34h9686>489rhrtr88rt6hr88<>-t4418:->-6668681--68,-:t898r$*=$#$$-#*$$186>48erhet-3wrt6hr88686rrr188411",
"-1>11>--8-8q8rt6hr8q<-8e6-$68t8:44668>8e8r68rer86rtr>-:8-:4r==3-86>48e81*e8$=<t6hr8$$$###$-$$68:44668:698r-4rer86rtr8888864r3,46",
"*<66:$896-38rer88rtr4-8h4=<8er848641t3334t84ht646rhr:*9h118q1=8=16668>3=#64>>:t86t8$##$&#$=-9r848631:oX$68=3ht646rhr88lhl6888886",
"=13<4*4>3-64ht646rhr4-663--648413448rr::6>6948r64988-*4t18688-8=3631t3---96-t:446w-o#**#O$=6484,344:=4=$6-=948r6498868ttlr68t641",
"$>1<1--#-$1948r64988<-84---8te48>166948644re4er334461188-8rh8:8-:448rr==*-3>31r644#oo$=O.=6ete48>1:@463-6>-e4ee33646t9rer8rhe688",
"$*Oo+O#O*=9e4er334468-441**:t8666868184e99e8rtrhr68t=$33=rrkh13-:16696->=>9>>:833=OO$#$$#33*e86641#118>-94-8rtrhr68r46668trkhr68",
"$144:>396=68etrhr68t=*68--=:464:6t3688333rr44tr8e848-$48:r8rr4:$=86818=8-46-e>6h8#@=$$#@-89>366:-$-888:O>8:34tr8e8486hfrer8rqh3-",
"=8384-33>-644tr8e848-,94>->>:18868489>38834344tr>8rt:$>4=968t>>--t3886$>*86=6<684#oO#=@-68t4:18>@-389,:#4:-344tr>8rt88384968t888",
"$1483#188*<344tr>8rt3:>6>-=184r83<3463rr864868344r83*$34-8388:=1*848e:$8-:>*6-3t$18e-#*64986844#->34638:8->868344r83186838388948",
"$-36>$rr8*1868344r83--863*-<888166<3k89k8qr8tr3:88e6-%48>trt6:-:$<346->r:1>*8:=4=883<18681848:#=66<3k93:8-4etr4>88e4866rrtrt434<",
"$:133#4h8=6qtr4>88e64=rr>=->,48:883>838hrhlf6rt888rt3>668tht8e:-=4<3h=3l:66:t6**=8e486rr1884-#::883>843:r1fh6rt888rttr8ertht8r4:",
"*:3:r=-<1<hh6rt888rt6-681=$-483>-6>63r8r8rhttt84,13hu-1:<rttr8-:>83>3$6h>th-1r:::8rtt8684r3:@=3>-6>43r3-8:rttt84113hx8446rttr84>",
"O:=#=1o#-:rttt84333hh-4tr==1468hfe31><38thtrlhl4164t:=:=>18688->#1>3%>88$6r$3t=*$13fxe6tt83%%48hfe31><>-y48rlhl4164t966841868864",
"$#XXXooO#-368rt8388te$%4>##18rthrhr8668rt838ee4:443l6>1:88386t><*::*#>36:e4#4r4=*48tthlxr4==8rthrhr8663:t=>8ee4:443ltt6et8386rr6",
"#:>*-4=:1-86et83888t1==>>*--r6639lhkt6et83884488466t-*1=64>68r41=-$%3838-6e-8t8$#48tr6yhu$=er6639lhkt64>8$1q4488466tre8er4>68rht",
"$:1$48>--$18er4>486t46*4::6:6hx9,rlle8er4>486rf8884t##4$166rxl9--O=8884r$>>#:r4=+38ttt4=#=ti8hx9,rlle81>6$>86rf8884h4184866rxll6",
"=>4$:>::==146866ehlx>-#-:-416ehl>893346866ert836hr88*>8*=63rtt814$36hr8i=43O-q43$-hlr1+#>>rl1>hl>893,4-18-4tt836hr8e898:483thtlr",
"*>6=>>848*44:483te8t:%$---:-$-tn988364:483tt83866884$$68:$r-#$:<61*=4686>,6--3-O$=@<-o168>68$>tn988>43+*8#9t838668868389t8rrrere",
"->$=>:8:8>439t8re68t>:$#*6$-6-:84486h86h8rrq4>483>88>-e31#**:44>ep8*+#-4,r4##$%684>=->864=14=trr46-#>*$p3*8w4>683>88rtr44688648t",
"%9r#>68*:>1344684tlx>16>#*3>$=-#*>86t188686866e83664::1$->6$%88*#*r61:$-=83**<>84tlhr6888=11-68888:O--481-6866e846641t64>188tret",
"%>8$$:8--*:44><888th534e6$$=-#O#$:884683>8646:>-$$-4:=$*$18:O>4---*=$$#4$*-=$->866tfh6394*64-=:364>$16e4::8683t88>8914344888384e",
"%:r->6881#:1**:>>8>3-<43-:-#$*o o@@O@$OoO#O#X+OooX#$+o$=*###$%####$Xo##$#o+$###$$-$#$$$###===oXoOO#O$:3:*48t8rr4468t4-<t48466838"
};
