/* XPM */
static const char *tywfall2[] = {
/* columns rows colors chars-per-pixel */
"128 128 46 1 ",
"  c #050515",
". c #000029",
"X c #00002D",
"o c #000032",
"O c #000036",
"+ c #00003B",
"@ c #040439",
"# c #00003E",
"$ c #000043",
"% c #000046",
"& c #000048",
"* c #00004C",
"= c #000051",
"- c #000055",
"; c #00005B",
": c #00005D",
"> c #000062",
", c #000064",
"< c #000069",
"1 c #00006D",
"2 c #000072",
"3 c #000075",
"4 c #00007B",
"5 c #00007D",
"6 c navy",
"7 c #000086",
"8 c #000088",
"9 c #00008F",
"0 c #000092",
"q c #000095",
"w c #000099",
"e c #00009C",
"r c #0000A3",
"t c #0000A4",
"y c #0000A9",
"u c #0000AD",
"i c #0000B0",
"p c #0000B5",
"a c #0000B9",
"s c #0000BF",
"d c #0000C2",
"f c #0000C5",
"g c #0000C8",
"h c #0000CF",
"j c #0000D1",
"k c #0000D9",
/* pixels */
"%;57766641>---=,9tipy2%#++++$%%%&*=*%%%%&=:<1154:*&&%o.#&=,5et6>*&=<531577411,=%%=<7q2=&%%:575,=&$#+#$&*:4766673-$&,6766664<:---",
"%>9063,;--,43<<4rpir6:%#+oO+$%%&=-=*&%%%&=:<453,;==*%o.#%%*-,1:;,>-:1<3eye72<,=%%;50q2=&%%-<453>*$#+#$%%=,366674-%&10952,;=-152<",
"=>575>&%&=:<<149ypie5:%#++++$%%*>,-*&%%%%%-<463>*%&%%%$##%&=><;;,<<124666675<-&%%;50q2=&%%*->153-$#$%##$&=<532903:-<674;%&*=><1<",
"=,54<-&*===-:149yr841:=&%%$#$%%*>,-*&%%%%%-<45,=&%%$###+#%&=><:=&=<9yw4>;<1<:=&%%=<7q2=&%%&=>164-%%$++#$=,35329w82;<64,=&====-><",
"<264<-&*-====;3773:<5<=&&=*%$#$&=-=*&%%%%%-<1<:=&%&&%$++#%&-14,*&=<es0,;----==&%%;40q2=&%##&,8tw:$#OoO#$=,1<::0y941363,=&=-===--",
"<254<-&*-=*&;14664135<=&&=*%$#$*>,-*&&%##%-<453>*&=*&$#$%%*-><:==<9eq2;>,;-=*&%%%=<7q6,=%%&-7upw:##OoO#$&=><::0y941353,=&=-=**:<",
"=;<1,-&*-==-:<<255245<=&%%&%$#$=,1<>=&%%&=:<4774:;<>-&%%%&-<11<<<<111<<<<<>-*%%%%=<7q6,=%%=<0uy8;$#+++#$=,1<:;362>-:<1,=&=-==-><",
"&*=--=====:,;&*:476663,=%%*=*%%;706,&##%&=:1qyq51253,=%%&=,6004<<11>;><1,;*&&%%%%=<0y8,*%%&-18tw:##$%$#$=,353155>*&*---====->,-&",
"%*=-======:<;&*:477763,=%%*==->263;*%$#$=,5qyuq51<<;&%%%&=2qe0,*>364<:;,,-==-=*&*;<0y8,=$#$&:12,=%%*=*%%&=<678te,&&*--=====-><-%",
"%=,>-==&&=,5<=&-39weq2=&%%&==->253;*&%%%-3qupuq4:*&&%$#$-36700<-,5q063<<,-=-:<<,;;<0y8,=%%&=><1>*%&;,-%%&=,6wupe,&&-,:===&&-14>=",
"%*--=-=&%&-,:-=:4qyyq1=&$#$%%&:2541<,-%%&=2quuq4:*&*=*%%=,1<1<;-,40ww952>*&-><<<<<10y8,=%%*-><1>*%%*=*%%=,367784-%&*----=&%&;,;=",
"%=,>-==&&=*&*->30ew06,=&$#+#$&*;<,;--*%##%:6eyq3:=-:,-%#$&*-><-&=:17q952>**==->2567wy8,=%%&->11>*%%%&&%%=,367774-%&;,:-==&*=*&==",
"%-,>-=====*&*->30q775,=&$#+#$&*;,,-==*%%&=:1463,*=,>-*%%&==-14>==;<463111<:&%*:158qeq2=&%%&-153>*$#$%&%%&=<677q7;%&;<:-=====*&==",
"=;<1<:----:<:->3q92353,=$#++$%%*>>-==*%%=,1<111>*=,>=&%%&=:<1<:==>57632451;&*==;,4qeq2=&%%&=>11,*%%%%%%%&=,67673-&=:<1,;---->,;=",
"=;<11<<<<<35<->4rt7311,=$#OoO#$&=-===*%%=,1<<<:=&-,>=&%%&=:<1<;==>50w952,-*&*--==>5ey8,=%%&=><1,*$###$%%&=<67674:==:<11<<<<<44>=",
"=>4653,;;,1<:->30q7653,=%%$#+#$=>,-==*%%=,1<:-====-*&%%%&=--><:==>5wy8,=&&*=:,;=&=<0uy9:%%*->11,=%%%%%%%=,6q96651:-,5652,;:<1<;=",
"=;<>;,,;=----==:4764<:=&&=*&%&*;,1<;&%%%=,1<:-==&*=*&%%%&=:,1<;==;<463,;====---=&=<9upe>$%-<4674:*&&&&&%-39q6254:==:<:;,,-=----=",
"%&-><1,;==---==:4764<:=&%&*====;,,;*&%%%=,111,;=&*=-=*%%&=--><:==;<111,;=&*--=*%%=,464<=%%-<7we8>&&-<<,;=->11154:*&*->11,-==---=",
"%&-<53,;==:<:-=;,1145,=&%%*=*&*=-:,:=&%%&=<54<;======*%%&==-><:==;<1<:-=;,<<:-&%%&-15<=&%%-<4773-%%;,:=&&=,56674:*&&-252>-=->,:-",
"%=,1<:-==-:<1<<<<25411,=%%*===&&=--*&%%%=,36411,;=&*=*%%&=-->,;==;<1<:==;,<<1,=&*;,45>&%%%-<453,*%%*--=&&=<676752:*-<1<;--=-><<<",
"=;<1<:==;,<<<<<<<<1363,=%%*=*&%*>>-==*%%=,3676652>-==*%%=>>----==;<45,----:<1,=&*=-15>&%%%-<111>*%&;,:=&*>3676651>-:11<;==;,<<<<",
"=<005,=&&=:<1,:;<1135<=&%&*=*%%*>>-:,-%%&=:17q852<<<,-%%&=:<1,=&=;<463<<>-:<1,=%%=,463>*%%-<45,=&&=:<:=&&=<6763<;=-3q94:*&*-><<<",
"=<006,=&&=:<:->154111:=&&=*&%&*=-:<1,-%##%-<111<<>---*%%&=:<1,=&=:1453,;--:<1,=%%=<702=&%%-<4663:=-:<:==;,367663:*-3q94>*&&=><:-",
"=,55<:=&&=:<:->2541463,=%%%%%&*==>41-&%%&=:<>-----=-=*%%&=-->,==39q82:;,<11<:=*%%=,702=&%%-<4673:;,>--===-,6763,*&-163,;*&*-><;=",
"<362-===;,11:-><136wyq3-$###$%%&=--=&%%%&=:<:-=====:,-%%&=--***,9tipy7<,3971:-==&&=15<=&%%-<111>*=,1<:=&&=,5763,-;,46<-===:<1<:-",
"<407<-%%=,364<::48qew6,=%%$#+#$&=---=&%%=,1<:-=====><-%##%-,<138tiipu8,;;<>->,:=&%&,53>=%%*-14:%%*-><:=&&=:1463,;;<606,=%%-<463<",
"-,575:%%*,8yw65566786<=&$#$%$#$&=:,>=&%%=,>-====&%&,4>%##%-<<<<30tidd0,=%&*-><:=&&=><>=&%%-,1<-%%=,1<:=&=,<1463<<>;<674-%%=<0y06",
"<2675:%%&=2q05>--10e01=&%%%%%%%&=:,;&%%%=,,-*&==&%&,4>%%&=--=&&-3quau8,=%&-<1<:-===:<:=&%%-<1<-&&-<34,==;,36753,;;,3674-%%&-4q86",
"=<005:%%&=<51-*=>4071-&%%#$%$#$&=--==&%%=,1<<<<>*%&*-*%%=,1<1,==3eddiq3-=,6q952,;=-:,-&%%%&-17q92,<>-*%%=,35311,;=-3q94-%%&-25,-",
"=,65<-%%&=<5<;><<11>--=&%%%%$#$&=-=*&%%%=,353<:-===-=*%%=,353,=:wsfdy4-:5ryw86652>----=&%%&-7ipe<*&&&&&%&=:<111,;==<64,=%%&-15,-",
"=<07<-%%&=:146651<<<<:=&%%&=*%%&=-=*%$#$=,111<:-===-=*%%&=:<1,-,eaiq1-&*<96;**:2541:->,;*&&;qdu7;%%*======--><1,=&=306,=%%&=>146",
"=>54<-%%%&-<4674:;<1<:=&%%&&&%%&=--*&$#$=,1<111,;=---*%%&=--***<eue71:==;<>*&&%=,1<<<:=&%%=<rs0,*%%%&*=&&=:<111,-=-<63,=%%%&;157",
"=:<1<-&%&==-1674:;<1<:=&%&*=*%%&=:<>-&%%=,11453,;;<1<-%%&=--><<157776,==;,<,:=&=,1<<<<,=%%=1rde3=%%*=*&%&=,6et6,;=-:<1,=%%&==;26",
"=;<1<:=&&=-->1552<<>--=&&=-=*%%&*<97<-%%=,11452<<4005:%%-442704>*:50q2=&=,>-*&*;,>**-,,=%%=<rdr3=%%*=*%%&=,60q5,;=-:<1<;*&*--;,<",
"-,585:%%=,35<->2551:-=======*&%&=:<1,-%%-3411<:==,575:%%:9eww0<*&;50q2=&&=:<<,;=--=:<1,=%%&-8iy8;%%*=*%%&=:14774:=-<674;%%-<44>=",
",6yy0,%%;476>*:3982;&*=&&&*=*&%*>>-*&$#$&=:<1<:==:<,-*%%,rpu9<=&*>576<=&=,1<<,;===-:<:=&%%&;qdu7;%%*=*%%&=:<46752,<8ut9:%%:575:%",
"-3tr6:&*>476<-=;<1<>-==&%&*=*&%&=:,;&%%##%-<452,-;<1<-%%:9eq3-&&=:17q5<,3081:-=====:<;%##%=1rdr3=%%*=*&%&=:<<2893>;6yw4-&=,675>=",
"<365<-%%;4763<;;,<<<<:=&&==---===-=*%##$&=:<463,-;<34:%%=<21:=&&=<0yy4==<0q7,**==*&;<:=&&=>6ude3=%%*=-=&&=--><1<;;<464,=%%:5762<",
"<264<-%%=,36752<1,;><:=&%&-,<,=&==&$#+#$&=:<463,;=-><-%%=,,;-=&-36676>%%:9tu9<;=&%&;<:=&%%:6ude3=%%*=--====->111<<<363,=%%-<4766",
"<254<-%%*>5q9767741<<:=&%&-,;&%=,,-*%##$&=:<453,;*&;,-%%=,<<<<<15411<-%%=,8ue6,=&&=:<<>=%%:6udr3-%%*->,;===-16751<<353,=%%=<7q86",
"<111<:=&%&>678rue82>-*&%&=--*&*:43;*%##$&=-->11,;==--*%%&=:<1<;;,,;:<:=&%&2ypy6<<>;><:=&%&-<7euw:%%*=-=*&&&-18te<;<111<;*&%*<777",
"<2675,=&&=,6eupy941<,-%%&=-=*&*:43;*%##$=,>-:<1,;*&*=*%%&=--><;;,1<<<:=&&=,6eur075676<-====-17q9>*&*=--==&&-18tt4,<3674>*&&-17ri",
"<4006,=&=,370eeq741<<-&%&=---->252=$#+#$=,>->264:*&*=*%%&==-><;:4771;-=====;7yq3:>50w94:*&&=:154:*&*->,;*&&-<8tr<;<6q95>*&-<47qe",
"<2675,==;<6qew952<<1<:=&&=:,<<<2651;%###$%&-7upr4:&*=*%%&=:<45>>7rue5>=====-,<;&%=<9yq4:*&*=-;,,;=-:<:-*&&%&,7tt4,<3674>==:17wew",
"-,54<:==<9ewwq852<1353,;;,>-=->4rr7,&%%%%%=<0ipt5:&%&%%%%&:575;*>7yr6:&%&=:<1<;*&&-164<;*&&->,-*=;,<<<,;==*&;2et4>;<53,;=-2qewww",
"<251-=;38q0732577766674-%&&&&&*,992;&%%%%%&;5euy91*%&%%%&=,574;&=,685:%%%&-<45,*&&=><1,=%%*->11,-=--->,;=====:703<<35,-=>49q0631",
"<351;>1566763130aar963,=&===*%%-33;*%%%%%%-<0upt81-==*%%&=,54<=*>3675:%##%:575>=&*=><>-&%%:59q83=&=><:-======-,11<135<;,2566762<",
"<<16q952<13531<5tpie6,=&&=--*%%&=--*&%%%%%:50q94:====*%##%:43,=*>364<-%%%%-<1,-=><<363,=%%-<463,*=<46<-=====:<111<<<28q841<1452<",
"<26wyq4:;,1111467que6,=&=,1<;%##%-,>-*&%&=:<>----=--=*%##%*--=&*,365<-%%%%-<>->14669q5,=%%*->11>*;4wy8,;--*&*;352<137ry03;:<1111",
"1269q6<;;<36752259w06,=&=,45<=&%%=,<,:=&&=-----==----*%%%%&&*=&=30y01-%##%-<>-=--:<45<=&%%&=><1>*=<7q5<<<<>-=;3775136004,-:14766",
"641111,;:4qyw6239ew05,=&-376<=&&==&*->>=&==-:,:==;,<,-%%%&*=*&%*,3675:%##%-<1,=&*;,1<-&%%%%&;<1,*&=><:-><<>-=:6rur731111,;,6ey06",
"751<<1<<15wue5>>8q741:=&=,1<>----=&%&*=&&=-==->,;=->,-%%&===*%%*>3675:&%%%-<1<:=&*=---=&%%&=><1,;=-><-&=;,<<<2wurq741<<<<<26euq6",
"e92<<<,;;<9ue5;*,11<<:=&=,1<<<<<<:&$#$&=---==-------=*%%&=--*&%*>351;>,=&=:<<<<,-==---=&%&*=><1,;==:<:=&&=,5660wwew71<<<>;:2quq6",
"ir83<:-=,9idy5;*>,---==&=,1<<<<11>-*%%*><<>-=-><<251-&%%&=:,;&%*>111<1,;==:,:;,,;==:,-&%&=*&;<1,;=-<53>=%&-<1<<25que62,;==1qpdw6",
"iye3**==>5tdt62>;-=*&&&%&=:<<<<<1,-*&*=---*&;<<15774<-%%%&*=*&%*,36763,=%&*-><1,*&=><-%%&&%&;<1,;=-15<=&&=---=*-3qyyq<&*==,6ude6",
"7qy8-&&*:4wue5>---=*&%%%&=:<>-=:451;&%*>,;==--->49q7<-%%&=---=&=3esdy3=&%%-,1<1>*=,1<-%%&=*&;<1,;;,363,=&=-==-><136ey4=&&=,6ruq6",
"<7yq1-%%=,8ye6,;,>-*%%%%&=:,:-=:476,&%*><<>-:1470ww71-%%&=:,;&%;7udy6:%%%&-<1<1,-=-><-&%&===:<1,;;<363,=&==-:<<<<<10y8,*%%-1qyq7",
"<4q05:%%=,6qew852,-*&%%%&=---==;,1<;&%&=;<<1466668qe0<&%%%*=*%%-30w4*##%&=:<1<1,=%&;<1,;==*&*-,,;=-163,=&=*&*-,,;;<6w04-%%-<7wew",
"<2676,=&=,37ey0662;*&%&&&=:,;&*;,,-*&%%%=,36005,;;<702=&$#$%$#$-3771-&%%&=:<1<1,*%&;154>==*&*-,,;;<363,=&=*&*-,1<<<3674>*&-<48ri",
"<<146<=&=,367766651;&*--;,<<-&%&=--*&%&=>476763>*&=><;%##%%%%%%*,361-&%##%-<1<1,*%&>574:==*&;<1,;;<463,;==*&*-,1<<<<155>*&-<4677",
"<<16q5,;;,367622551:-><<<<>-*&%*><<;&;146666653>*%&;,-%##%&&&%%*>504-&%##%-<111>*%&,54,=&=*&:11,-;<463,=&=*&*-,1<<<<2804>-:<4676",
"->50q5<<<136762<<353<<,;-----=&&=--*&*;,1<>;>11,;==-=*%%&=:,;%%*>375<-%##%-155,=&=,353,=%%&-401==;<463,=&=-==->1<>;<6004<<<14676",
"<26763<<2566652<<3641<,=&=:,:======*&%&=--*&;1452>-==*%%=,35>&%*>7t0<=%##%<qyy051,<<11,=%&-<80>&*;<353,;>42-=->,;;,37762<1366666",
"<6yr721466411<-=>3675:&%%&;<;&*====*&%&=--*&*;352>-==*%%=,35<=&&=108<-%##%2ypir7;%&;,:==;,<145;&*;<111<<252-=--=&=<9yw6225663111",
"<6yuw5<<<<<155,;,364<-%%&=:<1,;=&*=*&%&*;,:&%*252>-==*%%%&>4<=&=3774<-%%&=4uay7>*%%&&&&%=,<<45:&=;<463<<<<:*;<<>*=<9uy03<<<11257",
"<6yay4===-10yt615761-&%%&=:<1<;====*%$#%*=-==-,1<>-=-*%##%*-*&%;8rw4-&%%*>8uu0,%%$#$%%&*=-=-153,-;<7q6,=&==&*-,,==<9ipr1===;3wyi",
"60uuq<%%&=,60w96676,&%%%&=:<>-=====*&%&*==*&*->,;==:,-%%%%&&&%%:wpi01;=&&=4yr6;%#+oO#$&*==*&;11,;>50q6,*&====->2566wuy9:%%&-17qe",
"7quq1-%%&=:17q9762;*&%%%=,35<-====&%&%&=-=*&*=---*&*=*%%%%*=*%%-3quyq1=&%%<qe0>%%$+OoO#%&=*&;1551260q6,=&=-==;26667eu9,=%%&=:29w",
"wtuq<=%%&=:<48q03:**=*%%-476<-=====*&%&===*&*=--===-=*%%%%*=*%%*,7uay2%%%%:575,=&$#+#$%%&=*&;298>>50q6,;==*&%*2768wyu8,=%&*=:158",
"wru0<=&*===;7yt8>======&-476<=&&=--*&%%&&&&&*-,,;=->,-&%%%*=*%%=3edu6:%##%-<111>*$#$%%%%&=**2we8>>50q6<;=-*&%*1668wyy8,*&====>0u",
"6674<-%%&=:<4773:====-=&=,461-&&=:,;&%&=-=*&*;352<<11:=&%%*=*%$:wpiq1=%%%%:43<1>*%%%%%%%&==-4q04:>5763,;;,:&%*>2566763,=%%*=:157",
"-:<1<-%%&=,54<:-=---=-=&&=4ye5;-241;&*;,,;**,676666901=&%%-,;%$;8yi8;&%##%-<111,*%%%%%%%&=*&,7q8>>5773,;=--==-,<;-->11,=%%&-1531",
"-:<1,-%%&=<64<;==;,>--=&&=4ypy6<1,-*&;1441<<36752<<1<-%##%>4,&$:wsfr1=%%%%:57774:*&%%%&*==*&;11,->6ey8,=&==-:154:=-><1,=%%&-163<",
"<251-&%%&=207<=&=:<1<:=&&=1qyu042>-*&&&=;,<146752:*&*==&&=,4>&$:edgu6:%%%%:59wue<*&%%%&=-=*&;<:=&>0pdr3-&==-<663:;<35,=&%%&-404<",
"<11>=&%%%&>54<:-=>44<:=&&=:18q5<<<<:=&&&&=:<36752:*;,:=&&=--*%$:wsfpq1=&%%-<48tt5:*%%%&==&%&;<1,-<0yu8,*&==-><:-=;<1<:=&%%%&<53<",
"=,51-&%%&==->1451<<>-*&%&=:<111,;--*&*=-=&*->1552>-<5,=&%&&&&%%-4wur6,=&%&-<37ry92;*&%&==&%&;11,->50q2=&&=:,:---==-<5,=&%%*=-;,1",
"=,52-&%%&=**;1552>-====&&=:<>----==*&*-,>-*&*-,,;=-15<=&%%*=*%%=3qur6:&%&=---:7q841;&%&*==*&,53,;>5763,=%&*-><<,-=-15<=&%%*=**>1",
"<264<-&&*=:<36652>-====&&=:<1,;========---*&*=--=;,35,=&%%*=*%%=3qur6,=&=>>-:1552<<;&%%%&===>11<<26763,;*&*-><:-=;<363,=%&*->146",
"<364<;-><<25311252;*&==&&=:<1,=%&*=*&%&=;,:&%&===;,1<-%##%*=*%%=3quuq1=&%&-<453,;=-==*&&&=*&;<1,;,5763,;==:<1<<,;;<464<;;,<<3521",
"<4095,==;,<<<<<<<,-=->,;=-,54,=&=--*&%&*;,:&%&*-==----=&%%*=*%%=3eddy4=&%&-<453>*%&*->,;--*&;111<26763,=&=:<<<<<<<16084:=-:<<<<<",
"<<1>;---=--------:,>-*&*;,111<:==;,;&%%%&=-=*&*====---=&%%*=*%%=3qur6,=&&=:<111>*%%&=><<<<:-1776666774<;-,<<:-><<<<1<>---==-----",
"---:<<,;===----==---=*&%&=,609<==;<;&%%%&=-=====&&=:,:=&%%*=*%%=39w81:=&%&-<1<:=&$#$%*-,,;=-7yt9326wyq4:==---->,;----><<>-==----",
"==-><:=&&=:<1<:-====--=&&=,686,*&-,>=&%%&=-===--=*&;<1,=%%*=*%%=39w05,=&&=,54<;=&%%$#$%&*==-4q94:>5eyw4-%&-,<,:---==-><:=&&=:<<<",
"=;,1<:=&&=:<452,;===->,=%%<qe9>&*--*&%%%=,>-=-,,;*&;<1,=%&*=*%%-39w81:=&&=,54<;==*&$#+#$&==-163,->5874,=&=:<1<<<<>-:<1<;*&&->146",
"=:<1<-&%=><<11<,;*&*=-=&%%<005;&=-=-=*&=--==:1451:*;<>-&&=--*&*:49w05,=&&=:<1<:==*&%%$#$%&&-163>*=10y8,*&=:<1<<<<>-:11,=%%-,<<11",
"=<005:&%&=:<1<:-=======&&=,54<:==-->,:===&%&;<1<<<<<<<>=&=:,;&%-39w81:=&&=:<44>=&&&&&&%##%&-401=&>0yu8,=&=:<1<:--=-3q04-%%*-><1<",
"=1005,=&&=:<1<<,;==-=*&%&=-;><1,->44<:=&&&%&*--;,,----=&&=:,;%%-40w05,=&&=<54<;==*&*=*%##%&-5q9416ypuq4:==:<1<;===-3q04:*&&=><1<",
"<264<:=&&=:<1<<,;=-><:=&&=:<<<<,->41-*&%&===*&=----:<:=&&=--*%%:wpiq2:=&=,463<;======*%##%=<7q8416yr73<;==:<1<;=&=,463,;*&&=><1<",
"<361-&%%&=:<1<:--;<605,=%%-,>-*&&*-=&%%%&=-=======-<53,=&=--*&&1ihgdy4=*,906<;>>=%&*=*%##%&-25,==3tuw5,=%%-<1<;==;<45<=&%&*->11<",
"<251-&%%=>364<:;,25663,=%%*->,=%%*=-=*%%&=*&*======<64,=%%-<:-:5phgdi7>*;42;:<<,;*&%&*=&%%&-59,%%,quu8,=%%-,1<;==;<45<=&%%-,4631",
"-,54<-%%&=2096541<111:=&%%*=-=*%%-,>=&%%&=*&*===&%&106,=%%:4<-:4rsghd7=&&&;<1<:-=*&%%&%##%-<55:%%<tau8,*&=--><:===-153,=%%&-4q86",
"<264<-%%&=,675,=&:475:&%%%*=-=&&*;,>=&%%&==&%&==&%&,5<=&&=--*&%;8iffi8,=%&>54<:-=*&%%%%%&=;<45:&=2tpy4==;,<<1<:-=;,363,=%%&-1666",
"-,575:%%&=,51-*&=,54<-%%%%*=-=&%&*=-=*%%=,>-=--=&%%*--=&=>1<:=%:wsgdiq3-*,8yw62,;=&%%&%##%&-4we922541-%%=,353<<,;=-<674-%%&-15,-",
"=>54<-%%&=:<>-=;,<<>-*&%%%*=-=&&=====*%%&=:,<,;=&%%*===&&=<5<=%>uhgdy4-*<eiuq65661*%%&&&%%&-0fse,**=-*&%&=:<1<1,;=-<63,=%%&=><:-",
"=>51-&%%&==-><<,;=-:,:=&%%*=-=&&=-=*&%%%&=-----=&%&*=*&%%&-<:=*1ijgr2-&*,991;*:2551;&*==*&&;qfi7;=,<,:=&%&*-><1,=&=<5<=&%%*==-><",
"=;<>=&%%%&*=><1>*&=><:=&%%*=-=&&=--*&%%%&=-----=&&=-=*%%&=--**:4rpi01;==;<>*&&%-451:-==&%%=<rs0,*&=---=&%%-<111,;==:<:=&%%%&*->1",
"==--=*%%&=*&;<1,*=,1<-&%%&*=-=&&=:<>-&%%&==->,:=&*-><-%%&=-->15667776,-=;,<,:==:43;==-=&%%=1rdr3=&=-=*&%%%:6004,-===--=&%%*=**:1",
"%*=-=*%%&=*&;154:;,1<-%%&=====&&*<97<-%%&=-->,;==>475:&*;<<10yq3:>50q5,;;,,-**:151*%&==&%%=<rfu7;&=-=*%%%%,0e01-=*&*--=&%%*=**:<",
"%=,1<-%%&=:,:->252;:,-&%%&*=*&%&=:<1<-%%=><<:--=&=<45:&*,9ewyy6>->50q6,;;,1<:==---=====&%%&;qfi8;&===*%%%%-1563,;*&;<1,=%%*->,;=",
"=>575:%%=,1<;*:2541>-==&%%&&&%%&=----*%%&=:<<,;=&&=--*%%,rpuw5;&=>50w61<111<:-=====---=&%%&;qfdw:%&*=*%%%&-<4531<>-<674-%%-<1<-&",
"=>54<-%%=,35<==;<1<<,-&%%%%%&&&&=:,>=*%##%*-><:=&&=:,-%%:9ew6<=&=;10yq650y9:======-:,-%##%:6ufi8;&===*&%&=:<11451>-<53,=%%-<44>=",
"=:<>-*%%=,11>-=;,1<<<:=&%%%&*==-,>-==*%%%%&-152>*&=:,-%%=<464<;==<0yy7140uw2-&*-==-:<:=&%%,qade3=%%*===&%&-<1<1,;=-><:=&%%-<1<:-",
"=:<>-*%%=,353<<<1,;><:=&%%&=>,=&==&&&%%%%%-,45,=&&=--*%%=,111111<2576>**1ruw2-====-:<:=&%%:6udr3=%%%&*=&&=:<111,;=-:<:=&%%-<452<",
"=;,1,-%%&=,53<<254135,=&%%*=*&%=,,-*&%%%%%&-15,=&%&*=*%%=,<16wwq72;<53,=-40q6<;=---><1>=%%:6ufu8;%%*===&&=:<4674:==:<1,=%%&-152<",
"%*-><:=&%&;<::6ww821<-%#++$%%&*:43;*%$#%&&*=>11>*%%*=*%%&=:<7we03>-<674>=-<675,;,1145<=&%%=<0ipw:%%*=*&%%%-<7wue,*&*-,<;*&%&:<:-",
"%=,1<:=&&=:<<18ww8235>%#+oO#$&*:43;&%%%%&==-><1,*%%%&%%%&=:<47752>;<5311,;;<466568qeq2=&%%&-18w9>*&%&%%%%%-<48tr<&&-<1<;*&&=><<<",
"%;44<:=&&=:<114774145>&%$##%%&:262=%%%%%&==->253-%%%%%%%&=:<47766411112551;*,52<<6ypuq3-%%&-1674:*&%&&%%%%-<38tr<&&>53<;*&&=>11<",
"%=,1<-&*=-,531111260q2=&%%%%*->3091;&%%##%-<0ut8>*&%%%%%&=:1qy0668q9767092;&*=*&=<qpdr4-%%&=>11,*%&*=*%%%&*-18tr<&&;<1,=&==-153<",
"%&=-=*&=;<353<<1136eu8,=$##%%*:4tt7<=&%##%-<0ut9>*&%%$#%%&<quy3;,260q5<<1<>-*&%%%;5ey8,=%%&-15,=&&===*%%&==-<7tr<*&*--=&&=:<452<",
"%&=*&%*>2541:;27q08tdr4-$#++$&*<ee2;&#++#%-1qiy9>*&$#+#%&=1qut1%%-<702-=-----=&&=;<474,=%%-<563,-*&&&&%%&=:<<3ee<*&*=*&&=,354<;=",
"%&=**:<<<<<<-*:6pdpsfr4-$#OoO#$-43;*%$++#%:6eipw,*&$#+#$&=1qr0,&*;<45,===-:,<,=&=:17q2=&%%:5ey03-%&&&&%%&=:<<154:*&*=**><<111,=%",
"%%&;<1<<,;--*&:4tsfhd0,*%%$#+#$*>,-==*%##%:6et7,*&=*%#++#%:6q0<===-><:==;,>-*&%*,5qyu8,=%%-<463,*&=-=*%%&=:<<154:*&%&:<11<>--=&%",
"%&=<53,;==--**:30tiau5=&%%&%$#$%&-,1<-%%&=,541:=&%&&%$++#%-<55,==;<45,=&=,:&%%%-7ydhfr3-%%&-163>*&=:,-%%&=:<<154:*&&-152>-==-=*%",
"&&=><>-*&=:<:==:4quau4=&&===*%%%%=,34:%%%&-<1<;=&&=*&$#$&=**<5,->2575>&=---=*%%*>7ydd0,*%%&-163>*%&*=*&*>441<2903:*&-><:=&*-><;=",
"=*&*->,;;,35<-*>8tipu4=&&===*%%&==&;,-%%%&-<1<:=&&===&%%&==-15,==;<463<<,;-=*%%&=1quy3%##%*-163>*%%%%%&*>552<29w82-&&*;,,;;<45>=",
"====-><<<<35<=%:wiipu4=&%%%%%&*;,:&*=*%%&=:<1<:=&%&*=*%%&==-15,===-<531111:&%%%&=,5qq2=&%%-,463>*$###$%%-49w98ty92;===-,<<<<45>=",
"-=&*->,;--<51=&-377ey8>*$##%%&*;<>*%&&%%&=:<1<:=&&&&&%%%&=:<45:&====:9iit8<*%%%&=>50w5>*%%&-163>*%%$#+#$*,0dsuir5>-*&*-,,;=;25>=",
"<>-==--=:49q1&%=,1146<=&$#+#$&:152;*&%%%=><<1<:==;,;&%%%&=,575>*&%&>6rpfp9,&%&*==>6ey4=&%%&-153>*%%%%$#%&=5ye7751<<>-==-==,500>%",
"<<<;&*==;<6q2&*-,1135,=&%#+#$&*:43;==*%%&=--14>==,5<&oX#&=:155,===-<7ry03:*&%%%&*2tay2%%%%&=>11,*%%%%%%%=>364<:--;<1<-&*==:180,%",
"=,51-&&*;,6q3=&*,111<:=&$#+#$&*:476<-&%%&=:<1<:;,351=&%%=,<1704>-<0tyq5,--*&%%%&*2tay2%##%*-><1,*$#$%$#$&=<5411,;=-<5,=&&=;<70<=",
"%:41-&%%&=<51=&-3511<;%#+oO+$&*>8q6,&##$&=:146651362=OX#=,25763<<6te6,:351:&%%%&*>6ry5=&%%-,<<1,*$#+++#$&=,57663:*&,5<=&%&*-25,=",
"%=,1<-&%&=<5<->157665,=&$#+#$%%-351;&##$=,37ey041254<=%%&==-162<<11,;=;376<*%%%%%=<edt4-%%*-><1,*$#OoO#$&=,57673-%&;<1,=%%&-15,=",
"%&=><:=&&=:<<<<30q741:=&%%$#$%%*,,-*&%%%=,8upy7>*&->,-%##%%&<5,----><::351>=*&%%%=<wfde>%%&=:153-$#OoO#$&=,57674:*&*-><;=&&=>1<<",
"%&=><1,=&=:<:->30ew06,=&%%%%$#$*,,-==*%%-4wipy7>*%&&&&%%%%&=><:=&=,1<<<1,;*&%%%%%&;0fp9:%%&=><1,*$#OoO#$&=,57674:*&&->11>*&=><:-",
"%&-<53,;=-:<:-=,9eeew5,;*&$#+#$-33;==*$X#2qupy7>*%%%%%%##%*-><:==;,111<<,-*&&&%%%;5pks9:%%&->11,*$#OoO#$&=<54254:*&&-252,-=-><:=",
"%=,353<<<<<<:==>8tipu8,=$#OoO#$*,,-==*%%&=:18q5,*%&&%$#$&=:<1<:===-<53<:=&*=-=&&=2thka9:+.#<705>*$#OoO#$=,366674:*&-<452<<<<<<;=",
"%-<11<<11<<<:==>8ufhd0,*$#++$%%*,,-*&%%%%&*-1774:*&%%%%%=,36001*&=,363<<:*-,1,;:29ydft4;o @4q01=&$#++$%%;4766674:*&;<11<111<<,;=",
"=>541<1551>-*&%;8ufjd7=&$#+#$%%*,,-*&%%%&=;<4674:==&#+#$=,5wut3*&&-163,;==:<1<<>=:6ydt4-$$,005,=&$#+#$&*>5766673-&=<53<<2541:=&&"
};
