/* XPM */
static const char *tywfall4[] = {
/* columns rows colors chars-per-pixel */
"128 128 45 1 ",
"  c #060612",
". c #00002A",
"X c #04042B",
"o c #00002F",
"O c #000032",
"+ c #000036",
"@ c #000038",
"# c #00003E",
"$ c #000042",
"% c #000047",
"& c #00004B",
"* c #00004C",
"= c #000052",
"- c #000055",
"; c #00005A",
": c #00005E",
"> c #000062",
", c #000067",
"< c #000068",
"1 c #00006D",
"2 c #000071",
"3 c #000075",
"4 c #00007B",
"5 c #00007C",
"6 c #000081",
"7 c #000085",
"8 c #000088",
"9 c #00008D",
"0 c #000091",
"q c #000094",
"w c #00009B",
"e c #00009E",
"r c #0000A0",
"t c #0000A7",
"y c #0000A9",
"u c #0000AC",
"i c #0000B3",
"p c #0000B5",
"a c #0000B8",
"s c #0000BC",
"d c #0000C3",
"f c #0000C5",
"g c #0000C8",
"h c #0000CD",
"j c #0000DA",
/* pixels */
"%&=======&%%*->111145,=&%#@@@#$*,,;-=*%%&=,60q5>**-=&%%%%&&-1774:=-<63253;*&%%%*,5qeq5,=%%=<0uw3-$#@@@#$&=2wuuq4:*&*======*&%&*=",
"%&=--=====*&*->254135,=&%#+O+#$*>243<-%%&=:18q5>->41=&%%&==;qse2==,6q9663;*&%%*;367773,=#.+-8ut8;$#+O+#%&=4ypyq4:*&*---=====*&*=",
"%=,1<:===--=**:309235,=&$#+O+#$*,,;:,-%%*>2675,=&-,>=&%*;,26ua5=&=,6q953,-*&$#$&=,50q5,=%%&-5er8;$#+O+#$&=<67774:*&-<1,;===--=*%",
"%;475:%%=,1<-&*<ee311:=&$#@@$%*-,,-*&$#$&=,575>*&&==%O.#;49q06:%%&-177774:==&%%&*>50q2=&%%&;0dsw:$#+O+#$&=,57674:*&>573-%&-<1,=%",
"%;44<-&*;,1<-&*:57665,=&$#@###$=,,-==&%##%-<56,=&&=*%O.#;47674;%%&-6yteyt8<*$#$&=>50q<%##%=<qiy8;$#+O+#$&=,533wr4;*>53,=&=:<1,=%",
"=;<>-*%%=,1<;&*:44135<=&$#$%%&*-,>-*%$@@#%-1qy6>*&===&%%=,1<1<:=&;4wyq70q72-&%%&=;<0y4=&%%:5ruw3=$#+O+#$&=:<<154>==:<:=&%&-<1,=%",
"=;<>-*%%=,1<:==;<,;<53>=%%&=====-=&$#@#$&=>5et3=&&=*%##$&=--163,-;<46<;,254<-&%&=;<0y5=&%%:6ude3=$@+O+#$&=:<1154:==:<:=&%%-,1<;=",
"%=,1,-&%&=,4<->265135<=&%%*=*&%-32-&%##$&=:1801*&%%$@@#$&==-4q93:*&;11,;;,1<:=&%&;5eu8>=#o&5udr3=$#+O+#$&=,567q9>*&-<1,=%%&-14>=",
"%*-><<,=%&-<:;29tr765>%#@@$%%&*:43;*%##$&=:<1<:=&$#+O+#%&=;<7q94:*&>5752>-:<<,=*>36ey5=&%%=<7euw:$#+O+#%&=:17wue,&&*-><<>*%&:<:-",
"%=,1<<,=&=:<<148q9245>%#@O+@$&*:43;&%##$&=:<1<:=&$#+O+#%&==-4q94:*&>6763,;=-><<140ypu8,=%%*->299>*%#@@#$&=:<38tr<&&-<1<<>*&=><<<",
"%;44<:=&&=:<1<<25769q2=&$#@@$&:262=$#@#$=><14673-$#+O+#%&==-2631<>;:148te3;*;,;-,6ydfi9:%%&=:153-$#+O+#$&=;<38tr<&&>53,;=&&->11<",
"%=,1<:===-<53<<25660q2-&%#@@$&:3091;&#@@#%-<0yq4:*%$@@#$&=;1qt6<<256668tw,*&&&%%%<thjge>%%*=-;,>*$@+O+#%&==-18tr<&&-<1,;===;153<",
"%&=--=-,25663<<1136euw4-$#@@$&:4rt7<=&%##%=<0ut8>*&$@+O@#%<0ut1&=>50q5111<;&%%$#%;5ydt4-%%&->,-%#@OoO+#%&==-<7tr<*&*--==;,35652<",
"%&=*&*:36641:->30eeidr4-$#@@$%*,992;&$@@#%-1qut9>*&$@@#$&=1qut<%%-<7q5<<,-*&*=&%%;5eu9,=%%-<111>*$#@@@#$&=:<<3ee<*&*=*&*>4763<;=",
"%&=**:1551<<-*;5pdpdfr4-$#+O+#$-33;*%$@@#%:6eit8>*&$#@#$&=,6q0,&*;<45<--=&*===&%&:6ru9,=%%:59q83=$#$%$#$&=:<1155:*&*=**>2541<,=%",
"%%&>5752,;--*&*<esfhd0,=$#@@@#$*>,--=*%##%<0yt7>*&=*%#@@#%:575>==--><:======*&%*>6ydfr4-%%-<463>*%%*=*%%&=:<3674:*&%*<6651>--=*%",
"%&=3q94:;,>-===:4quau4=&%%&%$#@#%-,1<-%%&=,54<-&%&=*%#@@#%-<45>==;<45,=&=,>-*%%=2wdhfr4-%%*-><:=&&=:,-%%=,1<<154:*&&-5q82;;<>-==",
"%&=<5<-&=,35<==:4quau4=&&===*%##%=,34:%%&=:<1<;*&&=*%$#$&=**:<:->2575>&*;,>-*%%*>7ydd0,*%%&=><:=&%&;,-&*>441<1562:*&-25,=&-<44>=",
"-*&;<1,;;<45<=*>9tipu4=&&===*%%&=*&;,-%%&=:<1<;=&&===&%%&==-><:==:<463,;---=*&%&=1quy3%##%*-><1>*$#$&%&*>551<29q82;*&:<<>-:<45>=",
"<>-=-><<1576<=%:wiipu4=&%%%%$#$&==&*=*%%&=:<1<;=&&=-=*%%=,>-><;==;<353111<>-==&&=>50q2=&%%-,<<1>*$#@#$&*:49q98ry941:==;,<<2576,=",
"1>*-,<,;;<9y6=%-377wy7>*$#@#$%*;,:&%%$#$&=:<1<:=&&=-=*%%=,1<<,=&=;,>:5weq71-==&&=;<7q5>*%%*-><1>*$#@@@#$=,8uiurq741;*;<<,;:1qt2=",
"641:-===:4wy6-&*,1146<=&$#@@$&*;,,-*%##$=><<<<;==;<>=&%%=,1<1,=&=--<6eiir71-&&*==>5ey4=&%%&=><1>*$#$%$#$&=5ye7652254<:-===,6rt2=",
"<35<&%&*:4wu6-=-,1<1<:=&$#@@$%*:43;*&$#$&=-->,;==,51-&%%=,1<1<=&=:<47q04,;*&*==*&;5ry3%##%&=><1>*%%*=&%%=>364<:;,<<45>&%&=,6rt3=",
"=104-&%%-4wu9,=*>1<1<:=&$#+O+#$-376<=&%%&=:,>--;,361-&%%=,1144>-,6tiy8,=*=-===*%%>9yy3%##%*-><1,*$#$%$#$&=<541<,;=-302=&%%:5ry6,",
"=105-&%%*,9y6-&=,1<1<-%#@OoO+#$-376,&##$=,111<<15664<-%%-3653<;:3qye6,-><1>-=====;<0y5=&%%-,<<1,*$#@#@#$&=,56664:=-302=&%%-1qt3-",
"=>575:%%=,6q6<<<1111<-%#@@+O+#$*,11;&##$=,46776412575:%%&=--><;:3762;**:405;====&&=6yw4-%%*-><1>*$#@#$%%&=:<4674:=-<673-%%-<8q5<",
"=;<45,=&=,3675225664<:=&%%$#@#$*>1<;&##$-4quit6>*=,45:%##%%&;,;;,111<-&*>44<:===&%&4iae,%%&=><1>*$#$%*=&&=:<4674:==:154>*&-<4766",
"=;<46<=&=,3641<259q71:---=*%##$&=:<>=&%%:9yue73>*&=><-%%&===--=-,254<:==----====&%&7dfr,%%*->11>*$#$&*=&&=:<453,;==:155>*&-<4631",
"=;<702=&=,363<<259w062<<>-*%##$*><<>=&&*,9tut04>*%&;,-%%&=---=&*>354<:=====---==&&-9ffr,$%-<463>*%%*===&&=:<111,;==:189,*&-<462<",
"%;50q2==>4763<<159wew5,;=&$#@#$&=:,>=&%%=,11463,*&=-=*%%-476<-&*>1145,=&%%-<1<-&%;4tfde>$%:6rt3*&%%*===&&=:<1<1,;*&>6q9,==,5762<",
"=,686,->25763<;:4qupu7,*$#+O+#$&=--*%$#$&=--:154:==-=*%%,rue94;&=,575,=&%&>6004,,15tdt4-%%<qut1$#@#$%&&*>4653<1,;=-<685>-,36752<",
",6tr6,;>25411,=-3qupy2%#@OoO+@$&===*%##$=,>-=;34:==-=*%%>eput0>&=,575,=&=,5qeq5>*&-6yw4-$%2te5;%#@#$&*->2541<11>*=,9yw5>;,3641<<",
"=2yuw5<,25411<;:4wur6:%#@OoOoO@#%*=*%##$-32-=;34:====*%%=,6q05>-,1145,==,9eeyt2*&%&;11,=%%<005:%##%*==-><<>;153,*&-6uy03,<254111",
"-3yay4=&&-20w034rpi0<=%#@@@@@#$&===*%##$=,1<<<11<>-==*%%&=:<>-=:4761;=->5tpie5;%%&=:<:=&%%-<452>*%%*=-=**=--1673-&-6uar1*&*;4qwq",
"50uuq<%%&=<67769yuw4-&%##%&%$#$&=-=*%##$&=:<<<<,;====&%%&=---=&;7q74<:-=>5wue5;%%&=:<:=&%%*->11,*%%*=-=&&=:,<156656wuy9:%%&-1777",
"6qur6:%%=,366669ye2;&$#$&=-=*%%&=-=*%##$&=-------*&*=*%%&=====&*,360q5>**,6q05;%##%;<:=&%%&=1673-%%*=-=&&=--:157767wuw4-%%-<4666",
"6qur6:%%=,<148qq82;:,-%%=,>-*%%&===*%##$&=:,:----==-=*%%&=====&&=1qyt2&%&=,675>*&%%;<:=&%##&<8tw:$%*====;,>-=;6ww08wuw4-%%-,<157",
"wrue5:%%&==;7yt03<<<<:=&-32-&%%&=--*%#@@#%-,<<<,;=-><-%%&==--=&*>7te6:%%&=:<1<:=&%%-<1,=%%&-7upw:$%*====---=&=5wwwwtuq4-%%*-=>0i",
"6674<-%%=,<147752<<<<:=&=,,-*%%*>35,&##%&==->2552<<45>%%&=:<>=&;7q71-&%%=><<1<:=&%%;<1,=%%=<0uy8;%%*====;,>-&*27766763,=%%-,<157",
"-:<1<-%%=,3531<<<1<>--=&&=<4,&%-376,&%&=---;4wyt95690<%%&=<54,=-4871-&%%&=:<1<:=&%%;<:=&%%&-18tw:$&*---==--==;362,;><1,=%%-<4531",
"<<11<-%%=,364<;;,111<:=&&=,53,;:43;*&*->15669q976411<-%%=,6q6<*;8tu0<=%%&=,5763,-*&;<:-=*&%&,54,*&=<53,=&==-<7q03<<<11,=%%-<463<",
"<254<-%%=,506<==,364<:=&&=,43<<<1,-*&%&*>47677762,-=&$#$-49q6,*:wpiq1-%%&=,6eyq4:*&-<1,=%%&=>11>*&=<53,=&==-4qe8>;<353,=%%=<704<",
"<364<:=&&=<531<<1507<;=&&==**->154<:=&%%=,369ww93>-:,-%%-341;&%-3que6,=&%%-<7we9,*&-<1,=%%&=><1>*&=<5<=&&==-163,;;<463,;*&*-1531",
"<264<-&%=,>;16666761-&&*====*&*;<,-*&*=-=&-<46751<<35:%#$&*=-=&*,5q06,=&%&-<38rt91;:<:-=*&&=>11,-==><:=&&=:,111,;;<463,=%&-,:;26",
"<364<:==;<>;1677641:-==&&===*&*;,>-*&*->>-=->154:;<45:%%&=====&*>3685:%%&=:<1257641<<:=&&==-153>=&=:<<,=&==-1663:;<463<;==:<:;37",
"<4q05,-=;<36666773;====&&=--*%%&=-=*&*==;,>-=-,,;>475:%%&=====&*>5qq6:%%=>>;16752<<<<:=&&==->11,;===->,;*&*-153<;;<6q94>=-:14666",
"<5qq73<<259q9668q81;&*=&&=:,;&%&=-=*%%&*;,>-==---:<1<-%%&=-=*&%*>5qrq1*&%&-<463,;=-:<:=&&==-><1,;==:<<,;=-:<<1452<17w062<<269q86",
"60yiy7<<25763146651:-:,;;,<<:=&&=--*&%&*;,>-*&*;,<<>-*%%&=-=*%%*>6ypt2%##%:5005>*%&-<44>=-=->11<;=-:<:-=;,<<<146666quir5<<267631",
"667421<;;,111<1111<:=*&*;,1<>-=-,<,;&%&*;,>-&*:,;---=*%%&===*%%*>5qq6:%##%-1563>*%%-<452<<:;17q03>->11<;;,<<:;2522676421,;:<111<",
"11136651>;:<11<<<,-*&&&%&=<53<;;,,-*&%&*;,>-=->,;;,<,-%%&===*%%*>364<-%##%:5762>*%%*=-;,,;;<6wyr4,<8yt9,==--=;252<11146641:;>111",
"<<1463<;;,367631<>-====&*>364<;==:,;&%&=--:,:;,1<>-:,-%##%*===&*>364<-%##%<005,=&$#$%*=&=,>;1674:;<9yw4-%&*=><1111<<1462,;;<3666",
"<25763,;;,360q852>-*&:>=%&>674;&=--*%%&=;,<<<1552:**=*%##%*=*&%*>364<-%##%>675>==*%$#$%%=,>->11,-;,474<;===-:14664136752>-;<470w",
"13686<-=;,3677652:**=-=&%&<07<;-,>-*&*-,<<<<370q82;==*%%&===*%%*>364<-%##%:575,=&$#$%%%%&==-><1>*&-6yw4-&==-:1466414775>==;<4677",
"50yyq2=&=,3676311>-====&*>351-=;,>-=-><<,-=-166674<<,-%##%*=*%%*>364<-%##%:5001=&%%*===&%%&=>11,=;5euw4-&==-><11125wut9,*&-<4676",
"17yyq5,=&=<676652>-==*&%=,11<<<,;;,:->,;=&*=-;,253;--*%##%*=*%%*,364<-%##%:5763>*%&;,-%##%&-166514qtuq4>===-><1<<<19ut03:*&-1676",
"68w063,=&=<676651>-=--=&&=:<<<<,-;,:--=*&====->111<1<-%##%*=*%%;7tu8;&%##%:5763,*&=-=*%%&==-166668w08752>-=-><<,;>50w952>*&-1676",
"69q5;===;,36763,;--:<<,=&=:<>--==--*&*=======->11<<35,=&%%*=*%$:edfpq,%%&*,54253=%%*=*&%&===>1<<<4qyuw4;%%&=><:;,260q2-===;<4776",
"69q7<-&*:49w0631<<<<<<,;==:<1,=&=-===========->1<>-<5<=&%%*=*%$>uhgdu4=&%%-<4673-$#$%*=&&=*&;,-&=1qyiw4-%%%&;<<,;,50q6,=&=,50w97",
"67775,=&=,8yywq0641>--=&&=:<1<;====*&*====*&*-,,;*&192=&%%-,-%$:wsgfu2%##%-<463,*$#@#$%%&===>,=&*3yddr4:==*&*--;,267774>*&=<0utw",
"66775,=&&=2qyr3=*-,1,:=&&=,53<;====*&*===-*&%*>,;*&>4,=&%%&&$#$-4rdfu4=&%%:6863,-*%$#@#%=,>-=-*=,9shd0,-;,>-=-><<257774>*&&-4eyu",
"<4005,=&&=<65<-&=:,>-*&%&=:<1<;====*&*==;,>-=->,;*&*-*&%&===*%%;8ufaq1=&%&2ypyq4:*&$#$&*;,:*;28wqeue7,=&=,>-=-,,;;<6q94:*&&-1631",
"<365<-%%&=,541<<<>-*&*=&&=:<1<;====*&%&=;,>-:,:-===:,;=&%%-,;%$:wfja6:%%*>7ytwyr4:&$#$&==&%&2wur4>:15>&*=====-,,;;<464,=%%&-1531",
"<407<=%%&=:17q94:==*&*=&&=,54<;====*%%&=---=----===-=*%##%*=*%$:edfq;&%%&=:<;=2762-&%%*>>*$*6ut7;;4763,;*&%&*-,,*=<605,*%%&=:28w",
"<362-*%%%&-<7q93-&========,54<;====*%%&======-,,;=--=*%#@#$%$#$:wpi7-&%##%&&&&=>43;&%%&==&%&6y8,*=<463,=$#$&*;,,-;<45<=&%&%&;18w",
"<111<:=====-1773-&=====&&=,574>==--=&%&*===-:<1,;;<1<-%##%*=*&*:49w8<-%##%-,<<<11,-&%*===&$&6uq3==,463,=%%=,44,==;<111,;=====;37",
"<111<:=====-1674:==*&*=&=,364<=&=>43,=%%*=--:<<<<2565,=&&=---=&&=3te6,=&%%*--;252:&$#$&==&%&6yq3==,45<=&%%-<45,==;<111,;=====;26",
"<364<:=&&=:<1<111>-*&*==;,364,=&=---=*&*;,>-=----:<45>%%&=<4<=&&=10q6,=&%%-,<<1,;*&$#$&===&&3w04:;<45>%##%*->11,;;<463<;*&&-><1<",
"<6ye5:%%=,35<;>152;&&*=&&=<54<;==*&%&*===-===---=;<1<-%%*>35,&%*>4qq6,=&%&-<1<1,;*&$#$&*==&*6ut7;;4002=&%%&=><11<<<9yq3-%%-<45,-",
"<6tq<=&*:4763<;---=*&*=&&=,675>====*&%&==&%&;<<,-;,1<-%%&=<5,&%*>5qeq5>*=,11<<<,;*&$#@#%&==-8uw4:>50q5,*&====;241<19y8,*&=,5762<",
"<362-&%%-4764<:-=======&&=,6862>-==*%##%&=*&;<1,;=-:,:=&&=:<;%%&=3tpy4=%=,46<;>,;*&$@@#$=><1quq4:;<7q6,=&=====---;<46<=&%%:57631",
"<351-&%%=,36752,;*&*=-=&%%<qyr2=&&&$#@#%&===><:-====--=&%%*=*%%=3qur6:%%=,8y91<,*$#@#$%##%-1rse3=;4763<;=====->,;;<45<=&%%-<4766",
"<254<-%%&=2006311>-====&%%<005>;,>-*%##$&===:,;==*&*===&%%*=*&*>8ew81:=&&=4ye63,=%%%%*=&%%=<0uw4:;<6q94:===-:<1,;;<353,=%%&-4q86",
"-:<1<:=&%&>5770q72;==*&%&=:<>;><<>-*%##$&=*&*--==*&*=*%##%*=*&*:49w062>*%%2ypuq52>-*&%&&&&&-18tr4<1464,=%&*=:154:=->11<;*&%&<677",
"=>575,=&&=:17we03>-==*%%=,1<:;,11>-*%##$&=*&*=---*&*===&%%*=*&*:49w05,=&%%:6eiit841:-*&=-=*&;29q766663,;*&&=:154:=-<674:*&&=>28w",
"=<081:=&&=,577751>-:,-%%=,1146652>*$#@#$&=*&*;34:*&*=-=&%%*=*%%;8yu8;=-====;4ww93<<<<<<<:*%&;155226763,;*&&=:154:*-306<;*&&-1677",
"=>54<-&*=-20063,;=-><:=&=,359q86641;%#@@#%&=<674:*&*===&%%*--=%:wsfy62,;===-><-*=:,<<<,;=&%%*;><<260q6,=%##&;154:==<63,=&==;4q96",
"&-<>-&&*>467763,;;<353,**><13666666,&#@@#%&-17q8>*&%&*=&%%:4<=&=3edu6,=&&=:,>-==&*=:,:-=*&%&;,-*=10eq5,;*&%&*;34:*&;<:=&&=,57766",
"=;<;&%*>256631452<13673-%&*----:451;&#@@#%&-16762:&%&*=&%%>51=&*,8ur6:%##%-<1<;=====-==&%&*->11<<26763,;=====;24:==:,-&%=,36652<",
"=;,;*:<<<<1<:;28007763,=&=:,;&%=,,-*%$@@#%&-17093:&&===&%%>4<=&=3que6:%##%:564>=-=&*=*&%&=;<9t03:>5763,;======-;,>-:,-*><<<<1<:-",
"=**,53,;=-:,:->259qe02=&&=:<<,=&=---=*%##%-,353,;======&%%-,:=&=39w81-%%&=:<>-&=,1<<<:=&%%&-263,-<0rq2-=======----=**<52,;=->,;=",
"=;,363,;==----><<5q06,=&=,1<>-*%%=,1,-%%&==---*&=======&%%*=*%%=3que6:%%&=:<;&*:3663<<>=%%&-15,*&<tds0,-=--==->,;==:<462>-==----",
"-;,35,=&&=,53<;;,3675,=&=,363,=%%=,1<:=&&=======&&=---=&$#$%$#$;7udu6:%%&=:<;&*;,1<1<:=&%%&=15,*&;5ey4-=;,>-=-,11>-:<44>=&*-152<",
"<:**--==;,364<;:47675,=&*,506<=%%%&;,:=&&=*&*=-=&&=:,:=&%%*=*%%=3qur6,=&&=:<:=&&=-->,-%#@#$&<53>*;476,-><<>-=;26641;*=--==;<463<",
"1>-=====;,364,==36675,=&&=<54<;==*&*=*%%&=======&%&;,:=&&=-=*%%=39w05,=&&=:<:======-=*%##%&-163,-;<1<-&*;,353147751:======:<463<",
"1>**====;<8y9,=&=:<45,=&&=:<1<:--=&&%$#%&=-=====&%&;,:=&&=:,;%%=39q4:152<<<<:->,;====*%##%&-163,;;<45,=&&=10w086641;**====;1qt6<",
"641:===&-3wy6-&&=--><:=&&=:<1<<<<>-*%%%*;,:&*====;,>-*%%&=:<;&%-37776652141-&*>,;=--=*%##%&-163,-;<45,=&%&>54<:;,354<;==*&:5rt3=",
"666,&%&%=,9y6-=====-=*%%&=:<1,;;,1<;&##%*=*&*==;,<11,-%%&=:<>=&-39w0774>=--==->,;;,1,-%##%&-163,-;<45,=&&=:<>=&*>2575:&%%%-1qt3=",
"<361-&%%*,8y0,=&=-===*%##%-,:-=-,351=&%%&=*&%&*;,354<-%%=,11<,->8ufdy7,=&=-===--=;,1<-%##%&-163,-;<1<:=&&=:<>----;<46<=&%%=<qy6<",
"=105-&%%&=5t9<=&=---=*%##%*=-=&*>35<&##$&=--=->15664<-%%=,34<-*,esfy6:&*;<,-======-><;%##%-,463>*=,1<:=&&=:<<<<,;=-302=&%%&-8t7<",
"=>54<-%%&=<641<,;;,>=*%#@#$&*=&*>1<;&##$=,11<<<<<2576,=&&=---==>9re5;&&*,981:====*&;<1,=%%&-153>*=,1<:=&&=:<1<1,;=-<53,=%%&-1631",
"=;<1<-%%&=,5652<<<<>-*&%%%&=*&%&=:<:&##$=,36652>*&-305>*%&&&*==:4774<-&*>451:==-=*&-154-%%&-163>*&=><:=&%&-<1<<,;==:<1,=%%&-1666",
"==-><-%%&=:111<<<254<:--====*%%&=:<>=&%%-47675,=&%&;<;&%&======:49q7<;=&=,1<:->>*%&>574-%%&-163>*&=:<:=&%%-,1<:-====-,,=%%&=>111",
"=;,35:%%&=,541<<<26763<<>-*&%%%*><<>=&&*:46665>*&%%;,:=&&=---==:4774<:=&&=:<>--=&%&,674-%%-<8q5>*&=:<:=&%%*-><<,;==:<44-%%&-152<",
"&=,45,=&=,3531<<136773<;*&%&*=&&=:,>=&%%&=--><:=&%%*=*%%=,46<-=:47775,=&&=:11<:--;<6q94-%%:6ua5*&&=:,:=&&=:<<<1,;*&-<54>*&-<452<",
"=;<45,==;,111,;:30ypy7>*%%&=*%%&=--*%$@@$%&&*->,;*&*=*%%:8tu9<;-,5006,=&&=200621431364,=%%<qas5*&&=-=*&=;,<<<<<,;==:154>==:<11<<",
"=<081:==;<1<>-&-3qupy2%#@@$%$#$&===*%##$&====->,;*&*=*%%:8tuw5>;,3676,=&=,6weq82-&=<53,=%%2yay3*&&=*&*-><<<<1<:=&&=306<;==:<1<:-",
"=<qq6,==;,>;><;:4qur6:%#@O+@+O+#%*=*%##$=>>-&*>,;*&*=*%%=,6q952157675,->5tyee01=&%&*--=&%%,quy3*&&=-====;,<<<<<>*&=3w04:==:,>;,1",
"=2ty0,%%&=,565239tu0<-%#@@+O+@$&===*%##$&=-==->,;====*%%&=:<>;>30q741:->5tue05;&*====-=&%%-1qt7>*&=:,:=&&=:<<<1,=&-6yy8:%%&-<566",
"<4qq6:%%&=:<1148qew4-&%##%$#@#$&=-=*%$#$&=====-=&%&*=*%%&=----=>807663,;,9tu9<=%%*=-=-=&%%&-2773=&=---=&&=:<11452<<6w04-%%&=>111",
"<4q7<-%%&=:<<149tw2:-*%%&=*%$#$&=====*%##%*=====&%%*=*%%&==->,;;,36wuq3-=,6q94;&*==---=&%%&-4q04-&=====&&=:<<1576416q6,=%%&=:<<<",
"<364<-%%&==->1553,;>,-%%&=-=*%%&=-===*%%&=====-=&%&*=*%%&==-><;=-,6ys7=&=,111,=%&&=:,:=&$##&3eiw:%===*%%&=--=:6q841363,=%%&==-,1",
"<254<-%%&=**,6752<<35,=&=>>-*%%&=---=*%##%*==-,,*&=-=*%%&==-><:;,6tyq<&*;,1<:-=====:<:=&%%&;qfsw:$%*=&%%&=:<::6q841353,=%%*=**16",
"<<<1,-%%&==-:1452<<35,=&&=--*%%*>351=&%##%&=>154:;<1<-%%&=:<11<157751:==;,1<:-=====:<:=&%%;5yfi8;$#$%$#$=><<:;3764<<<<,=%%*==-,1",
"&*=--*%%&=:,:--;,111<:=&%%-,;&%-376,&#@@#%*;4q9511564:%%&=,6004157741:==;,>----====:<:=&%%&-7ipw:$%*=*%%&=:<<154>*&*--=&%%&=>,:-",
"%&=-=&%%&=:<:==:47675,=&%%-,<,;:43;*%##$=,26eyq4:;,>-&%%=,8yy0<:4qye5:&*;,<<<<:-==-:<:=&%##&<783-&=:,-%%&=:<47q8>*&*=-=&%%&=><:=",
"%=,>=&%%&=,4<=&-39weq1=&%%*=-->253;*&$#$=,360w94:*&&%$#$-49w95129tir6,-==-:<352,;=-><:=&%%&=163,*&=:<:=&&=:10yr8>*&-,:=&%%&=14>=",
"%*--=&%%%&-,:-=;<7yyq1=&$##%*->154<<,=%%&=,6eyq4:*&*=*%%=,351-=:3qyyw84>=&&->1111>;<5,=&%%&-163,*&=:,-%%&=,5764<;*&*--=&%%%&:,:=",
"%=,>=&&%&=*&*;2669w81-%#@O+@$&=;<,--=*%##%-<7w94:==:,-%#$&*->,-&=,60q952>*&=:14666676,=&%%&-1673=%%*=*%%=>266674:*&;,:=&%%*=*&==",
"%=,>-==&&=*&*;267764<:=&$#@@$%*;,,-==&%%&==-1673-&=-=*%%&=:<1<;==>5763111<>-=->259q06,=&%%&-405,*$#$%&%%&=:14674:*&;<:-=*&*=*&*=",
"%=,1,-&&*=:,:->2652<<<>=$#+O+#$=>,-==&%%&==->11>*=,>=&%%&=:<44>==>57631465<**->158q06,=&%%&-163,-*%%%*=&%&:57674:*&;<1,=%&*->,;=",
"=;<1<:-><<<<:->4rr71;-=&%#+O+#$&=-===*%%=,>->,:=&=,>=&%%&=:<1<;==>50w94>---->,;;,26002=&%%&-1673-$#@#$%%&=<67674:==:<1<;;,<<<<;=",
"=>4652,;;,<<:->30q7652>=$#@@@#$*>,-==&%%=,<<:-====-*%##$&=:<1<;==>5wy8,=&&*=>,;==;<7w94-%%&-164,=$#@###$=,5q96751:-,5652>-:<<,;=",
"=;<>;>,;=---*&*:47641:=&$#$%%&*;,1<;&##$&=:<>-==&&=*%$#$&=:<45>==;<6q5<<>-*&*--*&=<9yt8:@.$,48q8>*%%&%%%*,506288,==:<:;,,-=--=*%",
"%*=-->,;====*&*:4511<:=&%%&====;,<<;&##$&=:<1,;=&&===&%%&=:<45,===->11<:=&*=-=&%%=,464,=%%=<0uiw,&&-,:=&&=:11154:*&*--;,,-==-=&&",
"%&=:<<,;=====-=;<1135<=&%%*=====-:,>=&%%&=:<1<:-=*&*=&%%&=:<45,===-<53<<>-;,:=&&==-><:=&%%-<4773-%&;,:=&&=,56674:*&*-><<,-====--",
"%&=><:-====-:<<<<<<363,=%%*===&*>,-*&$#$=><1453,;*&%%$#$&==-152,;==>11<1,-=--=&&=;,35>%##%-<463,*%%*=*%%&=,677003:&&->,;=====-><",
"%=,1<:====:,:-><<>;<53,=%%&=*&%*,,-==*%%&=:<4774:*&&%$#$=>>->11,-=-<53<<,-====&&*;<45>%##%-<463>*%%*=*%%=>3676752:*-<1<;===->,:-",
"%;475,=&&=:<:-=;,<<35<=&$#$%%&*;,,-:,-%##%-<0t051<,:=&%%&=:<45,=&&=<63<<,-====&%%=<46<=&%%-<463,*&=:,:=&&=<6763<;*&>574>*&&=><:=",
"%;4763,=&=:<:==:44135<=&$#@#$&:<<<<1<-%##%-<111,;--*%$#$&=;<45:&=--15311,-====&%%;4ey4=&%%-<4708>==--==&=>367674:*&>6752:*&=><:=",
"=;<1<1,=&=:,:==:451464,=$#@#$&:<<253,=%%&=:<1<:-===*%##$&==-14:*>3652111,;-===&%%;4ey4=&%%-<4674:====*&*=-,57673-&=:<1<<>*&=>,;=",
"=:<>-====----==;<36wyq3-$#@@$%*----=&$#$&=:<1<;======&%%&==--;,150ypy714651-&&*=&=<7q2=&%%-<111,;==--==&&=,5763,-==><:-====----=",
"=>41-&&*;,35<-=:48qty8,=$#+O+#%&=-===&%%&=:<1<:=&&=--*%##%-<366660upiq51<<:&*===&&-4q5>*%%*-><:=&&=:,:=&&=,57673-&=<4<=&&=;<34>=",
"=;<1<:=&&=<53137008773,=$#+O+#$&=-===&%%&=:<44>=&%&;,-%##%-<452<<6yddq<=&&&&*=*%%;40q2=&%%-,1,-%%&=><-&%=,114674:==:<1,;*&&-152<",
"=;<1<:=&&=,53,;;<5qyt4=&%#+O+#$*>>-*&$#$&=:<1<:=&%%*=*%%&=--;-*&=3yaiw4:*&*=-=*&*>5002=&%%-,1<-*=;,<,-%%=,367674:==:<1,;*&&-152<",
"%;44<;=&&=:<;&%-39q06,=&$#@@#%*=--===&%%&=,5752>*$#$%$#$&=:<44;*>7ypit9,;<1<<,;--:<45>%##%*->2902>-*&$#$=,5q9673-%&>53,;*&&=><-&",
"%-<>-*&%&=:,;&*:45245,=&%#+O+#%=>>-*%$#$&=,575,=&$#@@+O@#%:575;*>7ypy7148q71<<<146776,=&%%&-3esu1*&$@@#$=,366673-%%;<:=&&%&=>,-&",
"%=,>-==&%&*-:,<154135<=&%#@@$&*;,,-*%##%&=:145,=&%%$@OO+#%-<45>:39w81::376<*%&*:4qye73,=#.O-8ut8;$#+O+#$&=:<1253-%%-,:==*&%&*-><",
"%&=-====*&&==->1111363,=$#@@$%%=,,-*%%%%&=,5762>*&=&#@@@#%*-><<<13641<153:*&%%%-3quyq2=&+ X,qy8,*$#@@@#$&=,56674:*&*--====*&*=--"
};
