/* XPM */
static const char *wall21_3[] = {
/* columns rows colors chars-per-pixel */
"128 128 198 2 ",
"   c #000007",
".  c #0D0906",
"X  c #000009",
"o  c #0A090E",
"O  c #110B06",
"+  c #130D0C",
"@  c #161104",
"#  c #15120B",
"$  c #1A150C",
"%  c #1E190D",
"&  c #030314",
"*  c #090612",
"=  c #070812",
"-  c #0B0A13",
";  c #01011D",
":  c #0A071A",
">  c #07081C",
",  c #0B0A19",
"<  c #140D15",
"1  c #110B1A",
"2  c #141113",
"3  c #1B1414",
"4  c #1B1419",
"5  c #21170A",
"6  c #241B0D",
"7  c #2A1E0C",
"8  c #221A11",
"9  c #2C1E10",
"0  c #21181E",
"q  c #25200D",
"w  c #2C220E",
"e  c #31240E",
"r  c #2D2411",
"t  c #23221C",
"y  c #2D241C",
"u  c #352513",
"i  c #392615",
"p  c #352A14",
"a  c #3C2C16",
"s  c #33241A",
"d  c #3A2718",
"f  c #34291B",
"g  c #3E2C19",
"h  c #3E3017",
"j  c #36331C",
"k  c #3E3119",
"l  c #3F381D",
"z  c #000023",
"x  c #080623",
"c  c #070823",
"v  c #0C0924",
"b  c #00002C",
"n  c #08062A",
"m  c #070828",
"M  c #0C0A2C",
"N  c #110C23",
"B  c #130D2C",
"V  c #171225",
"C  c #1C1426",
"Z  c #15112A",
"A  c #1C142A",
"S  c #000033",
"D  c #080632",
"F  c #0D0931",
"G  c #00003C",
"H  c #08063E",
"J  c #0D0A3C",
"K  c #110C34",
"L  c #150F3B",
"P  c #161135",
"I  c #1E1A30",
"U  c #15103B",
"Y  c #201722",
"T  c #251B25",
"R  c #281D2D",
"E  c #241932",
"W  c #22173B",
"Q  c #291E3A",
"!  c #2E2123",
"~  c #2E2821",
"^  c #342524",
"/  c #392727",
"(  c #372A21",
")  c #3A2B25",
"_  c #33252C",
"`  c #3A2C2A",
"'  c #262031",
"]  c #2B203D",
"[  c #322433",
"{  c #362833",
"}  c #3B2C34",
"|  c #36263A",
" . c #37283B",
".. c #3C2C3C",
"X. c #3F3134",
"o. c #363837",
"O. c #3F303A",
"+. c #383A38",
"@. c #402F17",
"#. c #412E1A",
"$. c #432F1D",
"%. c #413017",
"&. c #483316",
"*. c #42311A",
"=. c #43321A",
"-. c #46341A",
";. c #42311C",
":. c #45331E",
">. c #49351B",
",. c #49361C",
"<. c #4A361D",
"1. c #42391F",
"2. c #4C391E",
"3. c #503C1F",
"4. c #463321",
"5. c #4A3622",
"6. c #4A3821",
"7. c #4D3924",
"8. c #43332C",
"9. c #49372A",
"0. c #4E3A29",
"q. c #513D25",
"w. c #513D2A",
"e. c #433334",
"r. c #4C3930",
"t. c #42323A",
"y. c #48373D",
"u. c #49383C",
"i. c #554124",
"p. c #5A4527",
"a. c #55412B",
"s. c #59442A",
"d. c #554130",
"f. c #5A4531",
"g. c #5E4A33",
"h. c #000044",
"j. c #020245",
"k. c #000047",
"l. c #080647",
"z. c #0D0A43",
"x. c #00004B",
"c. c #0A064A",
"v. c #0D0A4B",
"b. c #120E42",
"n. c #130E4B",
"m. c #161043",
"M. c #1E1647",
"N. c #15104C",
"B. c #1E194B",
"V. c #000053",
"C. c #090753",
"Z. c #01015A",
"A. c #00005B",
"S. c #0A075B",
"D. c #0C0958",
"F. c #130E54",
"G. c #130E5B",
"H. c #161153",
"J. c #16115E",
"K. c #1A115A",
"L. c #241A44",
"P. c #2B1F4A",
"I. c #261C50",
"U. c #291E52",
"Y. c #21185E",
"T. c #2B2045",
"R. c #2D214C",
"E. c #3D2E41",
"W. c #30244E",
"Q. c #372B4E",
"!. c #3F3043",
"~. c #2C2255",
"^. c #322651",
"/. c #362A53",
"(. c #392D55",
"). c #000064",
"_. c #00006B",
"`. c #080669",
"'. c #0D096A",
"]. c #130E62",
"[. c #130E6D",
"{. c #161161",
"}. c #15116C",
"|. c #18126E",
" X c #000074",
".X c #000076",
"XX c #080672",
"oX c #03037C",
"OX c #0E0B78",
"+X c #120D71",
"@X c #151071",
"#X c #2C2361",
"$X c #423344",
"%X c #493942",
"&X c #483849",
"*X c #000084",
"=X c #000086",
"-X c #000088",
/* pixels */
"p p p p k -.-.g p p u u p p g g g g g a a *.*.*.-.*.*.*.>.-.a i g g g a @.@.@.%.%.u $ n ).=X=X=X=X=X=X[.[ %.a p u i a a i i a a p p u i g #.g a p p a a p p u u p w # m ).=X=X=X=X=X=X[.} &.i u a @.@.a i i g g g *.*.*.*.*.>.>.-.#.#.#.#.g g #.>.-.a p g #.#.@.",
"p p p p *.:.*.g a p u u p p g #.#.g g g a a -.-.*.g g *.*.%.a i p g a a a a a @.a u # c A. X X X X X XG.{ -.a p p p a p i i a a a p i i g #.g a a a a a p u i i p w # c A. X X X X X X].} >.a i a a @.a i i g #.*.*.*.*.#.*.,.,.-.#.#.#.@.a g #.-.-.a p d g a %.",
"a a i p $.4.*.a a a p p u i #.#.#.g g g p a -.-.a i g g a a a a i i a a i i a a i 9 # > k.A.A.A.A.A.A.n.} 6.a p g g i u p p a #.g d p p a g g g a a g g i i g g p r # > k.A.A.A.A.A.A.n.} 7.$.g a @.@.a i i g #.-.>.-.*.g $.5.6.*.a a k h a i p *.*.#.g i i a a ",
"g g a a #.;.#.a a p p p u i p a %.@.a a a a *.%.a p p a a a a p u i #.$.g a @.@.i 9 # : G x.x.k.k.k.k.m.e.q.;.p g g a p p p a #.g p p p *.*.#.#.*.*.g p p p g #.a r # : G x.x.k.k.k.k.b.} 7.$.a *.-.-.a u u a *.-.,.:.:.;.:.,.,.k a h *.*.*.a a #.g g p i a a a ",
"g g g a *.#.#.g i u p p u u p p a p u i g a p p p p p p a p r w u i g $.g d a p u 7 # , b G G G G G G L } 9.$.i u i d i r r i d i u u i a g a a a a p p p p d d a r # , b G G G G G G L ` 4.d i g *.*.a r r p a k *.;.;.*.*.>.-.a p k *.*.*.*.*.*.a p p g g g a ",
"#.#.#.*.-.-.*.g g a p p p p p r w 6 6 6 5 8 % % % % % % 6 6 $ $ $ % 8 8 8 5 5 5 % $ + o , c b b b b b n A T 8 6 6 5 5 % $ $ % 5 % % % % 5 5 5 5 5 % % % % % % 8 8 % + o , > b b b b b n V 0 8 6 5 8 8 % $ $ % 5 6 7 9 9 8 r %.-.a h :.,.k g #.:.-.-.g g a a a @.",
"p p i d @.%.@.%.*.k a p a a a r $ + < < - o o o o - , - + + o o o o o - , , , , - - , , - = ; z z z b b z ; - + + + , , - o o - , , - o o o o o o o o - , , - o o o o - , : ; z b b z z z x - + o o o o o - , , < + + + o 2 y ( p p *.*.p r i d g g p i u u p a ",
"$ $ $ $ 5 7 i a a a a g g #.*.p $ , D D z ; ; ; ; b k.k.n ; ; ; ; ; ; z S k.x.k.b z S S z ; ; z z b G G b ; ; : : c S S z ; ; z S S z ; ; ; ; ; ; ; ; z S S z ; ; ; ; z S S z b G G b z S S x ; ; ; ; ; ; z k.x.H b c ; ; m J P 4 5 6 5 $ # $ $ % % $ # # % e p ",
"n n n n M B E _ f a g g g g *.p $ > k.x.S b b b b G A.A.G b b b b b z b x.A.).V.S b x.x.G S S S S G V.V.G S S S S k.A.A.k.S S k.A.A.k.S G S S S S S S G V.V.G b z z b G V.V.G G V.V.k.G V.V.k.S G G G G S x.)._.A.k.b z z S x.k.: O + - , c n n n n n n n M I ' ",
" X X X X_.XXXXJ._ %.%.a p a g u $ > k.x.G S S S S k.).).k.S S S G S z b k.V.A.x.b b x.V.x.x.x.x.x.V.).).V.x.x.V.A.). X X).A.A.). X X).A.).A.V.x.x.x.x.V.).).V.k.b b k.V.).).V.V.).).).). X X).A.).).).).A._. X X_.V.S z z S x.k.& X ; S G V.). X X X_._._. XXXXX",
"=X=X-X-X=X-X-X[. .,.*.a p p g i $ > x.A.x.k.k.k.k.x._._.x.k.k.k.k.k.G k.V.A.A.x.S S x.V.x.k.k.k.k.x.A.A.x.k.k.x.A._._._.A.V.V.A._._.A.x.V.x.k.k.k.G G k.x.x.k.G b b G x.A.A.x.k.x.x.x.V.).).A.V.V.V.V.V.V.A. X X_.V.S z z S x.G & X z G x.).oX-X-X=X=X=X=X=X=X=X",
"=X=X=X=X=X=X=X[...7.:.g i i #.i $ c V.).V.x.k.k.k.V. X XV.k.k.k.x.x.x.V.)._._.V.S S A.A.S z z z z S x.x.S z z S x.V.A.x.S z z S x.x.S b b b b b b b b b b b b z z z z S x.x.S b b b b S k.k.S b b b b z z G A._.A.x.b z z S x.G & X z G x.A. X=X=X=X=X=X=X=X=X=X",
"=X=X=X=X=X=X=X[. .6.,.#.g g #.p $ > x.V.k.S S S S k._._.k.S S S S G G k.V.).).x.S S A.A.S z z z z b k.k.b z z b x.V.V.k.b ; ; S V.V.k.G G G G G G G G G G G G G G G G k.A.V.k.S S S S G k.k.S z z ; ; ; ; S A.).V.k.b ; ; b k.G & X z G x.). X=X=X=X=X=X=X=X=X=X",
"=X=X=X=X=X=X=X[.| ,.,.:.#.g *.p $ > k.x.S b b b z G A.A.G z b b b b z b x.V.V.k.b S A.A.S z z z z b x.x.b z z b k.V.V.k.S z z S V.).V.V.V.V.V.V.x.V.x.x.x.x.V.V.V.x.x.V.).A.x.k.k.k.k.x.V.x.G b z z z z z S A.).V.k.b b b S V.k.& X z G x.). X=X=X=X=X=X=X=X=X=X",
"=X=X=X=X=X-X-X'.| 5.5.:.a a *.p 5 , k.V.x.k.k.k.k.x.V.V.x.k.k.x.V.k.b b k.V.V.k.b S A.A.S z z z z b x.x.b z z z b G x.x.b z z S x.A.V.x.x.x.k.k.k.k.k.k.k.k.k.k.k.k.k.x.V.V.G b b S S G x.x.G S z z z z z S A.).V.x.k.x.V.A. XA.;   z G x.). X=X=X=X=X=X=X=X=X=X",
"[.+X+X+X@X@X@XY.} 5.5.;.p p #.i 5 - G x.x.x.V.V.x.x.V.V.x.x.x.V.).V.S b k.V.V.k.b S V.V.S z z z z b x.k.b z z z z b k.x.b z z b k.V.x.k.k.k.G G G G G G G G G G G G G k.V.x.b z z z b S k.x.k.S b z z z z S A._.A.V.x.x.V.). XA.v + N F b.F.].+X+X+X[.[.+X+X+X+X",
"..t.$X&X&X&X%Xu.0.7.6.-.p i g i $ - z b b G x.x.S S x.x.S b b G V.x.b b k.V.V.k.b b k.k.b z z z z b k.k.b z z z z b k.k.b z z b k.V.x.k.G G k.k.k.k.k.k.k.k.k.k.k.k.k.x.A.V.S z z z z b k.x.k.G b z z z z S A._._.A.G b S G V.F.[ 8.) ` } } ..$X$X$X} } ....$X$X",
"2.7.q.a.s.s.i.q.5.5.,.-.a d g s $ = ; z z b x.k.b b k.x.b ; ; b x.V.k.k.A.).A.V.k.G k.k.k.G G G G k.A.A.k.G G G G k.A.A.k.G G k.V.A.V.x.k.k.x.x.x.x.x.x.V.V.x.x.V.V.x.V.).A.k.S k.k.k.x.V.A.A.x.k.G S S S k.). X X).S ; ; b k.n.t.q.5.:.4.6.6.7.q.q.:.:.5.7.q.q.",
"$.$.:.,.2.,.:.#.a g :.:.#.g #.s $ = ; z z b x.x.b b x.x.S z z S A._.)._. X X_.).).A.V.V.A.).).).)._. X X_.).).).)._. X X_.).).).).).V.V.x.V.V.V.V.V.V.V.).).V.V.).).V.A.).).V.V._. X X X X X_.).).A.V.x.x.A. X=X=X_.G z z b x.n.} 7.:.a a a g $.5.4.g i g :.,.2.",
"p a ;.:.>.>.#.a a g ;.;.g a g s $ = ; z z b x.x.b b x.x.S z z S V.A.V.x.V.V.V.V.x.x.x.x.x.V.A.).)._._.).V.x.x.x.x.V.).).V.x.x.V.A.A.k.G G G G k.x.x.k.k.A.A.k.k.A.A.k.k.V.V.k.x.). X X X_.).V.x.x.x.V.V.x.A. X=XoX).S z z b x.n.O.0.*.a p p g $.4.4.g p p g -.>.",
"p a ;.5.,.>.*.#.#.*.*.k p p g s $ = ; z z b x.k.b b x.x.b z z S x.x.S z b b G G b b G G b S x.V.V.V.V.k.S z z z z S x.x.S b b S x.x.S b b b z S x.x.S S x.x.S S x.x.S S x.x.S S x.A._.).V.k.b z z S x.V.x.V. XoX XA.S z z b x.N.t.0.k p d g g $.4.4.*.a p a *.-.",
"a a $.;.:.-.*.*.*.*.*.#.g d g s $ = ; z z b k.k.b b k.x.b ; ; b k.x.S b S k.k.k.k.k.k.k.G G x.x.G S S b z z z z z S V.A.V.x.x.V.A.A.x.G G G G x.A.A.k.k.A.A.k.k.A.A.k.k.A.V.S S k.A.).).V.k.b ; ; b k.V.x.V._. X_.A.S ; z b x.n.O.7.g u p p p g :.:.*.a a g k *.",
"a a g #.*.*.*.*.h g #.$.#.g #.u $ = z b b S x.x.S S x.x.S b b S x.x.G S k.V.V.V.V.V.V.x.x.x.V.x.S z z z z z z z b G A.).).).).)._.).V.x.x.x.x.V.).).V.V.).).V.V.).A.x.x.A.A.G S x.A.).).A.x.b z z b x.V.V.A.)._._.A.G b b S x.n.} 5.g i p p p a -.>.*.g g g a a ",
"i i g g #.*.*.a a a ;.:.#.g #.u $ : G x.k.x.A.A.x.x.V.V.x.k.k.V.A.A.k.G G k.x.x.k.k.x.x.x.V.).A.G z z z z z z z z S x.V.k.G k.V.).).x.k.k.k.k.x.).).x.x.).).x.x.V.x.S S V.x.S b k.A.)._._.V.S z z b x.V.V.A.)._._.).V.k.k.V.A.F.} 7.$.g g p p a ,.,.;.g g a p i ",
"u i g g g g a a p a :.:.*.g #.u $ : G k.k.x.A.A.x.k.k.k.k.k.k.x.A.A.k.G G G k.G S S G k.G k.A.A.k.S S S S S S S S G V.x.b z b k.A.A.k.S S S S k.A.A.G G A.A.G G x.k.b b k.k.b b k.A.)._._.V.S z z b k.V.V.A.)._._.).V.k.k.x.A.F...7.:.g g g p g :.5.$.g g a i u ",
"p p g g g g p p d #.,.,.#.#.#.u $ = z b b S x.x.S b b b b b b S x.x.G S G G G S b b S G b S x.V.V.x.x.x.x.x.x.x.x.V.).V.S z z S x.x.S z z z z S x.x.S S x.x.S S x.k.b b k.k.b b k.A.)._.A.x.b z z b k.V.V.A.)._._.A.G b b S x.n.} 7.:.g g g g g ;.:.#.#.*.g i u ",
"p p g g g p p p p #.,.,.:.#.#.u # : S G G x.A.A.x.G G G S S S G V.V.G S G k.x.k.G G G k.S G k.x.k.G G G G G G G G x.A.V.S ; ; b k.k.b ; z z z b k.k.b b k.k.b b k.x.b b x.x.b b k.A.).).A.k.b z z b x.V.V.A.)._._.A.S ; ; b k.n.} 7.4.$.a a p g #.*.-.-.*.*.g a ",
"u i a a p p u u p a ,.7.:.*.*.u # c V._.)._. X X_.).).).V.x.x.V.).A.x.k.x.A.).).V.V.V.V.V.x.x.k.S z b b b b b b b S x.x.S z z S x.x.S z z z z S x.x.b b x.x.S S x.x.b b x.x.b b k.A.).).A.k.b z z b x.V.V.A.)._._.A.S z z b x.n.} 7.5.;.a p u i a *.>.>.-.*.*.*.",
"u u p p u i i i p a 6.7.5.:.*.u # c A. X X X X X_.)._._.).).)._. X X).A.A.)._._.).).).).).A.V.x.k.G k.x.x.x.x.x.x.x.A.A.k.G G x.).).x.G G G G k.A.A.k.k.A.A.k.k.x.k.b b k.k.b b k.A.).).A.k.b z ; b k.V.V.V.A.)._.A.S ; ; b k.n.} 5.5.;.p p p p a #.-.-.-.*.k a ",
"p p i i u i g g p a ,.7.5.4.*.u $ > x.).).)._.).V.V.A.).).).)._. X X_.).).).).).).).).).).).V.x.x.V.).).).).).).).).).A.V.x.x.A. X XA.x.x.x.x.V.).).V.V.).).V.x.V.k.b b x.x.b b k.A.).).A.x.S z z S x.V.V.V.V.A._.A.G b b S x.n.{ 5.:.k p p p p g g g #.;.*.a p ",
"a a g i i i g g a k ,.,.:.:.*.p $ - b G G k.V.V.G S G G G G G k.A.A.k.G G k.V.V.k.G G G x.k.G S S G V.V.k.G G k.V.V.k.G S S S k.A.A.k.S S S S G V.V.G G V.V.G G x.x.b S V.V.S b k.A.)._.).A.x.k.k.x.A.).).).)._. X XA.V.V.A.).F.} 5.k a a p i i g g g #.:.:.k k ",
"*.*.#.g i i g g g *.-.>.-.-.-.p 5 o ; z z b x.x.b z z z z z z b k.k.b z z b x.x.b z z z S S b z z b x.x.b z z b x.x.b z z z z b x.x.b z z z z b x.k.b b x.x.b b x.x.b S A.A.S b k.A.)._._.A.V.x.x.x.V.A.A.A.A.). X X).A.A.).).G...6.a p g g i i g g g *.4.4.;.*.",
"7.,.:.k p p a a a *.*.-.-.-.>.a % - ; z z b x.x.b z z z z z z b x.x.b z ; b x.x.b z z b S S b z z b x.x.b z z b x.x.b z z z z b k.k.b z z z z b x.x.b b k.k.b b x.k.b S A.A.S b k.A.)._.A.x.S b b b S S S S S k.).).k.S S G V.n.} 5.a i g g g g g #.*.*.:.*.*.%.",
"6.5.:.*.a a *.*.*.*.*.:.:.,.,.a % - ; z z b x.x.b z z z z z z b x.x.b z ; b k.x.b z z b S S b z z b x.x.b z z b x.x.G S S S S G V.V.G S S S S G x.x.b b x.x.b b k.k.b S A.A.S b k.A.)._.).V.G S S S S S S S S k.A.A.k.S b G V.F.} 7.$.g g g g g $.;.*.*.*.*.%.a ",
"$.#.*.*.a g ;.:.;.*.*.;.4.4.:.p 5 + ; z z b x.x.b z z z z z z b x.x.S z z S x.x.S z z b S S b z z b x.x.b z z b x.V.x.x.x.x.x.V.).).V.x.x.x.x.x.V.k.b b x.k.b b k.k.b S A.A.S b k.A.)._._.).V.x.x.V.A.A.V.x.x.V.).).V.x.x.V.).G...7.5.$.$.g p a ;.4.*.a a a a a ",
"6 6 r w 6 7 r u r w w u u u u 7 $ + ; z z S V.V.S z z z z z z b x.x.k.G G k.V.V.k.G G k.x.x.k.G G k.x.k.b z z b x.x.k.G G G G k.A.A.k.G G G G k.x.k.b b k.k.b b k.k.b S A.A.S b k.A. X X).V.k.G G x.A.A.x.G G x.).).x.G G k.A.F...7.;.a g p r 7 r u w 6 6 w i @.",
"- - - - - - < < - - < # # + + + + + ; z z S A.A.G z z z z z z b x.V.V.x.x.V.).).V.x.x.V.).).V.x.x.x.V.x.b z z S x.x.S z b b z S x.x.S z z z z S x.x.S b k.k.b S x.x.b S A.A.S b k.A. X X).x.S z z S x.x.S z z S A.A.S z z S x.n.} 5.p u a i 5 + # < - , , 4 s ) ",
"V.V.V.V.V.V.C.C.C.x.l.H D n x : * * ; z z S A.).x.G b z z z z b x.x.G S S k.V.V.k.S S G x.x.G S S G x.x.b z z S V.A.x.k.k.k.k.k.x.k.b ; z z z b x.V.k.k.x.x.k.x.A.V.S S A.A.S b k.A._. X_.V.S ; z b k.k.b ; ; S A.A.S ; ; b k.n.} 5.a p a i $ , H C.V.V.V.C.G.K.",
"=X=X=X=X=X=X=X=X=XoX X).V.k.S b ; ; ; z z S A.).A.k.b z z z z b x.x.b z z b x.x.b z z b S S b z z b x.x.b z z S V.).V.x.x.x.x.x.V.x.S z z z z b x.V.x.x.x.x.x.V.).V.S S A.A.S b k.A.)._._.V.S z z S x.x.S z z S A.A.S z z b x.n.} 6.h p g i $ v ).=X=X=X=X=X=X=X",
"=X=X=X=X=X=X=X=X=X=X X).V.k.S b ; ; ; z z S A.).A.k.b z z z z b k.k.b ; ; b k.k.b z z z S S z ; ; b k.k.b ; ; b x.V.G b b b b G A.A.k.S b z ; b x.x.G b b b b G V.x.b S A.A.S b k.A.).).A.k.b z ; S V.A.x.G b S A.A.S ; ; b x.n.} 6.h p g i $ v ).-X=X=X=X=X=X=X",
"=X=X=X=X=X=X=X=X=XoX X).V.k.S b ; ; b S b k.)._.).x.G S S S S k.A.A.k.S S k.A.V.G b b S k.k.S S b G V.A.k.G G k.V.V.G S S S S k.)._.A.x.G S S G x.x.G S S S S G x.x.G k.).).k.G x.A._.).A.x.G b b G A._.A.x.G G A.).k.S S G V.F.} 6.k p g i 5 N ).=X=X=X=X=X*X*X",
"=X=X=X=X=X=X=X=X=XoX X).V.k.S z ; z G x.x.A. X X_.).V.V.A.).A.). X X).A.A._. X XV.x.x.V.A.A.V.x.x.V. X X).)._. X_.).).A.A.A.A._. X X_.A.V.V.A.A.V.V.x.V.A.).).A.V.V.A._. X XA.x.V.A.)._.).A.V.x.x.V.).).A.V.x.V.)._.).A.x.V.).G...7.;.g g i 5 N ).=X=X=X=X=X=X=X",
"=X=X=X=X=X=X=X=X=X=X X).V.k.S b ; z S k.k.V._. X).V.x.k.x.V.V.A._._.A.V.V.). X_.x.k.x.A.).A.x.k.k.V._. XA.A._._.A.x.V.V.V.x.x.A._._.A.x.k.x.).).x.G k.x.A.).).A.x.k.V.)._.).x.k.G k.x.V.A.V.x.k.k.x.A.A.x.G k.x.A.).).).V.V.A.F.} 7.:.#.#.p w A '.-X=X=X=X=X=X=X",
"oXoXoXoXoXoXoXoX=X X_.).x.G S z ; ; z z z G A.).V.k.b z z b z S x.x.S b S k.).A.G S x.V.V.x.S z z G A.A.G S x.x.S z b b b b b S x.x.S z z G A.A.G z z S x.V.V.x.S b G k.V.x.S z z z z S k.k.b z z S x.x.S z z S x.V.V.x.x.x.V.n.} 7.:.*.#.%.%.[ ].=X=XoX=XoXoXoX",
"I.U.~.~.U.I.I.I.U.~.R.T.] Q R Y < * ; ; ; S A.).V.k.b ; ; ; ; b k.x.S b S k.A.A.k.k.x.V.V.k.b ; ; S A.A.S b k.k.b ; ; z S G G k.V.V.k.S z S A.A.S ; ; b k.V.V.k.b z S k.x.k.b ; z z ; b G G b ; ; b k.k.b ; ; b k.x.G S S G x.n.} 7.,.-.*.-.>.) Q B.I.~.^.^.~.U.",
"4.5.w.w.9.4.4.4.5.7.0.0.0.9.5.d 5 < x b b G A._.A.x.S b b b b S x.x.k.G G k.).).A.V.x.V.V.x.S z z S A.A.S b x.x.S b b S x.V.V.A.).).A.x.S G A.A.S z z b x.V.V.k.b z S k.V.x.S z z z z b k.k.S b z S x.x.S z z S x.x.S z b S x.n.} q.2.>.-.-.>.-.a a 4.q.a.a.q.0.",
"a *.2.q.6.5.:.-.*.*.:.,.4.4.,.a 5 1 k.V.V.A. X X_.).A.V.V.V.V.V.V.x.k.G G k.A.).A.x.G G A.V.S z ; S A.A.S S V.).A.V.V.A.).).A.A.)._._.).A.A. X).G z z b x.V.V.k.b z S k.A.V.G b S S S G x.V.V.V.x.x.V.V.x.k.k.x.A.A.x.k.k.V._.]...7.5.:.*.*.-.-.h h :.7.i.i.7.5.",
"p a -.-.:.;.;.g p p k *.#.g *.p 5 1 k.A.A.). X X).A.A.A.A.A.A.A.V.x.k.G G k.A.).A.x.S G A.A.S z b G A.V.S S A._.).A.A.A.A.V.x.x.A.).A.A.A.). X_.G z z b G x.V.k.b z S x.).).k.S S S S G x.V.A.A.x.x.x.x.x.x.x.V.).).V.x.x.A. X[...7.5.:.*.%.*.*.*.*.*.-.2.2.5.4.",
"g g #.k a a g g p p k *.#.g a r $ < n S S k.).).k.S S S S S S G x.x.k.G G k.).).A.V.x.V.).A.S b G x.V.x.b S A.A.k.S S S S b b S x.x.G S S k.).A.S z z z b S x.x.b z S k.).).V.k.S z z S x.x.G S b b b b b b b G x.x.G b b G ).]...7.,.*.*.%.k *.*.*.*.*.>.,.:.$.",
"g g g a p p g g p p g #.g a a r $ o ; ; ; S A.A.S ; ; ; ; ; ; b k.x.k.G G k.).).A.V.V.A.).A.k.G x.V.V.x.k.x._._.x.G G G G G G k.A.A.G b b k.A.A.k.S S S S G V.x.S z S k.).).A.k.b ; ; b k.k.b ; ; ; z z z ; ; b k.k.b ; ; S A.G...7.:.*.a a g g k k a h -.>.-.#.",
"i i g g p p a a i i g g p a g i $ - ; z z S A.A.S z z z z z z b x.x.k.G G k.).).A.V.V.A.).).V.x.V.V.V.V.A._. X X_.).).).).).)._. X XA.x.x.V.).).V.x.x.x.x.V.).A.S z S x.).).V.G b z z b k.k.b z z z z z z z z S x.x.b z z S A.G...7.:.k a p g g p p p a -.>.-.#.",
"p a g g a a g a p p g g p p g i $ : G k.k.V._._.V.k.k.k.k.k.k.x.A.V.k.G G x.).).x.k.x.A.).).x.G G G G k.x.A._._.V.x.x.x.x.x.x.x.V.V.k.G G x.).).x.G G G G x.).A.G S S x.).).V.x.x.k.k.x.V.V.x.k.k.k.k.k.k.k.k.x.).A.S z z S A.G...7.:.*.a p p a a a a a -.-.-.*.",
"a #.#.#.#.a g g p p a a i i a u $ c x.).)._. X X_.).).).).).).).).A.k.G G k.A.A.S b k.A.).A.S z z z z z z G A.A.G b b b b b b b b b b b z G A.A.G z z z z G A.).k.S G k.A.).V.V.A.).).)._._.).).).).).).).).)._. X_.G z z S A.G...7.:.*.g d p a ;.:.#.g #.-.*.*.",
"a *.*.*.*.g g g p p p p u i #.p $ - D k.k.x._._.x.k.k.k.k.k.k.x.V.V.k.G S G V.x.b b k.V.A.x.S z z z z z ; S A.).V.x.x.x.x.x.x.x.x.x.V.x.k.x.).A.G b S S b k.A.A.k.S b G V.V.k.G G k.k.x.)._.).).).).).).).).).). X_.x.S z S V.H.t.i.,.*.a i p a :.:.a a -.-.*.*.",
"a *.*.*.*.#.g g p p p p u i *.p 5 o ; z z S A.V.S z z z z z z b x.x.k.S b S x.k.b b k.V.V.k.b z z z z z z S A._.).).).).A.A.A.A.).).).A.x.V.).A.k.S S S S k.).A.G b z b x.x.b z z z z S A.).V.x.x.x.x.x.x.x.x.V.).A.x.G b b x.N.e.i.,.a i u p a -.-.a a -.-.*.a ",
"a #.*.:.:.;.#.g g p u r u i @.p $ o ; z ; b x.x.b ; ; z z ; ; b k.x.k.S b S k.k.b b k.V.V.k.b z z z z z ; S A.A.k.S S S S S S S S S S S S G A.A.G z b b b k.A.A.S z z b k.k.b z z ; ; S A.A.G b b b b b b b b G x.x.G b z b k.N.t.a.*.p p p p p *.-.#.#.#.#.#.a ",
"*.-.-.:.4.:.*.g g p p u u i a u # : b G S k.V.V.k.S S S S S S G V.A.x.G S G V.A.k.k.V.).).V.k.S G G G S S k.).).k.S S S S S S S S S S b b k.).).k.b b S G x.).A.G b b G V.V.G S S S S k.).).k.b b S S S S b b G x.x.G b b G V.H.y.a.k p p p p p g #.*.#.#.g a a ",
"7.7.,.>.:.$.#.g a p g g i u u 9 # > x.).).). X X).A.V.x.x.x.x.A. X XA.x.x.V. X X).). XoXoX X).A.).).).).A._. X X_.A.A.A.A.A.A.).).A.V.x.x.A. X XA.x.x.V.A.)._.).V.x.x.A. X XA.x.x.x.x.A. X XA.x.x.V.A.A.V.x.x.V.).).V.x.x.V.).J.&Xa.k p a a p p g #.*.#.g a p p ",
"7.7.,.>.-.-.-.*.a a *.*.a i u w # : k.V.V.A._._.A.x.k.k.k.k.k.x.).).x.G k.x.)._.A.V.A.)._._.A.x.x.V.A.A.V.A._._.A.V.V.A._._.A.V.V.V.x.x.k.V.).).x.k.k.k.V.V.V.x.k.k.k.x.).).x.k.k.k.k.V._._.V.G k.x.A.A.x.k.k.x.)._.A.V.V.A._.}.&Xa.;.p a a p p g #.#.a a a a p ",
"4.4.:.-.>.>.-.*.k a a g g g p r # = z b b S x.x.S z z z z z z S x.x.S z z S x.x.S b b S x.x.S b b S x.x.S S x.x.S z z G A.A.G b S S G G S G x.x.S z z b S S b b z z z S x.x.S z z z z G A.A.G z z S x.x.S z z S A.).A.x.k.V. X}.$Xw.4.d p p u i g g g a p p g g ",
";.;.*.-.>.>.-.#.#.a a p p d f t # - ; z z b k.k.b ; ; ; ; ; ; b k.k.b ; ; b x.V.G S S k.V.V.k.G G k.V.V.b b k.k.b ; ; S A.A.G S G h.k.k.G G x.k.b ; ; z z z z ; ; ; ; b k.k.b z b b z S A.A.S ; ; b k.k.b ; ; S V.V.k.S S k.A.J.$Xq.;.p p p p p p a g g d a #.;.",
"a #.*.-.>.>.#.g #.a a p u s ~ t 2 - ; z z b x.x.S z b b b b b S x.x.S b b G A.).V.x.V.A.).).A.V.V.A.).A.S b k.x.b z z S A.).k.G x.V.V.x.k.k.V.x.S b b b b b b b b b b S x.x.b b S S z S A.A.S z z S x.x.S z z b x.x.S z z S x.N.t.q.k p p p g g p p g g g #.*.*.",
"#.#.>.,.,.-.*.*.*.*.;.;.g g g y # = ; z z b x.V.x.k.k.x.V.V.V.A._._.A.V.V.). X X_.A.A.A.)._.A.V.V.A._.A.S b k.x.b z z S A.).k.k.x.V.V.x.k.k.A.).A.V.V.V.V.V.V.V.V.V.V.A.).V.S b S S b S x.V.S z z S V.V.S z z b k.k.S b b G x.N.y.a.k p p p g #.g a a g *.*.a a ",
"i i a a a p p p p d g g p p p r # = ; z z b k.V.x.x.x.x.A.A.A.). X X).A.A.). X X).V.x.V.A.A.x.k.k.V.).V.S b k.x.b z z S A.).k.G x.V.V.V.k.k.A.).).).).).).).).).A.A.A.)._.A.S z S S z b G G b z z S A.A.S z z b k.k.S b S k.V.n.} 4.p r r r i i i p r r p p p p ",
"# $ $ 5 5 $ $ # # $ $ 5 5 $ $ # . - ; z z b x.x.S b b b S S S G x.x.G S S G V.V.G b b S x.x.S b b G x.x.b b k.x.b z z S A.A.G G x.A.).A.k.k.V.V.V.V.V.A.A.V.V.x.G S S k.A.A.S z S S b z b b z z z S A.A.S z z b k.k.b b S k.A.C.C 5 $ # # # $ 5 5 $ # # # 5 i g ",
"D D F F F F D D D D M v , , : * * * ; z b G V.V.G S S S G S S G x.x.G S S G V.V.G S S G V.V.G S S G V.V.G G V.V.G S S k.).).x.k.x.A._.).V.V.V.V.x.x.V.V.A.V.x.k.G S S k.).).k.G k.x.G G k.k.G G G x._.).k.S S G V.V.G S G x.).V.> . * : c m M F F F D D D F W Q ",
" X X X X X X X X X X).A.k.G S z ; ; ; b k.V.).).V.x.x.V.A.A.V.V.).).V.x.x.A. X XA.x.x.V.).).V.x.x.V.).).V.V.).).V.x.x.A. X XA.x.V.A.)._.).).).).V.V.V.A.).).V.x.x.x.x.A. X XA.V.A.).)._. X X).).)._. X XA.x.x.V.).).V.x.x.V.).V.; X ; S k.V._. X X X X X X XXXXX",
"=X=X=X=X=X=X=X=X-X=X X).V.k.S b ; ; z b S k.A.A.k.G G x.A.A.k.k.A.A.k.G G x._._.x.G G x.A.A.k.G G k.A.A.k.k.A.A.k.G G x._._.x.k.x.V.V.V.x.V.A.A.k.G G k.A.A.k.G G G G x. X X).A.)._. X X X).V.x.A.). X_.x.G G k.A.A.k.G G k.A.x.& X z G x.).oX-X-X=X=X=X=X=X=X=X",
"=X=X=X=X=X=X=X=X=XoX X).V.k.S b ; ; ; z z S x.x.S z z S x.x.S S x.x.S z z S A.A.S z z S x.x.S z z S x.x.S S x.x.S z z S A.A.S b k.x.k.S b S x.x.S z z S x.x.S z z z z k._. XA.V.)._.).).A.x.S b G V.).A.S z z S x.x.S z z S x.k.& X z G x.A. X=X=X=X=X=X=X=X=X=X",
"=X=X=X=X=X=X=X=X=XoX X).V.k.S b ; ; ; z z b k.k.b z z b k.k.b b k.x.b ; ; S A.A.S ; z b k.k.b ; ; b k.k.b b k.k.b ; ; S A.A.S b k.x.k.S z b k.x.b z ; S V.A.x.G G G G V. X Xx.G V.V.k.k.A.V.S b G V.).A.S z z S V.A.k.S G k.A.x.& X z G x.A. X=X*X*X=X=X=X=X=X=X",
"=X*X=X=X=X=X=X=X=XoX X).V.k.S b ; ; ; z z S x.x.S z z S x.x.b b x.x.b z z S A.A.S z z S x.x.S z z S x.x.S S x.x.S z z S A.A.S b k.x.k.S z b x.x.b z z S V.).V.x.x.x.x.A. X_.G b k.k.b S A.A.S b G V.).A.S z b G A.A.x.G k.x.).x.&   z G x.). X=X=X*X=X=X=X=X=X=X",
"=X=X=X=X=X=X=X=X=XoX X).V.k.S b ; ; ; z z S V.V.S ; ; S V.V.S b k.x.b z z S x.x.S ; ; S V.A.k.S S k.A.A.G G A.A.k.b z S A.A.S b k.x.k.S z b k.x.b z z S x.V.G b b b b k.).A.S b k.k.b S A.A.S b G V.).A.S z S k.V.x.S b b G V.k.&   z G x.). X=X=X=X=X=X=X=X=X=X",
"}.}.}.}.}.}.[.[.}.}.J.H.m.U P N : ; b S S k.).).k.b b k.).).k.G V.V.G b b G V.V.G b b k.)._.x.k.k.V.).).x.x.).).x.G S G A.A.G G x.V.x.k.S G V.V.G b b G V.V.G b b b b k.).).k.G V.V.G G A.A.G S x.A._.).k.S G x.V.x.G b b G V.l.1 2 V P m.H.{.}.}.|.|.|.|.}.}.}.",
"t.t.t.t.t.t.} } o.+.X.e.e.8.8.( 3 , G x.x.A. X XA.x.x.A. X XA.V.).).V.x.x.V.).).V.x.x.A. X XA.V.A.)._.).V.V.).).V.x.x.x.V.V.x.V.).).).A.V.V.).).V.x.x.V.).).V.x.x.x.x.A. X XA.V.).).V.V.).).V.V.A._. X XA.x.x.V.).).V.x.x.V.).G. .9.9.e.e.e.e.t.y.%X%X%X%Xy.y.y.",
":.,.7.7.7.,.-.*.l 1.1.6.7.q.7.g 5 - S k.k.x._._.V.G G V._._.x.x.A.A.x.x.V.A.A.A.V.x.k.V._._.x.k.V.A.).A.x.x.A.A.x.k.k.k.G G k.x.A.).A.V.x.x.A.A.x.k.k.x.A.A.x.k.k.k.G x._._.x.x.A.A.x.x.).).x.k.V.). X_.V.k.k.x.A.A.x.k.k.x.A.H.t.a.w.q.7.7.7.q.a.a.a.w.q.q.q.q.",
"p a ;.4.$.g i i i p p a -.,.:.p $ - z b z G A.A.G z z G A.A.S S x.x.S S A.).V.k.k.S b G A.A.G b S k.V.x.S S x.x.S z z b b z z S x.V.k.G S G x.x.G b b S x.x.S z b z z G A.A.S S x.x.S S A.A.S b G V.).A.G z z S x.x.G b b S x.n.} q.5.4.$.$.4.5.7.7.5.4.:.:.:.:.",
"p a *.$.#.g i u u u p a *.-.-.p $ * S G G x.).A.S ; ; S A.A.S b k.k.b S A.).V.x.G S z S A.A.S z S k.x.k.b b V.V.k.S b b b b b G V.V.k.S b S x.x.k.G S G V.V.k.S S S b G A.A.S b k.k.b S A.A.S b G V.).A.S ; ; b k.x.G b z b k.n.} 0.5.4.g p g #.-.:.:.$.a a k *.",
"g g g g #.g p p p p g #.*.-.-.i $ , G x.x.V.).A.S z z S A.A.S b x.x.b S V.).A.x.k.S z S A.A.S z S G x.k.b S A.).V.k.G G G G G x.).).x.G S G x.V.x.k.k.V.).).V.k.x.k.G k.A.V.S b k.x.S S A.A.S b G x.).A.S z z b x.x.k.S b b x.n.} 0.5.;.a p u i a g g g p p a a ",
"g g a #.#.#.g p i p g #.*.*.#.i $ : b S S k.A.A.S ; ; S A.A.S b k.k.b b x.A.x.k.G S z S A.A.S z b S S b z S A.).V.x.x.x.x.x.x.V.).).V.x.k.x.A.A.V.x.x.V.).).V.V.V.k.S S x.k.b b k.x.G k.V.x.b z b G A.A.S ; z b k.x.k.S b b x.n.} 0.5.;.p p p p g g p p d p p u ",
"*.%.h #.#.#.g d i i #.*.#.g g r # = z b S k.).).k.S S k.A.A.G G x.V.G G x.V.V.x.x.k.G k.).).k.S G G S S S k.)._.).A.A.A.V.V.V.A.).).A.V.V.A.).).A.V.V.A.).).A.V.x.G b b k.k.S S k.x.x.x.V.x.G b b G A.A.G b b G x.V.k.S b b x.n.} 7.,.*.a p p p g g a a d p u r ",
"*.*.*.#.#.#.a p d #.$.:.*.a p 6 # , G x.V.). X X).A.A.A.A.V.x.V.A.).A.A.).).).).).)._. XoX X).A.A.A.A.A.A.). X X_.).).).A.V.V.A.).).A.V.V.A.).).A.V.V.V.A.A.).A.G b z S V.A.V.x.x.V.V.V.).A.V.x.x.V.).).V.x.x.V.).A.k.S z b x.n...q.,.*.h a p p g #.#.g a p u u ",
":.;.g a #.g a p g ;.5.5.*.a p 6 # > k.V.V.A._._.A.A.).A.x.k.k.x.A.).).A.V.A.).).A.A.)._. X_.A.V.V.V.V.V.V.A._._.A.V.V.x.k.k.k.x.A.A.x.k.k.x.A.A.x.k.k.k.k.x.A.V.S ; z S V.A.x.k.k.k.k.x.A.A.x.k.k.x.x.x.x.k.k.x.A.A.k.S z b x.N.t.q.5.;.k a p p g #.#.g p p i u ",
"4.$.a i g g g g *.:.2.2.:.g p r # > k.x.S S x.x.S S x.x.S z z S x.V.x.k.S S x.x.S b b G V.x.G b b b b b b G x.x.S b b b b b b S x.x.S b z S x.x.S b b b b S x.x.S z z b k.k.S b b b z S x.x.S z b b b b b z z S x.V.k.S z b x.N.t.a.7.;.a p u i g g i i g d p p ",
":.$.g i p d g #.#.:.7.7.:.g a r # > k.x.b b k.k.b b k.x.b z z b k.x.k.S b S x.k.b ; ; b x.V.G S S S S S S G V.V.G S S S S S S G V.V.G S S G V.V.G S S S S k.V.V.S z z b G G b z z z z b x.x.b z z z z z z z z b k.x.k.S z b x.n.O.q.5.$.a p i p p p i i p d a a ",
"g g g g p p g g g $.5.5.$.g #.u $ > k.x.b b x.x.b b x.x.b z z b x.x.G S S k.x.x.S z z S A.).x.k.k.k.k.k.k.x.).).x.k.k.k.k.k.k.x.).).x.k.k.x.).).x.k.h.k.x.V.).A.S z z b G G b z z z z b x.x.b z z z z z z z z b x.x.k.S z b x.n.} 7.4.g g d p p p p u u p p d g ",
"a g g g i i g g g *.:.:.$.g #.a s C l.x.b b x.x.b b x.x.b z z S x.x.G S G k.x.V.k.G b S V.V.G S S S S S S G V.V.G S S S S S S G V.V.G S S G V.V.G S S S S k.V.V.S z z b k.k.b z z z z S x.x.S z z z z z z z z b x.V.k.S z b x.n...q.5.$.a a g g p p p p p d p p ",
"a g g g i i g g g *.*.;.g g g a g ^ U z.M M z.z.M M z.z.M v v M z.v.J J J J v.v.v.z.n z G G z ; ; ; ; ; x M z.z.M v v v v v v M z.z.M v v M z.z.M v v v v M z.z.M c > z S S z ; ; ; ; b z.z.M v c v v v v v c M z.v.J F M M z.M.e.w.5.;.a a ;.;.a p a g g g p p ",
"g g g a p p g g g *.:.;.a p a a a p ! _ ` 8.e.e.8.8.t.O.` ` ) ` } } } } X.t.t.O.} _ 4 o & & X         o ! ` } } ` ` 8.8.) ^ ) ` } } ` ` ` ` } } / ^ ) ` ) ` } } ` ^ 4 o & X X X X X X - _ e.` ) ^ / ` ` ` ` / / } } _ / ` ` } X.r.0.4.g g g #.g p i a g g g g g ",
"g #.#.a a a g g g *.:.;.a a %.*.a a a -.q.p.s.s.s.a.a.q.q.7.7.7.7.7.7.0.q.w.w.q.q.$.6 O X X X X X X X < ) q.q.7.0.q.a.i.5.:.4.6.5.7.0.0.0.7.7.5.5.5.5.7.6.6.5.6.7.$.5 . X X X X X X X 2 8.f.q.7.5.5.7.7.7.7.5.5.7.7.5.5.7.7.7.7.5.4.$.g #.g a a u i a h a a g g ",
"g #.*.*.#.#.g #.#.*.;.;.*.*.-.-.*.#.@.*.,.2.7.5.5.5.5.:.:.:.$.$.:.:.:.:.:.$.$.:.$.i 5 + ; b z z z z b B ` 0.5.:.5.5.,.:.a p p a p g 4.5.4.;.g g *.*.a a a a p g $.s $ - z b b z z z z Z e.d.0.5.5.4.:.:.:.:.$.$.:.:.4.4.:.:.:.*.g d g #.*.k a p p p a @.a a a p ",
"$.:.:.,.:.*.*.*.:.:.-.-.-.:.,.>.-.-.-.-.>.,.,.4.4.:.;.*.*.*.#.#.*.*.-.-.-.:.:.:.$.i % - S G G G G G G L X.q.:.*.;.$.g a p p p u u i #.;.;.g i i a k a p p u u i g s $ : S G G G G G G U e.w.7.4.4.:.*.h h g g g *.:.:.:.:.*.#.a i p g *.-.*.a p a a g *.*.k a p ",
"*.*.-.-.*.#.a g ;.;.g a #.#.*.*.a @.-.>.>.-.-.*.#.#.g g g a a a a a *.*.-.,.6.5.$.s $ > k.V.V.V.V.V.V.N.t.w.4.g #.a i i g g i u u i a #.#.g i i a h h a i u p p g u $ > k.V.V.V.V.V.V.n.} 0.5.4.$.g p p p p u i g #.*.*.#.g i u u p g *.*.k p p a a g g *.*.g g ",
"w w e e w 7 7 7 9 9 6 6 6 7 w 7 6 6 w e e e w w 6 6 7 7 6 6 6 6 7 7 w w e e e r 7 $ @ , V. X_._._._._.{.$Xa.5.*.-.*.a p i i i p p a g g p p a a a a *.%.u u u p g s $ c V. X_._._._. XD.T u u 7 7 6 5 % % 5 6 7 7 7 6 6 6 6 5 $ % 6 w w w 7 6 % 6 6 6 6 7 e a #.",
"< < < < < < < < , , , , , - < < , , < < < < < < , , < < , , , , < < < < < < < < , - < B `.=X=X=X=X=X=X}.$Xa.6.-.>.-.*.a i u p p a g #.g p a k k p a -.-.p u u i g i $ m ).=X=X=X=X=X=X`.K < < < , , , , , , < < < < , , , , , , , , < < < < , , , , , - < 4 ^ / ",
"S.S.A.A.A.A.A.A.A.A.A.A.A.A.A.A.A.A.A.A.A.A.A.A.A.A.A.A.A.A.A.A.A.A.S.A.A.A.A.A.A.A.A.`. X=X=X=X=X=X=X+XE.q.5.:.-.*.#.g i u u u p a $.$.g g g g a g :.:.g a d #.-.p $ n ).=X=X=X=X=X=X X).A.A.A.A.A.A.A.A.A.A.S.A.A.A.A.A.A.A.A.A.A.A.A.A.A.A.A.A.A.A.A.A.S.G.].",
"=X=X=X=X=X=X=X=X=X=X=X=X=X=X=X=X=X=X=X=X=X=X=X=X=X=X=X=X=X=X=X=X=X=X=X=X=X=X=X=X=X=X=X=X=X=X=X=X=X=X=X[.E.q.5.:.*.a g g i u u u p a 4.4.$.g g g g k :.4.;.#.g #.-.p $ m ).=X=X=X=X=X=X=X=X=X=X=X=X=X=X=X=X=X=X=X=X=X=X=X=X=X=X=X=X=X=X=X=X=X=X=X=X=X=X=X=X=X=X=X",
"=X=X=X=X=X=X=X=X=X=X=X=X=X=X=X=X=X=X=X=X=X=X=X=X=X=X=X=X=X=X=X=X=X=X=X=X=X=X=X=X=X=X=X=X=X*X=X=X=X=X=X[.E.q.7.-.*.a g a i u u u p a 4.4.#.g g a j j :.-.a a g $.$.i $ c ).=X=X=X=X=X=X=X=X=X=X=X=X=X=X=X=X=X=X=X=X=X=X=X=X=X=X=X=X=X=X=X=X=X=X=X=X=X=X=X=X=X=X=X",
"=X=X=X=X=X=X=X=X=X=X=X=X=X*X*X=X=X=X=X=X=X=X=X=X=X*X*X=X=X=X=X=X=X=X=X=X=X=X=X=X=X=X=X=X=X*X*X=X=X=X=X}.$Xa.2.-.-.*.a a a i i u u p $.:.g a %.k j j :.-.a p g $.$.u $ m ).=X=X=X=X=X=X=X=X=X=X=X=X=X=X=X=X=X=X=X=X=X=X=X=X*X*X=X=X=X=X=X=X=X=X=X=X*X*X=X=X=X=X=X",
"=X=X=X=X=X=X=X=X=X=X=X=X=X=X=X=X=X=X=X=X=X=X=X=X=X=X=X=X=X=X=X=X=X=X=X=X=X=X=X=X=X=X=X=X=X=X=X=X=X=X=X}.$Xa.,.-.>.-.a i g g p u u i #.#.a a -.-.#.$.4.;.p p k ;.:.p $ n ).=X=X=X*X=X=X=X=X=X=X=X=X=X=X=X=X=X=X=X=X=X=X=X=X=X=X=X=X=X=X=X=X=X=X=X=X=X=X=X=X=X=X=X",
"=X=X=X=X=X=X=X=X=X=X=X=X=X=X=X=X=X=X=X=X=X=X=X=X=X=X=X=X=X=X=X=X=X=X=X=X=X=X=X=X=X=X=X=X*X*X*X*X=X=X=X[.$Xq.:.#.>.-.p p a a p u i p a a p g *.-.#.$.:.;.a a k *.-.p $ n ).=X=X=X*X=X*X*X=X=X=X=X=X=X=X=X=X=X=X=X=X=X=X=X=X=X=X=X=X=X=X=X=X=X=X=X=X=X=X=X=X=X=X=X",
"oXoXoXoXoXoXoXoXoXoXoXoXoXoXoXoXoXoXoXoXoXoXoXoXoXoXoXoXoXoXoXoXoXoXoXoXoXoXoXoXoXoX XoX*X*X*X*X=X=X=X[.E.5.a p -.-.a p u u u i g d p p g g #.#.g #.#.#.g a a #.*.i $ m ).=X=X=X*X*X=X=XoXoXoXoXoXoXoXoXoXoXoXoXoXoXoXoXoXoXoXoXoXoXoXoXoXoXoXoXoXoXoXoXoXoXoXoX",
"Q.Q././.W.^.(.(././././././.W.W.W.W.W.R.R.R.R.W.W.W.^.^.^.W.W.W.W.W.W.W.W.W.W.W.R.L.L c. X=X=X=X=X=X=X[.| -.p p a a p r u i i p p p d d i g #.#.#.#.#.#.a a p a #.i $ m ).=X=X=X*X*X=XOX#X(./.^.R.P.P.P.P.R.R.^./././.Q.W.W.W.W.W.W.W.W.W.W.W.W.W.W.W.W.W.W.W.W.",
"s.a.a.w.0.w.f.g.d.d.a.d.d.w.0.7.7.7.7.7.5.5.5.7.7.0.q.q.0.0.0.0.0.0.0.7.7.7.7.6.5.d 5 v ).=X=X=X=X=X=X[.[ %.a p p p r r u i g g p p d g i i #.$.#.g #.@.%.a p a #.i $ c ).=X=X=X*X=X=X@X&Xg.f.q.4.;.4.4.4.5.7.q.w.a.a.a.q.0.7.7.0.7.7.7.0.0.0.0.0.0.0.0.0.0.0.0.",
"7.7.6.6.5.7.q.q.7.7.6.6.7.7.5.-.k k ;.:.:.:.:.:.:.:.2.2.,.5.5.5.5.5.,.:.#.a a a a u $ v ).=X=X=X=X=X=X[.| *.a p p p u u u i i i d d p p p p ;.:.#.a @.%.%.g #.#.-.p $ c ).=X=X=X*X=X=X}.&Xs.q.:.a p *.:.:.:.:.5.7.7.5.,.5.5.,.:.:.:.:.:.5.5.5.:.:.:.:.:.:.:.:.,.",
"5.:.*.k :.5.7.7.5.:.*.*.:.:.:.*.a p p g *.*.#.#.g #.>.>.-.:.4.5.4.:.;.g i i u u u 7 # m ).=X=X=X=X=X=X[. .:.a p p d i i u u u i g g a p p a ;.;.#.a a a a #.#.-.*.p $ m ).=X=X=X=X=X=X@X$Xa.,.g p p a *.*.*.*.*.:.;.g g ;.:.*.g g g g $.$.;.*.*.#.#.-.*.g g #.*.",
",.-.a a #.:.,.2.2.-.a a *.:.*.#.g d p p a *.-.-.#.*.>.>.-.:.6.6.:.#.g g g g i u u 6 # m ).=X=X=X=X=X=X[...6.h p u i g p u r u p k *.h a *.*.*.#.#.g p p a #.#.*.*.u $ m ).=X=X=X=X=X=X@X$Xa.6.*.g g g h %.*.*.*.*.a p a *.*.a p g #.g g p a a g @.*.>.-.a i g g ",
"-.*.a a *.-.-.>.-.*.p p g *.g g g g p p a @.*.#.#.*.-.-.#.#.:.,.*.a g g g p i u u q # n ).=X=X=X=X=X=X[...6.a u u i g d u u p a k *.#.g k k k g g d p a a #.#.-.-.a $ m ).=X=X=X=X=X=X}.$Xq.:.g g #.a a a a a a g a a a g g p p p g g g a a a g #.#.#.@.a p g g ",
"%.*.#.*.*.*.*.*.*.a p p g g p p g g i i a a i i #.#.*.a i p *.*.*.a a a p p u u p w # m ).=X=X=X=X=X=X[...5.a u p p g g i i g g g g g g p a k k a p g g g a a -.2.%.% m ).=X=X=X=X=X=X[.E.7.g i a a %.%.%.@.a g #.g g g g g p p u i a a a a a g g g i i a g g g ",
"*.*.*.*.*.*.*.*.-.-.*.g g a p p a a i u p p u i #.*.*.a p p *.-.a a g g p p u u p w # c ).=X=X=X=X=X=X}.$X7.g u u i i i i i g g a a g d u p a a p p g g a a k -.>.a 5 v ).=X=X=X=X=X=X[.E.5.a u a %.*.*.*.*.#.g g g a a g g a a p p a #.*.*.#.g p p p a a #.#.g ",
"*.*.#.*.*.-.*.-.,.,.5.:.*.a i i a a i u p p u i #.*.*.a p a -.-.a p g g p p i i p w # c ).=X=X=X=X=X=X@X$Xq.k p u u u u u i g g p p g d u u a a i i g g p a *.-.*.p 5 v ).=X=X=X=X=X=X[.E.5.g i a *.*.-.-.*.#.g g a i p #.*.k a p p g #.*.*.#.g p p a a a a a a ",
"#.#.g #.-.-.-.:.2.7.:.#.#.g a p a a p p p p p p a *.#.g p a -.>.g g g a p i p p u 6 # v ).=X=X=X=X=X=X[.E.7.g u u u u u u i g *.g d p p p p a a i i a g a h -.-.*.u $ v ).=X=X=X=X=X=X[.E.5.a i $.:.,.>.>.-.#.#.g a a a *.h a a p g g g a a g g a a g g p u u i ",
"g g g #.-.-.-.:.6.,.*.g g g a a p a a a a p p p a g g p p a *.-.#.g a a i i g d u 6 # m ).=X=X=X=X=X=X[...5.a u u u p p i a #.*.g d p p p p a a i p a a a @.-.>.-.u $ v ).=X=X=X=X=X=X[.E.7.g p $.:.,.>.>.-.#.g a a h h g a p p g g a a i i a a a g g i u u u i ",
"g g g #.*.*.*.*.-.-.*.a g a a a a g g g a a p p a g i i p p g #.#.g a p u i g g p w # m ).=X=X=X=X=X=X[.E.6.a u u u p p d g #.a a p p p u u u p a a a a p p @.-.-.p 5 v ).=X=X=X=X=X=X[.!.7.g p g *.*.*.*.a a p a a h g #.g i i a a a p g g p a a a i i u u p a ",
"a a g g *.h a a *.;.*.a a a a a g #.g g *.a p p g g i u p a g #.#.g a p p p g g p w # m ).=X=X=X=X=X=X[.E.6.h p u u p p d g g a p p p p u u u i a g a a p p a *.-.p 5 v ).=X=X=X=X=X=X[.E.7.h p a g #.#.#.g a a a a g g g p i p a g a p p g a a g g p i u p a #.",
"p p a *.*.k a a ;.4.*.a a a a g #.#.#.*.*.#.i i g g i i a g #.#.#.g g g a a g a p r # m ).=X=X=X=X=X=X[.E.6.h p u i g d p p g g p p p p u u u i g g g a a #.#.-.-.i $ m ).=X=X=X=X=X=X[.E.6.h p d #.#.#.#.#.#.#.#.g g g p p p p g g g a i i g *.#.g g a p p g #.",
"a a a *.*.*.a g 4.5.$.g a a a *.*.*.#.*.*.*.p p *.k u u a *.*.#.g i p a g g a p p r # m ).=X=X=X=X=X=X[. .4.a p u i i i u p #.*.g a a p u u i a g #.#.*.*.#.#.*.-.i $ n ).=X=X=X=X=X=X[. .:.a p p a #.$.#.#.g a g #.#.g a p p p p g #.#.a p a g g #.#.a p p g #.",
"#.#.#.*.*.*.g $.5.5.$.g g a a #.#.#.#.*.-.*.a a *.g u u a @.a a i i p p g g i i g u $ m ).=X=X=X=X=X=X[. .:.a p u u r r u a -.>.-.#.#.a i i a g g #.*.*.*.#.*.*.*.i $ c ).=X=X=X=X=X=X[. .:.a u p p g g g g i i g #.*.*.k a p p u i #.*.g a p p a @.a a p p g g ",
"#.*.:.:.*.*.g *.:.:.#.g g @.a g #.#.*.-.-.-.h a g g p p a a a a @.@.p p g g a a *.p $ m ).=X=X=X=X=X=X[. .5.g p p u u u u p #.-.*.#.#.g p p a #.#.#.*.*.#.#.#.%.*.u $ c ).=X=X=X=X=X=X[. .5.#.i i u p p p p p g g g *.h a a a p u i g g a a a a a a a p p a g g ",
"a #.:.:.*.a a g *.*.@.a a a a #.#.#.*.-.,.>.*.g #.g p p a a p a -.-.a p d g g *.-.p $ c ).=X=X=X=X=X=X[...7.;.d p p u u p p g g a a g g p a a g g g g g g g #.%.%.u $ c ).=X=X=X=X=X=X[.E.7.:.g i u p p p a g #.g h %.a p p a a i i g g p p a h a a i i g g g a ",
"g g *.*.#.g i p *.*.a i p a #.-.-.-.-.:.4.:.$.#.*.k p p u p a a a a g d p p g #.*.p $ c ).=X=X=X=X=X=X[.E.6.k p a p i u p p g g a a a g g g a a i i #.#.#.g @.%.*.u $ m ).=X=X=X=X=X=X[.E.7.:.d u u p a a a g #.a %.*.*.g d i u p p k k p p a %.@.a p p g #.g a ",
"g g g g g d i a *.*.a i p p g #.-.-.*.;.:.:.$.#.*.k a p u i p a i i g g a a g $.:.d $ n ).=X=X=X=X=X=X[.E.6.k p a p i u p p d d p a a g g g g a p a #.#.#.a a @.a u # m ).=X=X=X=X=X=X[.E.7.$.d u p p a a a a a a g ;.;.#.g i u p p g k a a a #.@.a p p g #.a a ",
"i i g g p p a a %.a a a g d p a g #.#.*.*.*.*.g h g g d p p u i a a g $.;.;.$.$.5.g $ n ).=X=X=X=X=X=X[...7.;.d p p u i g d p p a a g g i i a a a a @.#.a a %.a p 9 # m ).=X=X=X=X=X=X[.E.7.$.g a p u r r u d g p a ;.4.*.a p p u i g g a a g #.g a i i #.#.a p ",
"u i p d p a a a a p a a g d p p g g #.*.*.*.;.*.*.a g p p p u i a #.g #.$.$.$.$.,.g $ n ).=X=X=X=X=X=X[.!.q.:.g p p p p d p p p a g g i i u p a a a a @.a g g g a u $ v ).=X=X=X=X=X=X[.E.7.4.$.a a p u u i g g p p ;.:.*.a p p u i g g a a g g g a p a #.#.a p ",
"u u p p g g #.a i u p p u i g g g #.*.*.*.:.4.:.*.a p p p p u i g g g #.g g g $.:.p $ n ).=X=X=X=X=X=X}.$Xa.,.g i i a a i i p p g g i u u u p p u i a @.a g g g g i 5 v ).=X=X=X=X=X=X[.E.7.5.;.a p d g g g g g p p #.*.*.a p p p a #.#.a p a a a g g g #.#.g g ",
"p p a a g #.#.g i u u u p a g #.#.*.*.*.*.*.:.,.-.%.p p p p p i i g $.;.*.#.g #.*.p # m ).=X=X=X=X=X=X[.$X0.*.a p a g g g a p p p p p p i i p p p p g g a a g g g u $ v ).=X=X=X=X=X=X[.E.q.4.$.a p p d d g g g a a *.*.*.g p p p g ;.;.k a a a a *.*.#.#.g g #.",
"a a @.@.@.#.g g i u u i a g #.#.*.*.*.g a *.>.2.2.-.a p g g p p i d $.4.:.*.#.#.*.p % m ).=X=X=X=X=X=X[.E.6.k p a #.#.#.#.#.#.g p p a a i i g g p p g g p p d g i 9 $ M ).=X=X=X=X=X=X[.!.q.:.g g g i u u i a #.g #.*.*.*.g p p a *.4.4.:.*.*.a @.*.*.*.#.g g a ",
"a #.#.#.g a g a p p p p a g g #.-.-.#.g *.:.q.i.2.-.a p g g a a g g #.;.:.:.#.#.;.#.i E `.=X=X=X=X=X=X[.E.7.*.g g #.#.*.*.#.a i g g g a p p g g g g #.*.k g a p u u u E '.=X=X=X=X=X=X[.E.7.:.g g g p p p p g #.#.#.*.*.*.k p p g #.;.:.:.*.*.a #.#.#.#.#.g a a ",
"a g g #.g a a a p p p p a g g #.>.>.#.g *.,.a.s.3.-.a p d g g g g g a *.4.4.*.*.4.4.#.[ '.=X=X=X=X=X=X[.E.7.,.*.#.#.*.-.*.#.i i #.#.#.a p p g #.#.#.*.-.-.k p p u u a [ [.=X=X=X=X=X=X[.E.7.:.g g g p p p p g #.#.*.*.*.*.k p p g #.*.*.*.*.*.#.#.#.#.g g a a a "
};
