/* XPM */
static const char *tywfall3[] = {
/* columns rows colors chars-per-pixel */
"128 128 47 1 ",
"  c #050517",
". c #00002A",
"X c #00002F",
"o c #000032",
"O c #000036",
"+ c #00003B",
"@ c #040438",
"# c #00003D",
"$ c #000041",
"% c #000047",
"& c #00004B",
"* c #00004D",
"= c #000052",
"- c #000055",
"; c #00005B",
": c #00005E",
"> c #000061",
", c #000064",
"< c #000069",
"1 c #00006E",
"2 c #000071",
"3 c #000075",
"4 c #00007A",
"5 c #00007C",
"6 c #000080",
"7 c #000084",
"8 c #000088",
"9 c #00008E",
"0 c #000092",
"q c #000094",
"w c #000098",
"e c #00009F",
"r c #0000A2",
"t c #0000A6",
"y c #0000A9",
"u c #0000AF",
"i c #0000B3",
"p c #0000B7",
"a c #0000B8",
"s c #0000BE",
"d c #0000C2",
"f c #0000C4",
"g c #0000CB",
"h c #0000CF",
"j c #0000D2",
"k c #0000D9",
"l c #0000DC",
/* pixels */
"%&=<6752>-=-*&*>8tidd6=&%%%&%%%&===><;$XX$>575,=&&=*%#++#%&=15,*&=<463,;-=*&##$=3edkky4-%%&=><1>*&=:,-%%=,1<<154:*&&-16651>-==*%",
"%&=:<1<:--:<:==>9tipu4=&%%*=*%%%&&=<4:%%%%-<45,=&&=*%$+oo+$&<4,==>475,;,,-*&##$*>9sjf0,*%%&=:<1,*%%*=*%%;441<2903:*&=><1,;--><;=",
"=*&*-><<<<35<=*,epipu7>*&*==*%%&=*&;,-%%%%-<45,=&&=*%%%##%&=><:==;<463<1,-*%$#$&=3yfd5%##%*=-;,,*$#$%%&*:47633ey92;*&*;,11<<45>=",
"====->154136<=%:wpipu4=&%%%%%&*;,:&*=*%%%%-<45,*&&=*%%%%&==-><;*&&-<67774:*%##$&*<quu5=&%%&=:<1>*%%$#+#$-49w98ty92;===-,254145,=",
"-=&*-><1,;203=%-477wy7>*$##%%&:<1>*%%%%%&=,575,=&*=*%$#$&==->,-%%&=:2qipe3;&##$&=>5eu8>*%%&=><1,*%%$#+#$=,0dsuir5>-*&*-,<<>;50<=",
"<<<:-=-=:49q2&%-35146<=&$#+#$&:252-&%%%%=><145,==;,;&%%%&=:,1<;=&%&>6rpfp8,&%%%&=>6ru5=&%%&=><1>*%%%%$#$&=5ye7651<<<,;===-,500>%",
"<<<;&*==;<6q2&*;,1135,=&$#+#$&*:43;*&%%%&=:<45>==,5<&o.#&=--25,===-<7ry03:*&%%%&*2tfs4%%%%&=><1>*%%%%%%%=>364<:--;,1<-&*==:180>%",
"=,51-&&*;,6q3=&*,1<1<:=&$#+#$&*:451:=&%%&=:<1<:;,351=o.#=,<1701==<0tyq5>--*&%%%%%2pfu2%##%*-><1,*$#$%$#$&=<5411>*&=<5,=&&=;<70<=",
"%:41-&%%&=203-&=,111<-%$+oo+$%*>8q6,&##$&=:<462<<351=O.#=,<<462<<6te6,:351:&##$&*>6ru5=&%%-,<<1,*$#+++#$&=,57673=$&,5<=&%%&-501=",
"%=,1,-&%&=,53<<156665,=&$#OoO#$-351;&##$=,360q5<<254<=%%&==-><<<<<1>;=;376<*%%%%%=<edt4-%%&-><1,*$#OoO#%&=,57673-%%;<1,=%%&-162<",
"%&=><:=&&=:<1<<30q775,=&%%$#+#$*,,-==&%%=,8ypy7>*=,1,-%##%&&:<:---->,:-,251-&%%%%=,wfde>%%&=><1>*$#OoO#%&=,57774:*&*->,;*&&=>1<<",
"%&=><:=&&=:<:->30ew06,=&%%%%$#$*,,--=&%%-4wupy7>*&=-=*%%&===><:==;,1<:----=&%%%%%&-9ffr,$%*->11>*$#+#$%%&=,57774:*&&-><:=&&=><:-",
"%&-<53,;=-:<>==>9eeeq5,;*&$#+#$*,1<:=&%%-4qupy6>*%&*=*%%&=--><;==;<111,;==*&&&%%%=<tkhr>$%-<463>*$#$%%%%&=<67674:*&&-252>-=-><:=",
"%=,463<<<<35<==>8tipu8,=%%$++#$*>,-==*%%=,11463,*%%&&%%%=,464<;==;<353,=%%*=--*&*2tglge>$%:6rt3*&$#+#$%%=,367774:*&-<452<<<<34>=",
"%=<453<<<11<:==:4edfu8,*$#OoO#$&=-=*&%%%&=--1673-%&%%%%%:8tuw5>*&=,45<-=*&-<44>->6ydft4-%%<qut<%%$#+#$&*>4766674:*&;1452<<<11<;=",
"=>5411<<254<:=&-3edfu4=&$#OoO+$&===*&%%%&=:<<154:==*&%%%:8tipt2*&=,463,==,36762>*=<0uw4-%%2te5;%%$#+#$*:2676663,=&=<6411<<353,;=",
"%>0q63<<<<>;--=:4quay2%#+oXXXo+#%*=*%%%%=,1<:;34:*&%%%%%=,5qyt2===-<53148q0764:%%&-4q6,=%%<005:&%$#$%%&*>4414673-%&1q062<<<<>---",
"%<tpt3-==-,56524rpie6:%#++OoO#$&===*%%%%=,<<<<1,;==*&%%%&=-;,<:-,1<11<140yr73<=%%=,46<=&%%-<452>*%%*=&%%=,114673-%&4upe1===-1565",
"=2tr6:%%&=,53149ypi0<-%##%$#+#$&=-=*%%%%&=:<1<<>*%%*=&%%&==-><;:3664111<30eq6,=%%=,45,=&%%*->11,*%%%%%%%&=,531562>;6yw4-%%&-1531",
"<4q81-%%&=:<<149yt81;==&%%%%$#$&=-=*%%%%&=:<1<:=&%%%&%%%&==-><;=-:10yq3-=,364,=%%&-15<=&%%&=>154-%%%%%%%&=:<<18q8416q6,=%%&=><1<",
"1364<-%%&==->15775135,=&&=*&%%%&=-=*%%%%&=:<1<:=&%&&&%%%&==->,-%%;5ys7=&&=:<1,=%%=,35<=&$##&<8tw:$%*=&%%=><<::qy941464,=%%*==-,1",
"68q7<-%%&=**,6752<<35,=&=>>=&%%&=--*&%%##%-<111,;=--=*%%&==->,=&=2tyq<&*;,>--=*%%&-<53,=%%&;7ipw:##$%$#$&=:<::0y9669q5,=%%*=*=16",
"<264<-%%=,<<<1452<145,=&&=*&%%%*>35<=&%%&=;<46651<<1<-%%&=:<1<;;36751:==;,<<:-==&&=<53,=%%;5wuy8;$#+#$%%=,1<:;37641363,=%%-,<<<<",
"&-<1<-%%=,35<-=:47641:=&%%*=*&%-375,&%%%&=-;5q9512564:%%&=,609<-,364<;==-------=&&=<53,=%%&-18tw:$%%&&%%=,1<<155>*&;<1,=%%-<45,=",
"=;<1<-%%&=<51-=:47775,=&%%-,:==:43;*&%%%-367eyq51<<>-&%%=,5q05;=39w81-&===:<1<:====<53,=$##&<54,*%&;,:=&&=:<48te,*=:<1,=%%&-25,=",
"=;<1<-%%&=203-&-39we01=&%%*==-><1,-*&%%%-39wew94:=-*&$#$-49q94>;4qur6,====,5652,;==<53,=%%&=>11>*&=:<:=&&=;10yt8>==:<1,=%%&-401=",
"=;<1<;=&%&>54<;;,7ye6,=&%%%&%&*:44<:=&%%&=2qew94:=---*%%-341>-=:3qyyq5,;*&*;153,;=-<64,=%%&-153>*%&;,-%%&=:<564<;==:<1,;*&%&<52<",
"=>51-*&%&==->14668q7<-&%%%%%%&*;<,-*&%%%%&-<4674:;,34:%#$&*=-=&*>360q5,;*&-,<146641363,=%%&-163>*%%*=*%%*>256674:=-<5<=&%%&=-;,1",
"=>52-&%%&=-->1477521<:=&%%%%%%%*>>-*&%%%&=-->154:;<1<-%%&==->,=&=,576<-=;,>-=;,112576<=&%%&-163>*%%*===&&=:14674:==<5<=&%%*=-;,<",
"=,54<-&&*=,53147751<<<>=&=*&$#$&=-===&%%=,>-:<1,->54<-%%&==->,=*>3676,->14<*;<<<<2576,=&%%&-163>*%%%&*====:1463<;=-<53,=%&*-152<",
"<2686,->14663148q82;*==*%&*=*%%&=-=*&%%%=,,-=--==>54<-%%&=-=-=&*>5qeq5>=*=--><:-=;<46<-&%%&-153>*%%*=====-,576651<<3785>-,25662<",
"<6tit3==;<353<<2551<<<,;====*%%&=--*%%%%-34<-&*==;<>-&%%=,>-==&*>4qyy4=&%&-,44>=&&-3qe8:%%*->11,*%%*=-=&=,3666652<18yie1==:<452<",
"<2651:-=;,1<>-=;,1<>-*&====-*%%*>1<;%##$=,1<;&=-=---=*%%=,<<:=&*>3676,=&&==-><:=&&=2qe9,==;<4674:*&*---=;,3531551<<364<;==:<1<:-",
"-:<11<,;=-:<>-=;,1<>=&%&%&-,:==-,1<;&##$=,1<<<<,;;,<,-%%&=:,:=&*>3641:=&%&-<1<:=&%%;<1<;*&-<7we8>*=<53,;=--;>154:=-><11<>-=-><:-",
"=;<353,==,111<<<<1<:-==&&=:<:=&&=:,:=&%%=,1<<<<<<>-:,-%%&=---=&*>364<-&%&=,575>=&%&*--=&%%-<4773-&=<53,=&=:<1111<>-:1452:*-,111<",
"=;<45,==;,36652<<<<:->>=%%-,>=&&=--*%$#$-341<1111>**=*%%&=-===&*>364<-%%&=,575,=&&=:,-%%%%-<463,*&=><>-===:<36652>-:155>==;<4666",
"=,586>&*;,36762<<,;:,:=&%%-,:=&*>>-*&%&*;,<1370072;--*%%=>>-*&%*>364<-%%&=:<45,=&%&;,-%##%-<463>*%&,53,=&=:<11452>;<684;&=:<4676",
",6yyq1=&=,3675,;,1<<<:=&&=:,;&%&=----====-;<608664124:%%&=:,:=&*>364<;*&&=:<45,=&%&;<:=&%%-<45,=&=,363,=&=:<1<11<<<8ut9,*&-<4666",
"-3tuq1=&&=<541<<<1<>-*&%=>>-=====;<<,;=&&&*--;,11,;--*%%&=:,:=&*,364<-%%&=,575>=&&=<5<=&%%-<4663:;<353,;==:<1<1,;=-6yy9,*&&-1631",
"<3775,=&=,363<<<<<<1<:=&&=-======>41-&%%&=--=-,,;;,1<-%%&=---=&;8ew81-%%&=<54<:=&&=<5<=&%%-<46651<<111<<>-:<111>*=<4774>*&-<462<",
"68q5;===;<4641<<1<1605,=&=-=*&%&=--=&%%%&=:,:->1<>-<4>%%&=-=*&%:esfpq1=%-36631<>*%%;<:=&%%*->11,;;<463,=&=;<453,->50q2-===:<463<",
"68w7<-&*:49q7112566663,;====*%%&=--====&=,>-=-,,;==15>%%%&-,:=*<uhgdu4=%=,11453>*%%-<<>=%%&-14:%%=<6q93-%&*-153,;>50q6,=&=,50q51",
"15q05:%%=,8ytwq076641:=&&===*&%&=;,>=&%%=,>-=-,,;*&4r4=&%%:4<=*,esgfu2&%%&-<463>*&==--=&%&-,1<=%%;40q6,;===->11<<<17q94-%%-10urw",
"68wq6,=&=,6we01--,575,=&&=====&&=:,;&%%%=,>-**>,;*&,5>%%&=--*&%-4rdfu4=&%%>686,-=*&*===&*><<1<-*=,5002-=;,<<<<<<<259w05:*&=<7www",
"<6yy0,%%=,6q7<-=>351-*&%&========--*%%&*;,<<<<<,;*&;<-%%=><<:=%;8uffu4=&&=4ypy03:*&%&&&%&==-1700731<<:=&=,<<<<1,;;<9ut9:%%-<7q51",
"<4qq6:%%=,3641<<<1<>-==&&=-=*&%&=-=*%%%%=,1<<<1,;==:,-%%&=,4<=%:wsfpq,%%-3qytww93:*%&*=&&&&-7ipr4:**-*&==---><1,-;<7w04-%%-<4631",
"<4q71-%%=,<17q851>-=======:,-&%&=-=*%%%%=,>;><1,;==-=*%%%&-,:=%:eaiq1-%%=,11>:2664<;&*->:*%-qdu8;&=:<<,;===-><1,==<6q6,=%%-,<28w",
"<264<-&%&=:17w94:=--===&&=---=&&=-=*%%%%&-:<<<1,;=---*%%&=--*&%:wpu01-%%&=----->451:=====&&-qs0,*%&*->,=&==->11<<<<363,=%%*->29e",
"<111<:==;,<17q94:;,:-==&&=:,:=&&=--=&%%%=,<<<<1,;;<1<-%%&=----=:47775:%%&=:<<,;;,,-====&&%&-8uw3=&=:,:=&%%-<704<<<<111,;==;,<28w",
"<254<:===-:147q03>-==*%%=,1<:=&&*<83-&%%=,>;><<<<4005:%%=,1144>*&:585:%%%&-<>;><<:&%&*==*&&-7ut7;&=:<:=&%%:47631<<<353<;===->157",
"<3685,=&=,35315772;*&%&*;,<<:=&&=---=&%%=,1<:;>,;;<44:%%-47664;%%;575:%%%%-<1<1,;*&*=====&%*6iy8;%=><;&%%%*->1552<14775>*&-<452<",
"<6yy0,%%;476<;28q6:&&*=&&=:<:==-,>-*&%%%&=:<<<:-=;<>-*%%-49q3-&&*>576,=&%&:5652,;*&%&&&*==&*9di8;%=<5,=&%%&=:1562<19ut9:%%:575,-",
"<7yr6:&*:49q6<<111<;&%&%&=:<>=**=:,;&%%%%&*->11,-;<1,-%%=,35,&%&=,6002=&*>111<1,;*&*=*%%&=;<0it7;*,35,=&&====:6q7429yw4-%=,6004<",
"6775<-%%;4774111<>-====&&=:<11<<<>-*%%%%&==-153,-;,<,-%%&=:,;&%&=3tyq1=&=,46<;>,-*&*=*%%=><1quw4:*&;<1,=&=*&*-,1126774,=%%:57631",
"6664<-%%=,6q9664:*&*===&%%:509<--=&$#$%%&==-163,;=--=*%%&===*%%=29q71-%%*,8y9<:=&%%*=*%%%&-1rse3-&=:<1,;==*&*-,1<25763,=%%-<7q96",
"1364<-&%=,5qwq962>-==*%%%%>51-=;,,-*%##$&==-153,;*&*=*%%%&*===&=3511<-%%&=4ye62>*%&*===&%%=<0uw4:*&>53,;*&&=:1552<1463,=%%=<7www",
"<2641<,=%&>679ty92;*&%%%&=:<;&*:43;*%##%&=-=-;,,;====*%##%*===&*,1<1<:=&%%2ypy71<>---*&%%%&-18te<*&>53,=%%%&,6q03<<3631<>*%*<787",
"<26763,=&=,6wida02;==*%%=,1<;*:253;&%%%*;,>-=-,,;*&*=*%##%*=*&%*,111<:=&%%:6eiir831<,-&===*&;2903>-:11,;*&%&;2903<<36752>*&-<7ri",
"<4005,=&&=,60ee03>-==*%%=,11<14672=$#+#%=,>-:154:*&*=*%##%*=*%%-3771-==&%%%*6yq4:;<11<<<:*%&;<552>;<53<;*&%&;2903<16q94>*&&-17qe",
"<264<:==;,5qew94:==---=&=,356666751;&%&*=&&-3wur4;&&=*%##%*=-=&-7tu01;=&%%%&:<;&%=,3564>*&%%%*:<<<1363,=%&%&-2wr4<<363,;==:<7wee",
"-:<>-=-,258wty04:=-:<1,=*><<<147q06,&%&==&&-4eut5:&%%$++#%-,:=&*,7yr5:%%%%&-><:*&&=><:--=&%%*=*=,35763,;==*&&:703>;><:-=;,369eyu",
"<<<;&*:3666642577413673-%&*-**:3091;&*==*&&-4euy91*%%$++#%-,:=&&=1qq5:%##%-<45>*&&=--=====*&*;,<<25763,;==*&&;352<<1<-&*>4667631",
"<<<;*:1551353149tr7663,=&=:,;&*:43;*%%&%%%&-4wyt81-==&%##%-,;&%*>5q7<-%##%:575>=&&&*=*&%&=;<6083::1463,;==*&*-,1<<<<<-=>2541352<",
"1>;<6752,;:<1<<30q776,=&&=:<>=&&=-=*&*=&%%-,453<;-===*%##%-,;%%*>5q5-&%##%-<1<;;,<<<<:=&&==->11,-<0ew5,;==*&*->1<1<>;16651>;>11<",
"<<<6q94>;,1111<<13675,=&*,35<-==&&=-=-=&&==------====*%##%*=*%%*>5q8<-%##%-,;*:1441<<<>=&=*&;<:=&<tdd0,;=-*&*->111<<17q83;;<1111",
"<<<363<;;,3675>;,364<:=&=,6q7<;=&&=:,:=&&==========--*%%$#$%$#$=3quq1-%##%-,:->,;:,<<:=&%&%&;,:=&;6ru8,;;,:&&-,2541<1463,-;<4666",
"1,;:<1,;;<6q7<;:3764<:=&-3qyw5>==*&*->>=&=*&*=====-:,-%%%%%&%%%=3qyq1-&%%%-<1,-&==--=*%%%%%%*-,,;>50q5<,<1:**;26751>;><1,;:18q5<",
"64<:;><<15qy9<==3663<:=&=,4775,-=*&%&*============-:,:=&%%*=*%%*>5q05,=&%%-<1<:=&&===&%%%&%&;<<<<2676>&*>441<1476663<:;,<<26ey6<",
"73::<<,;;<9y0<=&=--:<<>*=,36762,;*&%%%&=--======-----==&%%*=*%%*>5q5;>,;==:<<<<,-*&&&&%%&=*&;<<<<26763,=&=,565666771;><<,;:1qy7<",
"ir7<-===:4wu0<=&===-=-=&=,36762<<>-*%%*:<<;&*==;,<<>-*%##%-,;%%*,5q7144:===--;,,;====&%%&=*&;<:;,260q6,=%&>4<-=:30ye5,====,6ry7<",
"wq7<&%&*:4wu9<;==-=*&%&%&=<6752<<,-*&*==--*&*==;,354<-%##%*=*%%=3qur73,=%%*-><1>*&=-=*%%&=*&;<<<<260q6,=&=---=&*>5q06>&%&=,6ry7<",
"<504-&%%-4wu9<=&=-=*%%%%&=,54<;;,1<;&%&=-=*&*==:4764<-%%%%*=*%%;8ufdy3=&%&-,1<1>*=,>=&%%&=*&;<1,;>50q6,=&====----:<702=&%%:6ry7<",
"=105-&%%*,8y0<=&=-=*&%%%&=:<1<;:366,&%*>,-*&*;2666641-&%&=:,-%$:wfka6:%%&=:<<<1,-==--*&&&===:<1,;>5763,=&==-:<<,;=-302=&%%=<qy7<",
"=,54<-%%&=2q062,;====*%%&=-->,;;,1<;&%&=--=->1552269q5>*%%*=*%$;8yi8;&%%=,1<:;,,;*&-<<,;==*&;<1,;>5763,=&===-----=-<53,=%%&-5q96",
"<<11<:=&&=,6004<<>-====&&=:,:-==---*%$#%=,<<353,;;<605,=$#$%$#$=3wuq<=%%=>1<:;,,;*&-<1,;==*&;<1,;>5763,=&=-==->,-;,<11,;*&&-170w",
"-:<1<:=&&=,6762<<<<>---=;,<<:=&&=====&&=>441111,*&=><:=&%%%%%%%=3quq<=%%%&-<<<<,;*&-<1,=&=*&;11,;>5763,;======--==-:<1<;*&&-1677",
"=;<45,=&&=,6762<<111<<<<<<>--=&&======;26631352>*%&;,:=&%%*=*%%=3quq1-%%%%-<>;>,;*&;<1,=%%&-163,->5763,=%&*========:154>*&&-1676",
"%;476,==;,36752<<26763,;=--->,=&*=====-,,;--><:=&%%*=-=&&=:<;&%=3qur5:%%%%>54<:--;,353,=%%=<qt3==>5763,=&=----===*&>674>==;<4666",
"=>575,==;<354<;;,5q063,=&=;,<,=%%*=*&%&=--*&*->,;*&*===&=,35<=&=3qur6:%%%%<qeq8553<<11,=%&:5rt<&*,575,-=;,<<<,;===-<674>==:<4531",
",4081:;>25411,=*>5q06:&%%&*---*%%&=*%%&*--*&%*>,;====*%%=,503-&*,7yr6,=&&=4ypu03-%&;,:=&*>3685;&*,541<<<<<<<<<:=&=,6q6<;;,3531<<",
"=1qq62<<<<>;><:;,5q05:%%&=:<<,=%%&=*%##$=>:&%&>,;*&*=*%%&=,53,-:49w05,=&-3qupt3=&%%&&&%%&=,575:&*>5762<<<<>-><:=&&-3w051<<<<>;,1",
"=2tyq1=&&=,575225771-&%%&=:<:=&%%&=*%##$&=-==->,;====*%##%*-*&%:wue71:==:4wue5;%%%%%%%%%%%*-152>-;<45<=&*=--><1>=&-6uy9,*&*-1666",
"<6yr6:%%&=,576666761=&%%&=:<;&%%%&=*%%%%&=*&*=-=&%&-,:=&%%*=*%$:wpu01:=&-4wue5;%%%#$%%%%%%&-163,-;<463,=&=:,:-><<<<9yw4-%%&-1676",
"15q8<-%%&=:<4676641;&%%%&=:<;%%%%&=*&%%%&=*&*=-=&%%*=-=&%%*=*&%-39wyy7>**,6q05;&**&%%%%%&==-1774:;<463,=&=--=->25427q6,=%%&=>157",
"68w7<-%%&==-16752:*;,-%%=,1<;%%%%&=*%%%%&=*&%&==&%&*--=&%%*===&*,7uds6=&&=<675>=&%%%%&%##%%&3eue,-<45,=&&===&*166669q6,=%%*==;37",
"68q7<-%%&=**2q94:==:<-%%=,1<;%%&=--*&%%##%&%*=---=-:,:=&&=--*&%-3edaq<%%&=:<1<;==*&%%%%%%%%*6iaw:=,1<:=&&===&*166669q5,=%%*=&=5w",
"<254<-%%&==-1663:=-:,:=&=,1<;&%&=,41=&%%&=*&*;,<<<<1<:=&&=:<:-*,wpiq1:=&=><<:-===*&%&%%%%%=<0uy8;=,1<:======**>11<<353,=%%*==;26",
"&*--=*%%&=:<>--;,<<>--=&&=<54,=*>35,&%&*=-**,565125901=&&=<54,->9yi01;=&&=:<>---=*&*=*%%%%&-4euw,-<11:=======-,<;=&*--=&%%&=><:-",
"=---=*%%&=,5<-=;,111<:=&&=1005>;,,;*&*==;,<<36751<<1<-%%=,6q7<*:waiq1-&%&=,53<1,;*&*=*&%%%%&<64,*=<702=&&==->154:===--=&%%&-14>=",
"=;,>=&%%&=,5<=&*>2575,=&&=,5752<<,-*&%%%-3413674:*&&&&%%-39q6,-,esfy6,=&&=,56674:*&*===&%%&=15,=&;4wy8>*%&-<6083:==:,:=&%%&=15,=",
"=:<>=&%%%&:4<----,575:%%%&*-><<<<<<:=&%%&=:<4674:*&;,:=&=,1<;&*,esfpw5,=%&-<46762:&&=-=&%%&-405>*=<702=&&=:<1<:--=-:<:=&%%%&,4>=",
"=:<>=&%%&=**;1451251-*%%&====-------=*%%%&*-1674:==<4,=&%&*--=&-40weq5,=&=:<<28q82;====&%%&-5q5,-;,1<-&%&=:<11<,;==:<:=&%%*=**:<",
"=:<>-&%%&=*&;1552<<>-==&%%*=*&%&=====*%%&=*&*;,,;=-><-%%&=--===:49w06,==;,>-=;37641:=&%%%%&-8t7>*&=:,:=&%%*-153,;==:<:=&%%*=**>1",
"=>54<-%%&=:<1<111,;:,:=&%%*=-=&&=====*%%&==&*=--=;,1<-%%&=:,:==:49wq6,-=>4<*;<11<<<>-*%%%%&-5q5,-==---=&%%-<453,;=-<53,=%&*-><<<",
"=>54<:==;,353<<2541;**=&%%*=-=&&=---=&%%=,>-====&=,1,-%%&=:,:==:4qupu7,*=,<<<<<,;=-:,:=&%%&-4q5>*&=:,:=&&=:<111,;=-<54<;==;<352<",
"=>565,=&=,1<:->1541<,;========&&=:,>=&%%=,>-*&*===--=*%%=>>-===:4qupu8,=%&-,1<:-=*&;<1,=%%&-264<;==---=&&=,531451>-<664:*&-,1<:-",
"=;<>--=&&=--===;,1<>-*&*===--=&*><<;&%%%&=-=*&*=&&=-=*%%&=:,:-=:39weq5,;===-><:=&&=:<44:*&=<7we8>==:<:=&=>35<;252>-:<>--*&*----=",
"%&=>,:=&&======;,<<>-*&&%&-,1,;==:<:&%%%&=--====&&=:,-%%&=:<<,;;,3676<-==&-<1<;=&%&*=-=&%%=<0ipe,*-<53,-==-;><1,;*&*->,;*&*=====",
"%&=:<:=&&=-------:<1<:=&&=:<1,=&=:<>=&%%&=:,:---=*&;,:=&&==-><;-,3676,==;,353<;==*&&&*=&%%=<quq3-=,45,=&%&-,111,;*&&->,;*&*=----",
"%&=><:=&&=:<<<<,;;,<<<>=%%-<1,=&=:<:&%%%=><<<<<,;*&*=*%%&==->,;;,2576,==;,111,-&=====*%##%-<8q5,*=,11:=&&=:<36651:&*->,;*&&=:<<<",
"=;<1<-%%&=:<1<<,;--><:=&%%-,:=&*><<>-*%%&=:<<154:*&*=*&*;,>-=;><<<145<-=;,<<1<;====-=*%##%-<7q5>*%&,5<=&&=:<1111<>-:<1,=%%&=><1<",
"=>575:%%&=:<1,:;,<<<<:=&%%*=*&%*>,;>,-%%%%*-15651,<<,-%%&=:<<,;;,<1363,;=-:<1,-%&*-><:=&%%-<8q6,*=,45,=&&=,531<,;=-<674;%%&=><<<",
"%;575,=&&=:<:-><<<<1<-&%&=*&*===-,44<-%##%*=-;,,;---=*%%&=:<1,=*,11463,;;,<<<,;==;,35,=&%%=<0ut8>>44<:====:11<1,;*&>674>*&&=><:-",
"=>54<:=&&=:<:->1<<146<=&%%%%*-><<251-&%%%%*=-=--===-=*%%&=:<1,=-39w073<<<11<:-===;,35,=&%%-<7we8>;<>-=====,5411>=&=<53,;*&&=><;=",
"<<1>-*%%&=:<:-><126wy8,*%%%%%%&&=--*&%%%&====-=====:,-%%&=:<>;>4riipu8<<4071:=====-><:=&%%-<463,-;<1<:=&&=,5752,-;,11:=&%%*-><:=",
"=,41-&%%*>35<-->48qty8,=$##%%%%&=---=&%%&==->,;=&%&;<-%%%%-<4658tiidd0<,252;=-==-*&;<:=&%%*-25,=&=,45,=&%&-<463,-=-<4<=&%%-,45,=",
"=;<1,-%%&=<5313566787<=&$#++$%%&=;,>=&%%&==->,;=&%&>4:%%%%:465239ridd0,=&&*->,;==;,1<:=&%%-<45:%%=,1<:=&&=:<463,-==:<1,=%%&-152<",
"=;<1<-%%&=,53<:--10yt4=&$#OoO#%&=:,;&%%%&=-----=&%%;,-%%&=--;-*=,7uau8,=%&-<1<:=-:<1<:=&%%-<45:*=:<1,-%%=,36763,;==:<1,=%%&-152<",
"%;475:%%&=:<>=&*>5006>&%%#++$%*===--=&%%&=:<<<<>*%%&&&%%=><<1<;;3qupuq3-=,36652<<>-><-%##%&-17q92,<>=&%%=,367674:*&>573-%%&=><:-",
"%-<1<-%%&=:,:-=:3521<:=&%#OoO#%&=====&%%&=:<44,=&%%*=*%%&=,574;;7uddy7139te6214663;:,:=&%%&-7ifu1*&&%$#$&=,56674:*&;11,=%%&=>,:-",
"%;41-&%%&==-><<<<<<1<:=&$#OoO#$&=-=*&%%%&=:<1<:=&%%&%%%%%&:575220ee81:;,406;*&*,8q61;-=&%%&;qdi8;%%%%%%%&=:<1253-%&>4<=&%%&==-><",
"%=,>=*&%%&*=><1,;;<45,=&$#OoO#$&=--*&%%%&=:<453>*&=*&%%%&=-->1139q741:;,11:&$#$-39q95,=&%%=<rd0,*%%%%%%%&=:14774:*&;<:=&%%%&*-><",
"%&=-===&&=*&;<1,;;<45,=&%#+++#$&=:<>-&%%&=:<463>*&--=*%%&=:<47752<1463<<<<>=&%%-376663>=%%=1rde3=$#+#$%%&=1qyy7,;*&*=-==*&&=**:<",
"%&=---=&&=*&*;252<<35,=&%#$%$#$*>407<-%%&=:<452,->44<-%%=,<2rse3==<6q5<<<<:&%&*:34111:=&%%=<edu7;$#+++#%&=4ypy7,;*&*----*&*=*&*-",
"%=,1<:=&&=-=**:26511<:=&%%%%%%%*>111,-%%=><<1<:=&=,1,-&*:4quds9>*=,6q61<,;-=====-:<45,=&%%&-8iy8;$#$%$#$&=<67774:*&-<1,;*&*=-=&%",
"%;475:%%=,1<-&;4rw3<<:=&$##%%%%*,,;-=*%%&=:<45,=&&==&%%%:8tuyq,%%&-1776311>-=====;<45,=&%%&;qfsw:$%%%%%%&=,67674:*&>573-%%-,1,=%",
"%;44<-&*;,1<-&*:47665,=&$#+#$%%*>1<:=&%##%-<463>*&===&%%-49w05:%%&-3wweyye5;&&%&=>476>%##%:6ufu8;%%%%%%%&=,567rr4;*>53,=&=:<1,=%",
"=;<>-&%%=,1<;&*:44135<=&$##%%&*;,>-==&%%%%-<7q5>*&===&%%=,3675,=&=,9yq70ew5;&%%&=;<702=&%%,qade3=$#$%$#$&=:<1155:==:<:=&%&-,1,=%",
"=;,>=&%%&=:<:==;<,;<63>=%%&=====-=&%&%%%&=,5001=&&=*%$#$=,>;263,-;,46<;,4081-&%&=;<7q2=&%%;6ude3=$#+#$%%&=:<1154:==:,:=&%%*-><;=",
"%*=-=*&%&=,4<->265135<=&%%&=*&%-33;&%%%%&=:1801=&%%$#$%%&=;<0ut8>*&;11<;;<35<=&%&-<7q6>=O @5udr3=$#$%%%%&=,567q9>*&*--=*&%&-14>=",
"%&=-->,=%&-<:;29tr765>%#++$%%&*,97;&%$#$&=:<463>*%%%%oX#&=;<0yq4:*&>5752>-:<1,=*>26ey5=&%%=<7euw:%%$#$%%&=:17wue<&&*--;,>*%&:<:-",
"%=,<<<,=&=:<<148q9245>%#+oO+$&:307;&%%%%&=:<463,*%%$#$%%%%&-4q94:*&>6763,;=-><<140uau5-&%%&->299>*&$#+#%&=:<48tr<&&-<<<<>*&=><<<",
"%=,1<:=&&=:<11467669q2=&$#+#$*18w6=%%%%%&=:<4773-$#OoO#%%%&-27751>-:149te3;*;,;-,8shgu8:+.O=>154:*&$#+#$&=:<38yr<&&-<1,;=&&=>11<",
"%=,1<:===-,53<<25670q2=&$##%%*19ye2;&%%##%=1edu8>*%$++#$%%=<qt6<<25679euw,*&%&&%%<yhka8:+.O*--,,*%%%%##$&==-<8ai1&&-<<,;===-152<",
"%&=--=-,<<353<<2577wuw3-$#+#$*<0ap8<=&%##%=1rfi8>*&$+oo+#%:5rt1&*>50q52551;&%%$#$>0adq,=%%&===-=&%%%%%%%&==-<8pi1&&*=-==;,<<452<",
"%&=*&*:3511<;*:30q8tdr4-$#+#$&*<re2;&$++#%=1rfi03:&$#+#$%%:6rt1%%=<7q5<1,-*&*=&%%;5ru8,=%%*--;,,-*&%%$#$&=:<<3ee<&&*=*&*>4411<-&",
"%&=**:1551<<-&;5pfpdfr4-$#+#$%%;87:*&$#$%%:6yfae4:&%%#++#%:5q0,%%&-153<<>*&===&&=,6ru8,*%%:59083=%%%%%%%&=:<<154:*&*=&*>254<<,=%",
"%%&-<452,;--*&&1ihghf0,=$#+#$%%*,,-==*$XX$<quu8,=&=&#+#$%%-1801*&&=><1<1,-*&%%%*>6ydd0,*%%-<111,*%%*=%#$&=:<3674:*&%&;1552>--=*%"
};
