/* XPM */
static const char *wall21_5[] = {
/* columns rows colors chars-per-pixel */
"128 128 175 2 ",
"   c #0E0E05",
".  c #140F0C",
"X  c #151206",
"o  c #1B1307",
"O  c #16130B",
"+  c #1A150B",
"@  c #1E190B",
"#  c #070716",
"$  c #0C0B13",
"%  c #0C0B18",
"&  c #140E15",
"*  c #180F11",
"=  c #181317",
"-  c #241906",
";  c #211709",
":  c #251B0C",
">  c #2A1E0C",
",  c #251D11",
"<  c #2C1E10",
"1  c #301F11",
"2  c #25200D",
"3  c #2B220E",
"4  c #32220E",
"5  c #2E2411",
"6  c #2C2B13",
"7  c #2E251A",
"8  c #2F281C",
"9  c #352513",
"0  c #392615",
"q  c #352A14",
"w  c #3C2C16",
"e  c #362618",
"r  c #3B2718",
"t  c #352C1A",
"y  c #3E2C19",
"u  c #3E3017",
"i  c #34331C",
"p  c #3E3119",
"a  c #3F381D",
"s  c #0B0926",
"d  c #07072A",
"f  c #070828",
"g  c #0B092A",
"h  c #110B24",
"j  c #110B2E",
"k  c #1D142A",
"l  c #060632",
"z  c #080732",
"x  c #0D0930",
"c  c #0C073E",
"v  c #100B30",
"b  c #160F3B",
"n  c #17103D",
"m  c #2B1C2B",
"M  c #231930",
"N  c #291E31",
"B  c #231B3C",
"V  c #2D2822",
"C  c #312B23",
"Z  c #392B24",
"A  c #3B2C2C",
"S  c #3E3326",
"D  c #3D372C",
"F  c #2E2232",
"G  c #332434",
"H  c #362833",
"J  c #3B2B35",
"K  c #36273A",
"L  c #37283B",
"P  c #3C2D3D",
"I  c #3C2D3F",
"U  c #363837",
"Y  c #3F323B",
"T  c #383A39",
"R  c #402F17",
"E  c #402D1B",
"W  c #412E1A",
"Q  c #422F1B",
"!  c #432F1D",
"~  c #403017",
"^  c #483316",
"/  c #43321B",
"(  c #45341A",
")  c #42301C",
"_  c #44321D",
"`  c #47341D",
"'  c #49361C",
"]  c #4A371D",
"[  c #45391E",
"{  c #4C391E",
"}  c #503B1F",
"|  c #442F20",
" . c #463321",
".. c #4A3622",
"X. c #4A3821",
"o. c #4D3923",
"O. c #4D3925",
"+. c #4A372A",
"@. c #4E3A29",
"#. c #513D25",
"$. c #513D2A",
"%. c #433235",
"&. c #44333A",
"*. c #48373E",
"=. c #4A393C",
"-. c #523F30",
";. c #494425",
":. c #554124",
">. c #5A4326",
",. c #55412B",
"<. c #59452B",
"1. c #5F4A28",
"2. c #564231",
"3. c #5A4632",
"4. c #5E4A33",
"5. c #634E31",
"6. c #060641",
"7. c #0A0643",
"8. c #0A064A",
"9. c #040352",
"0. c #080652",
"q. c #04035A",
"w. c #130D5F",
"e. c #1F1754",
"r. c #1C155D",
"t. c #241A44",
"y. c #2A1F4A",
"u. c #201757",
"i. c #261B51",
"p. c #2A1F54",
"a. c #2F2246",
"s. c #2F2843",
"d. c #2D214B",
"f. c #2B2948",
"g. c #3D2E42",
"h. c #30244E",
"j. c #362A4F",
"k. c #382C4E",
"l. c #353143",
"z. c #3E3143",
"x. c #393B40",
"c. c #2D2255",
"v. c #2E2459",
"b. c #312652",
"n. c #352953",
"m. c #392D55",
"M. c #312659",
"N. c #352A59",
"B. c #2A3054",
"V. c #020266",
"C. c #030266",
"Z. c #0A0765",
"A. c #03026D",
"S. c #0E0A6D",
"D. c #120D6B",
"F. c #130E6D",
"G. c #130E6E",
"H. c #16116C",
"J. c #18136D",
"K. c #020173",
"L. c #0A0775",
"P. c #0D0E74",
"I. c #05047D",
"U. c #0E0B78",
"Y. c #110D71",
"T. c #0F1071",
"R. c #161171",
"E. c #181470",
"W. c #2B2262",
"Q. c #423243",
"!. c #4A3A42",
"~. c #483949",
"^. c #000083",
"/. c #000086",
"(. c #000088",
/* pixels */
"q q p / / y q 9 9 9 9 q y y y y y y y ) ) / ( ) ) ) ' / w 0 y W y y y y ~ y y ~ ~ 9 + f V././.^.^././.D.G ~ w q 9 0 y y 0 0 y y q 9 9 0 y W y y q q y y q 9 9 9 9 2 O g V././.^.^././.D.J ^ 0 0 y y 0 0 y y y ) ) ) ~ ~ ' ' / W W W ~ y y W ' ( w q y W W y q q ",
"9 q ) _ ) y w q 9 9 9 q y W W y W y y u / / ) y y W ) ~ w 0 y y y y y y y y y y y 9 O f V././.^.^././.D.K ( w 9 q q w q 0 q y y w q 9 0 y W y y w w y y q 9 0 0 q 2 O g V././.^.^././.D.L ' w q y y 0 0 y W ) ) / ) W ) ' ' / W W W R y w W / ( y q q y y y w q ",
"9 q !  .) y y w q 9 9 0 W W W y y y q w ( / w 0 y y w w y w 0 0 y y y y 0 q y y 0 < O d V././.^.^././.F.g.X.u q y y 0 9 9 9 y y y r q 9 y y y y y y y y 0 0 y y q 3 O g V././.^.^././.F.P o.! y y y 0 0 y W / ' ( ) W ) ..{ ) y y u u y 0 q ) ) y y 0 0 y y y y ",
"q w W ) W y w q 9 9 9 0 q y y y w q q y u u w q q w w q 9 9 9 0 W ) y q q w y y 0 > O f V././.^.^././.F.g.o.) q w w r 9 9 q w y w 0 9 q y ) W y y y w q q 0 y y y 5 O d V././.^.^././.F.g.o.W w W y 9 9 q W / ` _ _ ! _ ' ' u w u ) ) ) y y W p w q q w y y y W ",
"y y ~ W W y 0 9 9 9 9 9 9 q y y 0 0 W y q q y y q q y w q 5 9 0 ! ) w q y y R y 0 > O f V././.^.^././.F.z.#._ y 0 0 y r 9 9 q y 0 9 9 q W ) ) W y y q 9 9 q y y W 9 + d V././.^.^././.F.g...y 0 y y q 9 w ) ) _  . .) ( ' ( w q p ( ) ) ) ) ) y q q y y y y y y ",
"W ) / ( ) W W y q q y w q q ) / / W W y q q y y q w ` ` q q q y y w q 9 0 w R y w 3 O d V././.^.^././.F.g.o.` y 0 0 y y q q w y w q 9 q y ) W W y y 9 9 q w w w y 9 + f V././.^.^././.F.g.o.W 9 w w q q q y ) ` ` ` ) / ' ( w u ` { p p ) _ ( / y y w w R W W W ",
"e r R R q q w q q 5 9 9 q 9 q y W y r 9 9 9 9 9 5 q p p q 5 9 9 5 5 5 1 1 9 9 9 q 2 O f V././.^.^././.F.g.o.` W q 0 w y q q w y y y q q y y y y y y 0 0 y r q q y 9 + f V././.^.^././.F.L ) 9 5 5 5 9 9 9 9 q w w w q q w q q q ) ) q 5 9 r y y q 9 9 9 9 q q q ",
"+ + ; - + + + + + O + + + + + + + + + + + + + + O + @ + O O + + O O O O + + + + O X   f V././.^.^././.F.g.o._ y y w 0 0 r w q w y y 0 0 y y q w y y y y q q 9 q ! e + f V././.^.^././.Z.k - + O O O + + + + + + + + + + + + O + ; ; + O + + + + + O O + + + + + ",
"d g g g g d d d d d d g g g g d d d d d d d d d d d d d d d d d d d d d d d d d d d g 6.A././.^.^././.F.P ..W y W y 0 9 q q q 9 y y 0 0 y y q w y y W r 9 q 9 y ) e + f V././.^.^././.A.c s g d d d d d d d d d d d d d d d d g g g g d d d d d d d d d d d d d ",
"K.K.A.A.K.K.K.K.A.K.K.A.A.A.K.K.K.K.K.K.K.K.K.K.K.K.K.A.A.A.K.K.K.K.K.K.K.K.K.K.K.K.A.K.I./.^.^.^././.F.K _ w 0 W p q 9 q q 9 0 y y 9 q y y y y y y y w 9 9 q W W 9 + d V././.^.^.^.^.I.K.A.A.K.K.K.K.K.K.K.K.K.K.K.K.K.K.K.K.K.A.A.K.K.K.K.K.A.A.A.A.K.K.K.K.K.",
"(.(././././././././././.(./.(././././././././././././././.(././././.(./.(.(./././././././.^.^.^.^././.F.P _ q 9 w u w w w q q w y y q q q q q q q y y y q 9 y W ) q + d V././.^.^.^.^././.(.(./.(././././././././././.(././././.(.(.(./././././.(.(././././././.",
"^.^.^.^.^.^.^.^.^.^.^.^.^.^.^.^.^.^.^.^.^.^.^.^.^.^.^.^.^.^.^.^.^.^.^.^.^.^.^.^.^.^.^.^.^.^.^.^.^././.F.g.X.w q q q w y y y y y y y q 9 9 9 9 9 9 0 y y y y y )  .t + d V././.^.^.^.^.^.^.^.^.^.^.^.^.^.^.^.^.^.^.^.^.^.^.^.^.^.^.^.^.^.^.^.^.^.^.^.^.^.^.^.^.^.",
"^.^.^.^.^.^.^.^.^.^.^.^.^.^.^.^.^.^.^.^.^.^.^.^.^.^.^.^.^.^.^.^.^.^.^.^.^.^.^.^.^.^.^.^.^.^.^.^.^././.F.P o.) q 9 9 w w y y y w y y q q w w q 9 q y ) ) w w y _  .t + d V././.^.^.^.^.^.^.^.^.^.^.^.^.^.^.^.^.^.^.^.^.^.^.^.^.^.^.^.^.^.^.^.^.^.^.^.^.^.^.^.^.^.",
"^.^.^.^.^.^.^.^.^.^.^.^.^.^.^.^.^.^.^.^././.^.^.^.^.^.^.^.^.^.^.^.^.^.^.^.^.^.^.^.^.^.^.^.^.^.^.^././.F.P o.! r 0 9 9 q y y 0 0 y y 0 0 W p q q y ) ) p q q y _  .r + d V././.^.^.^.^.^.^.^.^.^.^.^.^.^.^.^.^.^.^.^.^.^.^.^.^.^.^.^.^.^.^.^.^.^.^.^.^.^.^.^.^.^.",
"/./././././././././././././././././././././././././././././././././././././././././././././././././.(.F.P X.W 0 9 9 9 9 9 w q y y y q q y y q 0 y y w q q q p _ ` e + d V././.^.^.^.^./././././././././././././././././././././././././././././././././././././.",
"Y.Y.R.R.R.Y.Y.Y.Y.Y.F.S.Y.Y.Y.Y.Y.Y.Y.Y.Y.Y.Y.Y.Y.S.S.S.F.F.Y.Y.Y.Y.Y.Y.Y.F.F.F.Y.Y.Y.Y.F.S.S.S.Y.Y.Y.r.&...w 9 9 9 9 9 q w y R u y w q r y 0 0 W y w q 9 q p / ( q + d V././.^.^.^.^.I.P.T.S.F.Y.Y.Y.Y.Y.Y.Y.Y.Y.Y.Y.Y.Y.Y.Y.Y.F.F.Y.Y.Y.Y.Y.Y.Y.F.Y.Y.Y.Y.Y.F.",
"Q.Q.~.~.!.*.&.&.*.*.P L P P P P P Q.Q.Q.P P Q.Q.L K L L L L P P P P P P P P L L P P P P L H H J Q.Q.P J +...w 9 9 9 9 0 r y y y y y y r q q r !  . .) y 0 0 y ) / q + f V././.^.^././.T.B.x.P L P P P P P P P P P &.Q.Q.Q.P P P L L P P P Q.Q.Q.P L P Y Q.Q.P P ",
",.,.<.<.:.#.X.o.:.:.{ ' ..X.X.X.X.o.O.X.) _ o.#...` / ) / _ ..o.X.......X.' / _ o.o.o..._ ) ) ' #.#._ )  . .w q 9 9 9 0 y W W ) ) W y r q q w y ) _ ) y q q y ) / q + f V././.^.^././.H.x.;.[ ` o.o.o.X.o.o.o.o.o.O.#.#.X.X.X...` _ ` X.X.o.#.#.` / ..o.#.#.o.X.",
"` ' { ' _ W w y  ...` ) ! y w w y y w q 9 9 y ) _ ) w q 0 r W y w q 0 r y y 0 y  . .! y w q y !  . .q 9 q w y r q 9 9 0 W ) ) ) ) p w q r y q q y y q q r y ) ) ( q + f V././.^.^././.F.L ` w w  . .! ! ! ! _ ` ` _ ) y w w y y w q q w y _ .. .y 0 y _ ' ' _ ! ",
"_ ` ' ' W w w y ) ) p y y r q q r y q q 9 5 9 q w w q q 9 9 q q 8 8 e 0 9 9 0 y ! _ W q q 9 q y ! y 8 7 q q 9 0 q w q y W ) ) ) ( p q q y y q q y w q q r ! _ ` ` q + f V././.^.^././.F.P ` w q )  .W y y W W W u y y y w y ! y q q q q y !  . .w q q y / / y q ",
" . .' ' ) y W W ) ) w q y y q q y ! W y q q 5 9 9 0 y y 0 9 9 t V V t q 9 9 r W ! / ) y q 9 9 0 y t V V t r 9 4 q y y y y y y ~ ) p q q r r q q y r 9 5 q !  . ._ q + d V././.^.^././.F.g.X.w w )  .) y y y y y q q y ~ ) )  .) q q r y y !  . .) y q w ) ) w 9 ",
"! ) ( ( ) ) W W ) W y r y y q w _ _ W y y w w q 9 9 0 0 9 q q r t t r 0 q q y ! ' { ` ) q q q q y r 7 7 r y 0 0 y y w w y y w w y y y q 9 q q q y y q 5 9 q y ! ! 9 + d V././.^.^././.H.Q.O.p q p _ _ ) w q y y w w y u w y ! ! q 9 q q q y _ ` ) y w y p p y w ",
"y W ) ) ) ) y y W ! W y y y q u ' X.) y y y W y q 0 9 9 q q y y y y 0 0 y y y ! { #...) q q q q r r 9 5 q y y y y y q q y y q q y y y q 5 5 q q r r q q 5 9 r W y 9 O d V././.^.^././.R.Q.#.p q ) `  .) w q y W y y y y q q r y 0 9 q q q w ( ' ) y y y y y y y ",
"y y W ~ ) y w w ) _ W y y y y u ` ` ) y q 0 0 w y y q q r y y y 0 0 r r q w y W ' ' _ y q q q q 0 9 q q 9 9 q q q 0 q y y y y y y y 0 9 5 5 9 9 q q 9 9 q y W p w 5 O d V././.^.^././.F.g.o.y q ` X.` ) y y W W ) y y y y w q q r y y q q w ' ..) y y y q 0 0 0 ",
"y y y y y w q w _ _ ) y y y R u p p ) ) q 9 0 0 y y q q q y y y 0 0 y y w w y W ' ' / y q q q q 9 9 9 9 5 5 q q 0 0 r y y W W y y w q 9 9 9 9 0 q q 0 0 q y _ ` p 5 O d V././.^.^././.F.g...w r _ ' ( ) ~ ) ) ) y y y y y q q q y W W y q y ` ..! y W y 0 9 9 9 ",
"y y W y q q r W ' ' W y y y W y w w ) p w q y y q q 9 9 0 0 y y y y ) ) ) ) y ) { o.` ) y y y r q 9 9 9 9 9 q q r y q q y y W y q q r y 9 9 r y ) ) y r 9 q  .o.` q + d V././.^.^././.F.g...w 0 y ) ) u u ) ) p w q y y 0 0 y y y y y y y y ) _ W W ) W 0 9 9 9 ",
"W y y q q 9 q y ' ' _ W y y y y w w W y q q q q q q 0 0 9 9 y W W ) ) ) ) ) ) / ' { ' ( / W y q q 9 9 9 9 9 q r y y q 9 w w w q 9 q y y q 9 q w y y w q 9 q  ...) 9 O d V././.^.^././.F.P X.W q y ) ~ y w y ) ) p w y y 9 9 q y y y y w y y W ) ) / / ) y q 9 9 ",
"y y q q 9 9 9 w ' o.` ) ) y y W ) ) W y q 9 9 0 y y y y q q W W W y y W ) ) ) ( ' ' ' ' ' / w q q 9 9 9 q q y y y y 0 9 9 q 9 9 9 0 y y q 9 9 9 q q q q 9 0 ) ) w 5 O d V././.^.^././.F.P o.! y ) ) ) y q w )  .) ) W y q q q w p p w q 9 0 y ) ( ' ( ) ) y q 9 ",
"q q 9 9 0 0 9 w X.o..._ ) y y y ) ) y y w w q w y W W W y p ` ' / W y y ) ) ) ` { { ( / / p i i t q q q 8 t t W W y 0 9 q w 9 9 9 9 q w w q 9 9 q q 9 9 7 t ) ( ) 5 O d V././.^.^././.F.P X.W y ) ) w 9 9 q W ) w q y y r q 9 q y p q q q q w W / / / ) p w 9 9 ",
"0 0 9 0 y y q w ' o..._ ) u u y u u ~ ~ y y y y y y W W W _ ...._ W W W W ) ) ` o.{ ) y y p i i w y q q V V t W ) W q 0 y y q 9 9 9 9 q r y 0 9 q 9 9 e V C ) ' / 9 + f V././.^./././.F.g.O.y q W ) w 9 9 0 y w 9 9 q y y y 0 0 y y q 9 q q y y y W ) ) w q q q ",
"y 0 0 0 y y y ) ' { ` _ ) ) ) ) ) ) ( / W W ) p w w y ! ) _ _ ! w w p ) _ _ ) ( ` _ W y y y y w r 0 9 q t y _ / / y q q y y q 9 9 9 9 q 0 r ! y q q q r t y ) / _ 9 + f V././.^.^././.F.g.o._ y ) ) y w w w y y w q q q y y y y w w w q 9 9 y y y W _ _ ) u w w ",
"W y 0 0 y y y ) ( ' ( ) ( / ) ) ) / ' ' W y ) ) w q y W ) ) W y w w p ) _ _ _ ) ) W W y y y y y 0 9 q q y W / ' / W w q r w q 9 9 9 9 q q r ! ! w q r y y W ) ) y 5 O f V././.^.^././.F.Q.#..._ / ) y y y y y y y w w w y y y r q q y y 0 0 y y W ) _  .) ) ) ) ",
") p q 9 y y y ) ) ( ) ( ' ' W W W ) ' / w q ) ) ) y y y y ) ) ) y y u ) W ! ) ) ) ) ) y w w y y y q 9 9 q W ) ) ) ) y q q q w w 9 9 9 q i i e 0 y y 0 0 y W ) y 9 : O d V././.^.^././.F.z.#... .' / w 0 y y W y q w p ) ! y q q 9 0 y y y y y W ) ) ` ) ) ) ' o.",
"` ) w w p ) ) ) ) ) _ ` ' ( ) W y ~ ~ ~ w w ) ) / ) ~ ~ ) / ' ( ) y y y W W / ( / ) ) u q q y ) p t 9 9 y W y u ) ) W y q q y y w 0 9 q i i q 0 r r 9 0 q y y w q : O f V././.^.^././.F.z.#..._ ' / r 0 y ) y q q q )  .| ! w w q y y y y y ! ) ) ) ) ) ) ) ' X.",
") ) y y _ _ ) ) ) _  . .` / / ) ~ y w w y y ) ) ) ) ~ ~ ( { } { ) y y y W / ' ' / ) ) p q w / ( i i 9 0 W ) ) u u W W y q q y W R w q q w y y y 0 9 9 9 9 q y y q 2 O f V././.^.^././.F.g.o._ y W y 0 0 y W 0 9 q q y !  ._ y y W W y r q w ) _ ) u y y y y W ! ",
"2 2 : 5 / { / ) ( ` ` ` ` ` ' ` ) y w w q y / / w w y ) / / ' ' ) y y y W ) ( ( ) ) u w w y ) ) i t 9 0 w u ) / ) ) W y q q y W W y w q y W W y 9 9 9 q w w q w w 5 O f V././.^.^././.S.N 9 > : : : : : 3 3 : ; @ ; : < 9 9 2 : > > , : : > 5 5 2 : : : : : : : ",
"$ $ $ = Z ..) ) ( ' ( ( ' { o...! y y y 0 w / ) 9 q p ) W W W W y y y y y ) ) ) ) w q q w y y y q q 9 9 q w ( ' ( ) ) p w q y W W y y y y y y r 9 5 q q y y q w y 9 + f V././.^.^././.V.j . & $ % % % $ * * $ $ $ $ # $ * * $ $ $ $ # $ * * = * $ $ $ $ $ $ $ $ ",
"9.9.9.0.r.y.A ) ( ( ( ( { { { ` ) ) ) ) y r p p t q / ' _ ! ! y q q y ) ) / ' ` u q q q w w q q q w t t w y ) / ) ) ) ) p p W W ) ) W y w w y y q 9 9 0 y y p u ~ 9 + s V././.^.^././.K.q.9.9.9.9.9.9.9.9.9.9.9.9.9.9.9.9.9.9.9.9.9.9.9.9.0.0.9.9.9.9.9.9.9.9.9.",
"/.^.^././.D.H ( ( ) ) ( { { ` ) ) ) ) W W y i i w W ' ' .. ._ W q q ) ( ( ` o.` w q y y q q q q r w i i p y y y y y W ) ) ) ) / / ) ) y 9 q W / W y 0 0 w y ) ) ) 9 ; h V././.^.^.^.^.^.^.^.^.^.^.^.^.^.^.^.^.^.^.^./.^.^./.^.^././.^.^.^.^.^.^./.^.^.^././././.",
"/././././.F.P { ` ) ) ( o.o._ ) ) y w q y ) [ [ w w / { ' ' / W W ) ) ( ' ' ` / u y ) ) y w y w q q q q p W q q 9 w W W ) ) ) / ' ( W y 9 q / ' ) y q 9 9 q y ) ~ 9 ; h V././.^.^.^.^.^././././././././././././././././././././././././././././././././././././.",
"^.^.^././.F.P o.` ) y ) ' .._ W y q 9 9 y / { ' y w / ' ' ' / / / _ _ ` ( ' ` ( ) y y ) ) ) ~ y q 9 0 w ) ) 0 9 9 w y ! _ _ ) ) ( / W y y y / ( u w q q 0 0 y ) ~ 9 ; h V././.^.^.^.^.^.^.^.^.^.^.^.^.^.^.^.^.^.^.^.^.^.^.^.^.^.^.^.^.^.^.^.^.^.^.^.^.^.^.^.^.^.",
"^.^.^././.F.K ' W y y ~ / `  .) w 9 3 9 y / ( / y y ~ ) / ( ' ' / _  ._ ) / { { ) y q w / ' ) y q q q W ' / w 9 w y y !  ._ ) W W W y ! ! _ _ ) w q r y y y W ) ) 9 ; h V././.^.^.^.^.^.^.^.^.^.^.^.^.^.^.^.^.^.^.^.^.^.^.^.^.^.^.^.^.^.^.^.^.^.^.^.^.^.^.^.^.^.",
"/./././.(.F.P ..! y y ~ ) ` ` ) 0 9 9 9 y ) ) ) ~ y W ) ' ' ( / / ` ' _ ) ) o.o./ y w w / / W w q q y W ( / w q y W W ) ) ) W y W W y W _ ` ` ) u w y y r y ) ) ) 9 + s V././.^.^.^.^.^././././././././././././././././././././././././././././././././././././.",
"^.^.I.^.^.H.P o._ y y ) ) ) / ) 0 9 9 0 y W y y y y W / { { / ~ ' ' ' ' ) ) X.{ ) y W W W W W y 0 0 y W / ) ~ y y W ) ) ) W y W ) ) ) ) ) ( ' ' ( ) ~ y q w ) ) ) 9 + f V././.^.^.^.^.^.^.^.^.^.I.I.I.I.^.^.I.^.^.^.^.^.^.^.I.I.I.I.I.I.^.I.I.I.^.^.^.I.I.I.I.I.",
"v.c.p.i.i.a.%...! y y y w y ) W y q 9 q y y w w w w w y / ' ( / / / ( ( ) ) ` / y w W W W W / / W y W ) ( ( ) y y W _ _ ) ) y W ) ) ) ) ) ) / / ) ) ~ y w w ) / ) 9 + f V././.^.^././.U.W.N.M.c.c.c.c.c.M.M.c.c.c.c.M.N.v.c.c.c.M.M.M.M.M.M.c.c.c.M.M.M.c.p.p.i.",
"2.$.+. . . . . .! y y y 0 0 W ) W w q q w y q q q q q q y W ' ' ) ) ) ) ) ) / ) q 0 y y y W ( ' ( ) ) ( ' ' ) y y ) _  .` ) ) ) ) ) ) ) ) ) W y y y u y y W W / / 9 + f V././.^.^././.E.!.5.3.-.@.o.+.@.2.2.$.@.@.$.3.3.3.2.@.@.,.,.2.2.,.,.@.@.-.2.<.,.$.+. . .",
"#.#.....` ) y w y y y y w y ) ) w q 9 q q 9 9 9 9 9 q q w ) / ( ) ) ) ) ) ) ' ' W q q w y W / ( ' ( ) ( { { / y y u ) _ ....) ) _ ) y u ( ( ) y W W y p ) ) ) ) ) 9 + s V././.^.^././.J.!.1.:.o.{ ( ) ( X.o.{ ' ' X.o.#.>.:.( ( o.#.o.o.o.o.{ ' o.#.:.:.o. .p w ",
"' ( _ ) ) y q q y W W y y u ) W 0 9 9 q 9 9 9 9 9 9 q w y ) ) ) W W ) ) u ) { ' ! y q q r y ) / ' / ) ( { { _ y y y y ) ....) W _ ) q w ) ( ) ) ) ) ) p p ) ) ) ) 9 ; h V././.^.^././.H.Q.<.o. .) p w w p ) ) ) ) )  ...#.} u w ) _ ) ) _ _ ) ) _ ..{ { ..) w q ",
") u w w y y q q p ) W y q w W W 0 9 w y 0 9 9 q 5 9 q y y W W W y y W u y ) ` ` ) y y r q w W W W W ( { o.o.! y y y y ) ` _ W W W y q q y !  ._ W ) ) p w w W ) W 9 ; h V././.^.^././.R.~.<.o. .) W y y y ~ ~ ) ) ) ) ` ....W y W ) ) ) ) ) ) ) ) ) ' ' _ W y y ",
"y w q q y y q q y W y r w w W W w 0 0 0 0 0 9 q 9 9 0 y r y y y y y y y y ) ) ) ) y y y q q y W y y / ' o.o._ W W W ) ) ) ) y y y y w q y ! | _ W ) _ ) w w ) / ! 9 ; h V././.^.^././.E.~.3.o.) y y y y ) ~ y R W ) ) ) _ _ W y y y y y y y u u w u ( ' / W y y ",
"y y q q y y 0 0 y y q q y W W y y 0 4 4 0 y q q r y 0 9 9 q y y q q y y y ~ ) ) ) y y y q q y y q w W _ o.o.` ) W / ' ' ( p w q y y y y y y ! ! W _  ._ p ~ ( ' ( q ; h V././.^.^././.E.~.<.o.p w q y W ) ) ~ R W W ) ) ) W W y y y q q y y q q q w ( ' / W 0 9 ",
"W y w w y y q q w y q q y W y y y w 4 9 y y i i y W w q q w p p w w y y w w ) ) W y y y w w W y q q W _ ..' ` ) ) ) ( ( ( ) w q y W W W y y y y W ! _ _ ) ) ( ( ( q ; h V././.^.^././.R.Q.,.X.) p u W ) ) ) ) W W y w y _ ` ) y y y w q w w w w w y ) / / W w 0 ",
"W W W y y y q q y y 9 9 y W W W W y q q y y i i p W y y y W ) ) ~ y y y q w p ) W y y y y W W y 9 9 y  ._ / / ) u u ) ) ) ) y y y y y y y y y y y W ) _ ) ) ( ( ( q ; h V././.^.^././.F.g.#.....' ' ( / / / ) W W y q w ' X./ u y y y r q w ) _ ) y W / / ) ~ y ",
") ) ) y y y q q q 0 9 0 y ) / / ) ) p y y y y p p y w w W W ) ) ~ y w w y ) ! y 0 0 y y W y w q 9 9 0 W / ( ) u w w y W ) y q 9 y W y y y ~ ) ) W _ ' ` p u ( ( ( q ; h V././.^.^././.H.Q.:.o.' ` ( ' ' ' ( ) W ~ y w y  ...' / ~ y q 0 9 w ` _ w w / ( ) ) ~ R ",
") ) ) W W y q 9 q q 9 0 W ( ' ' ( ) ) ) W y y y y w 0 0 W / W W W y q w ) _ ! y 0 q y y y y q 9 9 0 0 w / ( ) y q q y y y w q 9 q y y y y ) ) ) W _ ..` w w ( ' ` q ; h V././.^.^././.H.Q.>.{ ' / / ' ' ' ( ) ~ y y y !  . .' ( ~ w 0 9 q w ( / w w / ( ) y y y ",
") ) _ _ ) y y q 9 5 9 0 y ) ) ) ) )  ._ ) y w q 0 0 w R / ' ) W y y y w w w ) ) W W y y y y 9 9 q y y y i i  .) y y y y y y w q 0 0 y y y W ) ) W W ) p q w ( ' _ q ; h V././.^.^././.F.g.#.{ / ) ) ' ' / / ( / w q W ) ) ) / ) w q 9 q q w ) / W W W W W y y y ",
"( ` _ _ ) y y q 9 9 9 9 q y y y y y _ _ W y q 9 q w y ) / / ) W y y y r q w ) ` ` ) y w y w 0 0 y ! W p i i  . .! y y ~ ~ ~ ~ y q q y y y y ) ) W y y y w w / ' / 0 ; h V././.^.^././.F.g.o.` ) R ~ / ( / / ' / w 0 y y y ) ` ) q q q q q q y ) ) W W y y y ) / ",
"' ' _ _ ) y w q p y 0 9 9 9 9 9 9 q ) ) W y q q y ) W W W W ) ) ) y q q r y ) `  .) w 9 9 0 y y W W W W y ) ' ' ) y y ) ( ( W y y y W y w w ) ) ) y y y y y W ) ) 9 ; h V././.^.^././.F.z.#._ y y R ~ ) ( ' / W W q 9 9 r ! .. .w q w w q q y ) W u y y q w ` o.",
"' ' / / / ) w w ) ) w 0 9 9 q q 9 0 W _ W y w w u ) W W y W ( ( ) y w w y y y W  . .q q 0 y ! ! _ W W W ) / ' ( ) ) ) ) ( / W y y ) W y w w ) _ ) u w w y y w y y 9 + s V././.^.^././.F.g.o.! w y R W ) / / / W W r 9 9 w ) .. .y w w w 9 q y W W y w w q y  .o.",
"/ ( ' ' ( ) u y y y y r q q r y 0 0 !  .) y y y y ) ) ) ) ) ' ' W y y y u y 0 w  .) q q r !  . ._ ) ) ) ) ) / ) ) ) ) ) ) ~ y y y y y y y ) _  .) y q q y y q q y 9 + f V././.^.^././.F.g...y 0 y W W W W W ) ) W y q q p ) ` ) y r q 9 9 0 y y y y q q y !  . .",
") / ' ' ) W W y w q q e t 8 e 0 0 y ....) y w w W ) ) ) ) ) / ) w w p ) ) ) y W _ ) q 9 q y  . .! W / ( ) W W ) ) ) ) ) ~ y w q 9 q y W w w ) ) y q 9 9 q w w w q 5 O d V././.^.^././.F.P X.W w W ) ) W W ) ' ' ) y w y ) ` ` ) y q q q q q q q y y q w W ) ) ) ",
"/ / ' ' W y y y w q 9 e V V e 0 y ! ..X.) y 0 w _  ._ ) ) ) W y q w p _  . .) / ' ) q 5 q w )  .! ! ' ' W y y y y y y y y y 9 9 5 9 y W 0 0 W W q 9 9 9 9 q y w 9 : O f V././.^.^././.F.P o._ W W W W ) ) ` o.X.) y y ) ) `  .) w q q q y y q q w y y W ) ) ) y ",
"' ' ' ( ) ) ) / ) ) y y y w q q y _ ' ' u w w W ..o.( ) ) ) ) y y y ) / ` _ ) _ .._ y q q w  ... . .` / W y y y w q q w y w 9 5 9 9 y y q q y y 9 9 q q 9 9 y y 9 > o s V././.^.^././.F.Q.#.' W w w W / / ` ' ` ) ~ ~ ) ) ` ` ) w q q w y W y w w w ) ) p w y W ",
"R y y q q q q r y y q 9 9 9 5 5 9 9 w q 5 5 9 r W ) q 9 9 9 9 9 9 9 9 q q q 9 0 r y r 9 5 5 r y t y ) ) y q y w 9 q 9 w y y 9 9 9 0 w w q q y y 9 9 w y 0 0 y y 0 4 + s V././.^.^././.F.L ` y 9 9 9 9 q q q q q 9 9 9 9 q w q q 5 5 5 5 9 9 0 9 5 5 q q 5 5 9 9 ",
"; ; ; + + O O + + ; ; + + O O O . O O + O O O + ; ; + + + + + O O O O O O + + ; ; ; ; + O O + + + , w ) q 9 9 9 9 9 q y W y 0 9 9 9 9 q r y ) y 0 9 9 q y y 0 0 w 9 + f V././.^.^././.Z.k - ; + O O O O O + + + + + + ; ; + + O O O O O + ; ; + O O O O O O O O ",
"g g x x z l l z x g x x z l l l l l l l l l l z x x l l x x z l l l l l l l x x x x x x z z x x l x B F 7 3 5 q 9 0 w y W y q 9 9 9 q q y y W y q 9 9 q q q 9 q y 9 + d V././.^.^././.A.7.g g x z l l l l z x x l l x x x x l l l l l z x x x x z l l l l l l l ",
"K.K.K.K.K.K.K.K.K.K.K.K.K.K.K.K.K.K.K.K.K.K.K.K.K.K.K.K.K.K.K.K.K.K.K.K.K.K.K.K.K.K.K.K.K.K.K.K.K.I.I.w.m 4 3 9 r y 0 0 y y q q 5 9 q y y y 0 9 9 9 9 9 0 9 9 q y 9 + d V././.^.^.^.^.I.I.K.K.K.K.K.K.K.K.K.K.K.K.K.K.K.K.K.K.K.K.K.K.K.K.K.K.K.K.K.K.K.K.K.K.K.",
"/./././.(././.(././././.(.(././././././././././.(.(.(.(././.(./././././.(.(.(.(.(./.(.(././././.(.(.(.S.F q 9 5 9 r 0 w y y w q 9 9 q r y y w q q w q 0 0 0 w p W 9 + s V././.^.^.^.^././.(.(.(././././.(.(.(.(././.(.(././././.(.(././././.(.(././././.(.(.(.(.",
"^.^.^.^.^./.^.^.^.^.^.^.^.^.^.^.^.^.^.^.^.^.^.^.^.^.^.^.^.^.^.^.^.^.^.^.^.^.^.^.^.^.^.^.^.^.^.^.^././.F.K ) q 5 9 0 y y y y y y 0 9 9 q y W W W y y y y 0 0 W ) / 0 ; h V././.^.^.^.^.^.^.^.^.^.^.^.^.^.^.^.^.^.^.^.^.^.^.^.^.^.^.^.^.^.^.^.^.^.^.^.^.^.^.^.^.^.",
"^.^.^.^.^./.^.^.^.^.^.^.^.^.^.^.^.^.^.^.^.^.^.^.^.^.^.^.^.^.^.^.^.^.^.^.^.^.^.^.^.^.^.^.^.^.^.^.^././.F.K ) q 9 9 q y y q q y y t t w y W W _ / ) R W w 0 0 0 y ) q ; s V././.^.^.^.^.^.^.^.^.^.^.^.^.^.^.^.^.^.^.^.^.^.^.^.^.^.^.^.^.^.^.^.^.^.^.^.^.^.^.^.^.^.",
"^.^.^.^././././.^.^././.^.^.^.^././././.^.^././.^.^././././././.^.^.^.^.^.^./.^././././.^.^.^.^.^././.F.K _ w q q q y y w w y y i i w y W / ( / R y y q 0 0 0 q y q > h V./././.^.^.^.^.^./././.^.^.^.^././././././././.^.^.^.^.^.^.^.^././././.^.^././.^.^.^.^.",
"/././././././././././././././././././././././././././././././././././././././././././././.^.^.^.^././.F.P ..W y y y y y p p y y y w q q y y w w q 9 9 9 q y w y w w w F S.(././././././././././././././././././././././././././././././././././././././././././.",
"H.H.H.H.D.H.H.H.H.H.H.H.H.H.H.H.H.H.H.H.H.H.D.D.H.H.H.H.H.H.H.H.H.H.D.D.D.H.H.H.H.D.Z.V.I./.^.^.^././.F.P o.W y y W y ) ) ) y y y y 0 q y u w w q 0 9 9 q y W y q w ^ A e.D.H.J.H.H.H.J.H.H.H.J.J.J.J.J.H.H.J.J.H.H.H.H.J.J.J.J.H.H.H.H.H.H.H.J.J.J.J.J.H.H.H.H.",
"&.&.&.%.J J U T Y &.&.&.&.&.&.&.&.&.%.%.%.%.J J %.%.%.%.&.&.%.Y l.l.P J %.%.&.&.&.H = x V././.^.^././.F.P X.w 0 y W y W y y q q y y y y W / ( ( W W y q 0 0 y y q q ) ) Z A %.=.&.&.*.*.&.&.*.!.!.*.=.=.*.*.*.*.&.&.&.&.=.=.*.*.*.*.*.&.%.&.*.!.!.!.!.*.*.&.&.&.",
"o.o.o.' / ) a [ [ { o.#.o.X.' ' o.o.{ ' ' ' ' ' ' ' ( ( ` ' '  .S S ! / ' { { ` { y - h V././.^.^././.F.P ..w 9 q y y y p t w w y y y W W / / / / W y q q q y y w w p ) ~ ' :.>.#.#.#.#.o.o.#.#.#.,.:.:.#.#.#.#.o.o.o.#.:.:.#.#.#.#.o.o.o.#.,.,.,.#.#.#.#.o.{ ` ",
" . .! y 0 0 0 q q w ( ' ` ) w w ) _ ! y 0 w / ' ! w 6 6 9 0 y y 0 9 9 q ) ) w q q 5 o h V././.^.^././.F.P ..w 9 9 q y y i i p y y y y W W W ) ~ R y q q y y y y y y y ) ) ` o.@... .` ` ` `  ............. .` ` ` _ _ `  . .! !  . .! !  ...o.o... .` ` ` ) w q ",
") ! W y q 9 9 9 q y ) ( / W w q y W W y q q W / W r q q 9 q y y q 9 0 y y y q q q 9 + s V././.^.^././.F.P ..y q q q q w p p w w y y w w W ) W y y y w w ) W w w y W y u ) )  . ._ ) ) ) ) ) ) _ ....` _ ' ` ) ) W y w w W ) y W ) ) w q y W _ _ _ ! w w p p w q ",
"y y W y q 9 q q y W ) ) ) W W y y W ) p q q y W W y y r q q y y q q y y W y w w y 9 + g V././.^.^././.F.g.X.w q r r q q r w q q y y 0 q ) ) ) y y y y W ) ) q 0 y y y y y ) ) ) y y ) ) ) y y ) ' X.` ( ' ' ) W y y 0 0 y u y ) ) p q 9 9 0 y y y r q q w y y y ",
"y W W W y q 9 0 y W ) W W W W y y W ) y q q y ) ) y w q 9 0 y r 9 9 r W / / / ) ) 9 + f V././.^.^././.H.Q.@.y 9 q q r r q q r w q q q R ( ( ) y y y 0 w / / q 9 q w y y y ) ) ) q 0 y W R y y ) ) ( ( ' ( ( ) ) W y y y y y y ~ ) y q q q q y y q q r q q q y W ",
"y W W W y r 0 0 W ) ) y w w y y y y W y w w ) _ ) p q q 9 0 y y 9 9 r _ ' { ' ( ) 9 O d V././.^.^././.H.Q.o.W 9 q w y y q q y y q q w ~ ( ' ) W W y 0 w / ( w q q q y y y ) ) ) w 0 y y y y y y y ) ' ' ( ) ) ) ~ ~ ) ) ~ y R R R y w q q q y y w w w q 9 9 w ) ",
"y W W W w q r W _ _ ) w 9 9 w y q q y y y y _ _ ) y q q 9 0 ! ! 0 0 ! ..o.{ / ~ ~ 9 + f V././.^.^././.F.P ..W y p p y y y r 0 0 y w q w ) / ) W W W y y ) ) q q q q y y y !  ._ W y y y w q y W ) / ' ' ( ) ) ~ u u ~ ~ y R W W W y y w q q y W W y w q 9 0 y ) ",
"w w W y w q y _ ..' ) w 9 q w y 0 0 R ) W W _ _ W y w q 9 q ! ! q q y ` o.o./ W ~ 9 + f V././.^.^././.S.L  .) W ) ) W y y q 9 9 q q w w y W W y y y y ) ) p w q q 9 q y y W _ ) y q q q 9 q y y y ) ' ' ( ) ) ~ ~ ~ ~ R y W ) ) ) p y w q q y W W y q q 9 q ) ` ",
"0 0 y y y y ) ` { { / r q q y y 9 w / ' ) ) ) ) W y y r q q y y q q q p { { _ W ) 9 + f V././.^.^././.P.f.D  .) ) ) ) p w 9 q 9 9 0 y y y y 0 9 9 0 y u ) p y w q 9 9 0 y ) ) p q 5 9 9 9 q y y q w ( ' ( ) ) ) ~ R W W R ~ ) ) ) p w 9 9 0 y y 0 0 y r q w )  .",
"0 0 q r y W W _ o.o.) y w w w w q R ' { ( ) ) ) w q q q q r y y q q 9 q ~ ) y y W 9 + f V././.^.^././.S.s. ._ ) ) ) ( ( w q 9 9 q q w w y w q 9 0 q w w y y w w w q 9 9 y ) _ p q 9 9 q w y y y 9 q ) ' ' ( ) W w w W y w w u ) ) y w q 9 q q q 0 9 q q q y ) _ ",
"y y q q y y y ) ....! y y y q q y ) X.o.` ) ) ) w 9 9 0 y y y y q q 9 0 q q 0 0 y 9 + d V././.^.^././.F.K ' ` ) ) ( ' ( w q 9 0 w y q q y y 9 q y y q q y y q q y y q q y )  .) w q y W W W y y 0 r W / ' ( ) y 0 0 y y q q y W y y y w q 9 q 9 9 9 q q r y y ) ",
"W y 0 0 y y y ) ` ` ! y y y w w w y  ...) ) ) ) p w 0 9 q r W y q q y ! y y w q q 5 O d V././.^.^././.F.P o..._ ` / / W q q 9 9 q q w y y w 0 0 y y 0 9 y ! y p W ) _ _ ) ) ....p y ) ) ) y w w / _ ) R R y y y y y y y 9 q y ) ) y w w y y q 9 q w q q q w y y ",
"y y 0 0 y y y ) ) ) y y y y y r q w ) _ ) ) / ( ( ) q 9 9 q y y q w )  . ._ ) y q 2 O d V././.^.^././.F.P o... .) ) W y q q q 9 9 0 y W y y 0 9 y y 0 0 y y ) ) p ) ' ' ) ) ' ' ) u ) ) ) y q w ` ' ) y 9 9 y y y y y y 0 0 W ) ) p w w ) ) w q y W W y q q y y ",
"y y q q y y y ) _ ) w w y y w q q y _ ' ' ' ' ' ( ) y r q q y y 0 0 y ! _ ` ) p q 2 O d V././.^.^././.F.P ..` ) ) ) / / q 9 9 q w y R R y y y w q 0 w y q q w w q w w w y ) ) ) ) y w w p p q 9 q w y y 9 9 y y 0 0 y y y y W W W y y y W y q 0 y W W y y y y y ",
") y w w y y W ) _ ) w w ~ ~ w w y W ' ' ' ' ' ' / ) W y q w y y q 0 y W ) ) ) ) w 5 O d V././.^.^././.F.K ..` ) ) ) ( / q 9 9 q w y W ) W y y w 0 q w w q q q 9 q q 9 0 y y y y y w q w ) ) w q q q y y q q y y w q y y ~ y y y y y W y y w 9 0 y y y y y y y y ",
") ) ) W y W W ) _ ) ) ) ( ( ) W y ) ' ' ( ( ( ) ) W y y y y y y y y y y y W W W y 9 O f V././.^.^././.F.P o.` ) ) ) ) y 9 q q 9 9 w ! _ ) y 0 0 w y q q q 9 9 0 q q q q y R y y q q r y ) ) ) ) ) ) R y y y y R ) ) R y u y 0 0 y ) ) p w 9 q q y y y y q q y y ",
"' ` _ / ) ) _ _ ) ) / _ ' ' / / / ( ' ' ` ` / / W W ~ ) W W ) ~ ~ ) ) ) / _ _ _ ! 9 + d V././.^.^././.H.Q.#.' ) ) ) y w w w 9 9 9 0 ! _ ) w 0 0 y u w w 9 9 9 q y y w w ) ) ) u q q y W ) ) ` ` _ ) u w w y W ) ( ( ) W y q 9 q y ) ( ) q q q w y W ) ) w w W ) ",
"' / W W y y ) ) y y W W ) ) y W / ' ' ( ) ) W W y y y y y y y y y y ) ) ( ' { ..! 9 O f V././.^.^././.H.Q.#._ y y w 0 9 q q 9 9 9 9 w y y r 9 9 q y y q 9 9 9 q r y y y ) ) ) y q q r y y y ) ) W y q q 9 0 y W ) ) W y 0 9 9 q y ) ) p q 9 w y y y ) ) y y ) ) ",
"4 4 > > > > < , : : : : > > : : 3 4 4 4 3 > : : > > : : : : > > : : > 3 4 4 4 4 > + X s V././.^.^././.S.N 9 3 > > : ; ; : : ; ; ; ; : : : : - - - : > > ; + @ @ : : : : > 2 > : : : : : : : > 2 > : @ @ - - > > > : : : ; + @ : > 3 3 > : @ : : : : > > : : > 3 ",
"& & & & & & % % % % % % & & % % & & & & & & % % & & % % % $ & & % % & & & & & & % % & x V././.^.^././.V.v * & & & & % % % % % % % % % % % % & & % % & & # # % % % % % % & & % % & & % % % $ & & % % % % & & & & $ % % % % % % % & & & & $ % % % % % & & % % & & ",
"q.q.q.q.q.q.q.q.q.q.q.q.q.q.q.q.q.q.q.q.q.q.q.q.q.q.q.q.q.q.q.q.q.q.q.q.q.q.q.q.q.q.q.V.I./.^.^.^.^./.I.V.q.q.q.q.q.q.q.q.q.q.q.q.q.q.q.q.q.q.q.q.q.q.q.q.q.q.q.q.q.q.q.q.q.q.q.q.q.q.q.q.q.q.q.q.q.q.q.q.q.q.q.q.q.q.q.q.q.q.q.q.q.q.q.q.q.q.q.q.q.q.q.q.q.q.q.",
"/./././././././././././././././././././././././././././././././././././././././././././.^.^.^.^.^.^.^./././././././././././././././././././././././././././././././././././././././././././././././././././././././././././././././././././././././././././././.",
"/./././././././././././././././././././././././././././././././././././././././././././.^.^.^.^.^.^.^.^././././././././././././././././././././././././././././././././././././././././././././././././././././././././././././././././././././././././././././.",
"^.^.^.^.^.^.^.^.^.^.^.^.^.^.^.^.^.^.^.^.^.^.^.^.^.^.^.^.^.^.^.^.^.^.^.^.^.^.^.^.^.^.^.^.^.^.^.^.^.^.^.^.^.^.^.^.^.^.^.^.^.^.^.^.^.^.^.^.^.^.^.^.^.^.^.^.^.^.^.^.^.^.^.^.^.^.^.^.^.^.^.^.^.^.^.^.^.^.^.^.^.^.^.^.^.^.^.^.^.^.^.^.^.^.^.^.^.^.^.^.^.^.^.^.^.^.^.^.",
"^.^.^.^.^.^.^.^.^.^.^.^.^.^.^.^.^.^.^.^.^.^.^.^.^.^.^.^.^.^.^.^.^.^.^.^.^.^.^.^.^.^.^.^.^.^.^.^.^.^.^.^.^.^.^.^.^.^.^.^.^.^.^.^.^.^.^.^.^.^.^.^.^.^.^.^.^.^.^.^.^.^.^.^.^.^.^.^.^.^.^.^.^.^.^.^.^.^.^.^.^.^.^.^.^.^.^.^.^.^.^.^.^.^.^.^.^.^.^.^.^.^.^.^.^.^.^.^.",
"/././././././././././././././././././././././././././././././././././././././././././././.^.^.^.^.^.^././././././././././././././././././././././././././././././././././.^.^.^.^.^.^.^././././././././././././././././././././././././././././././././././././.",
"I.I.I.I.I.I.I.I.I.I.I.I.I.I.I.I.I.I.I.I.I.I.I.I.I.I.I.I.I.I.I.I.I.I.I.I.I.I.I.I.I.I.I.I.^.^.^.^.^.^.^.^.I.I.I.I.I.I.I.I.I.I.I.I.I.I.I.I.I.I.I.I.I.I.I.I.I.I.I.I.I.I.I.I.^.^.^.^.^.^.^.^.I.I.I.I.I.I.I.I.I.I.I.I.I.I.I.I.I.I.I.I.I.I.I.I.I.I.I.I.I.I.I.I.I.I.I.I.",
"n.n.b.b.n.m.n.n.n.n.n.n.b.h.h.h.h.d.d.d.d.h.h.h.b.b.h.h.h.h.h.h.h.h.h.h.h.h.h.h.d.t.b 8.K././.^.^././.L.u.d.d.h.h.d.d.y.y.d.d.h.h.h.h.d.d.d.h.b.b.h.h.h.h.d.d.d.h.d.n 8.K././.^.^.^./.U.W.m.n.b.d.y.y.d.d.b.n.n.n.j.h.h.h.h.h.h.h.h.h.h.h.h.h.h.h.h.h.h.h.h.j.k.",
",.$.@.$.3.3.2.2.,.2.2.$.@.o.o.o.o.O.......o.o.@.#.#.@.@.@.@.@.@.@.@.@.o.o.X.o... .r ; s V././.^.^././.F.K ..o.o.o... . . . ...O.o.o.o... . .@.$.@.@.@.@.@.o.....#. .: h V././.^.^././.R.~.4.3.#. .)  ...o.@.$.,.,.,.#.@.o.o.o.o.o.o.@.@.@.@.@.@.@.@.@.@.@.#.,.<.",
"X.X...o.#.#.o.o.X.X.o.o...` p p ) _ _ _ _ _ _ ` { { ' ' ........' ' ' _ W y y y w 9 + f V././.^.^././.D.K ' ( / _ W w w w w w W ! ) p u w p  .o...' ' ' ' ' ....o.W - h V././.^.^././.R.Q.<.#.` w q ) ` ` ..o.O.........' ` _ _ _ _ ....' ` _ _ ` ` _ _ ` ' o.o.",
"u ) _ ..o.o..._ ) ) _ _ _ ) w q q y ) ) W W y W ' ' / _ .... ._ _ ) ) W 0 9 9 9 9 > O d V././.^.^././.F.P ' p w y 0 0 9 9 9 9 0 y y w q q w ) ) ) ) p p ) ) _  . .q ; s V././.^./././.R.Q.,.{ y 9 9 y ) ) ) _ ) y y ) _ ) p y y y y ! ) ) ) y W / ) y y W ) _ ..",
"q w W _ ' { { ( w w ) _ ) W y r q q y ) ' ( ) ~ ' ' / _ X.X./ ) ) W W y y y 0 9 9 : O d V././.^.^././.F.P X.p 9 9 0 y q 9 5 9 q p ) u y p ) ) W W y q w y ) ) _ ) 9 + f V././.^.^././.R.Q.,.X.) y y y ~ ~ ) ) y q w ) ) w q y y y y w w y y y ) ' / w 0 y W ' ' ",
"w w W / ( ' ( ~ q q y W y y y y q 9 y ~ ) ) W ) / / R W ` ' ) y y y y y y q 0 9 9 2 O d V././.^.^././.F.P X.y 9 9 9 y r 9 9 q w ) ) W y p p p y y q q w y R W ) ( w + f V././.^.^././.H.Q.#._ y W W y y y y y y w w y y q q q y y y w w y y y W W R w q y W / ( ",
"W ) ) ) ( ) ) y q q y y q q y y 0 9 y y 0 0 W ) ) y 9 q ) ) ) y q q y y q 9 9 9 9 2 O f V././.^.^././.F.P ..w 9 9 q y y 0 0 y y y y y y q q p p q q r y y y y / { ~ @ f V././.^.^././.F.g.O.y 0 y ~ u y y y y y y y W y q 9 9 0 y y y y y y y y 0 0 y y y y W ~ ",
"W ) ) ) ) ) / ) ) y y w q q y y 0 9 q q 9 0 W ) ) y 9 q ) / y w w w y y q q 9 9 9 3 O d V././.^.^././.H.Q.O.y 9 9 9 0 0 9 0 y y w w y r 9 q y y q q y y w w p / ' y ; s V././.^.^././.F.g...w 9 y u ) ) W y y y w w W W y w 9 q w W ) ) y y w q q w y W y W ) ) ",
"y ) ) ( ) ( ' ' .._ ) y 0 0 y y 0 9 9 q 9 q ) ) ) y 9 w ( ( w q y y W y q 9 9 9 9 2 O d V././.^.^././.R.Q.#.p 9 9 9 9 9 9 0 y y q q y q 9 9 w y 9 0 y y q w ) / ) 9 ; h V././.^.^././.F.g...w 0 y ) ) ) W y y y 0 q W ) p w q q y W ) ) W y q q y y y y y y ) ) ",
"y W ( ( ( ` { { _ W y y w q w w w q 9 q 9 q y ) W y q w ( ' y y y ~ W y q 9 q q 9 : O g V././.^.^././.F.g.o.y 9 9 9 9 9 9 0 y ) y r q q q 9 y y 9 0 w y y u ( ' ) 9 + f V././.^.^././.F.g...w 0 W ` ' ( W y y y y y W u w w q y y y w w y y y y y y 9 9 9 q y W ",
"y W / ( / ` X.' ) y y y y w q w y y w q q q y y y q 9 w ) / W W y y y w 9 0 y r 9 : O g V././.^.^././.F.P ..w 9 9 9 9 9 9 w W ) y q q q 9 q w w 0 q y y y R ( ' ) 9 + f V././.^.^././.F.g...w q ! ` ' / y y y y u y y y q q y y y w 0 0 w y y y y 0 9 9 9 0 y W ",
"y W W ~ ~ ) ( ( ) y R y w q w y y y y w q q y y 0 9 9 q y W W W W y w 9 9 0 y y q 2 O g V././.^.^././.F.g.X.y 9 9 9 q q r y W y w q q q 9 9 0 q w y y y q q R / / q ; s V././.^.^././.F.z.o.y q y ) ) u w q y y u y y y 0 0 y y w q r r q w y y 0 9 9 9 q y y W ",
"y y W u y y ) ) ) u ~ y w w y W y y ) y q q y y 0 9 9 w y W W W y q q q q q y y q 3 O f V././.^.^././.F.g.X.u q 9 9 q q r y y y q q q 9 9 9 9 0 w y y y q q y ) / q ; s V././.^.^././.F.g.o.p q y W W y w w y y y y y q 9 q y y w q q q w w y y q 9 9 q y y y w ",
"y ) ) p w w ) _ ) y y y y y W W W ) ) W q 0 W W 0 9 y y W W W y q q r y y y y y q 5 O d V././.^.^././.F.g.X.u q 9 0 y y q q y y q q q 9 9 9 9 0 y y y y y R W / / 9 + f V././.^.^././.F.g.X.u q r W W W W W y y y y q 9 9 q y y y y 0 q y ) W W y y q q y y q 9 ",
"y ) ) ) w y  ...) y y y u ~ ) ) W ) ) p q q ) p 9 9 y ~ ) W y q w w w w y y w q q 5 O d V././.^.^././.F.P  .w q 9 9 9 9 9 q W ) y w w q 9 9 0 w y W W ) ) W W ) / 9 + f V././.^.^././.F.P  .w 9 q y W W y w y W W y w q q q q y W W w q w y y W ) y q q y y y w ",
"R ) ) ) y ! ....) y y y y W W W W ) / ) w w p y 9 9 w u y y 0 0 y y q q y y 0 0 y 9 + d V././.^.^././.F.K _ w 9 9 9 5 5 9 w / ' / W y y 0 0 w y y W ) ) ) W ~ ) ) 9 + f V././.^.^././.F.L _ w 9 9 q y y 0 0 y W ) ) u w q 9 9 0 W ) u w q q y y y y q q y W W W ",
"_ _ ) ) y ) _ _ ) y y y y y W W ) / ( ( u y y y q q w y w w R R w q 9 q y y w y W 9 + d V././.^.^././.F.P ..y q q 9 9 9 9 q W / ) W W w q 9 y W W W ) ) W W R ~ ) 9 + f V././.^.^././.F.P ..W 0 9 9 q q q y y W ) u w w w q 9 0 y y w w w w y y w q q w y y W W ",
" ._ ) y y y W W y y y y R W W W ) ( ' ' ) y W y q q w y q w / W r 9 q q r y y ) ) q + f V././.^.^././.F.P o.) r q 9 9 9 9 q y y y y y y q w y y y y y W W y y ~ ~ 9 + f V././.^.^././.F.g.o._ y 0 9 9 q y y W R ~ y w q y w 9 0 y y q q y u u y 9 0 y W y y y y ",
") ) W y 0 q ) ) w 0 q w W / / ( / ` ` _ ! W ) p q 9 9 q y y w 0 9 0 q r q q y W ) q + f V././.^.^././.F.g.X.p q w q 0 9 q q y y w w y y y y y y 0 0 W W W y y ~ ~ 9 + d V././.^.^././.F.g.o._ r 9 9 q y y y R ~ ) ) y r 0 0 9 q p p q q y ~ ~ y 9 q y W W y y W ",
"y y y q 0 q W ) w 0 q w y ) / ( ) ) _ _ W W ) p w q 9 9 w w 0 0 0 q y y w w y ! _ r + d V././.^.^././.F.g.X.p q w q 0 9 q q r r q w y y y y y y q w W W W y y R y 9 O d V././.^.^././.F.g.o.! r 9 q q w y y y p ) ) W y 0 9 9 q p p w w y R R y 9 q y y y y y y ",
"y y q q w y R R y y y w q w y W W ) ) ) ) y ~ y y r q 9 9 0 w y y y y ! ) ) ! ! ..y + d V././.^.^././.F.P o.) r q q 9 0 y r q q w y y y 0 0 y R y y R R y y y y q < O d V././.^.^././.F.g.o.! y y q 9 9 r y q w )  .) y q 9 9 0 y y y y y y R y 9 0 W W w 9 0 0 ",
"r q q w y y y q w w w q q q y y W ) ) ) ) ) W y y w q q 9 0 y W W W y W ! ! ! ! ' y + d V././.^.^././.F.z.#._ y q 9 q q r q q q y y y 0 9 9 q w w y y y y y y y w 9 + f V././.^.^././.F.g.o. .! y w q 9 y y q q ) _ ) y q q 9 q y y y w y y y y q w W y w q 9 9 ",
"9 q y y y y 0 9 9 9 9 0 y y y W ) ) ) _  ._ ) y q q q 9 9 0 y y y y y W W y y W _ q + d V././.^.^././.R.Q.,.' y 0 0 y y 0 9 9 q y y 0 9 9 9 q 9 9 0 y y y y y y W 9 ; s V././.^.^././.F.g.o...) w q r y y y q q y ) ) y q q q w W W w q y y y y y y y y y y 0 9 ",
"w w y W y y 0 9 9 9 q w y W W W ) ) ) ) ` ' ( ~ q q q q q 9 0 q q w ) ) ) W y W ) q O f V././.^.^././.F.Q.O.( w q w y y w w q q q q q q 9 0 q q 9 q y y w w y y y 9 + d V././.^.^././.F.g.#. .! w q 0 y y y r y ) ) ) y q q q y ) ) p y y y u u ) W W y y y w w ",
"y y u y y y 0 9 9 0 y y y W ) ) ) y y ) ' { { ( w q r y q 9 9 9 9 w )  .` ) W W ) q + g V././.^.^././.F.g.X.p q y W W W W W W y q q y y 9 0 y y q q y y q q w y 0 > + g V././.^.^././.F.z.#._ y y y 0 0 y W y W ) ) ) y q q y ) _  ._ ) ) y y ) ) ) W y y y y y ",
"W y y y y y q 9 9 q y y y W ( ( W y ) ` #.:.{ ( w q y y y w y y w y ) ) _ _ W W ) ! 9 M Z././.^.^././.F.g.o.( y y W W ) ) W w 0 y y y y 9 q y y y y W ) p y w q 9 9 9 M Z././.^.^././.F.g.o._ y y y q q y W W W ) ) ) p q q y W ) ` ` ) ) y ) W W W W y y y u ~ ",
"W y y u R y q q q q y y y W ' ' W W ) { :.>.} ( w q r y y y y y y y y )  . .) )  . .W G S././.^.^././.F.g.o.' ) W W ) ( ) W 0 0 W W W y q q y W W W ) ( ( p q q 9 9 R G D././.^.^././.F.g.o._ y y r q q y W W ) ) ( ( p q q y W ) ( ) ) ~ R ) W W y y y y y u y "
};
