/* XPM */
static const char *tywfall1[] = {
/* columns rows colors chars-per-pixel */
"128 128 45 1 ",
"  c #00002C",
". c #000031",
"X c #000035",
"o c #00003B",
"O c #00003E",
"+ c #000042",
"@ c #000047",
"# c #00004B",
"$ c #00004C",
"% c #000052",
"& c #000054",
"* c #00005A",
"= c #00005F",
"- c #000061",
"; c #000067",
": c #000069",
"> c #00006D",
", c #000071",
"< c #000075",
"1 c #00007B",
"2 c #00007E",
"3 c #000080",
"4 c #000085",
"5 c #00008A",
"6 c #00008F",
"7 c #000091",
"8 c #000095",
"9 c #00009B",
"0 c #00009C",
"q c #0000A3",
"w c #0000A7",
"e c #0000AA",
"r c #0000AE",
"t c #0000B3",
"y c #0000B4",
"u c #0000B8",
"i c #0000BC",
"p c #0000C1",
"a c #0000C6",
"s c #0000C8",
"d c #0000CE",
"f c #0000D1",
"g c #0000D7",
"h c #0000DB",
"j c #0000DF",
/* pixels */
"%*;=&->>;&%%$#$=14342;%#@@@@##$=1<*#@@@@#%=:>:=%##%$@@@OO@#%-:=%#%;3862,;&$#$%#@@*20rw5=@@&::,66;$####@@&<682,55-%%=;=&;>>-&%%#@",
"@$%%&>2,-&%%$#$=12,12;%#@@#%%%%*;;&$#@@@#%=:12-$##%$@@@OO@#&>2;$##&>3<>>-$#%%%#@@*1783;%@@&:<4w0;##&;=%##%->>>21=$#$&%*<2>-&%%$#",
"@#%=:>:*%%%%%%%=12><2:%#@@$%$#$*;-&%%#@@#%;242;%%%%$@@@OO@#&>2;%##%:2<::;&%%%%#@@&:23:%#@@$&>341&@@&;=%##%;23341=$##&-:>;*%%%%%%",
"@#%=:>;*%%&&&%%=11><3<;%@@#%%%#$;;&$#@@@$-<343<;*$#@@+O+@@#%-:*%%%%=>>::;&%%%%##$-277:@OO@&;:>>;$@@$%$@@#%;24476<=##&-::-&%%&&%%",
"@%;>:=&%%%=;=%%*;;*:2<;$@@$%$#$*;;&%%$@@#%;2796<=$###@@@#%%%&&&%%%&:2<::;&%%%%##$*:47:@@@@$&-:>-$@#$%$@@%-<34342,=#&:>:*%%%&-;*%",
"@*142;%##%=:=%%*;>:<2:%#@@@@@#$*;;&=;&@@@@&>7e71>:;=%#@@@#$%-;*$##%:2<::;&%%%%#@@%:48,%#@@$&->>;$#%=;=%##%:34341=$#-241-%##%-:*%",
"@*143<;%#%=:=%%=11><2:%#@@@@@#=:::::;&@OO@&:>>>;*&&$@+O+#%%&-;%#%&&>2<::;&%%%%#@@*20e1%#@@&:<475-%%&&%%#%-<3444<&@#-242,-$#%-:*%",
"%*:>::;%#%=;=%%=11>131;%@@+O+#=::::-%#@@#%=:>:=&%%%$#@@@#%%&-;%$-<32,>:>;*&%%%#@@*20e1%#@@&:<341=%%%%$#$%&;3434<%#%=>>::-$#%-;*%",
"%=:-&%%%%&&&&%%*:<39e8<&+Ooo+@##%&&$#@@@#%=:>:*%%%%%%#@@#%%%&*->27eye4,133>&##$%#%:7e2%#@@$&->>;&%%%&%%##%;243<;$#%-:=&%&%%&&&&%",
"%-1>&##$*;<2:&%=158wr5;%+OX.XO+#%&%%%#@@#%=:>:=%##%&%$@OO@$&>33337ryt82,::=#$%%%##&183-$@@$&-;&#@#%=;=%##%;2433<%#%:1;%##%*:<1-&",
"%*:>:=%##%:2<:;,675793;%+OX.XO+#%&%%%$@@#%=:>;*%#@#*;&@OO@=132,>17rpp7;%##$%%%$@@%;48,%#@@&;>;%@@#%-:=%#%;<343<:&%%=:>;*$##&>2,:",
"%*:>:=%##%;2<:*%&>7ee1%#+OX.XO+#%&%&%#@@#%=:-&&%#@@*;&@@#%&&*&$%-4eur5;%@#$&&%##$*:47,%#@@&;>:&##%;:;&@@%;<34341=%%=:>:*$##&>2,:",
"@*142;%##%=:-%#$-2883;%#+Ooo+@@#%&%%%$@@%;<2<::-$@@###@@%-:>11*$-4eyr8<&%;<2<:*%%*:12-#@@@#&>486,-&$#@@@%;28634<&@#-231=$##%-:=&",
"@&:>:&@@#%=;=&%=<3342;%#@OX.XO+#%&%%%#@@%;<231-%#@@$%#@@#%;242*%<8rye4>14863,:::::>12:%#@@#&4ty0;$#@@+O+%;<3334<&@@*>>;%@@#%-;=&",
"@*1>&#@@#%%&-:::::>12;%#+OX.XO+#%&%$#@@@#%=:>:=%#@@@@@@@@#=241-=1695>=*<43>$@#$=<5873<-%@@#*8pr4*@@@@@@@#%=:>,2<&@#-1:%#@@#%%&-:",
"@%;-&$@@@#$%-:>;**:12;%#+OoooO+#%&%$#@@@#%;242-%##%$#@@@#%&&&*;,2431>=*;>>=#@@@&<6873:%#@@%:qi7;$+O+@@@@#%=>1441=$#*:=%#@@@#$&->",
"@#%=;=%##%$#*:>;*-142;%#@@@@+O+#%&&&%$@@#%;242;%#$&&%$@@#%%&>342>:>13<::>:-&#@@$;<343<;%@@%:8r8<%+OoO+@@#%>8ee4;*$#$&-;*$##%$$=:",
"@#%-:=%##%$#$*,2,:>12;%#@@@@@@@#%-1<:&@@%;>>12,-&-11:&@@%;:>7e8,&%:382::::-&$#$=<1><3<;%@@%:8r9<&+OoooO+#%1eye4;*$#$&-;*$#$%$#%&",
"@%:>:=%##%=;&$=,22>::=%#@@@@@@@#%&&-;&@@%;<21:=%#%:>;&#$=269ew<%#%:382::;*&&%%%%&=:<3<;%@@#&5tw4*+O+@+O+#%;34441=$#*:>:*$##&-;%@",
"%:672=@@%;>:&#=<76,-&&%#@@@@+O+$--&$##@@#%;21:*$#%;-&$@@-0tr92*@@%;13<>>>>>:=%%%%*:12;%#@@#*8pr4*+@$%#@@#%;24341=%%,76<&@@&:>:%@",
"@=22:&#$=142-#$=143<:=%#+OoOOO+#%=;=%#@OO@&:12;%#%;-&$@@&1784:%@@#&18633582*%%##%*:12-#@@@=3qr9<%@@$%$@@#%;23476,*$;31;%#%;241*@",
"%-21:&@@&143:&%*;>><2;%#+OO@@#$&;-&$#@@@#%*>471=$%;:;&@@%;>>>;%@@*19e4>1585>&#@#%*:37,%#@@;8up0<%+O+@#@@#%=:>>21=%%:2<;%@@=242-%",
"%*:>:&@@%;13<:::>;*:2<-$@@#%%%##%%#@@@@@#%;277>%##%&%$@@%;-*-:=*;,243-$$:683:%#@@#&17,%#@@=3rp0<%+O+@$%##%=:>>21=%%=:>;%@@&:13,:",
"%*:>:&@@%;<3<>>,21><2;%#@@$%$#@$;;&$@OO+#%=:12;%#@#$%$@@%;::3852,-*:2<;%&1683:%@@%;13<-$@@=3rpq<%@@@#$%##%=:1341=%%=:>;%@@&:13<:",
"%*:>:=%#@#-2<,599731>&@OO@##@#$=1<*$@OO+#%=:>:=%##%%%$@@#%=:1342,-&:341=%&,772-*;:>13:%#@@&:40r9=@@@@@@@#%=:39r0;$%=:>:*$#@$:2<>",
"%-242;%##%=>147995,<2=@@#%$#@#$=1<&#@OO+%;>:>:=%#@#$%$@@#%%&>2<>>-*:2<:=&&=:13,>158083;%@@#&>486-##@@#@@#%=:<5w0:$&:341-$##%-,23",
"%-242;%##%;2433341>12-@@#%$#@#=,2,%+OoO+%-::>,2<&@@$%$@@#%%&>3<,22,>>>,21>*$;2,;*:7ete6=@@#%=>2<&@@@#$%##%=:<5wq:$&:341-$##&>343",
"%-21:&#$*;2873,>>,243:%##%$##&-,32>*@OOoO@&:7ew5-$#$%#@@#%=:481>17e932231>=#$&$#@*2wai0-@@$%&*;-$@#$%&%##%%&:4ww1=&:2<;%#%*:4853",
"#&:-&##$-16862,>>,39e5;$#%$@@#*1qq4;#@@OO@&:8rw6-$#@@+O+#%;3qw:$-2873;&&*;-&%%#@@%:6r91&@@$&-;&#@#%%%%%##%$#*<0w2=$*:=%##%;27853",
"%*:*#@$-,243:*,34440r91&@@+O+@@*56,*#OooO@&>8tw7<=#@@+O+%-<387-@@=242;%%%&&&-;%@@%;131;%@@&:>>>-$@@##$%%%%%%=,67<-&=:&#@%;<342;&",
"%*;*$=::,243;*>7upytr8<&@@@@+O+&<<*$@+ooO@=30tt01=&%%#@@#%;352*#$-242;%#@#=1<;%@@$&>31;%@@=29w7,%@@$%%%%%%%&-:>>:-&=;&$-::<342-%",
"%%&:2<:::>>:=&-2qiapr1%#@@@@@@@#%&&&%$@OO@:7082;*%%%%$@@@@=241*$->>>:=%##%&&&%##%-29r91&@@&:23<-$#%=;&#$%%%&-:>:*&%%*,2,:::>>:*%",
"%*:6w4;**;>:=&-,28rye1%##%&%$@OO@%;>;&@@#%;21:=&%%%&%$@OO@&:>:%$;<31:&@@%--&$#$*<48tpq1&@@#&>2;%##%:2;%%&&&&=>12,-&*>8q2-&=:>:=&",
"&*:13:%#%;13<;*=18rr9,%##%=;*@OO@%;>:&@@#%=:>:*%%%&&%$@@#%$#*;%%,7e02=@@#%=;*#$%&-20r5;$@@#&>2;%##%:1;%%-1>&=>243,*=:22-$#&:13,:",
":-*=:=&%-1683:&-5wre8>%#%-::&@@#$%&=;=%##%=:>:*%%*;:;&@@#%&%&%#$;<343;%##%=:-%$#@%:47>#@@@#&->>-$@#$&$$=,2,*=,6851>-*-;*%&;2781:",
"31:=*-::>29e6:$*4qre8,%##%&&$@@#%%#$%$@@#%=::;*%%%&-;&@@%;-&%%#$-<342;%#%;>::;*$#%;12:%#@@&;::>-$@@$%##$-13335qw633<:**;::,30e3:",
"4<==::;**:6r7:%$;>>13<-$#%&%$#$*;=#@@+O+%;>:-&&&&&&&&$@@%;>:=%#$-<2>*-::,21:=&&&%%&->>-%@@$&->>-$@@$%$@@%;28weq8543>*-::;*=,8e4:",
"973<:*%%;6tp9:%$->:>:=%##%%%%%%*;;&$@@#$*;:::::::,2>&#@@%;>:=%#$->>>>12>,2,&$$=;&%&:2:%#@@#&>2<-$@@$%&%##%:21>:,25872,;*%%>8ui5:",
"974:$@#$=2wp9:*&;>:-&$@@#%&%$#$*;>:*#@@@$%&&-::::<31:&@@%;>:=%#$;<343<;%#%&&=::-$%;12-@OO@$%->>-$@@&;=%##%=:-&$%-2773-#@#%;4ri6:",
">282&#@@&19r01*$->:=%#@@#%&%$#$=143;#@#$%&&%&&&-1684:&@@%;>>>;%%<8ryw1%##%=:>:=%#*142-@OO@$&>2<-$@#$&&%##%=::::;**>48,%#@@=3qr72",
":3w8>&@@%;6e7:%%;;*&%$@@#%%%$@@&<43;#@#$*;-*->1334442=@@&<32<;$&4rpe3=@@%;>::::;&%&>2:%#@@&;>>>-$#%%%&%##%=::>1<=*:6e5;%@@&>8e4>",
":1872=@@%;397431,::=%$#@#%%#+O+$;>>*#@@@%;<3443335807:@@#%&&&%#&<54>$@@@&11>::>-$@#>871&@@$&-:>;$@#$&&%##%%&-:>:**:3861&@@&:4964",
":,342;%#%;28we7331>-&%%##%&%$@@$->:*#OO+*169ww3;**:47:@OO@##$%#%<431;&@@%;>:::>-$@#>905=@@#%-:>-$@#&;=%##%%&=>12>::<342-$#%:49er",
"::>13:%#%;<34433343>&%&%*;-%#@@#%=:-%##$;60974<-$#%-:&@@#%%%%%#$;<31:&@@#%=:>::-$@#1e02&@@#%->>-$@@$&&&%%%%&-:>>>:::>22-$#&:1444",
":,39e1%%*:<343,,2441>:::::=#@@@$-::-%%&-<799971-$@#*;&@@#%&&&%#$-<31:&@@@@&:>:=%##&3re6=@@#&>3<-$@@&:>;%#%%&-:>::::,4qq>%%=:1443",
"&-20e5;&-16863,>26973<;*%&$#@@@#%=;*#$&-:>:>13<;*%%&%$@@%;<2:&#$-,342=@OO@=252;%#%;6re6=@@%:8w<$#@#&:>;%$&&&-:>>>-*:4qw2-&;27853",
":,3782::,34442,>28r03,-%#%%%$@@#%&&$@@#%&&%$*>21=%%%%$@@=5093;%#%;242=@OO@:8ee71>;:3871&@#=2qw>@@#%%%&*-,21:::>::::<4871::<34433",
"27eq4<>15873<:*=18rq3=#@@###@@@#%%%$@@#$*;-&%*<2,-&%%$@@=5wr6:%#%;21:&@@#%1eytq4*#%:2<;$$-<343;$##%$$=::,2,*=:>-$*19e93,,26863,>",
":4rur4::,21,13,>28e7:%@@#%%%$#@@#$%$@@#$*;-&#$,2,-&%%$@@%;373;%$-<31:&@@$;5rue4-$@#$&&%##%;242;%##%=::::::-&=:>;$%:6tuw2;:<31,24",
":5ifp3%%*:28we76wr01&#@@#%%%%%##%%%$@+O+%;-&%*,2>-&%%$@@@#$&%#@&<43>&$@@$;5ruw>@@@@$%%%%$#$&>2<;&%%:2<;%#%%&=>2<&%:9afy,%%=>39et",
"37rue,@@%;<40ttttw5;#@@@#%&&$@@#%&%$@@@@#%&&=:>;*%%%%$@@@@$%$@@*4994>&@@$;7iy8-@@@@$%%%##%%%->21=%%=:>;%#%%%%*<43339tuq;@@&:15wy",
"9wtq3=@@%;<30tytt9,*#@@@%;>:&@@#%&%$@@@@#%%%%&;;*$#$%$@@@@$%$@@$;<378,%##%1er7-@@@@###@@#%$#*>21=%%=:>;%#%%%%*,5899er92&@@&:<4qt",
"ttt03=@@%;:>4qre7>%$%#@@&12>*@@#%&%$@@@@#%%%%&;;*%%&%$@@@@$%$@@#%>8ew,@OO@-387:$#@@$%$@@#%$#;5w0;$&:2<;*%%$#@%2qrttyr91&@@&;:,60",
"ttt02=#$&&%*4ryq2-&%%$@@&142-#@#%&&$#@@@##$%%&;>>-&=;&+  +$%$@@$-4eq3=@OO@=242;%#@@$%%%##%$$2ry0;$%=:>;*%%$#+%2qrtttr81&#%&&%-7t",
"9741:&#$*;:>4907<-&%%%%#%;,>*#@$-<2;#@#%%%%%=>2431>>:&@@@@$%$#@*4091&#@@@@=21>:-$@@@#$%##%%&4re6-%%-:=&%%%$#@$>589973<;%#%=::,59",
"*=:>:=%%*;<31>>>>-&$#$%#%;37<&#&<42;#$*;;*$$;4qw65897:+  +&;=%#&<79<#@@OO@&:>>>-$@@$%%%##%$#;5w9;$&>3<;*%%%%%*<3,;*-:>;*%%=:13<>",
"::>>:=%%*;2862,::::=%%%#$;5e92,>2<*$#*>11>:>48643331:&+  +-2:%@*5er4&#@OO@=243<:*$#$%&%%%%$#*:>:**:6e5;%#%$#*>56<:::>>;*%%*:4853",
":,21:=%##%,772-*;>>-&%%#$;286332,;&$#@$-,2333442,;*%##@@$-<2-#+=9yt7:&@OO@=20rw5-$#$%&%%%%$#$*;-$*20r9<&@#@#;242>::<2<;*$##&1863",
":,31:=%#@#=243,:><2>&#@@#%->133331:=%###$%=:1476<-&=;&@@#%&&$@@%<8r03;%#@@&>40r0:$#$%%%%%%$#*:>;&-20e5;$#%%%=:>;**:13<;*$#@#;343",
":<2>&%%##%%&>33331>*#@@@%-::=*;;=&&$#$%&%##&>342,::<2=@OO@##@@@$;2872;%#@@&:<5we5>&%%%%%%#@#*>2<=*:13:%##%%%%*;;**:12:&%%#$%%*<4",
":<2>&%%%%%%*>3443,*$#$%##%-:*#$*;-&$#$&;;&$#*>22,:>12-@OO@##@@@$-285>&@OO@$%-,67<-&$#@#%%%$#;2<;**:13<;%#%$#*>1<=*:12:&%%%%%%*<4",
"><31:=&&&&;23342,;&$#$%#%-:>:;*%&&%$#$&;>:*#$&;::,242=@OO@$%$@@$-4eq2=@@@@@#*>22,-&%%$@##%$#*>>::::<341=$##%=:>;**:13<;*&&&&>333",
"33443<::,23333333,*##$%##%:21:*%%%%$#$&;>:=#$%&&&=:>:&@OO@$%$@@$-4eq3;%#@@%;<341=%%%%$#%&%$#*:::::>13<:*%%&&&*;::,24442,::,23333",
"37ew81:::><31>>,2,*%%-;*&;<31:*%&&%$@@$-::=#@#$*;::-&$@OO@$%$@@$-4ee8>%#@@&:13<;$@#$&-:>;*$#$*;>>,243<;%%;:::::::,39eq6<:::>12<>",
"><3,=;:=*;>>>::::-&$#$%%*;<31:=*;-&$#@#%*;-&#$=;*&&&%$@OO@$%$@@%,8e03;%#@@&:13<-$@@#%->11>*#*>23333783:**;::=&-:::>13:=;;*=:>>>:",
"::>:>12,-&=:>:=&&&%$@@#@#%,8071-*&%$#@#%%&&%%&;;*%%=;&#@@@$%$@@$;285:&@@@@&:13<-$+O+@$&;>:-&:376<,39ty0:%%$#$&;;*=:>>:>21>=&-:>:",
":::<2<;*%%=:>:=%%%%$#$%#$-29q7>%%%%$#$%%%&&%%&-::-&=:=%#@@$%$@@$;285:&@OO@=242;%#+OoO+##%;=$*>22>18tpw2*@#$%%&;>::::>12,;*%&-:>>",
"::>>:=&%%&=:12,;*%%$#=-%@#,ee7:%%%%$#$%&*;-&%&;>>-$&::-%@@$%$@@%<694:&@@@@=242;%%$@+O+@@%;-&=:>;*:7et91=%%%&=::::::>>>:*%%%&->13",
":,31:=%%*;,343,;*$#$%&%#@#<e02-%%%%$#$*;;*%%=>133,*%&&%#@@$%$@@%<694:&@@@@&:13<-$@@+O+@@#%$#*:=%%-3epq1&#%%%%&-::::13<:*%%*:<333",
":3w03;%##%;342;&%%%%%%%#$-2872-%%%&%&-::-&$#;23331:;::-%@@$%$@@$;4e8>*%#@@&:13<-$@@@@@@@@#@#=:=&&<epaq1&#%%%%%&&&*:6e91=$##&>333",
":3w03;%##%;21>:;*%%%%$#@%;<343<;&*;:::;%##@@$*;>>;&&&&%#@@$%$@@%<9r8>*%#@@=243<-$@#$%$@@@@#%>33229pdaq1=%%%%%%%%%*:6e91=$##&>3<>",
"><31:=%##%;2<::;*%%&&&%##%:3433<=*;-&&%##%$#$%&&&&&=:=%#@@$%$@+=9paq,=%#@#-242<;$#%%%#@@#%%&>33339pat82>-&%&&&&%#%:13<;*%##&>2,:",
"344>&%%%%&=>>::;*%&:1<;%#%;21:=&%%&$#$%%%%%%%%%*;-&:2<;%@@$%$@+-rgjde<%@$-<2<>2<&@@@@@@@#%%%-:=*;6iat91&#%=;:;*%%-243;&%%%%&->>:",
"3581&#@@%;<31:=*;:::>:;*%%;241*@@#%%%%%%%%$#$%%%&%&:341&@@$%$##:tgjfr1%##%=:>>21=$#@@@@@#%$#=;&#$<eaaq1&@#$&-;*%%-277,%#@@&:13<>",
"><31:&@@$;4w9321>::::=%##%=>,:&@@#%&%$#%&%$#$%%%%$#1w91&@@&;&@+=9ajfr1%#@@&:12<;*$#+O+@@#%%%-;%#$2ifaq1=%%&&&&%&;:>13<;%@@%:7e73",
":,32:&@@#%:342;%#&;>:=%##%;241*@@#%$#@#%&&$#@#%&%$#-21;%@@###@@*5uhfr1%#@@-343<;*$#+ooO+%--&-:&%-6idp7;&*;::=&%%&*:131;%@@#&>443",
"%:772=@@#%;21:&#%*;-&$#@#%=:12-$##%$@@#$*;-&%&--$@#$*;;%#$%%$@+=9sjft4-$#%1ew851=$#+ooO@$%$#;47880re9,%#%;::=%%%%%&<86<&@@#&>3<>",
"%;22:&@@#%;21>:;*%&&%%%##%=:>:&@@#%$@@@@#%&%%%&&%$#&;>;%@@&;*@+-rgjde<%@&<8e84784>$OO+#%%#@$3tyq1:,22-#$%%&&&%%%%%&:31;%@@#&>2<>",
"%-2>&#@@#%=:12<;&%%&&%%##%=:>;%@@#%$@@@@#%&%%%%%%$#$&&%#@@&;*@+;rfsq,&@@%;>:*%>44,*#@@$--$+$6pr4**143<;*$##%&&&%##%:2:%#@@#%->13",
"%*:-%#@@@#&:13<-$#%=;=%##%=:>:%@@$%$@+O@#%%%&&%%%%%&&&%#@@$%$##>tdsq>&@@#%%###$-1<*$@@#%%##&8i7;$%:13<;%@@#&-:=%%%%=:=%#@@@#*:13",
"%&&&%$@@#%$$:2<;$#%=;=%##%=:11*@@&:-&#@@#%%&=;*%%%&-:=%#@#$%%&-<7wtq3;%##%=;=%%*:;&$#$%#@@#&8p0,%%;12:%#@@&:12-%%%%&&&%#@@$%$$>3",
"%*:-&%%##%$#*>2<=%%&&&%##%=:>;%#$:64:&@@#%&%%&%%%-132;%##%&&-:::>4ee8>%##%&&$$=,2>$@@@@@@@#&8pq<%%;12;%#@@=242-%%%%=:=&%$#$%$$->",
"%-21:&@@#%=;=&;>>-&%%%%##%;1:%##%=:>;&@@%--&%%%%%*:12;%%*;<331-&;2808,%##%=::::;*%#@@@@@@@@$4te4&$;12-#@@@&:>>:;*%&:2<;%@@$&-;*%",
"%:772=@@%;>:*$=>2,*$#$%##%=:-&%%%&&%#@@@#%%%%&&%##%-:&@@&19e3&#$-2874<;%#%=:::>;*$#@@@@@#%$*8pr4&%:12;%#@@&:>:>>:-&<86<&@@&;>:&#",
"%>75:&@@%;<2:%%&&=;=%$#@@#&:>;%#%*;=%#@OO@@#*;=%##%-;&@@&178<%#$-<47961==11>=&-;*$#@##@@@#&>qpq<%*142;%##%*;:>11>-*<73;%@@&:12-%",
":,2>&#@@%;<2:&%&%%&&&&%#@@&:>:*%%%%$#@@@@@@#*:=%##%=;=%#%;>:*#@$;4eye4;&=253;#$&%$#$%$@@#%-3rp0<*%&-:>;%@#$&-:=&&*:12:%#@@&:12;%",
"::>-&$@@$;<3<::;*$#*;=%#@@=276:$###@@@@@#%%%-:=%##%&&&%##%&&&&%-5qr03-#@=5we3&%%%$#$%$@OO@=3rp0<%%-::>;%#%%&-::;&*;>:=%#@@&:13,:",
"&=:>;&@@#%;2<>>>>-&=;&@@@@=11:%$--&$@@@@#%%%=;*%#@#$%%%##%=::><48841>=%#$;5r02-&&%#$%%%#@@%>qpq<&@#*:>;%@@#%->>;*%&=:>;%@@#&>2,:",
"%*:>:=%#@#&:>,5841:=&$@@@@$&$#$*;;&$@+O@####$&&%#@@$%$@@#%=::::,32,<2<;$#%1ee81::-&&%$@@@@%:7ty9;$#*:=%#@@#&:341=%%=:>;*$#@#=>>>",
"%-21:=%##%=:<4785,*=;&@@#%%%$#%*;;&$@@@@#%&%%%&%#@@$%$@@#%%&-::,24333<;%#%=>485331>::&#@@@#&1907<=&=:=%#@@#%->21=%&:2<;*$##%=>13",
"%-21:&@@#%=>1342,::<2-@@#%%&-:::>-$@@@@@%-=#$*<<&@@$%$@@#%%&-::<7851>>>:::*$;331>::<2<;*$##&>441=%&-:=%#@@#%=>21=%&:2<;%@@#%->23",
"%-21:&@@#%;243<;**:13:%##%*;<2,,22>*#@@OO@$%:341=$#$%#@@#%=:12><qtt9432>::=#$&$##&;<33<&@@#&>3<;&*:>:=%#@@@#*,65-$%:2<;%@@#&>343",
"#&:-%#@@%;<332<;*=:483;$#%%&&&-<673:%#@OO@#&>341=$#@@+O@@#:772*&<8re8,&%*;-&%&%%##%-:-%#@@#&,2=#@*11:=%#@#@#*>65-$#*:=%#@@&:1333",
"%*;*#@#$-11>=*,33349e5;$@@####$=12>*#OooO@#&>342,=#@@+O+#%,772*$;2808>%#%;:::;*%##%-:=%#@@&:13<;&*:-&%%%%%%%%*<1=%%=;&@@#%;21:=&",
"%&%$#$&-::::=*,6we0er5;$@@$%$@@$;;*$@+ooO@&:<476<=##%#@@#%;342*%<4443;%##%:2<:*%%%&-:=%#@@=20e7,%%;>:=%##%%%%&;;*%%&%$#%*;:::;*%",
"%$#*::;*%&&&%&-<7wryr1%#@@$%$@@#%=;-%#@OO@&:12<;%#%%%$@OO@=242-&;<343;%#%;>:=%#$->><3<;%@@&:582-$%:>:&#@#%%&=:>;*%%$$=::-&%&&&%%",
"%*;<2;%##%&&%&->28ryr1%##%%%$@OO@&;>:&@@#%=;-&$#@#%&%$@OO@&:>:**;<343;%#%;-&$#$=<33682;$@@#&282-$*142;%##%&&-:>;*%&=:11-$#$%&&&&",
"%%&-;&#@#%=::;**;29re1%##%=;=%#@@%;<1=@@#%&&%%%%##%&%$@@#%$$*;*=<7e03=#@%;-&$#$*;,378,%#@@#&182-$%;12;%%*;-&=>22,-&%&-;%@@$&-:::",
"&%#$%&%#%;<2:&%=17ryr1%##%=;=%##%%&-;&@@#%%%%%&%##%=;&@@#%&%&&%=14443;%%*;-&%%##%=:12-@OO@#&,3<-$#%&&$$=:::::>243,*$#$&%$#&:12;%",
":-&%%%%%*;<3:%#*499ee1%##%%%&%##%%#$%$@@#%%%%%%%#@#*;&@@%;-&&&%*;<233<::>>-&%%%%%*:>:=%#@@%;13<-$#%&%##$*;<3447851>=%%%%%%*:12;%",
">-$$%%%##&<8<%#$;>>47,%#@@$%%%%*;=#@@@@@#%&%%%%%###$%$@@%;>::;%$;>>>>13343,&%%%%%*:>:=%#@@#&>3<-$#%&%$@@#%1ete7332>*#$%%$#$*27>%",
"31>=%#@@&<9e3%#$;>:>:=%#@@#%%%%*;;&$#@@@%--&%&&%%*;-%#@@%;<2<:*&;>:<4799982&##$%%*:12;%#@@#&>3<-$@#$%$@@@@<w7,:>233<:*%#@@=20w,%",
":<2:#@@@%;6e3&$&;>:>:&#@@@#%$#$=12>=%#@@@#$%-;*%%=:-%#@@%;>>>:**;>,39071>>=$$%%%%-242=@OO@#&>3<-$@@$%$@@#%:31:&%;>:<2=#@@@&>8w,%",
"%;2>%#@@$;381%#$->:>:&@@+OO@@#$=143>%#@@@#$%&&&*;,2>&#@@%;>>12,>27ete5:*&&&%%%%%%:672=@OO@#&>3<-$@@$%$@@#%;21>>;*%&:2;%#@@%:57>%",
"@*1>&#@@#%,7<&#%->:>:&@Oo..o+@@&<43;#OO+#%%&->11>,31:&@@%;<232,>27ee8>&-,2,&%%%%%*:13:%#@@&;13<;$@@$%$@@#%;2333<=$#;2:%#@@#&27>%",
"@%;>;&@@#%;2<::::>>>:&@@+OX.XO+&<2>*#OO+#%=>486<=-142=@@#%=:>>:,2442>&$=172*%%%%%%&3e91&@@#&>34<%@@$%$@@#%=:1341=$#&:>;%@@#&>2,:",
"@#%-:=%##%=:>::,2331:=%#@@+OoO+$;>:-%#@@%;28ee4-$#&:1=@OO@$&-:::::>11=$=,2,&%%%%%%&3re5=@@#&>34<%@@$%$@@#%=:1341=$#$&-;*$##%->::",
"@#%-:=%##%=:=&-,26873;%#@@@@+O+$;>:-%#@@&169092-$@@$&$@@#%%&-:=&&=:>:=%%*:-&%%%%&$$5pw1&@@#&>3<;$@@@@@@@#%=:1341=$##&-:*$##%-:=&",
"@#&>2:%##%=:=&-,269082;&$#+OoO+$;>:-%#@@&<58ew3-$@@$%$@@#%=:>:*&;::>>:;*%&&&$#$%%*:9pw1&@@&:13<-$@@@@@@@#%=:>,21=$##&,1-%#$&-:*%",
"@%;13<;**;>:=&->28ryr5;%@@+ooO+$-::=%#@@#%=>23<;$@@@@@@@%;131:*&;::<2;%##%=:-&$#%:7yaq1&@@=3qe3-$@@@@@@@#%:23341=$#&:12,-&=:>:*%",
"@%:12;*;::::=%%-5wtyr5;$+OX.XO+#%&&$#@@@@#$&>34<&@@@@@@@=5wre7:%%*:12:&%%&;241-*,6eiaq1&+@:8rw<%#+O+@@#$-1333341=$#*>21-*;::>:*%",
"%-21>:::>:-&%%#*5wtyr1%#+OX.Xo+#%%%$#@@@#%%&=>21=$#@@OO+=5rapw,%#%;<3<;%%;<343,-$%:7r9<&+@,wr8:$#+OoO+#$-13333<;$#%:2<>:::>:=&%%",
"@*243,::::-&&&%-6wtye,@Oo.   .oO@$%$@@@@%--&%*<1=$#+OoO+%;5eyw3;&%&:2<>1587441=@@#&>3:%#@@:707>%#+O+@@#$*;>>134<%@#;342,::::=&&&",
"@-673;&%&&=::::1qyt03=@OX.  XO+#%&%$@@@@#%=:::>;*$#@@+O+#%=>,>>::-&=:>>16eq4<:%#$*;12;%#@@&>23<-$@@#%#@@#%=:1341&@#>761-%%%&-:::",
"%-242=@@#%=::>16eyr7>&@OooX.XO+#%&%$#@@@@@&;:::-$@@@@@@@#%%&>2;*;::>>>>:,343<;%@@%;12;%#@@&:134<&+O+@+O+#%;2<,67<=&:341&@@$%=:::",
"%-21:&@@#%%&=>16eq4<:=%#@@+OoO+#%&%%%$@@@@$&-:=%#+O+@+O+#%%&>2;%%*:6e9<&%;>:>;%@@%;12;%#@@#&>351&@@@@+O+#%;2<,695,*:21;%@@$%%&-:",
":,31:&@@#%%%%*<44<=:2;%##%$@+O+#%&%%%$@@#%=:>:=%#@@@@+O+#%%&>2;%#%:9i8;%#%&&-;%@@%;12:%#+OO#:5w9=+@@@@@@%->:==7e61><3<;%@@$%%%&&",
":,21:&#$%%$#*>22,::<2;%##%$@+O+$-;*&%$@OO@&:>>>-$#%$#@@@#%%&>2;%%-278,*-;*%%&%#@@%;13<;%@@#&4ry9=OO+@+O+#%=:*=7e6<><2<;%#%%%$$=:",
"%*:>;&#$%%%&=:1331><2:%#@@#@+O+$;<2>%#@@#%*:134<=*:-%#@@#%=:13<:::>>>:::::-&$#@@@%;13<;%@@%:7re5*+OoOoO+%;>:=*<3,-&=:>;%#%&%%&-:",
"@$%&&%%%%%=;*#$=14333<;%@@$%$@@*583;#OO+#%%*5e82>,2<;%@@#%;30e3::>>>::::;*%%$#@@@%:47,%#@@#&>5w9=OO+@+O+%;<2<>22=$#$&&&%%%%&-;&#",
"@#%&%%%%%%=:*#$=14443<;%@@$%%&-<74=$@OO+%;<30r82>::*#@@@#%,8rw>$-<21:=*;;&%%&%$#$*:48,%#+O+#*>,;$@@$%$@@#%=>15w0:##$%%%%%%%&-:&@",
"@#%&%&%##%;1;#@&<6908,%#@@#%%&-,3<*$#@@@&<8ryr81=$##@+O+&<5807:&;<343<::;&%%=::;**:483;$@@#%=:>-$@@&;&@@#%;39rt0;$#$%%%%%##&>1*@",
"@#%&%&%#@#&;=%%=18ee8>%#+O+@@$=<65>=%#@@#%,8er81=$#@@@@@%;>>>:*&-,26862,-$@#*:::::>483;%@@#%-:>;$@@$%$@@%;<34451=$#$&&%%%#@#*;*%",
"@%;-&%%%%%$#$&-<70973;%#+OoO+#=:>;&%%$@OO@&>8e8<=%%%%$@OO@$&-:&@#&:3862,-$#%%&-,2349e5;$@@#%->2<&@@@@@@@%;<34341&@@*;=%%%%%%$#$%",
"@%;-&%%%%%$#$&-<78443:%#+Ooo+#$*;;&$#@@@#%*:144<&#%&%$@OO@#&>2-$#%;13<>>>:*#@#=>27er9,%#@@#&>2<;%+O+@+O+#%;24485*+@*:=&%%%%%$#%%",
"@%;>:=&&&&=;=&-<76,<3<;%+Ooo+#$*;;&%%#@@#%=:13<;&*;-%#+OO@#&>2;$#%:13<,12>*#@#$*;3eue1%#@@#%->>;&$@+OoO+#%;24341&@#*:>;*&&&&-;*%",
"%*:>>:::::::=&-1qq4<>>;%+Ooo+@@$;;&%%$@@#%=:12;%#&;=@. O@@#%-:=$#*29e82,;&$#$%%%%:7re2%#@@#%=:>;%@@+ooO+#%:34341=%%=:>>:::::>:*%",
"%-243<::::>:&$=<78433<;%@@+O+@@$;;&%%$@@%;::>:=%%%&$@@@@@@#%-:=$#*20r91-%##%%%#@@*20r9<&@@$%%&;;*$#+O+@@$;286477<=&:242,::::>;%@"
};
