/* XPM */
static const char *wall21_1[] = {
/* columns rows colors chars-per-pixel */
"128 128 183 2 ",
"   c #110F05",
".  c #110F0B",
"X  c #131105",
"o  c #1E1607",
"O  c #16120B",
"+  c #1A140B",
"@  c #1F1A0A",
"#  c #070716",
"$  c #070816",
"%  c #0C0B13",
"&  c #0C0B18",
"*  c #140E14",
"=  c #180F11",
"-  c #1C1710",
";  c #1F161F",
":  c #201607",
">  c #231907",
",  c #211709",
"<  c #241B0C",
"1  c #2B1E0D",
"2  c #241C10",
"3  c #2A1E10",
"4  c #27210E",
"5  c #2C220E",
"6  c #31230E",
"7  c #2E2411",
"8  c #2C2B13",
"9  c #2D251B",
"0  c #2F291C",
"q  c #352513",
"w  c #392615",
"e  c #352A14",
"r  c #3C2C16",
"t  c #362618",
"y  c #3B2718",
"u  c #352B1B",
"i  c #3E2C19",
"p  c #3E3017",
"a  c #34321C",
"s  c #3E3119",
"d  c #3F381D",
"f  c #070727",
"g  c #0C0926",
"h  c #07072A",
"j  c #08072A",
"k  c #070828",
"l  c #0B092B",
"z  c #100B24",
"x  c #140D2D",
"c  c #1A1329",
"v  c #060632",
"b  c #080732",
"n  c #0D0830",
"m  c #07063B",
"M  c #0B0739",
"N  c #0C083A",
"B  c #110B31",
"V  c #140E3B",
"C  c #191435",
"Z  c #221B2C",
"A  c #2A1B2D",
"S  c #261B32",
"D  c #291E30",
"F  c #2D2721",
"G  c #2D2822",
"H  c #27212C",
"J  c #372720",
"K  c #312B23",
"L  c #3F2E26",
"P  c #34252E",
"I  c #38272E",
"U  c #37292E",
"Y  c #3E3326",
"T  c #2E2333",
"R  c #2D2239",
"E  c #312334",
"W  c #3C2D34",
"Q  c #36263A",
"!  c #37283B",
"~  c #3A2A3E",
"^  c #3C2C3D",
"/  c #363837",
"(  c #3F313C",
")  c #383A39",
"_  c #402F17",
"`  c #402D1B",
"'  c #402E1A",
"]  c #422F1B",
"[  c #422F1D",
"{  c #413017",
"}  c #42301A",
"|  c #43321A",
" . c #43321B",
".. c #45341A",
"X. c #42301C",
"o. c #45321E",
"O. c #46351D",
"+. c #49351B",
"@. c #49361C",
"#. c #4A371D",
"$. c #42391E",
"%. c #4C391E",
"&. c #503C1F",
"*. c #422F20",
"=. c #402F2E",
"-. c #463220",
";. c #463321",
":. c #4A3622",
">. c #4D3923",
",. c #4A3728",
"<. c #4D3A2A",
"1. c #513D25",
"2. c #523E2B",
"3. c #423136",
"4. c #44333A",
"5. c #48373E",
"6. c #4A393C",
"7. c #523F30",
"8. c #564125",
"9. c #5D4427",
"0. c #55412B",
"q. c #59452B",
"w. c #554131",
"e. c #5A4633",
"r. c #0A0643",
"t. c #08054E",
"y. c #140E44",
"u. c #1D1247",
"i. c #040452",
"p. c #080551",
"a. c #04035A",
"s. c #0E0C5D",
"d. c #1F1654",
"f. c #17115D",
"g. c #231A43",
"h. c #21164A",
"j. c #231A4F",
"k. c #2B1F4A",
"l. c #271C51",
"z. c #291F53",
"x. c #221A5D",
"c. c #2E2146",
"v. c #2E224C",
"b. c #3D2D41",
"n. c #30244E",
"m. c #362A4F",
"M. c #353143",
"N. c #3F3042",
"B. c #2C2155",
"V. c #2E2459",
"C. c #312653",
"Z. c #362A53",
"A. c #392D56",
"S. c #302659",
"D. c #33285B",
"F. c #030365",
"G. c #020266",
"H. c #090665",
"J. c #0A0867",
"K. c #03026C",
"L. c #0A076B",
"P. c #0E0A69",
"I. c #0D096B",
"U. c #110C65",
"Y. c #120E6D",
"T. c #130E6D",
"R. c #16116C",
"E. c #18136D",
"W. c #020174",
"Q. c #080674",
"!. c #0D0A74",
"~. c #05037D",
"^. c #0C0A79",
"/. c #110D71",
"(. c #151071",
"). c #271F65",
"_. c #423343",
"`. c #493941",
"'. c #47384A",
"]. c #4A3A48",
"[. c #000083",
"{. c #000086",
"}. c #000089",
/* pixels */
"e e e e s } } i e e q q e e i i ' ' ' _ _ } } } } } } } +.} r w i i i r r r r _ r _ _ r w 1 O k G.{.{.[.[.{.{.I.H e q w r r w w r r e e q w i i ' r e e r r e e q q e e q 1 O k G.{.{.[.[.{.{.I.A w r r w w i i i } } } } } +.+.} ' ' ' ' i i ' +...r e i ' ' _ ",
"e e e e } o.} i r e q q e e i ' ' ' ' i r r } } } i i } } { r w r i r r ' i r r r r r r w 1 O k G.{.{.[.[.{.{.I.T r r i r e t e r r r e q w i i ' r r r i r e q w w e e q 1 O k G.{.{.[.[.{.{.I.E ' { r w w i ' } } } } ' } @.@.} ' ' ' _ r i ' } ..r e y i r { ",
"r r w e [ -.} r r r e e q w ' ' ' ' i i e r ..} r w i i r e r r w w r ' ' i w w r r w w w 1 O k G.{.{.[.[.{.{.Y.Q o.-.[ y q e e r i i y e e r i i i r r i i w w i i e e q 1 O k G.{.{.[.[.{.{.Y.~ >.O.i w w i ' } +...} ' X.:.@.} r p s { r w e } } ' i w w r r ",
"i i r r ' X.' i r e e e q w e r r r r e e r p p r e e r e e e e q w ' X.i e e r r r w q q 5 O k G.{.{.[.[.{.{.Y.~ :.o.i y w q e r i i w t e r } ' i ' r r e t e i i r r e 5 O h G.{.{.[.[.{.{.Y.~ >.:.' t q r ' } O.o.o.X.o.@.@.s r s } } } r r ' i i e w r r r ",
"i i i r } ' ' i w q e e q q e e r r w w ' i r e r r e e r r q 7 q w [ X.r e i i i r w q e 5 O k G.{.{.[.[.{.{.Y.b.:.i w i e q q y i w q q w ' } } r r r e e e e y i i r e 5 O g G.{.{.[.[.{.{.Y.Q :.:.i q q e } } O.-.-.X...+...r e s ..} } } } } r e e i i i r ",
"' ' ' } ....} i i r e e e e e e i ' ' ' ' i w t i i e r O...e e w i i r e t w r r r e e q 5 O k G.{.{.[.[.{.{.Y.b.:.r q r r e e r i r e e e r } ' ' i r e t e r r r i i e 5 + g G.{.{.[.[.{.{.Y.! @.} r e e e r } O.O.O.} } ..} r p O.@.s i ' o...} i i r r _ { ",
"e e t y _ { _ } } s r e r r r r i } +.} ' y w w i i e r O.O.r e i i e e q q q w r r e e w 3 O k G.{.{.[.[.{.{.Y.b.>.i w r r e e r r r r e e r i i i i r w w i y e e i i r 5 o g G.{.{.[.[.{.{.Y.E i e q t t q q e r r r e e r e 7 e } } e 7 t y i i e t q q q e ",
"+ + + + , 1 e r r r y i i ' } } } ' ' ' r e q w r r e e ' i e q y i e e e q q w e e q w r q O k G.{.{.[.[.{.{.Y.b.>.o.r e w y y r r r r w w i i r r r r i i e e q e [ o.} q + g G.{.{.[.[.{.{.H.c > > + + O O + + + + + + + + + O + , , + O + + + + + O O + + + ",
"h h h j l x S P u r i i i i } } } i i i r e q w e e e e i e q q e y e e e e q q q q t w r q O k G.{.{.[.[.{.{.Y.~ >.@.} e t e e e e r r e w i i e r r i i r e e t i [ o.' q + g G.{.{.[.[.{.{.K.N z z l k h h h h h h h h h h h h k l l k h h h h h h h h h h h ",
"W.W.W.W.K.W.Q.f.P { { r e e i ' i i i i i r e e q w q w r r e e e e y y e e 7 5 5 q e i r 7 O k G.{.{.[.[.{.{.Y.Q :.:.X.r e e e q w r r e e i i i i i r i r q q e i ' i r 6 o g G.{.{.[.[.[.[.~.W.K.K.K.W.W.W.W.W.W.W.W.K.K.W.W.W.W.K.K.W.W.W.W.W.K.K.K.W.W.W.W.",
"{.{.}.}.}.}.}.Y.! @.} r e e i i r r i i r e e e e w q e r r e e e e e e e e q 5 5 7 y i e 4 O k G.{.{.[.[.{.{.Y.! :.X.i r r e e w r r r e e e i y e e r r r e e i ' } ' r 6 : z G.{.{.[.[.[.[.{.{.}.}.{.{.{.{.{.}.}.{.}.}.{.{.{.{.{.}.}.{.{.{.}.}.}.{.{.{.{.{.{.",
"[.[.[.[.[.{.{.Y.^ >.o.i w w ' i r e r r w q e e i i e e s r q q y y q q e i w q 5 q y y q < O k G.{.{.[.[.{.{.Y.^ >.p e r i i i i i i r e e t w e e q w r i i i i } -.-.} q : z G.{.{.[.[.[.[.[.[.[.[.[.[.[.[.[.[.[.[.[.[.[.[.[.[.[.[.[.[.[.[.[.[.[.[.[.[.[.[.[.",
"[.[.[.[.[.{.{.Y.~ >.@.' i i ' } r e r r e q q e i i w q e e q t i i e 7 q t q e e e y y q < O k G.{.{.[.[.{.{.Y.b.:.r e e r i i i r r r e e r r e e e i } } r r i X.-.-.} e , z G.{.{.[.[.[.[.[.[.{.[.[.[.[.[.[.[.[.[.[.[.[.[.[.[.[.[.[.[.[.[.[.[.[.[.[.[.[.[.[.",
"[.[.[.[.[.{.{.Y.Q @.@...' i } } ' i e e e e 7 q y i y t q 7 q w i i e e 7 7 e e e e i y q < O k G.{.{.[.[.{.{.Y.b.:.r q e e r r w w r r w w ' s r e i } } s e e i o.-.-.} e , z G.{.{.[.[.[.[.[.[.{.{.{.[.[.[.[.[.[.[.[.{.[.[.[.[.[.[.[.[.[.[.[.{.{.{.[.[.[.[.[.",
"{.{.{.{.{.{.}.I.Q :.:.o.r r ' } } i e q e e 5 q i [ [ [ i r e e i y q 7 q q q q e e i i e 4 O k G.{.{.[.[.{.{.Y.~ o.r q q q e r e r r r e e i i w w i i r e e e s o.o.o.} e , z G.{.{.[.[.[.[.{.{.{.{.{.{.{.{.{.{.{.{.{.{.{.{.{.{.{.{.{.{.{.{.{.{.{.{.{.{.{.{.{.",
"I.I././.(.(.(.x.W :.:.X.e e i ' } i e t e e 7 q i o.-.o.} i e e i y q q t w q q e e y i r 7 O k G.{.{.[.[.{.{.Y.! o.r q q q e r r _ _ r r e y i w w i i r e e e s } } } } e + g G.{.{.[.[.[.[.~.!./././././././././././././././././.Y.Y././././././.Y.Y././././.",
"H T ( ].].].`.6.<.>.>.} e w i ' ' _ r r } i t w [ [ i w w q q q y i i y i i e e 7 q y i i q O k G.{.{.[.[.{.{.Y.^ @.r q q w y i i p p i i r e e y [ -.-.X.i w w r } } } } q + g G.{.{.[.[.{.{.!.v.4.^ ^ ^ ^ ^ ^ ^ ^ ^ _._._._.^ ^ ^ ! ! ^ ^ ^ _._._.! ! ^ ^ _._.",
"e p >.0.q.q.8.1.:.:.@.} r w i i r r i i s r q t [ [ r w q q q q y i i i i i e e q q i [ [ q O k G.{.{.[.[.{.{.Y.^ >.r q q w i ' } } } i i y e e r i X.X.} i e w r } } } } q + g G.{.{.[.[.{.{.Y.^ 1.1.>.>.>.>.>.>.>.>.>.1.1.>.>.>.:.o.} O.>.>.>.2.1.O.o.:.>.1.1.",
"i i } ..@.@.o.' r i o.o.' i i i e e i i r e 7 q y ' ' r e e q w i i e e t w i i t w i [ [ q O k G.{.{.[.[.{.{.Y.b.>.r e q w ' ' } } } s r e y i e e i i e e i i } } } } ' t , g G.{.{.[.[.{.{.Y.! :.:.-.[ [ [ [ o.O.O.o.X.i r r i i r e e r i X.:.-.i w i o.@.%.",
"e r ' o.+.+.' r r i X.X.i r i i e e i i y e e 7 q t e e e e w w e t 0 0 t w t t w i ' ' ' q O k G.{.{.[.[.{.{.Y.! O.s r e r ' ' } } } s e e i i e e r r e e y [ o.O.O.} ' q + g G.{.{.[.[.{.{.Y.! :.:.-.' i i ' ' i r r i i r i [ i e e e e i [ -.-.i e e i } +.",
"e r X.:.@.+.} ' ' } o.} r e i i e e i [ i i e e 7 q q w i i w q e u G G u e q q y ' ' } } q + h G.{.{.[.[.{.{.Y.E } } } i i i r r } } s e e y y e e i y q 7 e [ -.-.o.} } q + g G.{.{.[.[.{.{.Y.^ >.:.-.} ' i i i i e e r } } X.-.X.e e y i i [ -.-.} r e r } } ",
"r r [ o.o...} } } } } ' i y i i e r o.o.} i r r r e q w w w t e e y u u y w e e i [ @.@.@.t + h G.{.{.[.[.{.{.Y.! :.O.} r r r r r r i ' i e t q e e i i e 7 q e i [ [ ' } q + g G.{.{.[.[.{.{.Y.^ >.:.-.o.X.r e i i r r r r r i [ i e q e e e i o.O.} r r i s } ",
"r r i ' } } } } p i ' [ ' i i i e p O.>.} i i i ' i e w t q e e i i i i w w r i i [ %.&.:.y + f G.{.{.[.[.{.{.Y.b.>.O.i r r r r r e i i i e 7 5 e e y y e e 7 q y i i i ' q , g G.{.{.[.[.{.{.Y.^ >.:.:.-.X.r e r { { r ' r e e y i w t e e e r ..+.} i i i r r ",
"w w i i ' } } r r r X.o.' i i r r s O.O.} i e w w r i i e e e i i i w w y y e r i ' @.@.o.t + k G.{.{.[.[.{.{.Y.^ >.' e i i i i r r i i w q 7 5 q t e e q t e i ' i r r r q + g G.{.{.[.[.{.{.Y.! >.>.>.O.} i r ' } } ' i i r r e e y i i y e r @.@.X.i i r e w ",
"q w i i ' i r r e r o.o.} i i i r r s s } } e q w w i r e e e i i i w w i i r r i ' @.@.o.q O k G.{.{.[.[.{.{.Y.^ >.i w y i i ' ' r r r w q q q t w e e w w y i o.} s r p q O k G.{.{.[.[.{.{.Y.Q :.>.@...} { } } } r r i i r r e e i ' ' i e i O.:.[ i ' r w q ",
"e e i i ' i e e y ' @.@.' i i i i r e r } } e e y i r e q q w w i i i i } } } } i } @.>.O.e + h G.{.{.[.[.{.{.Y.^ >.[ y e e r ' ' i e e i i t t y i } } i e q e -.>.O.} } q O k G.{.{.[.[.{.{.Y.Q :.O.} } r r } } s r e i i w w i i i i i i i i X.o.' ' } i w q ",
"e e i i i e e e e i @.@.o.' i i i i r r ' i e e e y e e w w q t i ' ' ' } } } } } } @.%.@.r + g G.{.{.[.[.{.{.Y.^ >.o.i e e r r r w t e i i e t e r i i r e q t -.:.X.s i q O k G.{.{.[.[.{.{.Y.~ :.O.X.} r r i X.X.s r i i t t e i ' i r r r i ' } } } } } i r ",
"q w r r e e q q e r @.>.O.} } i i ' } } ' i e e t w i i i i e r ' ' ' i i ' } } } ..+.%.%.r , g G.{.{.[.[.{.{.Y.b.>.o.i w q e e t q q w r r e e e e e e e e t w } } r e i q O k G.{.{.[.[.{.{.Y.b.>.:.o.} r e r X.-.X.} i i e e e r s s r e q w r } +.+...} } } ",
"q q e e q t w w e r >.>.:.X.} r i ' } } i i r r e i i ' ' ' i s O.@.} ' i i } } } O.@.%.+.e + g G.{.{.[.[.{.{.Y.b.>.-.[ w q e r e q q w e r r e e q e e e q 9 u X...s r r 7 O k G.{.{.[.[.{.{.Y.~ ,.:.X.i e e e ' } r e i i y e t e i p e e e e r ' } } } } s r ",
"e e t w q w i i e r @.>.:.o.} p p } { { { { r i i i i i ' ' ' o.:.:.o.' i i ' } } O.>.>.} q + k G.{.{.[.[.{.{.Y.b.1.:.[ w w r r e e q q e e y i w t e e q t F K X.+.} ' w 1 O k G.{.{.[.[.{.{.Y.! :.:.X.r e t w r r e q y i i i w w r r e e e e i i i ' X.} r e ",
"r r i w w w i i r s @.@.O.o.} } } } } } ..} ' ' } i r r i ' } o.o.[ r r s X.o.o.o.o.o.o.' q O k G.{.{.[.[.{.{.R._.0.>.X.e e i i e e q q e e w y [ i e e e i u i X.} [ i e 5 + g G.{.{.[.[.{.{.Y.~ >.:.-.i r i i r r r e e e i i i y r r r e t t i i i ' o.o.} s ",
"} } ' i w w i i i } ..+...} ....} } } } +.+.' i } } r e i ' } } ' i e r s X.-.-.o.} } ' ' q O k G.{.{.[.[.{.{.R._.0.>.X.r e y y e e q q e e e y [ [ r e i i i ' } } i e e 5 + g G.{.{.[.[.{.{.Y.b.2.>.o.' r i i i i r r r r i i i y e e i i w w i i ' } o.-.X.} ",
">.@.O.i e e r r r } } ..} ..+...' ' ' } +.} r e } } } i i i _ } } } r r p } ' [ X.} } } } q + k G.{.{.[.[.{.{.Y.b.1.:.-.i y e e r r w q e e a a t e i y w w r ' } r e q e 5 O g G.{.{.[.[.{.{.R._.0.>.} r w r i i i r r X.X.[ i e e q w i i i i i ' } } o.X.} } ",
":.:.O.} r r } } } } } O.O.O.@.+.} ' ' { } } r r } O.o.} } { } ..@.@.} { ' ' ' ' } ..o.} } e + k G.{.{.[.[.{.{.Y.b.1.:.-.[ i e e i ' r e e e a a y w i i w w r r ' r e q e 7 O k G.{.{.[.[.{.{.R._.0.%.} y w r } i e e r X.-.[ [ r e e i ' i i i [ X.} } } } } { ",
"[ ' } } r i X.-.X.} } X.-.-.o.} } } ' r e e r r } } } } r { ..@.%.%.} r i i ' } +.+.} } } e + k G.{.{.[.[.{.{.Y.b.>.O.} ' y e e i ' i r e e r i i i w q q q e e i y e e q 1 O k G.{.{.[.[.{.{.Y.b.>.@.' w w i ' w q e e i [ -.X.i r ' ' i i e r X.-.} r r r r r ",
"< < 7 5 < 1 7 q 7 5 5 6 q q 6 5 5 5 5 < < < < 5 5 5 5 1 5 5 5 7 q q 5 < < 3 3 5 6 6 5 3 7 < X g G.{.{.[.[.{.{.I.D q 6 5 5 1 < < < 1 1 < < < < 3 3 < , , , , , < < < < < , +   k G.{.{.[.[.{.{.I.D q 6 5 < < 5 5 < , @ , < 3 q q 5 1 1 1 < < < 4 7 q 5 < < < < < ",
"% % % % % % = = % % = = = = = = = - % % % % % % - = % % = = % % % % % % % % % % = = % % % % % j G.{.{.[.[.{.{.G.x O O = = = % % % % % % % % % % % # % % % % # % % % % % # % % j G.{.{.[.[.{.{.G.x O O - % % = = % % % % % % = = % # % % % % = = - = % % % % % % ",
"i.i.i.i.i.i.i.i.i.i.i.p.p.p.p.p.p.i.i.i.i.i.i.i.i.i.i.i.i.i.i.i.i.i.i.i.i.i.i.i.i.i.i.i.i.i.i.a.W.{.{.[.[.{.{.W.a.t.p.p.p.i.i.i.i.i.i.i.i.i.i.i.i.i.i.i.i.i.i.i.i.i.i.i.i.i.i.a.W.{.{.[.[.{.{.W.a.t.p.i.i.i.i.i.i.i.i.i.i.i.i.i.i.i.i.i.i.i.i.p.p.i.i.i.i.i.i.i.",
"{.{.{.{.[.[.[.[.{.[.[.[.{.{.[.[.[.[.{.{.[.[.[.[.[.[.[.[.{.{.{.{.[.[.[.[.{.{.{.{.[.[.{.{.[.[.[.[.[.[.[.[.[.[.[.[.[.[.[.[.{.{.{.{.[.[.[.[.[.[.[.[.[.{.{.{.[.[.[.[.[.[.[.{.[.{.[.[.[.[.[.[.[.[.[.[.[.{.{.{.[.[.[.[.[.[.{.{.[.[.[.[.[.[.{.{.[.[.[.[.[.[.{.{.{.{.[.[.",
"{.{.{.{.{.{.{.{.{.{.{.{.{.{.{.{.{.{.{.{.{.{.{.{.{.{.{.{.{.{.{.{.{.{.{.{.{.{.{.{.{.{.{.{.{.{.{.{.[.[.[.[.[.[.[.[.{.{.{.{.{.{.{.{.{.{.{.{.{.{.{.{.{.{.{.{.{.{.{.{.{.{.{.{.{.{.{.{.[.[.[.[.[.[.[.[.{.{.{.{.{.{.{.{.{.{.{.{.{.{.{.{.{.{.{.{.{.{.{.{.{.{.{.{.{.{.{.{.",
"[.[.[.[.[.[.[.[.[.[.[.[.[.[.[.[.[.[.[.[.[.[.[.[.[.[.[.[.[.[.[.[.[.[.[.[.[.[.[.[.[.[.[.[.[.[.[.[.[.[.[.[.[.[.[.[.[.[.[.[.[.[.[.[.[.[.[.[.[.[.[.[.[.[.[.[.[.[.[.[.[.[.[.[.[.[.[.[.[.[.[.[.[.[.[.[.[.[.[.[.[.[.[.[.[.[.[.[.[.[.[.[.[.[.[.[.[.[.[.[.[.[.[.[.[.[.[.[.",
"[.[.[.[.[.[.[.[.[.[.[.[.[.[.[.[.[.[.[.[.[.[.[.[.[.{.{.[.[.[.[.[.[.[.[.[.[.[.[.[.[.[.[.[.[.[.[.[.[.[.[.[.[.[.[.[.[.[.[.[.[.[.[.[.[.[.[.[.[.[.[.[.[.[.[.[.[.[.[.[.[.[.[.[.[.[.[.[.[.[.[.[.[.[.[.[.[.[.[.[.[.[.[.[.[.[.[.[.[.[.[.[.[.[.[.[.[.[.[.[.[.[.[.[.[.[.[.[.",
"{.{.{.{.{.{.{.{.{.{.{.{.{.{.{.{.{.{.{.{.{.{.{.{.{.{.{.{.{.{.{.{.{.{.{.{.{.{.{.{.{.{.{.{.{.{.{.{.{.{.{.{.{.{.{.{.{.{.{.{.{.{.{.{.{.{.{.{.{.{.{.{.{.{.{.{.{.{.{.{.{.{.{.{.{.{.{.{.{.[.[.[.[.[.[.[.{.{.{.{.{.{.{.{.{.{.{.{.{.{.{.{.{.{.{.{.{.{.{.{.{.{.{.{.{.{.{.{.",
"~.~.~.~.~.~.~.~.~.~.~.[.[.~.~.~.~.~.~.~.~.~.~.~.~.~.~.~.~.~.~.~.~.~.~.[.[.[.[.[.[.[.~.~.~.[.[.[.~.~.[.[.[.[.~.~.[.[.[.[.[.[.[.~.~.~.[.[.[.[.[.[.~.~.~.[.[.[.~.~.~.[.[.[.[.~.~.~.[.[.[.[.[.[.[.[.[.~.~.~.~.[.[.[.[.~.~.~.[.[.[.[.~.~.~.~.[.[.~.~.~.~.[.[.[.~.~.~.",
"u.h.l.z.l.l.l.l.z.B.B.B.B.z.l.z.B.B.B.B.B.B.B.B.B.B.B.B.B.B.z.B.C.C.B.B.V.V.B.V.V.B.z.l.z.B.B.B.C.C.S.V.V.S.C.C.B.B.B.B.V.V.V.B.B.B.V.V.S.S.V.V.B.B.B.B.B.B.B.B.B.B.B.B.B.j.y.p.W.{.{.[.[.[.{.^.).S.B.B.B.B.S.S.B.B.B.B.S.D.S.V.B.B.C.C.S.S.C.C.B.B.B.S.C.C.B.B.",
"q y :.<.:.-.-.-.:.,.<.<.<.,.-.:.<.<.<.,.>.>.,.,.:.:.:.:.>.,.<.2.0.0.<.<.7.w.2.7.w.2.:.-.,.,.,.<.0.0.w.w.w.w.q.0.<.<.<.<.7.w.w.7.<.<.7.w.w.w.w.7.<.<.<.<.<.<.<.<.2.2.2.2.<.*.< z G.{.{.[.[.{.{.(.'.e.2.>.,.<.e.e.2.<.<.2.e.e.e.w.<.<.0.0.w.w.0.0.<.<.7.w.q.0.2.<.",
"e e +.>.:.:.O.} } } O.@.o.o.O.@.>.:.[ ' s s s s ' _ _ _ p } O.>.>.>.>.>.>.>.>.>.1.1.O.' s } o.:.>.1.1.1.>.>.8.8.@.o.@.@.>.>.2.2.>.>.>.>.O.O.>.1.@.:.:.:.>.>.>.>.>.>.>.>.>.i < z G.{.{.[.[.{.{.(.].q.>...} } >.>.>.@.@.>.>.2.9.8.O.} >.>.>.>.>.>.@.@.>.1.8.8.>.,.",
"e r } O.o.X.X.i e e s } ' i s } -.[ w q e e e e q q q q e r i X.o.o.X.X.o.o.} O.@.:.[ i e e y i -.-.@.....@.%.%.X.i ' } } O.>.>.o.X.o.X.e e } +.o.o.-.o.X.X.X.-.-.o.X.o.-.y , z G.{.{.[.[.{.{.(._.0.>.} r r s } } } } o.o.:.1.&.s r X.o.} } o.o.X.X.o.:.%.%.:.-.",
"i i ' p r r i i e e s } ' i r r } ' w w r r w q q q 7 q e i i ' } ' ' ' ' } } } ..} } i i y e r ' [ ' ' +.@.>.>.[ i i ' i } O.o.[ ' ' i e e i [ -.-.X.} } s r r ' [ ' ' o.e , z G.{.{.[.[.{.{.(._.0.>.X.i r r } } } } } } O.:.:.[ i ' } } } } } } } } } +.@.o.o.",
"i i i r e e i i e e i ' i y r r ' ' r e e e w w e e q t w i y i r r i r r r r } } } } i ' i e e i ' i i } @.>.>.o.' ' ' } } } } i i i i r e i [ *.o.' } X.} r r } } ' } } e , z G.{.{.[.[.{.{.R._.2.-.i i ' } } p ' ' } } } o.o.[ ' r r r r r i s p r p ..+.} ' ",
"w w i i e e r r w w i i e e i ' ' _ r e 6 6 w i e e y i w w e r r r e e r r r } } } } i i i e e r r e r ' O.>.>.O.} ' } +.+...s e e i i i i i i [ [ ' o.-.o.} } +.+.} ..+.r < z G.{.{.[.[.{.{.Y.b.>.s e i ' } } } ' ' ' ' } } } ' _ r r e e i i e e e r ..+.} ' ",
"e r ' i r r i r e e i i e e i ' ' i r r q q i i a a i ' r e e r s s r r i i r r } } ' i i i r r i r e e [ -.:.@.O.} } } ......} r y i ' i i i i i i ' [ o.o.} } ........%.{ < z G.{.{.[.[.{.{.Y.N.>.} p ' } } } } ' } i r r o.O.} r r r r e e r r r r r } } } } ",
"r ' ' ' ' r i i e e r r w w r ' ' ' ' r e e i i a a s ' i i i ' } } } i i y e r s } ' i i i i ' ' r q q i -.O...} } s s } } } } i i i i i i i r r i i ' X...} } } } } @.&...< z G.{.{.[.[.{.{.(._.0.>.+...} ..} } ' ' r e r @.>.} r r i i y e r X.o.' i ' } } } ",
"r } } } } i ' i e e e e q w i } } } } } s i i i i s s r e e ' [ X.} } r r r i X.' i e e i i ' i r e q q w ' } ..} p r r i ' } r e t i ' i i r { } } ' o.@.O.s p ......O.%.{ < z G.{.{.[.[.{.{.R.].q.>.@.@.+.+...} ' _ r r i -.:.@.} { r r w e r O.o.r r } } } } ",
"r } } } } ' ' i e e e e q w ' ..+.+.} } X.X.' i i i r r w e ' } } ' ' r e r X.-.[ i w e r i i i e e t w w r } ..} i e e i ' i r e q e i i i r } } } ' o.:.O.r r ..+.....+.r < z G.{.{.[.[.{.{.R._.8.>.-.@.+.+...} _ r r i [ -.-.@...{ r w q e r ..} r r } ..} r ",
"r } } o.o.X.' i i e q 7 q w r } } } } } -.-.} r r e w w e _ } +.} ' i i i y r r } } } i r ' i r w t e i i i a a -.X.i i i i r r r e w w i i i ' } } ' ' } s e r ..+.} } +.r < z G.{.{.[.[.{.{.Y.N.1.:.O.+.+.} } ..} r e ' } } } } } r e e e e e } } ' ' ' ' ' _ ",
"} } ..O.-.o.} i i e e q q w r r r r r i o.o.' r e e e r r } } ..} ' i i i y e r } O.O.X.i r r r w w i [ [ s a a -.-.[ i i { } } ' r e e i ' i i } } ' i r r r r } ..} } +.r < z G.{.{.[.[.{.{.Y.b.>.O.} ....} } +.} r w r i i } O.X.e e e e e e i } } ' ' i r r ",
">.>.@.+.o.o.' i r e i i w q w q e e q e ' X.' i e e i } ' ' ' ' } } } r e e y i } O.-.X.r e q w i i ' ' ' [ [ X.@.+.} r r } ....' i r r ' ' r r } } } r r i i i ' } { } ..e , z G.{.{.[.[.{.{.Y.b.>.O.} } } +.+.} ' ' e q q y [ :.-.r e r r e e i } } ' i r e e ",
">.>.@.+.} } } } r r } } r w q e e e t w ' o.' i r r } } ' ' i ' } ..} r r r i i i ' -.-.e e w i [ [ [ ' ' ' } } ....} } } } ..} ' i r _ } ' r r X.o.} r r r i i r r i ' } e , z G.{.{.[.[.{.{.Y.~ >.O.} } ' } } } ' ' y q q i o.:.-.i r r r e e i ' ' r r r e e ",
"-.-.o...+.+.} } s r r i i y e e y i w w o.-.} r r r r } } } } } +.+.' i i r i r w i -.X.e e y [ -.-.o.} } } } } } } } } } } } { r r r r _ _ r ' o.-.} r e e r r e e i ' ' e , z G.{.{.[.[.{.{.Y.! :.O.} } ' ' ' } } ' i e e s o.O.X.i y e e q w i i ' r e e y i ",
"X.X.} } +.+.} ' ' r r e e t 0 0 t y w ' :.:.} r r r ' X.X.} } } } ' r r s } X.X.i ' o.} e q e i -.-.[ ' ....} ' ' ' } } } } { r r e e e r i r r X.X.i e q q e r r e e e r e , z G.{.{.[.[.{.{.Y.~ >.:.o.o.' ' o.@.O.} i r r } O.o.X.i e e e e e e r i i y r i X.",
"i ' } } +.+.' i ' r r e w t F F q w i [ :.@.} r w r o.-.o.} } } ' i e r s o.-.-.X.} @.} e 7 e r -.-.[ [ +.+.' i i i r r r r p r w q 7 q i i w w ' ' w q q q e e r r q q r e , z G.{.{.[.[.{.{.Y.b.>.:.-.[ } } O.>.@.} r r } } O.-.X.r e e e i i e e i i i ' } } ",
"' ' +.@.@...} } } } X.X.i i i r e e i o.%.@.p r r [ :.>.O.} } } ' i i i } } O.O.X.X.:.o.i e e r -.:.-.-.@.O.' ' i r r e e r r r q 7 q q r r e e i i q q e e q w i i q q i e , z G.{.{.[.[.{.{.Y.b.>.[ i ' o.} o.@.O.} { { } } O.O.X.r e e e i ' i r r i } } s r ",
"t t r r r e e e e y i i e e e q 7 7 q t e r 7 7 q y ' } e q e e e q t t t e e e t w y i y q 7 7 y i u y r e e r r r e e e r r r q q q w r r e r i y q q e r w w i i w r ' e , z G.{.{.[.[.{.{.Y.Q ' q q t e e e e e e e e e e r e e 7 7 7 7 t w e e 7 7 e e 7 7 ",
"O + + , , + + O O + + , , + + O O O . O O + O O O + , , + + + + + O O O O O O + + , , , , + O O + , + + + < 5 q e e q w r r ' i w q q q e e y i } i w q e e i i w w r r ' e , z G.{.{.[.[.{.{.H.c , : + + O O + + + + + + , , + + O O O O O + , , + O O O O O O ",
"v b n n n n b v v v n n n n b v v v v v v v v v v v n n v b n n b v v v v v v b n n n n n n b b n n v v n B C Z 9 q w w r r ' i e q q q e e i i ' r w q q e e e t w r ' } q + g G.{.{.[.[.{.{.K.r.l l n b v v b n n b v n n n n b v v v v b n n n n b v v v v v ",
"W.W.W.W.W.W.W.W.W.W.W.W.W.W.W.W.W.W.W.W.W.W.W.W.W.W.W.W.W.W.W.W.W.W.W.W.W.W.W.W.W.W.W.W.W.W.W.W.W.W.W.W.W.W.~.s.Z q e i w w r r e e 7 q y i i r w w e e q q w t e e i ' ' q + g G.{.{.[.[.[.[.~.~.W.W.W.W.W.W.W.W.W.W.W.W.W.W.W.W.W.W.W.W.W.W.W.W.W.W.W.W.W.W.W.",
"{.{.{.{.}.{.{.{.{.{.{.{.}.}.}.{.{.{.}.}.{.{.{.{.}.}.}.}.{.{.}.}.{.{.{.{.}.}.}.}.{.}.}.}.{.{.{.{.}.}.{.{.{.}.}.I.D q w w w e i i r e q q e y i i e e r r e w w w r i ' ' } e + g G.{.{.[.[.[.[.{.{.{.{.{.{.{.{.{.{.}.}.}.{.{.{.{.{.{.{.{.{.{.}.}.{.{.{.{.{.{.{.{.",
"[.[.[.[.[.[.[.[.[.[.[.[.[.[.[.[.[.[.[.[.[.[.[.[.[.[.[.[.[.[.[.[.[.[.[.[.[.[.[.[.[.[.[.[.[.[.[.[.[.[.[.[.[.{.{.I.E r w w i i i i i i w t e e i ' ' ' i r i i w w i } } } o.e , g G.{.{.[.[.[.[.[.[.[.[.[.[.[.[.[.[.[.[.[.[.[.[.[.[.[.[.[.[.[.[.[.[.[.[.[.[.[.[.[.",
"[.[.[.[.[.[.[.[.[.[.[.[.[.[.[.[.[.[.[.[.[.[.[.[.[.[.[.[.[.[.[.[.[.[.[.[.[.[.[.[.[.[.[.[.[.[.[.[.[.[.[.[.[.{.{.Y.Q ' e e i i e e i i u u r r ' ' o.} } _ ' i w w w r } O.>.i + g G.{.{.[.[.[.[.[.[.[.[.[.[.[.[.[.[.[.[.[.[.[.[.[.[.[.[.[.[.[.[.[.[.[.[.[.[.[.[.[.",
"[.[.{.{.{.{.{.{.{.{.[.[.{.{.[.{.[.{.{.{.[.[.[.{.[.[.{.[.{.{.{.{.{.{.[.[.[.[.{.{.{.{.{.{.[.[.{.[.[.[.[.[.[.{.{.Y.~ o.r e i i e r i i a a r r ' } ..} _ r r e w w w e i O.>.} 2 l G.{.{.[.[.[.{.{.{.{.[.[.[.[.{.{.{.{.{.{.[.[.[.[.[.[.[.[.{.{.{.{.{.[.{.{.[.[.[.[.",
"{.{.{.{.{.{.{.{.{.{.{.{.{.{.{.{.{.{.{.{.{.{.{.{.{.{.{.{.{.{.{.{.{.{.{.{.{.{.{.{.{.{.{.{.{.{.{.{.{.[.[.[.[.{.{.Y.b.:.[ i i i s s i i i r e e r r r r w q q q e i r r r p +...e S L.}.{.{.{.{.{.{.{.{.{.{.{.{.{.{.{.{.{.{.{.{.{.{.{.{.{.{.{.{.{.{.{.{.{.{.{.{.{.{.",
"U.Y.Y.R.R.R.Y.Y.R.R.R.R.R.R.R.R.R.R.R.R.R.R.R.R.Y.Y.R.R.R.R.R.R.R.R.R.R.Y.Y.Y.R.R.R.R.R.R.Y.H.G.~.{.[.[.[.{.{.Y.~ >.[ i i s } } r r i i w w r r r r e w q q e i i r e r ..+.} P d.Y.R.R.E.E.R.R.R.E.E.E.E.E.E.R.E.R.R.R.R.R.E.E.E.E.R.R.R.R.R.R.R.E.E.E.E.R.R.R.",
"P I W 3.3.3.W W / ) ( 3.3.3.3.3.3.3.3.3.3.3.3.3.W W 3.3.3.3.3.3.3.( M.M.W W 3.3.3.3.3.3.3.U ; n G.{.{.[.[.{.{.Y.! -.[ i i i i i e e r i i i ' } ....' ' i y w w i i e e } } } i L =.3.4.5.5.4.4.5.`.`.5.6.6.5.5.5.5.4.3.3.4.6.6.5.5.5.5.5.4.3.4.5.`.`.`.`.5.5.5.",
"r { @.>.>.:.} } d $.$.@.>.1.>.>.@.@.>.>.>.@.@.@.@.%.%.@.} } O.@.@.-.Y Y [ } @.@.@.O.O.@.%.r , g G.{.{.[.[.{.{.Y.Q o.i e i i s r r r i i ' ' ' } } } } ' i e e e i i r r s } } ..%.%.%.>.1.1.>.>.2.2.0.0.8.8.1.1.1.1.>.>.>.1.8.8.1.1.1.1.>.>.>.1.0.0.0.2.2.1.1.1.",
"e r } X.[ i w w t e e r ..@.O.} r r } o.[ i w r } @.[ r 8 8 q w i i y t w e } } r e e r i t O k G.{.{.[.[.{.{.Y.Q o.r e i i a a s i i i i ' ' ' } { _ r e e r i i i i r r } } O.>.>.O.o.O.O.O.O.-.:.:.:.:.:.:.-.O.O.O.o.X.o.:.-.[ [ -.-.[ [ -.:.>.>.:.-.O.O.O.O.",
"e r i ' ' i e q q q e r } ..} ' r y i ' ' i e e ' ' ' y e e e e i i e q w i i i e e e y i q O h G.{.{.[.[.{.{.Y.~ :.i e e r s s r r i i e r ' } ' r r r r i } ' r r i i r p } } O.:.X.} } } } } } o.:.:.O.o.@.O.} } ' i r r ' } i ' o.X.r e i ' o.o.o.[ r r s } ",
"i i i i ' i e e e e i ' } } } ' ' i i ' } s e e i ' ' i i y e e i i e e i ' ' i r r i ' ' q O k G.{.{.[.[.{.{.Y.^ >.[ y e e i i e e r i w e } } } r _ i i ' } } e w i i i r r } } } ' i } } } r r } @.>.O...+.+.} i i i w e r { r } } s e e q w r i i i e e r r ",
"i i r i ' ' i e t e i ' } ' ' ' i i i ' } i e e i } } i r e t w i y q q y ' } } ..} ' ' ' q O k G.{.{.[.[.{.{.Y.! O.i e e y e e y r e e e _ ....} r i i w r } } e e e e i i i } } ' e w i ' ' r r } } ....+.....} } ' i i i r r r i } r e e e e i i e e y e e q ",
"{ { p ' } ' i i w w ' } ' r i i i r r i ' i r r } O.} s e e q w i i q q i o.@.@.+...} i ' q O k G.{.{.[.[.{.{.Y.~ O.s r i i e e i i e e r } ..+.} ' ' i w r } ..r e e e i i i } o.} e w i i r r i i i } +.+...} } } } } } } { r ' ' i r r e e e i i r r y e q 7 ",
"} } } ' ' ' r e y ' -.o.} r q q r r e e r i i i o.o.} r e e q w [ [ w w [ :.>.@.} { p { ' q + k G.{.{.[.[.{.{.Y.^ >.-.[ [ i i i w w r r e r } } } ' ' ' r r } } r e e e r i i [ -.o.' r i r r e i ' } ..+.+...} } s r r } { _ _ ' ' ' r r r e e i ' ' i r e q q ",
"o.X.i r ' ' r e i o.:.:.} e q e r r w w _ } ' ' o.o.' i r e q e [ [ e e i -.>.>.} i r { ' q + k G.{.{.[.[.{.{.Y.b.>.:.o.[ i i e t q e e r r i ' ' ' i i r } } s r e e e e r i [ o.X.r e e e e e i i i } +.+...} } } p i ' ' _ } } } } s r r e e i ' ' i e e t q ",
"-.[ r w i i i i } O.%.%.o.y e e r r w r } ..} } } X.' i i y e e i i e e e s @.%.o.' ' ' ' q O k G.{.{.[.[.{.{.Y.b.>.O.X.} s r e e e q w r i i i w w w w r r _ r r r e e q w r } } s e q q q e e i i e r ..+...} } } } ' ' ' ' } } } } s r e q w i i w w i y e e ",
"o.[ i w e y i ' ' o.>.>.o.i r r r r e _ @.@...} } } r e y e e y i i e e q e { } i r i i i 7 O h G.{.{.[.[.{.{.Y.b.>.:.O.O.} r e e q e e r r i r e q e e r r i i r r r e q e r } o.s e q w e e r i r e e } +.+...} s r r ' ' r r s } } i r e t e e e t t e y r e ",
"i i i i e e i i i [ :.:.[ i i r e e r } >.>.O.} } } r e q w i i i i e e t w e e w w i i r 7 O g G.{.{.[.[.{.{.Y.b.<.:.:.@.} r e q w r r e e r r e e r r e e i i e e i i e e r } -.X.r e i ' ' ' ' r w w ' } +...} r w w r r e e r ' ' i i i e e e e q q e e y i ",
"r i ' i t t i i i } O.o.[ i i r i e r s -.:.} } } } s r w t e r ' i e e i [ [ i r e e e r q + g G.{.{.[.[.{.{.R._.2.,.-.o.i e e e e e e r r i i w e r r e t i [ i s ' } } } } } :.:.s r } } ' i r r } o.' ' r r _ r i i r r e e i } } i r r i i e e e r e e e e ",
"r i i i w w i i i } } X.i i r i i y e r X.-.} } } ..} ' w t e e i i e r X.-.-.o.} r e e r t , z G.{.{.[.[.{.{.(._.0.>.-.[ i e e e e q w r ' ' i w w r r w w i i X.X.i } @.@.} } @.@.} p } } } r e r O.@.} r w w r r i i i r w w ' } } s r r X.X.r e r i i i e e ",
"i i i r e e i i i } o.X.r r r r r e y i o.@.+.+.+.+...} i y e e r r w w i [ o.o.} s e e e 7 : z G.{.{.[.[.{.{.Y.b.2.:.o...} e q e e r r r _ ' i r r w w r r e e r r e r r i r } } } } r r r } s e e e r r r w w r r w w r r r r ' ' ' i i i ' i e w r i i i i i ",
"i ' ' r r r i i ' } o.X.r r { } r r i ' +.+.+.+.+...} } ' i e r r r e e i ' } } } i r e e 7 + g G.{.{.[.[.{.{.Y.b.>.@.O.+.} e q e e r r ' } ' r r r w e r r e e e e e e q t r r r r r r e r } } r r e e r r e w r r r r r r p i i i i i ' ' r r t w r p p r i i ",
"i ' } } ' ' i ' ' } o.X.} } ....} ' i } +.+.......} } s i i i i r r r r r ' ' ' ' i i i i q + g G.{.{.[.[.{.{.Y.b.>.:.o.} r e e e e q r [ o.} r w w r r r e e e q w i y e e r r r r e e r i } } } } } } s i i i r } } } ' r r r w w r ' } } r e e e r _ r r r e ",
"[ o.O.@.o.} } } o.o.} } } o.@.+.} } } ..+.@.....o.} } ' { } ' ' ' { { } } } } o.o.o.[ ' ' t + h G.{.{.[.[.{.{.Y.b.1.:.o.i r r r e q q w [ o.' r w w r p r r e e q e i ' r r } } } s e e i [ X.o.O.O.O.} p r i i ' } ....} ' r e e e i } ..} r e e r i ' } } r r ",
"} } ....} ' r i X.X.i r ' ' } } r _ } +.+...} } ' ' i i r r r r r r r r } } ..@.:.:.[ i i q O k G.{.{.[.[.{.{.Y.^ >.O.i w t y y t q q q r i i y t q e r r e q q q e y i i i } } } s e e y i i i } } ' i e e q w i ' } } ' i w q q e i } } s e e r r i i } } i i ",
"5 5 6 6 5 1 1 1 3 2 < < < < 1 1 < < 5 6 6 5 5 1 < < 1 1 < < < < 1 1 < < 1 5 6 6 6 7 < < 1 > X g G.{.{.[.[.{.{.I.Z 6 5 1 , , < < , , , , , < < < < < < < 1 1 , + @ @ < < < < 1 5 < < < < < < < < 1 1 < < , , < < 1 1 < < < < , + @ < 1 5 5 1 < @ < < < < 1 1 < < ",
"* * * * * * * * & & & & & & * * & & * * * * * * & & * * & & & & * * & & * * * * * * & & * * % v G.{.{.[.[.{.{.G.B = = * & & & & & & & & & & & & * * & & * * # # & & & & & & * * & & * * & & & & * * & & & & * * * * & & & & & & & & * * * * & & & & & & * * & & ",
"a.a.a.a.a.a.a.a.a.a.a.a.a.a.a.a.a.a.a.a.a.a.a.a.a.a.a.a.a.a.a.a.a.a.a.a.a.a.a.a.a.a.a.a.a.a.a.G.~.{.[.[.[.[.{.~.G.a.a.a.a.a.a.a.a.a.a.a.a.a.a.a.a.a.a.a.a.a.a.a.a.a.a.a.a.a.a.a.a.a.a.a.a.a.a.a.a.a.a.a.a.a.a.a.a.a.a.a.a.a.a.a.a.a.a.a.a.a.a.a.a.a.a.a.a.a.a.a.",
"{.{.{.{.{.{.{.{.{.{.{.{.{.{.{.{.{.{.{.{.{.{.{.{.{.{.{.{.{.{.{.{.{.{.{.{.{.{.{.{.{.{.{.{.{.{.{.{.[.[.[.[.[.[.[.[.{.{.{.{.{.{.{.{.{.{.{.{.{.{.{.{.{.{.{.{.{.{.{.{.{.{.{.{.{.{.{.{.{.{.{.{.{.{.{.{.{.{.{.{.{.{.{.{.{.{.{.{.{.{.{.{.{.{.{.{.{.{.{.{.{.{.{.{.{.{.{.{.",
"{.{.{.{.{.{.{.{.{.{.{.{.{.{.{.{.{.{.{.{.{.{.{.{.{.{.{.{.{.{.{.{.{.{.{.{.{.{.{.{.{.{.{.{.{.{.{.{.[.[.[.[.[.[.[.[.{.{.{.{.{.{.{.{.{.{.{.{.{.{.{.{.{.{.{.{.{.{.{.{.{.{.{.{.{.{.{.{.{.{.{.{.{.{.{.{.{.{.{.{.{.{.{.{.{.{.{.{.{.{.{.{.{.{.{.{.{.{.{.{.{.{.{.{.{.{.{.{.",
"[.[.[.[.[.[.[.[.[.[.[.[.[.[.[.[.[.[.[.[.[.[.[.[.[.[.[.[.[.[.[.[.[.[.[.[.[.[.[.[.[.[.[.[.[.[.[.[.[.[.[.[.[.[.[.[.[.[.[.[.[.[.[.[.[.[.[.[.[.[.[.[.[.[.[.[.[.[.[.[.[.[.[.[.[.[.[.[.[.[.[.[.[.[.[.[.[.[.[.[.[.[.[.[.[.[.[.[.[.[.[.[.[.[.[.[.[.[.[.[.[.[.[.[.[.[.[.[.",
"[.[.[.[.[.[.[.[.[.[.[.[.[.[.[.[.[.[.[.[.[.[.[.[.[.[.[.[.[.[.[.[.[.[.[.[.[.[.[.[.[.[.[.[.[.[.[.[.[.[.[.[.[.[.[.[.[.[.[.[.[.[.[.[.[.[.[.[.[.[.{.[.[.[.[.[.[.[.[.[.[.[.[.[.[.[.[.[.[.[.[.[.[.[.[.[.[.[.[.[.[.[.[.[.[.[.[.[.[.[.[.[.[.[.[.[.[.[.[.[.[.[.[.[.[.[.[.[.",
"{.{.{.{.{.{.{.{.{.{.{.{.{.{.{.{.{.{.{.{.{.{.{.{.{.{.{.{.{.{.{.{.{.{.{.{.{.{.{.{.{.{.{.{.{.{.{.{.{.[.[.[.[.[.[.{.{.{.{.{.{.{.{.{.{.{.{.{.{.{.{.{.{.{.{.{.{.{.{.{.{.{.{.{.{.{.{.{.{.{.{.{.{.{.{.{.{.{.{.{.{.{.{.{.{.{.{.{.{.{.{.{.{.{.{.{.{.{.{.{.{.{.{.{.{.{.{.{.",
"~.~.~.~.~.~.~.~.~.~.~.~.~.~.~.~.~.~.~.~.~.~.~.~.~.~.~.~.~.~.~.~.~.~.~.~.~.~.~.~.~.~.~.~.~.~.~.~.[.[.[.[.[.[.[.[.~.~.~.~.~.~.~.~.~.~.~.~.~.~.~.~.~.~.~.~.~.~.~.~.~.~.~.~.~.~.~.~.~.~.~.~.~.~.~.~.~.~.~.~.~.~.~.~.~.~.~.~.~.~.~.~.~.~.~.~.~.~.~.~.~.~.~.~.~.~.~.~.",
"c.c.n.n.n.C.A.A.Z.Z.Z.Z.Z.Z.C.n.n.n.n.v.v.v.v.n.n.n.C.C.n.n.n.n.n.n.n.n.n.n.n.n.n.v.v.k.k.g.V t.W.{.{.[.[.{.{.!.x.n.n.v.v.k.k.v.v.n.n.n.n.v.v.v.n.C.C.n.n.n.n.v.v.v.n.C.C.n.n.n.n.n.n.v.v.v.Z.A.Z.C.v.k.k.v.v.C.Z.Z.Z.m.n.n.n.n.n.n.n.n.n.n.n.n.n.n.n.n.n.n.n.n.",
"+.@.>.<.<.2.e.e.w.w.0.0.w.2.<.>.>.>.>.,.:.:.:.>.>.<.2.2.<.<.<.<.<.<.<.<.<.>.>.>.>.:.-.-.-.y , z G.{.{.[.[.{.{.Y.^ 1.1.>.-.-.-.-.:.>.>.>.>.:.-.-.<.2.<.<.<.<.<.>.:.:.<.2.<.<.>.>.>.>.>.:.-.:.0.e.w.2.-.X.-.:.>.<.2.0.0.0.2.<.>.>.>.>.>.>.<.<.<.<.<.<.<.<.<.<.<.<.",
"......O.:.>.1.1.>.>.>.>.>.>.:.O.s s X.o.o.o.o.o.o.o.%.%.@.@.:.:.:.:.@.@.@.O.' r r r r r r q : z G.{.{.[.[.{.{.Y.^ 1.>.-.' r r r r ' [ X.s r r s -.>.:.@.@.@.@.@.:.:.:.:.:.O.s s r ' o.' ' ' :.>.>.O.r e } O.O.:.>.,.:.@.:.:.@.O.o.o.o.o.:.:.:.O.o.o.O.O.o.o.O.@.",
"..} r r X.:.>.>.:.o.} } o.o.o.} r e e i } } ' ' ' ' +.+.} o.:.:.-.o.o.} } i w t q q q q e 5 o g G.{.{.[.[.{.{.Y.^ >.o.' w t q q q w i i r e e r X.o.X.} s s } } o.-.o.o.X.r 7 4 1 1 q q 1 q ' O.} r e e i } } } o.X.i i X.o.} i i i i [ [ X.} } ' ' } } i i ' } ",
"+...r r ' o.@.%.@...r r } o.} ' i y e e r } ....} } +.+.} o.>.>.} } } ' ' i i i w q 7 7 q 1 O g G.{.{.[.[.{.{.Y.^ >.' w i e q 7 e e s } r r s } } ' ' i r e r } } } } } ' t - . . . + + + < e } } r i i i } } } } r e r } } r r i ' i i e r r ' r } +.} r w i i ",
"..} r r } } ..+...{ e e i } i i i i e e r _ } ' ' } } } ' ' O.@.} r r i i i i e w q q q q 1 O f G.{.{.[.[.{.{.Y.~ @.e t i i q q e r s } ' i s s } i i e e r r ' ' } ....} q O $ h m M N N V g.R J r i ' i r r r i r r r i i e e e i i i r r r i ' ' ' _ r r i i ",
"{ } ' } } } ..} } r e e i i e e i i w w r r w w ' } } r w e } } } r e e r r e e q q e e q 1 O k G.{.{.[.[.{.{.Y.Q o.r e i i w w i i i i i i e e s s r e y i i r r } %.%...q + k a.~.~.~.~.~.~.U.A e r { { { r i i i r i i i e e q w r r r r r i i i w w r i i i ",
"} } } } } } } } } } } i i r e e r r w q e e q w ' } } r e e } } r r r r i i e e q q e e q 1 O k G.{.{.[.[.{.{.Y.~ @.r t w w w w i i r r i y q e r i e e i i r r p } ..+.+.e + h G.}.}.{.{.}.}.I.T ' } } } } ' i i i r r ' i r r e e r ' } } ' i e e e r r ' ' i ",
"} } } } } ..} ..@.@.:.o.} r w w r r w q e e q w ' } } r e r ....r e r i ' i e e q q e e q 1 O k G.{.{.[.[.{.{.Y.^ @.r q q q q w i i e e i e q q r r w w i i e r } } } } +.r + h G.{.{.[.[.{.{.Y.Q @.O.} ..} ' ' i r w e } } s r e e i ' } } ' i e e r r r r r r ",
"' ' i ' ..+...O.>.>.o.' ' i r r r r e e e e e e r } ' i e r ..+.i r r _ ' r t t w w q q q 3 O k G.{.{.[.[.{.{.Y.! o.r q q q q w i ' i y e e e e r r w w r i r p ....} { } e + h G.{.{.[.[.{.{.Y.Q :.:.O.@...' ' i r r r } p r r e i i i r r i i r r i i e q w w ",
"i i i ' } ..} O.>.@.} r i i r r e r r r r e e e r i i e e r } } ' ' i r r e w w i y q q q 3 O k G.{.{.[.[.{.{.Y.! o.r q e e t e ' } i y e e e e r r w e r r r _ } ..} } } q + h G.{.{.[.[.{.{.Y.! :.:.O.@.} ' i r r p r i r e e i i r r w w r r r i i w q q q w ",
"i i i ' } } } } ....} r i r r r r i i i r r e e i i w t e e i ' ' ' ' i r e q w i i e e q 1 O j G.{.{.[.[.{.{.Y.^ @.r q e e y i ' r r e e e q q w w r r r r e e _ } } } } t + l G.{.{.[.[.{.{.Y.~ >.@.} } r r e r r p i ' i w w r r r e i i e r r r w t q q e r ",
"r r i ' } p r r } X.} r r r r r i ' i i } r e e i i w q e r i ' ' ' i y e e e e i i e e w 1 O k G.{.{.[.[.{.{.Y.^ >.r q e e y i i r e e e e q q q w r ' _ r e e r } } } ' q + l G.{.{.[.[.{.{.Y.^ >.O.} ' r r r r r i i i e t e r i r e e i r r i i e w q e r ' ",
"e e r } } s r r X.-.} r r r r i ' ' ' } } ' e e ' ' w w r i ' ' ' i e e y i i r r r e e q 1 O k G.{.{.[.[.{.{.Y.^ :.r w i y e e i i e e e e q q q w i ' ' r r _ ' ' } ' r 3 O k G.{.{.[.[.{.{.Y.^ >.o.' ' ' ' ' ' i i i e e e e i i r r w w i } ' i i r e e i ' ",
"r r r } } } r i -.:.[ i r p p } } ' ' } } } e e } s q q r } } ' i e r r e r i i r e e e e 5 O h G.{.{.[.[.{.{.Y.^ :.r q t t q e ' } i r r e q q w r i ' ' } } ' ' ' ' ' r 7 O k G.{.{.[.[.{.{.Y.~ @.i y ' ' i i i ' ' i r e e e e i ' ' r e r i i ' ' r e e i ' ",
"' ' ' } } } i [ :.:.[ i i r r ' ' ' ' } } } r r s i q q r r r r w w r r e e i i w w i i r 7 O k G.{.{.[.[.{.{.Y.^ :.r q 7 7 q r } +.} ' i r w w r i i ' } } } ' ' ' ' ' ' q + h G.{.{.[.[.{.{.Y.! o.r e i i w w i ' } } s r e e q w ' } i r e e r _ r r e e i i ",
"' } o.o.} } i } o.o.' i ' r r i ' ' } } ....p r i i e e r r r r _ _ r e e e i i r r ' } i 7 O k G.{.{.[.[.{.{.Y.b.:.r q q q q e ' } } ' ' i e e r ' ' ' } } ' ' i r ' } } q + h G.{.{.[.[.{.{.Y.~ :.r q e e e i i ' } s r r r e w w i i r r r r r r r e e r i i ",
"r } o.o.} r r i } } _ r r r r ' ' ' } ..@.+.} ' ' i e e r r e r } } y q e e y i i } } } ' q + g G.{.{.[.[.{.{.Y.b.>.s e q q e e i i r r i i e e r i i i i ' ' ' i r r p { q + f G.{.{.[.[.{.{.Y.b.:.r q e r i i i p { r e e r r w w i i e e r p _ r w w i i i r ",
"i i } } ' i w e } } r e e r ' } } ....O.-.o.[ ' } s e e w e r r r w w w y y e e i ' } } r 7 + g G.{.{.[.[.{.{.Y.^ >...r w q e e i i r r r i i i r r w w ' ' ' ' r r r { { q + f G.{.{.[.[.{.{.Y.b.:.e q e r i i r } } } i e w w e e s s e e r { _ r e e i ' ' _ ",
"i i i i i y w r } } r w e e i ' } ..} X.o.o.[ ' } s r e q w r r w w w w i i r r i [ o.} r 5 o z G.{.{.[.[.{.{.Y.^ >...r w q e e y y e r r i i i r r e e ' } } p p r r r i q + k G.{.{.[.[.{.{.Y.b.:.r e e r r r r i X.X.' i w q e e i s r r r ' { r e e i ' r r ",
"w w i i e e r r { r r r i i e r i ' ' } } } } i p i i y e e q w r r r r i [ X.X.[ [ :.>.} q : z G.{.{.[.[.{.{.Y.b.>.s e q w i i e e r r i i w w r r r r r ' r p { r e w i q O k G.{.{.[.[.{.{.Y.b.>.O.r e q y i e r X.-.} r e e q w i i r r i i i r w w ' ' r e ",
"q t e y e r r r r e r r i y e e i ' ' } } } X.} } r i e e e q w r ' ' ' i ' [ [ [ [ @.@.s q : z G.{.{.[.[.{.{.Y.b.>.r q e e y e e e r i i w w w e r r r r p r i ' i r r ' t + h G.{.{.[.[.{.{.Y.N.>.O.r e t i i e e X.o.} r e e q w i i r r i i i r e r ' ' r e ",
"w q e e i ' ' r w q e e t w i i i ' } } } o.-.o.} r e e e e q w i i i i i ' ' [ i [ X.} r 5 o z G.{.{.[.[.{.{.Y.b.:.r w r r w t e e i i w w w q e e q w r r r i ' ' i ' } e + h G.{.{.[.[.{.{.(._.2.s e y i i i e e ' } } r e e e r ' ' r e r r r i i i ' ' i i ",
"e e r r i ' ' i w q q q e r i ' ' } } } } } O.@...{ e e e e e t w w e r X.X.X.' i i ' r e 5 + g G.{.{.[.[.{.{.Y.^ >.} r i i i r y r e e e w w w e e t e i i r r i i y e r 7 O h G.{.{.[.[.{.{.R.N.>.X.e w i i i r i } } } i e e e i X.X.s r p p r } } ' ' i ' ' ",
"r r _ _ r ' i i w q q w r i ' ' } } } i i } +.%.%...r e i i e e t t e r X.-.o.X.' i ' i w 3 + l G.{.{.[.[.{.{.Y.^ >.O.} ' ' ' ' i i e e r r w w i i e e i i r e i i w q e 7 + k G.{.{.[.[.{.{.Y.b.>.o.i w w r i i ' } } } i e e r } -.-.o.} } r _ } } } ' i i r ",
"_ ' ' ' r r i r e e e e r i i ' ....' i } O.1.8.%...r e i i r r i r r r ' X.o.o.' ' X.[ i w q Z I.{.{.[.[.{.{.Y.b.>.o.' } } } ' r w i i i r e e i i i i ' } s i r e q w e t 1 c H.{.{.[.[.{.{.Y.b.>.o.i e e i ' ' ' } } } s e e i ' X.O.o.} } i ' ' ' ' ' i r r ",
"r i i ' i r r r e e e e r i i ' +.+.' i } @.0.q.&...r e y i i i ' ' ' r r } -.-.} } -.-.[ ' { E Y.{.{.[.[.{.{.Y.b.>.[ ' } ....' w w ' ' ' r e e i ' ' ' } } } s e e q w i r q Z J.{.{.[.[.{.{.Y.b.>.o.y e e i ' ' } } } } s e e i ' } } } } } ' ' ' ' i i r r r "
};
