/* XPM */
static const char *doom_grate[] = {
/* columns rows colors chars-per-pixel */
"128 128 16 1 ",
"  c #373737",
". c gray23",
"X c #434343",
"o c gray28",
"O c #4B4B4B",
"+ c gray31",
"@ c gray34",
"# c #5B5B5B",
"$ c gray39",
"% c gray42",
"& c #6F6F6F",
"* c #777777",
"= c gray50",
"- c #838383",
"; c #8B8B8B",
": c None",
/* pixels */
"X@+::::::::::Oo X@+::::::::::Oo X@+::::::::::Oo X@+::::::::::Oo X@+::::::::::Oo X@+::::::::::Oo X@+::::::::::Oo X@+::::::::::Oo ",
"&%::::::::::::X@&%::::::::::::X@&%::::::::::::X@&%::::::::::::X@&%::::::::::::X@&%::::::::::::X@&%::::::::::::X@&%::::::::::::X@",
"&$@.::::::::o%**&$@.::::::::o%**&$@.::::::::o%**&$@.::::::::o%**&$@.::::::::o%**&$@.::::::::o%**&$@.::::::::o%**&$@.::::::::o%**",
"O#%%@X::::@*-;=#O#%%@X::::@*-;=#O#%%@X::::@*-;=#O#%%@X::::@*-;=#O#%%@X::::@*-;=#O#%%@X::::@*-;=#O#%%@X::::@*-;=#O#%%@X::::@*-;=#",
"::O#%$+ O*;;-$::::O#%$+ O*;;-$::::O#%$+ O*;;-$::::O#%$+ O*;;-$::::O#%$+ O*;;-$::::O#%$+ O*;;-$::::O#%$+ O*;;-$::::O#%$+ O*;;-$::",
"::::o@+#=;*#::::::::o@+#=;*#::::::::o@+#=;*#::::::::o@+#=;*#::::::::o@+#=;*#::::::::o@+#=;*#::::::::o@+#=;*#::::::::o@+#=;*#::::",
"::::::#*%+::::::::::::#*%+::::::::::::#*%+::::::::::::#*%+::::::::::::#*%+::::::::::::#*%+::::::::::::#*%+::::::::::::#*%+::::::",
":::::X#+.X.::::::::::X#+.X.::::::::::X#+.X.::::::::::X#+.X.::::::::::X#+.X.::::::::::X#+.X.::::::::::X#+.X.::::::::::X#+.X.:::::",
":::::.o.O@X::::::::::.o.O@X::::::::::.o.O@X::::::::::.o.O@X::::::::::.o.O@X::::::::::.o.O@X::::::::::.o.O@X::::::::::.o.O@X:::::",
"::::::O$&#::::::::::::O$&#::::::::::::O$&#::::::::::::O$&#::::::::::::O$&#::::::::::::O$&#::::::::::::O$&#::::::::::::O$&#::::::",
"::::#*-=$@@o::::::::#*-=$@@o::::::::#*-=$@@o::::::::#*-=$@@o::::::::#*-=$@@o::::::::#*-=$@@o::::::::#*-=$@@o::::::::#*-=$@@o::::",
"::#=;;=@.+$%#o::::#=;;=@.+$%#o::::#=;;=@.+$%#o::::#=;;=@.+$%#o::::#=;;=@.+$%#o::::#=;;=@.+$%#o::::#=;;=@.+$%#o::::#=;;=@.+$%#o::",
"#=;;=#::::o@%%@o#=;;=#::::o@%%@o#=;;=#::::o@%%@o#=;;=#::::o@%%@o#=;;=#::::o@%%@o#=;;=#::::o@%%@o#=;;=#::::o@%%@o#=;;=#::::o@%%@o",
"==%+::::::::X@$&==%+::::::::X@$&==%+::::::::X@$&==%+::::::::X@$&==%+::::::::X@$&==%+::::::::X@$&==%+::::::::X@$&==%+::::::::X@$&",
"#o::::::::::::&&#o::::::::::::&&#o::::::::::::&&#o::::::::::::&&#o::::::::::::&&#o::::::::::::&&#o::::::::::::&&#o::::::::::::&&",
" oo::::::::::@#X oo::::::::::@#X oo::::::::::@#X oo::::::::::@#X oo::::::::::@#X oo::::::::::@#X oo::::::::::@#X oo::::::::::@#X",
"X@+::::::::::Oo X@+::::::::::Oo X@+::::::::::Oo X@+::::::::::Oo X@+::::::::::Oo X@+::::::::::Oo X@+::::::::::Oo X@+::::::::::Oo ",
"&%::::::::::::X@&%::::::::::::X@&%::::::::::::X@&%::::::::::::X@&%::::::::::::X@&%::::::::::::X@&%::::::::::::X@&%::::::::::::X@",
"&$@.::::::::o%**&$@.::::::::o%**&$@.::::::::o%**&$@.::::::::o%**&$@.::::::::o%**&$@.::::::::o%**&$@.::::::::o%**&$@.::::::::o%**",
"O#%%@X::::@*-;=#O#%%@X::::@*-;=#O#%%@X::::@*-;=#O#%%@X::::@*-;=#O#%%@X::::@*-;=#O#%%@X::::@*-;=#O#%%@X::::@*-;=#O#%%@X::::@*-;=#",
"::O#%$+ O*;;-$::::O#%$+ O*;;-$::::O#%$+ O*;;-$::::O#%$+ O*;;-$::::O#%$+ O*;;-$::::O#%$+ O*;;-$::::O#%$+ O*;;-$::::O#%$+ O*;;-$::",
"::::o@+#=;*#::::::::o@+#=;*#::::::::o@+#=;*#::::::::o@+#=;*#::::::::o@+#=;*#::::::::o@+#=;*#::::::::o@+#=;*#::::::::o@+#=;*#::::",
"::::::#*%+::::::::::::#*%+::::::::::::#*%+::::::::::::#*%+::::::::::::#*%+::::::::::::#*%+::::::::::::#*%+::::::::::::#*%+::::::",
":::::X#+.X.::::::::::X#+.X.::::::::::X#+.X.::::::::::X#+.X.::::::::::X#+.X.::::::::::X#+.X.::::::::::X#+.X.::::::::::X#+.X.:::::",
":::::.o.O@X::::::::::.o.O@X::::::::::.o.O@X::::::::::.o.O@X::::::::::.o.O@X::::::::::.o.O@X::::::::::.o.O@X::::::::::.o.O@X:::::",
"::::::O$&#::::::::::::O$&#::::::::::::O$&#::::::::::::O$&#::::::::::::O$&#::::::::::::O$&#::::::::::::O$&#::::::::::::O$&#::::::",
"::::#*-=$@@o::::::::#*-=$@@o::::::::#*-=$@@o::::::::#*-=$@@o::::::::#*-=$@@o::::::::#*-=$@@o::::::::#*-=$@@o::::::::#*-=$@@o::::",
"::#=;;=@.+$%#o::::#=;;=@.+$%#o::::#=;;=@.+$%#o::::#=;;=@.+$%#o::::#=;;=@.+$%#o::::#=;;=@.+$%#o::::#=;;=@.+$%#o::::#=;;=@.+$%#o::",
"#=;;=#::::o@%%@o#=;;=#::::o@%%@o#=;;=#::::o@%%@o#=;;=#::::o@%%@o#=;;=#::::o@%%@o#=;;=#::::o@%%@o#=;;=#::::o@%%@o#=;;=#::::o@%%@o",
"==%+::::::::X@$&==%+::::::::X@$&==%+::::::::X@$&==%+::::::::X@$&==%+::::::::X@$&==%+::::::::X@$&==%+::::::::X@$&==%+::::::::X@$&",
"#o::::::::::::&&#o::::::::::::&&#o::::::::::::&&#o::::::::::::&&#o::::::::::::&&#o::::::::::::&&#o::::::::::::&&#o::::::::::::&&",
" oo::::::::::@#X oo::::::::::@#X oo::::::::::@#X oo::::::::::@#X oo::::::::::@#X oo::::::::::@#X oo::::::::::@#X oo::::::::::@#X",
"X@+::::::::::Oo X@+::::::::::Oo X@+::::::::::Oo X@+::::::::::Oo X@+::::::::::Oo X@+::::::::::Oo X@+::::::::::Oo X@+::::::::::Oo ",
"&%::::::::::::X@&%::::::::::::X@&%::::::::::::X@&%::::::::::::X@&%::::::::::::X@&%::::::::::::X@&%::::::::::::X@&%::::::::::::X@",
"&$@.::::::::o%**&$@.::::::::o%**&$@.::::::::o%**&$@.::::::::o%**&$@.::::::::o%**&$@.::::::::o%**&$@.::::::::o%**&$@.::::::::o%**",
"O#%%@X::::@*-;=#O#%%@X::::@*-;=#O#%%@X::::@*-;=#O#%%@X::::@*-;=#O#%%@X::::@*-;=#O#%%@X::::@*-;=#O#%%@X::::@*-;=#O#%%@X::::@*-;=#",
"::O#%$+ O*;;-$::::O#%$+ O*;;-$::::O#%$+ O*;;-$::::O#%$+ O*;;-$::::O#%$+ O*;;-$::::O#%$+ O*;;-$::::O#%$+ O*;;-$::::O#%$+ O*;;-$::",
"::::o@+#=;*#::::::::o@+#=;*#::::::::o@+#=;*#::::::::o@+#=;*#::::::::o@+#=;*#::::::::o@+#=;*#::::::::o@+#=;*#::::::::o@+#=;*#::::",
"::::::#*%+::::::::::::#*%+::::::::::::#*%+::::::::::::#*%+::::::::::::#*%+::::::::::::#*%+::::::::::::#*%+::::::::::::#*%+::::::",
":::::X#+.X.::::::::::X#+.X.::::::::::X#+.X.::::::::::X#+.X.::::::::::X#+.X.::::::::::X#+.X.::::::::::X#+.X.::::::::::X#+.X.:::::",
":::::.o.O@X::::::::::.o.O@X::::::::::.o.O@X::::::::::.o.O@X::::::::::.o.O@X::::::::::.o.O@X::::::::::.o.O@X::::::::::.o.O@X:::::",
"::::::O$&#::::::::::::O$&#::::::::::::O$&#::::::::::::O$&#::::::::::::O$&#::::::::::::O$&#::::::::::::O$&#::::::::::::O$&#::::::",
"::::#*-=$@@o::::::::#*-=$@@o::::::::#*-=$@@o::::::::#*-=$@@o::::::::#*-=$@@o::::::::#*-=$@@o::::::::#*-=$@@o::::::::#*-=$@@o::::",
"::#=;;=@.+$%#o::::#=;;=@.+$%#o::::#=;;=@.+$%#o::::#=;;=@.+$%#o::::#=;;=@.+$%#o::::#=;;=@.+$%#o::::#=;;=@.+$%#o::::#=;;=@.+$%#o::",
"#=;;=#::::o@%%@o#=;;=#::::o@%%@o#=;;=#::::o@%%@o#=;;=#::::o@%%@o#=;;=#::::o@%%@o#=;;=#::::o@%%@o#=;;=#::::o@%%@o#=;;=#::::o@%%@o",
"==%+::::::::X@$&==%+::::::::X@$&==%+::::::::X@$&==%+::::::::X@$&==%+::::::::X@$&==%+::::::::X@$&==%+::::::::X@$&==%+::::::::X@$&",
"#o::::::::::::&&#o::::::::::::&&#o::::::::::::&&#o::::::::::::&&#o::::::::::::&&#o::::::::::::&&#o::::::::::::&&#o::::::::::::&&",
" oo::::::::::@#X oo::::::::::@#X oo::::::::::@#X oo::::::::::@#X oo::::::::::@#X oo::::::::::@#X oo::::::::::@#X oo::::::::::@#X",
"X@+::::::::::Oo X@+::::::::::Oo X@+::::::::::Oo X@+::::::::::Oo X@+::::::::::Oo X@+::::::::::Oo X@+::::::::::Oo X@+::::::::::Oo ",
"&%::::::::::::X@&%::::::::::::X@&%::::::::::::X@&%::::::::::::X@&%::::::::::::X@&%::::::::::::X@&%::::::::::::X@&%::::::::::::X@",
"&$@.::::::::o%**&$@.::::::::o%**&$@.::::::::o%**&$@.::::::::o%**&$@.::::::::o%**&$@.::::::::o%**&$@.::::::::o%**&$@.::::::::o%**",
"O#%%@X::::@*-;=#O#%%@X::::@*-;=#O#%%@X::::@*-;=#O#%%@X::::@*-;=#O#%%@X::::@*-;=#O#%%@X::::@*-;=#O#%%@X::::@*-;=#O#%%@X::::@*-;=#",
"::O#%$+ O*;;-$::::O#%$+ O*;;-$::::O#%$+ O*;;-$::::O#%$+ O*;;-$::::O#%$+ O*;;-$::::O#%$+ O*;;-$::::O#%$+ O*;;-$::::O#%$+ O*;;-$::",
"::::o@+#=;*#::::::::o@+#=;*#::::::::o@+#=;*#::::::::o@+#=;*#::::::::o@+#=;*#::::::::o@+#=;*#::::::::o@+#=;*#::::::::o@+#=;*#::::",
"::::::#*%+::::::::::::#*%+::::::::::::#*%+::::::::::::#*%+::::::::::::#*%+::::::::::::#*%+::::::::::::#*%+::::::::::::#*%+::::::",
":::::X#+.X.::::::::::X#+.X.::::::::::X#+.X.::::::::::X#+.X.::::::::::X#+.X.::::::::::X#+.X.::::::::::X#+.X.::::::::::X#+.X.:::::",
":::::.o.O@X::::::::::.o.O@X::::::::::.o.O@X::::::::::.o.O@X::::::::::.o.O@X::::::::::.o.O@X::::::::::.o.O@X::::::::::.o.O@X:::::",
"::::::O$&#::::::::::::O$&#::::::::::::O$&#::::::::::::O$&#::::::::::::O$&#::::::::::::O$&#::::::::::::O$&#::::::::::::O$&#::::::",
"::::#*-=$@@o::::::::#*-=$@@o::::::::#*-=$@@o::::::::#*-=$@@o::::::::#*-=$@@o::::::::#*-=$@@o::::::::#*-=$@@o::::::::#*-=$@@o::::",
"::#=;;=@.+$%#o::::#=;;=@.+$%#o::::#=;;=@.+$%#o::::#=;;=@.+$%#o::::#=;;=@.+$%#o::::#=;;=@.+$%#o::::#=;;=@.+$%#o::::#=;;=@.+$%#o::",
"#=;;=#::::o@%%@o#=;;=#::::o@%%@o#=;;=#::::o@%%@o#=;;=#::::o@%%@o#=;;=#::::o@%%@o#=;;=#::::o@%%@o#=;;=#::::o@%%@o#=;;=#::::o@%%@o",
"==%+::::::::X@$&==%+::::::::X@$&==%+::::::::X@$&==%+::::::::X@$&==%+::::::::X@$&==%+::::::::X@$&==%+::::::::X@$&==%+::::::::X@$&",
"#o::::::::::::&&#o::::::::::::&&#o::::::::::::&&#o::::::::::::&&#o::::::::::::&&#o::::::::::::&&#o::::::::::::&&#o::::::::::::&&",
" oo::::::::::@#X oo::::::::::@#X oo::::::::::@#X oo::::::::::@#X oo::::::::::@#X oo::::::::::@#X oo::::::::::@#X oo::::::::::@#X",
"X@+::::::::::Oo X@+::::::::::Oo X@+::::::::::Oo X@+::::::::::Oo X@+::::::::::Oo X@+::::::::::Oo X@+::::::::::Oo X@+::::::::::Oo ",
"&%::::::::::::X@&%::::::::::::X@&%::::::::::::X@&%::::::::::::X@&%::::::::::::X@&%::::::::::::X@&%::::::::::::X@&%::::::::::::X@",
"&$@.::::::::o%**&$@.::::::::o%**&$@.::::::::o%**&$@.::::::::o%**&$@.::::::::o%**&$@.::::::::o%**&$@.::::::::o%**&$@.::::::::o%**",
"O#%%@X::::@*-;=#O#%%@X::::@*-;=#O#%%@X::::@*-;=#O#%%@X::::@*-;=#O#%%@X::::@*-;=#O#%%@X::::@*-;=#O#%%@X::::@*-;=#O#%%@X::::@*-;=#",
"::O#%$+ O*;;-$::::O#%$+ O*;;-$::::O#%$+ O*;;-$::::O#%$+ O*;;-$::::O#%$+ O*;;-$::::O#%$+ O*;;-$::::O#%$+ O*;;-$::::O#%$+ O*;;-$::",
"::::o@+#=;*#::::::::o@+#=;*#::::::::o@+#=;*#::::::::o@+#=;*#::::::::o@+#=;*#::::::::o@+#=;*#::::::::o@+#=;*#::::::::o@+#=;*#::::",
"::::::#*%+::::::::::::#*%+::::::::::::#*%+::::::::::::#*%+::::::::::::#*%+::::::::::::#*%+::::::::::::#*%+::::::::::::#*%+::::::",
":::::X#+.X.::::::::::X#+.X.::::::::::X#+.X.::::::::::X#+.X.::::::::::X#+.X.::::::::::X#+.X.::::::::::X#+.X.::::::::::X#+.X.:::::",
":::::.o.O@X::::::::::.o.O@X::::::::::.o.O@X::::::::::.o.O@X::::::::::.o.O@X::::::::::.o.O@X::::::::::.o.O@X::::::::::.o.O@X:::::",
"::::::O$&#::::::::::::O$&#::::::::::::O$&#::::::::::::O$&#::::::::::::O$&#::::::::::::O$&#::::::::::::O$&#::::::::::::O$&#::::::",
"::::#*-=$@@o::::::::#*-=$@@o::::::::#*-=$@@o::::::::#*-=$@@o::::::::#*-=$@@o::::::::#*-=$@@o::::::::#*-=$@@o::::::::#*-=$@@o::::",
"::#=;;=@.+$%#o::::#=;;=@.+$%#o::::#=;;=@.+$%#o::::#=;;=@.+$%#o::::#=;;=@.+$%#o::::#=;;=@.+$%#o::::#=;;=@.+$%#o::::#=;;=@.+$%#o::",
"#=;;=#::::o@%%@o#=;;=#::::o@%%@o#=;;=#::::o@%%@o#=;;=#::::o@%%@o#=;;=#::::o@%%@o#=;;=#::::o@%%@o#=;;=#::::o@%%@o#=;;=#::::o@%%@o",
"==%+::::::::X@$&==%+::::::::X@$&==%+::::::::X@$&==%+::::::::X@$&==%+::::::::X@$&==%+::::::::X@$&==%+::::::::X@$&==%+::::::::X@$&",
"#o::::::::::::&&#o::::::::::::&&#o::::::::::::&&#o::::::::::::&&#o::::::::::::&&#o::::::::::::&&#o::::::::::::&&#o::::::::::::&&",
" oo::::::::::@#X oo::::::::::@#X oo::::::::::@#X oo::::::::::@#X oo::::::::::@#X oo::::::::::@#X oo::::::::::@#X oo::::::::::@#X",
"X@+::::::::::Oo X@+::::::::::Oo X@+::::::::::Oo X@+::::::::::Oo X@+::::::::::Oo X@+::::::::::Oo X@+::::::::::Oo X@+::::::::::Oo ",
"&%::::::::::::X@&%::::::::::::X@&%::::::::::::X@&%::::::::::::X@&%::::::::::::X@&%::::::::::::X@&%::::::::::::X@&%::::::::::::X@",
"&$@.::::::::o%**&$@.::::::::o%**&$@.::::::::o%**&$@.::::::::o%**&$@.::::::::o%**&$@.::::::::o%**&$@.::::::::o%**&$@.::::::::o%**",
"O#%%@X::::@*-;=#O#%%@X::::@*-;=#O#%%@X::::@*-;=#O#%%@X::::@*-;=#O#%%@X::::@*-;=#O#%%@X::::@*-;=#O#%%@X::::@*-;=#O#%%@X::::@*-;=#",
"::O#%$+ O*;;-$::::O#%$+ O*;;-$::::O#%$+ O*;;-$::::O#%$+ O*;;-$::::O#%$+ O*;;-$::::O#%$+ O*;;-$::::O#%$+ O*;;-$::::O#%$+ O*;;-$::",
"::::o@+#=;*#::::::::o@+#=;*#::::::::o@+#=;*#::::::::o@+#=;*#::::::::o@+#=;*#::::::::o@+#=;*#::::::::o@+#=;*#::::::::o@+#=;*#::::",
"::::::#*%+::::::::::::#*%+::::::::::::#*%+::::::::::::#*%+::::::::::::#*%+::::::::::::#*%+::::::::::::#*%+::::::::::::#*%+::::::",
":::::X#+.X.::::::::::X#+.X.::::::::::X#+.X.::::::::::X#+.X.::::::::::X#+.X.::::::::::X#+.X.::::::::::X#+.X.::::::::::X#+.X.:::::",
":::::.o.O@X::::::::::.o.O@X::::::::::.o.O@X::::::::::.o.O@X::::::::::.o.O@X::::::::::.o.O@X::::::::::.o.O@X::::::::::.o.O@X:::::",
"::::::O$&#::::::::::::O$&#::::::::::::O$&#::::::::::::O$&#::::::::::::O$&#::::::::::::O$&#::::::::::::O$&#::::::::::::O$&#::::::",
"::::#*-=$@@o::::::::#*-=$@@o::::::::#*-=$@@o::::::::#*-=$@@o::::::::#*-=$@@o::::::::#*-=$@@o::::::::#*-=$@@o::::::::#*-=$@@o::::",
"::#=;;=@.+$%#o::::#=;;=@.+$%#o::::#=;;=@.+$%#o::::#=;;=@.+$%#o::::#=;;=@.+$%#o::::#=;;=@.+$%#o::::#=;;=@.+$%#o::::#=;;=@.+$%#o::",
"#=;;=#::::o@%%@o#=;;=#::::o@%%@o#=;;=#::::o@%%@o#=;;=#::::o@%%@o#=;;=#::::o@%%@o#=;;=#::::o@%%@o#=;;=#::::o@%%@o#=;;=#::::o@%%@o",
"==%+::::::::X@$&==%+::::::::X@$&==%+::::::::X@$&==%+::::::::X@$&==%+::::::::X@$&==%+::::::::X@$&==%+::::::::X@$&==%+::::::::X@$&",
"#o::::::::::::&&#o::::::::::::&&#o::::::::::::&&#o::::::::::::&&#o::::::::::::&&#o::::::::::::&&#o::::::::::::&&#o::::::::::::&&",
" oo::::::::::@#X oo::::::::::@#X oo::::::::::@#X oo::::::::::@#X oo::::::::::@#X oo::::::::::@#X oo::::::::::@#X oo::::::::::@#X",
"X@+::::::::::Oo X@+::::::::::Oo X@+::::::::::Oo X@+::::::::::Oo X@+::::::::::Oo X@+::::::::::Oo X@+::::::::::Oo X@+::::::::::Oo ",
"&%::::::::::::X@&%::::::::::::X@&%::::::::::::X@&%::::::::::::X@&%::::::::::::X@&%::::::::::::X@&%::::::::::::X@&%::::::::::::X@",
"&$@.::::::::o%**&$@.::::::::o%**&$@.::::::::o%**&$@.::::::::o%**&$@.::::::::o%**&$@.::::::::o%**&$@.::::::::o%**&$@.::::::::o%**",
"O#%%@X::::@*-;=#O#%%@X::::@*-;=#O#%%@X::::@*-;=#O#%%@X::::@*-;=#O#%%@X::::@*-;=#O#%%@X::::@*-;=#O#%%@X::::@*-;=#O#%%@X::::@*-;=#",
"::O#%$+ O*;;-$::::O#%$+ O*;;-$::::O#%$+ O*;;-$::::O#%$+ O*;;-$::::O#%$+ O*;;-$::::O#%$+ O*;;-$::::O#%$+ O*;;-$::::O#%$+ O*;;-$::",
"::::o@+#=;*#::::::::o@+#=;*#::::::::o@+#=;*#::::::::o@+#=;*#::::::::o@+#=;*#::::::::o@+#=;*#::::::::o@+#=;*#::::::::o@+#=;*#::::",
"::::::#*%+::::::::::::#*%+::::::::::::#*%+::::::::::::#*%+::::::::::::#*%+::::::::::::#*%+::::::::::::#*%+::::::::::::#*%+::::::",
":::::X#+.X.::::::::::X#+.X.::::::::::X#+.X.::::::::::X#+.X.::::::::::X#+.X.::::::::::X#+.X.::::::::::X#+.X.::::::::::X#+.X.:::::",
":::::.o.O@X::::::::::.o.O@X::::::::::.o.O@X::::::::::.o.O@X::::::::::.o.O@X::::::::::.o.O@X::::::::::.o.O@X::::::::::.o.O@X:::::",
"::::::O$&#::::::::::::O$&#::::::::::::O$&#::::::::::::O$&#::::::::::::O$&#::::::::::::O$&#::::::::::::O$&#::::::::::::O$&#::::::",
"::::#*-=$@@o::::::::#*-=$@@o::::::::#*-=$@@o::::::::#*-=$@@o::::::::#*-=$@@o::::::::#*-=$@@o::::::::#*-=$@@o::::::::#*-=$@@o::::",
"::#=;;=@.+$%#o::::#=;;=@.+$%#o::::#=;;=@.+$%#o::::#=;;=@.+$%#o::::#=;;=@.+$%#o::::#=;;=@.+$%#o::::#=;;=@.+$%#o::::#=;;=@.+$%#o::",
"#=;;=#::::o@%%@o#=;;=#::::o@%%@o#=;;=#::::o@%%@o#=;;=#::::o@%%@o#=;;=#::::o@%%@o#=;;=#::::o@%%@o#=;;=#::::o@%%@o#=;;=#::::o@%%@o",
"==%+::::::::X@$&==%+::::::::X@$&==%+::::::::X@$&==%+::::::::X@$&==%+::::::::X@$&==%+::::::::X@$&==%+::::::::X@$&==%+::::::::X@$&",
"#o::::::::::::&&#o::::::::::::&&#o::::::::::::&&#o::::::::::::&&#o::::::::::::&&#o::::::::::::&&#o::::::::::::&&#o::::::::::::&&",
" oo::::::::::@#X oo::::::::::@#X oo::::::::::@#X oo::::::::::@#X oo::::::::::@#X oo::::::::::@#X oo::::::::::@#X oo::::::::::@#X",
"X@+::::::::::Oo X@+::::::::::Oo X@+::::::::::Oo X@+::::::::::Oo X@+::::::::::Oo X@+::::::::::Oo X@+::::::::::Oo X@+::::::::::Oo ",
"&%::::::::::::X@&%::::::::::::X@&%::::::::::::X@&%::::::::::::X@&%::::::::::::X@&%::::::::::::X@&%::::::::::::X@&%::::::::::::X@",
"&$@.::::::::o%**&$@.::::::::o%**&$@.::::::::o%**&$@.::::::::o%**&$@.::::::::o%**&$@.::::::::o%**&$@.::::::::o%**&$@.::::::::o%**",
"O#%%@X::::@*-;=#O#%%@X::::@*-;=#O#%%@X::::@*-;=#O#%%@X::::@*-;=#O#%%@X::::@*-;=#O#%%@X::::@*-;=#O#%%@X::::@*-;=#O#%%@X::::@*-;=#",
"::O#%$+ O*;;-$::::O#%$+ O*;;-$::::O#%$+ O*;;-$::::O#%$+ O*;;-$::::O#%$+ O*;;-$::::O#%$+ O*;;-$::::O#%$+ O*;;-$::::O#%$+ O*;;-$::",
"::::o@+#=;*#::::::::o@+#=;*#::::::::o@+#=;*#::::::::o@+#=;*#::::::::o@+#=;*#::::::::o@+#=;*#::::::::o@+#=;*#::::::::o@+#=;*#::::",
"::::::#*%+::::::::::::#*%+::::::::::::#*%+::::::::::::#*%+::::::::::::#*%+::::::::::::#*%+::::::::::::#*%+::::::::::::#*%+::::::",
":::::X#+.X.::::::::::X#+.X.::::::::::X#+.X.::::::::::X#+.X.::::::::::X#+.X.::::::::::X#+.X.::::::::::X#+.X.::::::::::X#+.X.:::::",
":::::.o.O@X::::::::::.o.O@X::::::::::.o.O@X::::::::::.o.O@X::::::::::.o.O@X::::::::::.o.O@X::::::::::.o.O@X::::::::::.o.O@X:::::",
"::::::O$&#::::::::::::O$&#::::::::::::O$&#::::::::::::O$&#::::::::::::O$&#::::::::::::O$&#::::::::::::O$&#::::::::::::O$&#::::::",
"::::#*-=$@@o::::::::#*-=$@@o::::::::#*-=$@@o::::::::#*-=$@@o::::::::#*-=$@@o::::::::#*-=$@@o::::::::#*-=$@@o::::::::#*-=$@@o::::",
"::#=;;=@.+$%#o::::#=;;=@.+$%#o::::#=;;=@.+$%#o::::#=;;=@.+$%#o::::#=;;=@.+$%#o::::#=;;=@.+$%#o::::#=;;=@.+$%#o::::#=;;=@.+$%#o::",
"#=;;=#::::o@%%@o#=;;=#::::o@%%@o#=;;=#::::o@%%@o#=;;=#::::o@%%@o#=;;=#::::o@%%@o#=;;=#::::o@%%@o#=;;=#::::o@%%@o#=;;=#::::o@%%@o",
"==%+::::::::X@$&==%+::::::::X@$&==%+::::::::X@$&==%+::::::::X@$&==%+::::::::X@$&==%+::::::::X@$&==%+::::::::X@$&==%+::::::::X@$&",
"#o::::::::::::&&#o::::::::::::&&#o::::::::::::&&#o::::::::::::&&#o::::::::::::&&#o::::::::::::&&#o::::::::::::&&#o::::::::::::&&",
" oo::::::::::@#X oo::::::::::@#X oo::::::::::@#X oo::::::::::@#X oo::::::::::@#X oo::::::::::@#X oo::::::::::@#X oo::::::::::@#X"
};
