/* XPM */
static const char *doom_warning[] = {
/* columns rows colors chars-per-pixel */
"64 128 18 1 ",
"  c gray23",
". c #434343",
"X c gray28",
"o c #4B4B4B",
"O c gray31",
"+ c gray34",
"@ c #5B5B5B",
"# c gray39",
"$ c gray42",
"% c #6F6F6F",
"& c #777777",
"* c gray50",
"= c #838383",
"- c #8B8B8B",
"; c #939393",
": c #979797",
"> c #9F9F9F",
", c #A7A7A7",
/* pixels */
"&&**#%%%*#$#&;===;=-$@@@@###==;*=&&*OO+@OoOO&&&=**%%O@@#@##&;:;*",
"**&@#$&%&$$*;;*==-*%%#@$#$@&====*&*++#$&&$%%&&%*-*&#$@#%$&*>;;-*",
"&=++#&=%%%-;;;==-;$&#$#$%#&=**=***+O@##&&#%%**$&-=&&&%&&==;:-:;&",
"&@++$%*#%-:=;;==-*$#%%%$#%*===-**@@@#++O+$&&&=$&==&=&&*==-=:;>;*",
"o@++#$&#-::=:;-=&##$&=%$&-=--**=@@#@++@O&$&%&=&*@#+#++@$=-::>>;=",
"O+O+##&=-:;=:;=&&#$%;&%%=;*--=*@##++@#@$%$%%%**$@@@$+O@-=;:>,>;*",
"@oO+##;-;::=:-&%#%%--$*=-;*=**+#&+++++*&%%%$#&$$@##$++=;*;:,,,$@",
"@OOO@;--->:=:&*@&=&**=*=;;-==+@%@+@o+*=*&$&$$@$#$%@##&---;;>>*%@",
"@+OO;--;::;==&$#==&&;;;==;--#$&@@%#O&*===%&%+&&&&*%=*&==-::,-=&$",
"#++=;--::::%&&$=*=&-;;;=*;=@*%%%#$@%&=**=%%+O@#oo+$=*&*&-::-**%#",
"@O=*;;>-;;&$=&&=%&*-;---*:#&*@-*##&%&***=&O++#O@+@==&&&&=;&&%*%@",
"+**&==:--%$@&;**&==;:--;*$==*&-%#=*****&*+#%$$@+#%=&=&&*-%#&=&&#",
"=*==;-;=%*$&--%&*=&=;=--$-;-*&-*%*****&&#$&#+$@+%&===&&%%%%&%%%#",
"==-=>;:%$%&*;;%-*=*=-*=&*:;-*&=*&&==***+#&#O+@+%$%*&&&&$%&=&=&&=",
"=*==,;&&$%;=*;=;=-*;-**---&=&&==**-*==%@&$+Oo@&$&&&$****=;;>-;:-",
"**;->+%#$;-$=-=-=-&--%--*=--*&--=*=*=##$%$#@+&%&%%$$&+###@###;;-",
"*=;-$@%$:;*%;;==--&-%*==&;=:-&-*==*=%**&&$*&&&$&$&&%$$$#@#$$==;-",
"===+&+%;;-&=--*=-;&%***#=%&;-*==-=*@**%$#@#&&&%$%%&$%#*$%%&=;**;",
"==@#&#;;%;=*=;*=-;%&=*#&%$;-;=----#$=:&&$&***%$$&&$**%%%&&-==**=",
";+@+$--%%;=&*=&==&&&=#%#%=:=;=;;=%*&=;;-%&&&&%$#&&&=%$@%%=**==*=",
"+O++--%=;;;===&*&*&*&&##*=--;*;;#&=&=-$%&&&&&%&$%&***&*====-=&*-",
"+O@%&%%:;;:-*=%%%*&&=##**==:;=-&%-*=%%&-%%&$#%&$++#@@++*=*=;***@",
"O+*#$&;:;;:=*=@&&*%&&$*==*=;;=%*=%=%#&;-&%&%#%@#+@#@%#=*&=*===%#",
"o=@@&-:>;;:=*%#&*#*%&=---=-;;$*==&&#%;:;=$&%$#$@$+%@%*=&*-*=*%$$",
"#@O$:-;:-:;*$&%=#*&$---&;;-;&*==%&$#=;:;*%&&#O@+++$+-*-==-==%#%$",
"O++-;=;:;:;##&&*&&%&:-*-=;;$:-;=%#%==;:-&&%$#%$@$$%=-=**=-=%&@&%",
"O+--:=::-;%+$*$*#&*&;--=-==-;-;%%*-==;-=&%$+@#+OO+=&-=**==##$++$",
"o==;:=;;-%##*&$#%*-=;=-=-$===-=&*=-**-**=$@O@OO+O&&===**=O@##+@#",
"=-=:;-;;%#%##$++==-=-*;-&:--;-;*-=-*=;*=*@##OOOO&%&&=*=*#@@##+##",
"=--:;*-&#%$O+#+%-==--->%-;=-;:-&;==*=-**$#$+++O%&&*==&*##@#@#+#:",
"=;;:=*$#%&@+@#%*-===;-&$---=;>-*=====-*$$#+O+O$%%&&=*&@#%@$@#@-;",
"=-;>*O#%$#@++*&*-==*;%=;-*=&;:=*====*=&#*@+OO&&&$&&*=+@###@+@--;",
"-=-;+X@###@+%==*==**#%>==&$*;:=&==&*$*#&@+@o%*&&$&&&@+@$##@@=;;:",
";=-#++@@@@@*&=***;=$$;&%%$&&-;*==**=&$%@@@O&%&&%%&*@@@#$$##---:-",
"-*+@+O#@@@=*&=&*-;@#:-&%#*&&-;*==&%&#=+@@O%&%=&&&%$+##++@$;----;",
";O+++O+OO&;*&=%&=%$-;$=&&;=&-;==-&%#&#@@O&%&&=*&&@#@%$@#@*:-=;;-",
"@++#+o+O**-&&=&&#%**#=**==-=-----&$$@##+%$&*&*:&+O#$%+@@*=:--:;-",
"+oOO@XO====&%&%+#=@##$=>--&--;*-;&%+##+&%$%*==-#++$%%#@**=;--:;@",
"+oOO+.*==&=&&*O#&#@$#-:>--=-;;*=&&@@#@%&%%&*-=%@#+&##+&*=&-=;;$$",
"OOOOO$**&%=%&@+&@%*#%>,:=;=;>==&=###@=%&%%&&=%##&&#$$&*=&*;*-%#%",
"oO++*#%&*%=*o+@++$##-;>:-;-::=%&%##@&=%%%%&*#:&@&&&$=&==*-;*#&&#",
"OoO**$&*&&=+O+O@#$#--:,:=-=-=#&%$@+&%=&%%&&#%%&#&&&=*%&==-;*$*&$",
"Oo*&&&&*%*+Oo+o@#$=--=,;=-*;%%#%$@*=*-&%&&@#*-&&#%%-&&&*&-*%&*@@",
"O***&$**%o+Oo+++%;==-,>;=&=$$##$$&&**&$&&++$*--$*%%=*&*&&-&&-%$#",
"***&%%*&Xo++OO@O*--==>:;%&%#$$$#=&&&%&%*O+#%%&*&&$%=&&*&#%-&-#&$",
"&&&&$%&OoO+@o+O&*-;*=;:*#@@@%$#--*$%&*&@+#@*%=-=&%$=*&*#*==%#$$*",
"%*=&$%X++O@@++&*==;*&*;#@#@$&$*-=*&&&&+#O#%$&==**%%*&&+#=&=%%*&&",
"%&*&*XoOoo++O&%&&=*==$%##$O@%;-=-=*%%@@#@@*#-:=*&%%&=##&=&-$&&*&",
"&*&%+.oOoo@O&&&&&***@O#@##+#:;-=-=*%+@@#@##$>;===%&=##*&=*-$*&*=",
"$*%oO.o+oo+=*&%=&*&O+@###@@-;-=-=**O@@##$@#->;-&-&&%##=%$*==&=&=",
"%=OOo o#@O=;*&%*&*oooO++X+*;=;-;==+@+####+*=:;-*=&@%#*;&@=-=$*%=",
"$oXoX.XO+=;=&&%=*OooOO#++=&-=;;;=@@+###%$&*=:;-=*@@&%*===-==*=*&",
".XoXX.oO*=-*&&%*@@OOo#O#=*=--;=;@O@@@#@&-&=-:-=&@+o=$*--===***=&",
".XOXX.X&*=-&&&%#$$#@@@@&&$*--==###@#@++;;&==;;-+$++=$&=;==;;&*&@",
".XoXoX&*%&=&*&@%%&$%$%%&$&=;--$#####+@&-=&*&;;$##@$*&=--=&;;=*+@",
"XooOO&=&#*=-*$#$&%#$$%%=%&*;-%$#%#@#O&&*&%*&-$%##O#-*=-==*;;=#@o",
"XOOO*%**%*==#$@&*$#@*$&=&**;%$$$&$$+&&%=*&==######$&;===*-;;#@O+",
"X++**%****=#+++##$#&*%*=%==####%$&%&%&%=*&=@&##+#%@>;-=*==:#@O++",
"oO=**%&&*&@@#@#%*&=&*&&=&-##$$%&&=:&&&*&*&++#+@@&%&>;==&*-&&O++#",
".&=*&#&&&@#&%$&====&*%%*&#%%$%&=&>:&*&***+@+#+#@-*&:-====#*#O@%O",
"%*=&%#&&@+-$#%%=;**&&&%&X+##$##&,>:*=**&@+@+$@@#=&&;=&==@%$+#$+#",
"%==&$$%o++%@+#$;--&&**%+O+@#+#@,,::*==*#++@O#$%&-&&=*%=$&$#$#OO*",
"%*=&%%XO+@@++@&=;=&&**oO++@@+#*:>>:==;#$+@+#$*&&=*&==%#$@#&#@@-&",
"%%=*%XoO@@@#+&&&-=&&&OOo@+#@+;=:>::=-$##+@+#&=*&*&&*&o#@+&%#O**=",
"&&=&.oo%*&&&&&$**=&&@@@O@@$#*;=:;>:=$%#%@O$%*&*&**&*@@+#%#$@&&*-",
"&&=o.XO+O+@&&&&&&=&+OO+oo+@=&;*;;,;@##%$@#&%*&&&&*&##O+#@$$*&%*=",
"%=+XXX++o@=&&=*#&*@++OOo++-=&-=;:>&@#%%&=$&%&&&&&&@#@+##@$=*&$&=",
"*O+X.o@+o**&&=%$&%#@++@+@%=;=-=;:%$#%#$*%&*&***&*#@O@###+*=**$%*",
"O++XX+@+&&=&&*%%#%%#@@@+-&&;=--:%%$@@%*-=&*&&&=&&@oO++#@%*=&&&%&",
"oO+oX+@-&*-&*&%##$%@##@&=*-;;;=%#%###-;;=*&&&&&@@+OO@+#%%*&*&&&o",
"OO+oo+;-&*=&&*###%$#@@*&-*;:;;$&&$##=---==&%&&$#+@O+@O=&&&*&=&oX",
"XO+OO=-=&==*&$##$###@==&;;;:>$%&*&#%*=-;--*&&##+@+@OO%*&*&&%&XXo",
"Xo++&=-&&==&@$$#$#@#&&=*;=;:&$$&%%*&&=-;=-=%@#@O+@++%$*&*&%%XXXO",
"oo@=&*&&%*=++$####@%*&-=-=:%#%=#&*=&*&=-;;=##+@++@O%%#*&&%&oXXoo",
"oO=*&*&*&-#@+#++@@&%*&-=:>%%%#&&=-*&*&=-*-%#@@++O+&&&$&*&&OX. Xo",
"O&=*&%&*&@#@+@+++*&%&=-*;&$&&#%*:;-=&=--=&&#@+o+@&&%&&*&&ooXXXXo",
"%*=&&$&*o@##+@++%&&%&*==&$$&#$-;>;====;;#%$##@++%&&&&&*%+OoX.XXX",
"$&&&%$&+O@@@+@+&$&&&&*=&%&%&**-:::=&=*-&$%%$#@#%%&&%&&=o+@+XXo.&",
"&&%*$*+++#@@@#&&%&&&&&&&-&$%=&;;:;*%-%#$%%$#$#**%%*&&&@+@@+X.X#*",
"&%%*$O++@####=&&&&&&&#$*&$%**-;;>-**=##$&%##&===*&*&*@#@+++X.$$&",
"%$&&oO++O###=*&&%&&&%$*$&%=;*=;>>;=*$#@%*&#$;=-*&&==@@@+++O.#%$%",
"&$*+oO+OO$$&=**$&=*%$$*&$=;;==;>:--&%#@%%&%=-;;=%&=++@@++OO$$%#*",
"&%OOoO+++@-=*=%&%=$@#&#%-;=:-*::;;$&##@&#%==;-*-&&@+@+@++o*&#$#*",
"&OOOoO+++*-=&=&&&$##%@%=;-=;=->>-*#%#@#$&--=;-**&@+O#@@++&*%$%#*",
"OO++O++O&=;=&-&&@$&##@=-;=-:==>;&&$$##$*;-=*-***#+#@@++O&%&$&&%&",
"+++#@+@*&&;=*-*@@%#@#&&=-*=;*=>-%&##$$=;-==&;=*%*##+#++&&%&&%&%O",
"o++@O+=*&&-=*-###%$+&&&*===;=&=&%%$$$*;-=-=&;*&%#+#+++&*$&**$=X@",
"oO++O&*&&&;=&%@#%%#%&%&*-=--&%=&&&%$*-:;=-=*-$@#@@#O+&%&%&*&&Oo#",
"Oo++%&*&&&;=#$+$+#&$&&**=;;=$&%&%&%&=;:;*==*#@+++#@O&%&&%&&*o@+#",
"OO+%$%*&*&-$#$##+=&&&&**=--&#&%*&%==;;>-**=$%$$###$*=&&&%&&+O#+O",
"oO%&%%=*&=$$#%#@%*&%&%**=-&&#%&=&-;-=>;-&*=%*%%&&&:==&*&$*+@O#+o",
"o&&%&%*=&###@&@$$=%%&$=*-%%%%&&==>;=;>:=&%%$$#@%$=;*-*&%&+@++@#O",
"$&&$*&*=@#$#@$%&%*&%&&&%%$#%%&#-->-*;::;$$$#$##%*=;*-*%%+O+$o##+",
"%&&$&&=@@#%##=%&%*&&&&&#%##&%&=-;>:=;::$@@@@$#@&*==*=*%OOO#++%*$",
"%%&$%&#@#$%#*$&%%=&&&$##%%%&$=-::>;=;;%%+@@+%#=---*===OO@#+###=%",
"$&%$%+#@$$%&%=&%%*%&&##@%%$%%--;:;;*-&*##@##&-=---;==#+@#@%$+==%",
"#&%$o@##$%&***&&%*&%@@@#$#$&*--;;:=*#&&$#+##;=&==;;*@@##+%#$&*=%",
"#&&OO@###$==*=&&%=%@++#$$#%=*:-;;:-##%$##+$&-*&*=;;#@#$#%#&=%&*%",
"$&+O++###%;=*=&&&*++@+##@$*-*;-;:>&#$###@@-*;*&*-;&#%#$%%$=&$&*$",
"%@+++@##$;:===&*%#+#+@#+@&*=*;;;:%%#%$#@@===-*&=;%$##$%%%*%&%**&",
"O@@+++##-;;=*-*&+#@@##@+***=&;=:&$$#%$#@**--;*&-&&**&**#*-&&***&",
"+@++++#--;;==-&####$@@O$-**-&=-&&#$$%$#=&**-:-*&$%%&#$+*&&&%&=*$",
"o@++O@===-;===#@#$$#++#&-&&=*=$%&$$#%$=&&*=*=*%$$&&*&#=&%&&%=*$#",
"o@+++&===-;-=#@@+%$#+$$&=*&-=#$%$#%$$-=*&**&*##&%&&%#==&%&&%*##@",
"o+++**===;;-#@@@+&@#&$$$&&%=###%%@$$--*&&&=&$@$*%%%@=;*&%%&&#$++",
"O++*=*===-;#@#@++$@=*$%$&&&##$#&%#%-==&*&&*##+%%&=#*=;=&%%&$$###",
"+@&***===-#@@#@++#==*$$$**+@#$$&%%;;=&**&&@@#%$#=&----=&&%$&###+",
"+*****=*-###@#@@+;===$%$&++#@$$&=--*&&&*&++#&%%#$;;;-=-%&$$+O&@+",
"&=**===*@+#####$&==-=%%%++O@@#%=-==-&&&&+o+%&$+%->;;-=&%*%%$&#+o",
"&*&*=*=+@#%$#&%=*=*==%%O++o##&---===&*&+XO%##%@-;:>;==&&$#+=+@+#",
"&=&===#+#%%$&==&*-=-=%++@O+$%---=*==*=+oO%%+$&==;:;-*&$%%$*#@@%#",
"&=&=*+@+$&%&=-=*&-=-*+@#$$$**;-;;*-=*&##&&###;&-;>;;*&*%#%#@O*&#",
"**&=@@@@%&*&=-=*&--=#o++$#$*&-*-=*==#+##OO@+=-&*-,;-&%*#%@#@%&&#",
"**&@@+#$&*==*--=&-*$@X++###=&-*-*&=##$&+oO+$****->;%&%&&@+@*$&&#",
"==+@@@$#*=;**--=&-###o+@$##=&-===*#$$*@$$#&%&=**=>=$&$&@##=&$&&%",
"*#+#$#**=;-==-=*&=$$$@$%=&$=*-==*##$&$#$@&&&%**&&;:*$$###==&%*&%",
"+#++#$**-:-==-=&%&#%&#$&=%$=*-===***=%$$&&&&&&&*@=-#&@@+=*==%*&%",
"@@+@@*&--;;====##$#%&##**&$=*==%%$%$##%*&%&%&*&+%*#$#@@&**;=%*&X",
"@@+#%&==---===&@@$#%&$&==*&=*=%%&$####=*&&&$&*@&&$####-&&*:;&*oX",
"+#@#%==-;--=-*#@@$@$#*&==*&=*@#@@#+@+*==-*&%&oO@OO+#$-=*=&*;=+OO",
"@#@#===;;=;-*$@@#%$%-*&=**&-$%$#%##@&*===*%%+#.ooO+@-=*==*&-o+OO",
"#@@--;=-;=;=$#++$$#=-=*=&&&$$$####@*&&*===&o$OXoo++&===-==&Oo++O",
"@@-==;==---%####@#=--=**=&+#####@@%&&&=-=&+OOXXXo@&&&==:=*O+OO++",
"+=--=-==;&&@#####--;=*=*=++#@###@*&&$&*==O+XOoX.o&%&&&=;;O+@O+++",
"&-===-=-&%$@##@@&=-=-%**@++#@$#@=&&&%%**+O+XoO+O*&&&%&==++@@++++",
"=&*=--;##$#@##$-&==*=&=#$#$%#%%==&%&%$&++@@ooXo&&*&&%*=@O+#@@@@=",
"&=*=;;@@###@##-=*===-=#@@+@#@+=&=#$&%&oOooOooO%%*&&%%=++O@#@@#;*",
"&**==##@%#%#$--=*-*==@@@#+@@#=-&*&%%&OOooXo+O&&*%&&&&+@OO+@#+:;*"
};
