/* XPM */
static const char *doom_stone[] = {
/* columns rows colors chars-per-pixel */
"128 128 40 1 ",
"  c #070707",
". c #0B0B0B",
"X c #170F07",
"o c #1F170B",
"O c #131313",
"+ c #2F1B0B",
"@ c #2B230F",
"# c #372313",
"$ c #332B13",
"% c #3F2B1B",
"& c #2F371F",
"* c #232323",
"= c #432F1B",
"- c #43331B",
"; c #4B371B",
": c #533F1F",
"> c #473323",
", c #4F3B23",
"< c #4F3B27",
"1 c #4F3B2B",
"2 c #533F2F",
"3 c #5F4323",
"4 c #5B472B",
"5 c #574333",
"6 c #5F4B37",
"7 c #6B4727",
"8 c #675333",
"9 c #67533F",
"0 c #775F3F",
"q c #6F5743",
"w c #775F4B",
"e c #7B634F",
"r c #836B4B",
"t c #836B57",
"y c #8F7753",
"u c #8B735B",
"i c #937B63",
"p c #9B7F6B",
"a c #9F8363",
"s c #9F876F",
/* pixels */
"4886wweewqq>qw91@>468848:986644:3,@X#444,,:,>908q9ewq,<0096qw0q290qqeweewqe>9>eq969euwet5trq99wqq48<q9eewqtqeqeqqorwwtqtu96qutww",
"4809qtteeqr9wwq2#,4668q8qq86,8:4:,=X>,<,=886=w964qwq9,,8896wqq0>4wweqttetqtww>q6q69q9qweuttw1w6q88q65q6wqwrwwe9w2#wqqttetq9wwqtw",
"8qq0tttetww6q956=6444q0888q8444,3,<+,48,4844>qw9wwwqe2,8w99ewqw60rwtuutttte6e>29wtw66qtueqwqwww00886qew5wwteqqeqw2qqewuqtq9teqeq",
"48w0wq6e94qq8591,6q999qqqr0q84,;44<%28088844,qee9weutq6q96ewwq6>8qtwew6t96ewq>96ereqe9qeutetewq80994wtwqwwew6wet96titetwq9uiww9>",
"0w64q4q9994986w9-88q4qq6q800044288,-66084qq9,9qtqqttrq%0eeeq95940ew9w6eqqeeqe#eq6t9wqqq9eqett9w6qw46q9ttqewwewqtq4uuttueetet969q",
"904264<>924q<244>,645q5><>4864,=444=>88q46q6,4ru2werr6=9q9re9e0=4rq0qqw6wuwe1%9qqwtwqw91wwtuee91yrrqwqeutuw9q9tt26erueetw9tt9tew",
"2<=#%%##%%%<<<%%#%>#+@o=,--=#X#@>44-<8800q6q,,8r9q6064,495w0008,2qweqeeirtuq9%0qw9qqw9qe9wute899rrq6qqtttw6e56euq6eeetqeq6etuewr",
"%oX##>##+o#%#o###=,q5626608q281@,<4;800rwew9,,##%%##-,,><=,>=<4;,8etqqe9<ew>,40q56qt99w9tutt6w6qttt40utuetww6wqew<quqtuwew6w5ett",
"#48<,652>>#>==##%>q6e80e0rtt9wq>%,948q00we6w2+%+<2<,>=-26,6<;2,,;<q0q9466<4>%,08q9w6w9wttrrw9wwwwrtqqqtewe6eew6t64eteeq9w5qww9uw",
"60e9weq8qq6tq6q6,>6etw9rrwwtw6w,,4644w256qq61>59qq2<6<,%=,,4<,<,=46422====#+#,wq9<qetuqtry0we6eqwqqwwt266qe6ee6qw459996eww29q6wq",
"80qwqwqqeqqq9w64<29weweeq0qwq95>,68448959qq6=169q964926+,488444,498qq44=,44#%26wq9qweweweyq0q96q69w99q95www99q6qq266qqw6qwueqw6>",
"9wqq9wwrrwqqtur9468eqww9q8qw9q2,-,4,:q9qqqq9>869w99w6,<+;88868460q869664386=,6ewwwq9qwt9q9qq6q9qeqe85ewwwqqqew999,,w91w9tutw996%",
"were9werrw6w9ww9=69q9qqq6q8q52,%,46>46896eeq46erewwe96>>48886qq9wwe99068482<2<wrerw9wqqw5q80555wwq9,>6qeqetww6ew064w995wetuw9qq>",
"0twr>6ttuweeq256,29rqq0e086qw98,680=908<qqew4rrrwtwwe94%,3:8qq88wt06>4q8664#>%,4q6406960984q969qrq6,<wq5wwtrre864884ww65rwweeq4;",
"0ew00rwqqwtq6q66,<24w96q009q99,>48q%q08888004qereeew082%>,688960wew9qq96q8,=,,=-6,=>%Xo++%#==%%>2=%>4442660694<;<884<621441668<,",
"26qww6qtt2wq9qq9>>-5115>664691%=4q<#886480w8-4qqettq92>##294686659q9w60rt14>6469qq99<%%>4%<5q<=++>,=44,%>89,>#%>>=06><669qw49944",
"1699rr40r09299q6,>>>#oXo####%%%%>22o8q008q96,>0qwwewq9<%#<8426q969qqttqrtq9+26q99weq5>6qrww5wq6o>2869088qqw64<46q%2qqwewqww5qqq4",
"##%#%##,<<>>,41<%%>>>+=%++o%%%>#<2>#4rerw8q0,6q0q0wq96,==,8848q9q566ew0wwq6#499wq6wq5#6quewue96%5<6<888899ew5<4:0%>q99tqwweqwww9",
"   Xoo+%>,%#2#+%+o+#=%#+%%+#=#+%%%><00q009q9,8qwqq99q82>,>6889ew6w5etw6wwe9#5w6qwe99ro9eetwqq94>94488<4048qw5664q42qwwqt6wetequw",
"=>48480rqq82%852591><>4<16821,2<<%%<90r88tr0440e09w9qq=%>>48690ww1qtereqqr2=6e656qwwroqe99trqt<,0289qq8wqrww9q68040que9q66qw9er0",
"6w9960r00eqw<0qqqq99qr0e0wyw9q1042>%8r000r086>840w66qw>#%$9942466q99qqr9w00#5eqqqwqqq%qeeuueqq>><448q9q0wrw9wt06w246weqw1%eq6555",
"6qq98rrwweqq46qe5q0wr00q000rqrr886<-:80q80464%4qq0wqu6##>88664,6646q889q006+>wwe5eett1rwrtwrqt6#8898840uee669eeq82<qu95qqeqq995,",
"4969qqq9w6w9#62q080rrq8qqeeewrwwq03::48q8866,28906qer4#+<<084444,668444344,#192qwweer49qqewr0r6,86q849wueq9w6er06-2eu969w5tqeqq6",
"6wqqw9qqwwq0>999w0980eqqq90wrrr80044-,,q44=,,,=,>4954,>X#%1484>><8,<%%,44,1+>966wt998<wwq9wrrr6=4,624qqtqe999retw<66qww9wututtwq",
"8qqqqqq9qew0299ewq889q6q96q9#q0rq908%#+XXo%=%#%++#o+%,%o###=>>>%=%+#%######o%>=>>%<6,,296229#8<@=,4:8w0rew6q5qqqw<49eteweetttewq",
"q26ewe96qwwq4599q9q0wqwt5q295oqq9694>%#oo###%%==>1<2>,=2%%ooo@%%4>%#%#Xo++>=#%##oo%<>-<-o+Xo%o#%>,4:4qwewe9q6<69w%5qweetttqt9eu8",
"qqrtew9qwweq<69qqewqq6tqw9e99te96q8==,64<>,86<<6w9q266>,98q9580ww6900q6qqq6>%>26648685q885252<%%=<4246q9wqew86q90#q5e9wwwwwe9tt8",
"9wwqqwqwwwwq=46q66ew99erew92eye9q60>=4884448849ewwqqeq-49wqw6eewwwqqqwqwwqq#+89q64eqq9w0re92w0%,22q66q9qqweq669ww#9weqeq9eww6eeq",
"<rutt9weqw66<#>2888q46898626625965<>%88q804q84qrqq9q904qw699wwwuetutt9wtqq6>,56q9wqewq0qtitqqw%,>11<449q9w9004909#6qqewee699wwwq",
"2ret6%wqweq9,<,44<4,4$,42<=222<#==%>=,6qq9w08>9wqwtewq4699q9qrtrureu6%wqweq#191qqewuq$q60uue9q%+=192<<684662q8699%9eeeq999q9qtt9",
"4qeewrwtwww9><2656qq99q64qeywqwe2656<08ewqwq9249wwrqqw16q6qqwrr09yreuuttwqw,292669wqq9q8r0rtwq>><12q68486482644qqo>qqw69w6qwe0r8",
">q98rqqte995%6w11e6>e61utuw2wqeq191#%690999994>56w9615<159e60ruq6w99tqwut99<2qq11t6>e41rr0w2wq6%>6,%2,6646q6q6655+25155159e6eti9",
"68w0wwruww06>6qqwwqqeqetuua6www665q2#4q9988%4,>qqqeeww><wur5tttqq9tuetuiwtr><9q9qwwqeqwrr0r6w94X52928,4449q-58996@2weet6wii6tup9",
"62rr9erurr80>6969qqewtuuueee66q699>2=,4482q8<%%185wq69,8rqruettie5tu9eruttq%<6659qqwq9wwr0q9662#25>54464q2996926q+>q9qweuwtiutt9",
"9e9tttrrq048%65weeqwwueuetrw9199q9>1#>4,=,4<#><>22,244<>9ewee9utte9utuerqe2#%-,6864800qrq4886,>o<4=<44418qrq1668<o4wwuew9w0ww9te",
"4eiueuurrw0w%6wetqe9qrtuetute916weqw>2qqq0wqe99qqw99qq,,9uiieuiuweuueuq0rew1,,%%+oX%+##%%#><4,>ooo%=>=#o%+@%##@++#6,<<>444286900",
"6rqeqetuw9qq>qwwqr1ettwewqqwu6>e9ww6=6wwee9uw*1re9q9t0,<tuuwuq%t9iqeqwrww9q<,,,,>#%#>%%>%#<,82%>%+o#%o@%22><>@%2<,>,4>2644<<=>$0",
"0tuewwueeqqr6errrettwqwe959ettuteee6,55tttwtequuq1wtuw,,qewuqeuuauueewtwtww<%>088080929q626eer6>%,<,>12q<0qwwqrq4%2ettrw9w0w8qqq",
"0tetw99ewwqe>rurutwee69qq6weetwt9tq64wqwwtetweiuuqwqtq><6eeewueuiuete99tte9<>4rerrqwe46694qwwr6%40888q9q6rerqety<>qqtwwt6eeeweq4",
"89tt9twwqw6r>ertrtwtw5991wqttte9ewe1>49eteqewwwewq9w4>4,69qrrwrqu9tt6twuqq18#6rerrwwq549,q9wq08,qq0266988eqeeeww4=qretwe99qrrr0>",
"wq6ewwetw9q9<reetq9w6<555q6q6tuiwqq5><46662966268<<>%,8,,66886q089<886869>,4#2eqr9986>,222495w6>9q98qqq92eetwwqw8,wuettu6w9qwwr6",
"qqe9tt6r59eq<1rqqw99669w9ewew966eqe0,442<,-26,<#4<=>,40444<24,688444q864<448#,r9qw94662<468qw64<q4qwqqw9#wqq95qr849uueeweeqe99w,",
"29w9qweq59t940et9eewq2w9u6wwwuwqqq990qq6266qq9e9496wuq990qtett94=>699wwq2404o,906eq8919294qq0r4>889weqq6@69wq9e9%49euw99wqtett92",
"2q9eeeewwqqw<6rtw9qw6996euq9usuwwewwewwqwwqwwewew<uutqqwtuue9wt8>=6eeeeww98<+<78q69855628269ey0#480wwqw9>qqqqqqe>4tutqqerwte9wr,",
"<qqwettuuuwq64riqq9tqqqetiu5tqtttqeww9wwewe2qqete4qeueeteuieqquw>#6qwuttti0,#2qq44==<=2<%=<<88q#66www996#6q19qet69qetewwwreeq98,",
"2qeqwqqwettw84ewtwweq299tueq9eertt6566ewtwtuwqqe6>9w95wttiu5utte<#>o#,64qq4##,44::2%>>,,%>#%2q<%>446558,#4qrw99w20qq61600r020664",
"9wq9eqwuretrq49tqetee99uwtqeee0etwr5qwwutttutqrer<eewiwiuueueq6w,84>69600q0>48><;4;,#=>,=>5#4q4%,<>>><>===4<4<<4<=2<1%%>2<%>,,,6",
"qwqqeq5weui6q<q9wqetew6tqt9ww0reww9<92weutreeeewr5qwuq6teiuwtet6>48qeq50ryy5wwq46=869q42>4%#;8<%482>1,<42<,4>><%<8629<%2>46>4>,;",
"66etqutteuw592q966we9wee9ueq9rtwt9wqew9e56ueewwwt%6699utuet&wut9>>wequtrtuw5wew95%2q9w0648>,,6-%09wqwq9w560wwqqq2w6696r<9qr&q98>",
"q9ttwiutrwetw1qweeetttwweeqwqeete6w9qeet692et5we9<eeepaiptueetwr<<ytwutrrweteeqw<+4we0qq68>=,8,#06w9qeee692et5ww>qrqwir>80tee6q>",
"wr1tuttueieeq2wtetwt6twtwt6qw9euq996ruww9qtttqett26quitiwiuee6ww,21tuttreieeq6ww>+,9409q84=+246@q99wtwww9qtttqwe206qtue46ruew69=",
"9wettqewewie92iittute9weqwq66tureqq9rtteqqteuq9eq6quuasawiiuwte0o6wttqewwwue9qii>+24666888%+184.qqqqurreqqewtq9w2qqttui,quuuwq9,",
"qt99wutwwqw6w1@atuw9qwqiwt6ww9qtqr6euereteetuewtw4qtuiuuutteew28o469wuewwqw6ww*y2o,64668qq,X84>X406rrrrw0eeetewe,2qtuur<6rtee4;4",
"4teeewetweetw8ipttwqw6eewweuwetiute0wrueeqwwqttee6ttituu9wtt9teq+1wtewwtqeetwwyy#X68648q98>o44%+0086800q8909qrqq%<trurr>4qtt9q<-",
"<rewwewweeee99wiut9twwwwqewueruiuutrtewttettwqeuw6qeq9tewutiqwq6#2ewweqqeeeeqtw0=+446,6948>@8<>#rr00e0600q88q89ro#9eq9r,8itiqq,>",
">eueetwe9w999qewet6qttew66wuruuquturruttq9utuettt1w92wet9e2qtw6q%4ueeuee9w9qeweq4%248486,4q@8<#+408000009890848q=#0629q<6e1qtq2,",
"=4qq9q889584>9ruqwq9twetq9q6>wuterterruu9ewwquqww9eew5eqtwwwtqer>>qtqwwtw6wqqetu=+<4q888246+%=+X@434q88r69964864>>www5q>%qw006#%",
">%++%@XXX#>%46960rtuuutu6eqq6Ow9qeqqwwuwqt6qq191w29e66w959qw9te5=>ww5tetqe9ew995<%48eqq6484=#X#o+%#=#%%>=%#%+++%>>9w661##+X..o+o",
"q249wqw6qq6%#9eqwewte6wwe6q59wr6wwr0r9wqe6q9tteqq,q9q1q99qeqqut>%>8qeqt9qwwqeqe9#%6q84qqq24%><51>>=%%=,,<,>#1>,=+>q99,<,26844qq6",
"e06re9qeeqt%,0uqtqeewqteue55wei9wqteq6ttuwq5ttqw94,qq>2966twe6w,%>9te9qetqtwtuu9<#004680w8<=4w06q69<+18808<2q44,+>q98>%466ewe6eq",
"9eeeew9wtee+<0ueete6wteteiqqq9wweew09w6qwtw6ewte82<9rq6qwqw9e994=>9tee9etueqwtue<#068q900q<,66qq0884=94q0qq60688+#686q>qwqw9e9wt",
"9wetqw6e9wq#,699009q26we9tewwwetr0q8><9qwuwqweq9446,<9w9wq9q0q64>4weqw6e9wq5wquu#+8626q4894,4q000q8,+<6qwwqqwq96%%6q<6%6ewqeweeq",
"9wq6eqquw59=<8489221<#<>561><619q4482>1908886<<442<2<<<4<,=#,848<8q6w9qtw59qqeer>+696q6<464%4qq088:>o860erq0r984%+<5q9%9wewewtet",
"ewwqeq6wqeq-<480wq92<>#=#>##>>>#=,<2%<>><,,44,2>>#2<<46089q<494q%4qqwq6wqeq>9r0t<#64q8888w4#248<<4,=X<,466<42425%+2<96>0e9wweett",
"wwwqeweeqqw%40w9969we=%4>wr966>%968q26w90868q9w96@6qqeqeu96qtr89<6qqeweeqqq-9wq9%#5q988040,%%>4<%#>,,,+##++#,4>##%=1%=+,e99qutwe",
"9wweqeewwqr>8qq6q69q9=,0ituw1w2>q0qq5q699600qe941+>9qttetq9wwqe9=>qwqttetqtqewq6%#6q99090<XXo=<>,1=4><2><<8>o>#X##%#=#=4wq9wwqtw",
"ttetutteete,4659wrw65+#weqwqww9>r0q99wq598099qq99+=9ewuqtqqteqwq,<qtuttetee6e626%>9556qqq2o50wer0r999wq5qq9%@=<499924%,>eq9eeqtw",
"qqtwew6696w2>599eeeqwo>quteuq04<rqqqww0q698969w06><itetwq9uuww6>,>60wq6084qq9561,=42,>4,,6Xrwewqrqqqqqwqwww@o6er9wrr0#,>99ruww9<",
"ttw9w6e9qew><6wq6r9q9#<6eqete662wi5wq6r080qqqq9qq84tttueetet9698>4,4444848,2<2<=>2,<#%%%>>+rr9w9wr5wq6ttqeq>o89rqqtr0<o6eeee96qq",
"tteewwq6wuq2>69qqqqwq=>1wwtree6=purrwqweeww6q9q0124eieeew9tt9te4<qqwqq6:988q<664%qrq9q6<4%#uee91rruuqq0tttw5o6rw2wqwq,#<q9tt9eee",
"qwweqeeurre248eqwqqqq42e9wurw92>reqqqqerew6626q4698eetqwq6ettew628qwqq6984q69849,qq9q9qw6>%re99qewq0990eew68o5wrqwwwq-,296ettewt",
"eeetqqe9<06>=4qw56998269euru6r54ttr9ettuwwqq5q9<6,4uqttwww6w5et8>9erqqw9<00,6w0q,6qw69q88><r6w6qttuee0e00ww4X89wqqqe96%>8w6q2etu",
"486841<<2>,,#%=%#%<<<480titt9w96wttwwqtewq669824,%%reeq9w5qww9u8#9qe9q9w6q901qq,<6q6q6qq2%=r9wwewuuwwqrqq062X<4q6qerq,%,>1564268",
"@X%#o+o#+>#+#%%+@o-,%,6wtatue686wwqewe266qw6q2442+>9996eww29q6w6+8rq0wq9wq8ww68<,>qwre84>++5w6eqwwqeww266qq<X25qqq596+>%##%#Xo#<",
"o>=%>994099>><56q4440q8euiweq92869wqew95wwq662486=96qqw6qwteqw6<+29qqqqqeqwq9w44=<89004>%#o@<>181699qq92994%o659w696qo<<69rwqq6<",
"+q9q9weruwq62qew0090qqq9q9tt99,<wqeq9ewwwqq996848<9e91w9trew9964,q9q9qwwuwq9ee82#+##%#@#=+XoXXXXo+##%==>%>##+969w9qe6%>640rw996=",
"@8etqettwq5q8qetreeqq9qw6wqw62,40qqwt6qeqetq960004we995qwttw9qw640eeqwrrrq44846%#%><>=%%>%%%###ooXXXo%=%o@o#+5qrewew9%189wqq9qq<",
"#20u>6rrqqww9159qwryqq8rwewew946rweqeq95ww08eer0q>qtew66twqeewq480qq>5eurq944<<>#,80q9686848,%184#XX#<,><>%o@8r0wtwqe244e0qqwqq>",
"#4rtwtw9q0rq6969q9w6044rutwq9q<69qweeeqww9eq900ww2qewqeqwewwqqq84q00wrwqqqq86942#294q9488898444442# ,q8:446,=9erreewq8q90000qw9>",
"%4qee6wrr2tq49qqqqqq564riwe9e5>4qq61e990re686988e9qq96w9qee69qq4,6qqw6wee2e99q94>686484qrq96946448%X>44,4q84,qqwrutq94469ew69qq2",
"=5wqtiurteq566q99weq64<eute5wq%5q226ww0wwr4444q8w44wwwewqww6qqw6=2q9ruuiuwq59996%>64489wr00496:442%X>464484,-9wqrwtww4qwqww6q9w6",
"4266euettqe0><6qq6eq64>9uewiw6%664,,9tter99849046,,q99eqwweqwqw6<,640teuiqeq6q64>,884q9909qq088q64=o>8q88806<9r0eeeq968qqweqwqw9",
"495ett9ewur0=2<6005504%>wuwqq5%>66<90rrew0q0599q,%,8wqqt6wwweqe0,85wrr9tweew8q42#,26q49q0r08q8q98<,#88608888<qwewq9qwq9w6qeeequ9",
"<,qtttieetr0<,%++####o%#<=4=%%+%=1#<2<<6<4<6666<=%42<<245<24468q,,9ewerrwrw08841,6988,q0980q90448,>#80088r084qere9tqwq69669q9qe4",
"<q9qtuurree0>,2=%==+=X#==,<+>,=>%+o#%+%+%>,2>===,,<<42<2>#>,#=,<6q699qr000908q<>>>4888000qq888<944,>00008wr6<weeee66qq,9<%wq5552",
"69wqtut9weq8#,992qq0q48800qq403,%>,,,<40,8566q8q4;6qu959qw9q692428q6244,882644>%#%24246664,4<64<888>800rqq44,8euwewqu8%99wqq965<",
"666qqww9e6e9>61qqq00088q9680qq4%,4:6440q899w609q4=0eu969w2tqeqq4>2,>%=#o%%o,>4=+%#>,#@o-<,<#=o>=4084q8qr0988<,0qr6wwr6,29106866,",
",4qww9wwqww0>699erq908406448004%888q48006q999twr42q6qww9wuuuttq=#+Xo##+XXX>%##=%#>>444<86699r0<#46844000qq66%%#%#%#@=>=%=>>+%#<,",
"42qwwqw9qew0-6qeeww0094864,6#8,+488qq0082q6w5www8,q9eteweeuuteq<462999q999q0996=,<90q06996q9#98,,4480808qq69>#>#<651#=>44<,,><=,",
"4<6ewtw6qww5#59909088q08<,;45o4,448q9ww4oeww92qq226qweetttqu9ew,4<6wwtw6q0qq6566>,8009we5q2q5o8,244:48088qq8%%66qq68244wrw9t604,",
"46rtew9qwwe6%69qq088q5888:646y8,490q66q2@8rewet9>4q5e9wwwwee6er>6qwwww99wq0q99994,q9q6eqq9w66r0,>88446q8q90qo>e9wqq4069wwwee6er%",
"=%qqqwqwwww6%69q64r0q800064,0y8%86e99qq4#4q9q9te44qweqwq9eqw6ew,40qqqwqwqq8qwe9964erq9eurw92qew<26w,4qq99904%6rrwqqqwq8q9eww6ee%",
"=#qet9weqq6>@2699q4qqq8r8884602+,<126864@88609qe>99q9ewwe699wq2,400we9qwq969w66q>9qrqqqttrq6q94%251><00q8q88>6q0qq9q992ee699wwq%",
"2<<2>$<25<>##%%1<#4,4$>===>460%+%<61>,4,#28qq09q>9qwwq96696699,>0rq06%qq6qq96919=,9eq$wwwu0q9w9=>16#>10wq9qq2990qwttw94699q9qtr<",
"8q900q0w099999265#,,%#<<<,5#094=%>%=<,=%+%4<<<,<>>,2>,%>><%=>,<44rq0reer9ww96926%>,99qe6tweuwq6,>1<=8q88990q2669werqq929q6qweee>",
"4q88tqqrw9959qe1<54>05<048>#99<%>1>##><44<26,>,=,442<5,>#44<6,4,408608qtr9959qq<%><=61>6r0q<q6,>-6,#48486686%5656w96152159e9try4",
"96qeetrywrt929q9q86408erq64>q9<#55q2590q89q-696q<qeeewt<4ry5r09>9640q09rqrr619q2%%+%+oo@%#%%%%>%,,5%6q86qq0%>,6wqqwewq65wiu5tty2",
"6<8r60erreer69669468800w02><242>69>5q6qqq40r9q2q>5wq9qq>99riu90>%>,>>%><4>>5445,#%%>##%#####%>>#<4>#868904wr462qq6eq994quqryure<",
":4,<24,,2416,4296<48888084%o5<5#99>2q9qw9wrtwqwq=6qeeue>60wew46% X oo##%%%>>4%+>%####%%#>#%%>=#%#>=%668099er<4qqqwqewq8,49884286",
"<>%#,44@%>>q8626<%46688842%#q6>o9eqw55qqqrwwwqq8>6q9www>6ruieq8%+28840r0009<=5q006%<%<6<><44q6><<,4<159q88q0,48qqwq9w9>-#>oo<628",
"24><4=,6844qq9q8,+>06846861%85%#6qqw699qwe9w0@<0+>99ttr29uuwu6%64q8q69wr099q,w0q9q>0rwwwq99qr6%0896=660880804@,qw9q9t62,08<886%0",
"yutwq9490q0qqwr0+o60844861=>q4<@0096q55eerwwwqrr#>qetr9,6wwtqq4,40r09qtwewwq2ey0w0q00qqe959errr4q4,;644689q04-906<qwrq#=24qt9wyy",
"iuetw9690qqrerr6#+688,4624<+44>=60q9qw9wwrqeq00yo%qqrwq<5etew6;4qrwrq99teeq0>0yrrrq0r69qq6wwww0q8w448q9q0wq8:4qr08q908==>eeeeuea",
"i9et9tq48q6qwrre>#698<66>96%04%=9qw2699ee09wqqqq%=9tewq<69qtu64408we8ewtqw60>errwrqww5991wqrw999eqq,,,<6q86<2<>224884,4<<9qtuttq",
"uw6ewwq499qq6uew2+596>25<2<,>,=#%466qq9q989r9q64%>we0q84=q9qw8,4qq6wqweuw9q8,reew99q6<555q6q5eyywqq4,-%oXo##,%#@%#Xo@>,42w9wewtu",
"wqw9tw6<59w992e9<#66654666<>%%%%##%,-,,>>=,-,>#+>48t0064<>46<%#=89960r60566<<1rqqw99669q9ewee996eqq8,9qq5q696140qq6rr4>o6eqe96qw",
"69w99q0429rqerw0,%6q9198q4<%,<4<><>,>1,<>2%<<<>%=69euq<>966<%=,<169648<>>,<,,8006ewwq2w9r6wqwtw9qq8<6qw9599wqq0qrr9eu0%o5qteteq9",
"6q9wwew8q9qeu0re%%6q5562894,40q8qq9<#qq8q6468688>2rue6@%rrr0640q6q9wqwwq998<,4wrq99q5666w099eyt90wq40wwqwwqwwewweetut9oo>rue9wet",
"6qqqwtrqwuwwqqey%#6999968q8;48880906#69qqq01q9w8%<qetq##wtrwq9rr6qqwwtutrr0>>#4942<64264621<<606064<q9wwewe2qqetrqqeuw%#4rieqqrr",
"wweqwqq8ettwewwq,>qqq198086=40q00042#18wwwrreq98=,9w91##rut5rreeeweqqqqeew0%#+%,-,=#%%,,###o#oXXoo#=46wwwwttwqqe9eew91#%2yi5tere",
"eew9tqq40wrtw0qt4<wew99w964,60q80q82#8qreeeq0q06+%wwww=ouueteq6eewq9eqqrr04%>#,69wr06969,66q8448086,40wtrttteqetuttewu+=<reueq6e",
"weeqeq540ey690w96,ww0q6e906>4889844=o>64<6228qq8=#9qe9>#wrrwrwe6wwwqeq50000#+<q9eqeeeq6e9e9q0ereqq9<82wwetueeeewteqwu9%=4rtwter6",
"w9eequrqqrw5www95<qq9ww988,>==<<<4<24,,<#++%44<%><>1>>%#rwe&qeqqq9wequrr0qq%=<q966qq9weq9ueq9erwt9wq1q9w66teewwwtu9696%#>8r&wttq",
"tqytwitwewerewqww+80qe009,%#+%##%%%%#=4,>>%=%,=o%=%%,<,%800eeqwte9wr0rrreq0=%6qweqqweewweeqqqeett6q66eet692et5weqwteer<%>qteetwu",
"et1eutr9wueeq6wtw>9q4eqq9<+254944640q32q8964#<460066<,,=60e006wuet<00wrrqqq%%5wtwwqq6tweww6qw9wtw99q1tww9qtttqetui9qtu4<40uew6eu",
"qwetrqw4qwue9qpiq>6>,%5,66#5500q49688q4q8646#4600w0rq%<o#2,4860e9q68699q9q9%%quirwetw9weqwq66eueeqqq6rteqqteuq9ewewuts6460yrqwet",
"qu99q9e4qqw6ww*iq,<=##%=>%#9q69r9r9w044q8904=90ewrqw0,o+o#+o=o#>,>=@%>2<>%,,=8*irtw9qwqiwt6ee99tqt9w6tueteetuewteuqtuu8=<0eewq5e",
"etweeqe29wwwqq90,qqqq5wq6#%w00wwerw88q469888=qr0re0wr=#=<80069q>8rwr0qeeqq8029rrrewqw6eewwetteuiutu94eueeqwwqtuettutie4=<qet9eee",
"wtewweq6qweq9rq8>t9twqqq4>6uqq8ruertr990008<,<wrwtqe9==%6qe0qq9=6rrwweqqew89<000ut9twwwwqewuetuauutq6wwttetiwqeietqeq6,=2etiqwq6",
"tureerw<6w9qewq6=e6q00082=6t4489ureterrq990q,6ettrw912->46,9rw5>6tueetee9q99=6wqee6qutew66wtttuqitu9,8re99uiuetttuw6<48><e1qtw6w",
"0qqw9q64q6wqqqw4499699984=44>440reurtwre9q68=89wwerww>=,=,2206<40qwtqwwtw6q9>6rtqqq9tqwtq9q6>erttrr8,,666qq84q6qq44<,,8,<8wqwq0q",
"489622>%999wqq6>,000rq84,%,65o<6qrqq0qeq9e42#,91w6qe5#>%+#%@X+o%6eew5teeqe9e4696errtutuu6eqq6Ow9qtq4=<4262<,6<6,4:,,<2q<,<2<5<::",
"=6q0wq96qwq9wr9<=88q426<=%=>2=<,4qq46<26654>%6wqqqq9q#2669w99rr>2weweqw9qwwq29eqttwte6wwt6w59wt6etr496q9w6q9ereqq689q<q99qe99tt4",
",4qee9qee9eqey9>%%%%#++%#+##+++%%@>,,=%>%%>%%89wq9wwq>1966eww6w<4qete9qetqtq6ququqeewqteit55teu9wwt806wwqwq5ttqwq<qwq>2966twe6e9",
"480eee9wew06wwq%o%=%#%%=>>>>%#%ooXXo####ooo#+49e99eqr>6qwqw9w9q42ettee9wtue9qqutrte9eteteuqqw9wwetrqww6qwtw6ewtt9%qqrq6qwqw9e9w8",
"4qe0qq6w90q59q4>+%881696896682,8,#Xo=%><,>%+#<99q9ew<>8909qww0q<6weeqw6e9ww591utt0qu59etqtuqewwrttrqq29qwuewwtt9q>we1qwqtwqeeew9",
",996q9qtq59q9wq6=2899q9w0096996498>.<44444<=%489q626924089qwqew<6qq6eqqtw5qqq<wterww9w9qewq6wqewwuy29q9etueete999%16w96uwtwuwtee",
"<8q9wq6qqq9>6944,465q9909eq6699689,o=44448,,;6q8q651e28re900ewe,6qqqwq6wqww>6>erteq5wq9q9e0q69w99r66w699utuwweue9#51eq9utqeteet0"
};
