/* XPM */
static const char *doom_metal[] = {
/* columns rows colors chars-per-pixel */
"128 128 19 1 ",
"  c black",
". c #070707",
"X c #0B0B0B",
"o c #131313",
"O c #1B1B1B",
"+ c #232323",
"@ c #272727",
"# c #2F2F2F",
"$ c #373737",
"% c gray23",
"& c #434343",
"* c gray28",
"= c #4B4B4B",
"- c gray31",
"; c gray34",
": c #5B5B5B",
"> c gray39",
", c gray42",
"< c #6F6F6F",
/* pixels */
"#$#%##@@@$%%$$#@@@%&%&%%%&$$%$##@#$$#%%&&$&$%&&&%&&%&%$$%##$###$%$@$##%&&$%$%%&&&&&%%$%$%$%$$#%#@@@@$#@#@@@@##&%%&%#$$##@@$$$$@#",
"$#%@@#$@##$##$####$$$$%$#$#&$%$#@@@##$&&&$&$&%&&#%$#$$$&$%%#%@@###@####&##&##$&&&$&&#&$&%&$&$#%@@#$$$%@#@#$#@%&&%#$$$$@#@#@#$###",
"$%#@@$$%##@@##@@@#$$#%&&$#%$@#$%@@@#%#%&&%&$&%&%#####$&&&%%#$#@#@@@@@@$##&%###%&&%%#%%&&%&&%%@@@@#@#$###$#$#@#&&&&#%#@@#$$@#%$$%",
"#$%####@$#@#@@@@@$$&%%$$$&#%@###$###$$$%&%%&&$#$#$%@#&%%&&&%$#@##@@#@$$%$$%$@@$&%##@$#%#$%##&@@@@#$%&#$#@###@%$$&&%%%$@#$@##$$$#",
"#&&$####$##$##$&$%=&*==&=&*$$&*%%*=&%&*===&==*$$$%#$&$*%*$%$&$#$#$##$#&$%%####%$&$####$#$##&$####%&%%*%$$$&#$&&*==*%**$$%&&#$#$%",
"%&=-%%&=%%===*=&&%-*:>=>;--&=&&--;>-=*:=;;==>:=;*==-*:-;&;*&;&%%&&%&%*-&%%%%&%%*;-%%&-%%*&%&;;*&-%=;;%;-:;;-*:;:;>:>:*&-;-;=-;%;",
"*;*--:>*=:*;=:,:>;--<,>:>::;;:-:;;,;;;>><<>;,,;*>,>>,><,=:-,>;::=*;-*->;*-*-=;*:**>:==;<,<;>><<<>:=*-;;:>=-><<<,<,:><>>,-=:;;-:;",
"@@@##$$@$##@%%&$$%%$$&%##$@$$%#%$&&%$#$&$%&$%&#%$&%$$#&#@@#$$%%$$$#@#@#@@@@@#@@@@@@$@@@$%@$##&#%%#$$####$$#$&$&$%&#&&###%%&$###%",
" .o@+oX  Xo@#OX..XO@+OX. XO@#OX  .O+@OX..XO##OX  XO##O.  .o+@o.. .oOOo.  .o+Oo.  .oO+o.  .o+@OX..XO##O.  XO@#OX..XO@#O.  XO+OoX.",
"Xo+@$+X..o@%%@o.Xo@%%@X..oO$$Oo..oO$%+o..o@#&+o..X+$$@o..X@%#@o.XXO##OX..oO#@OX..XO#%OX..o+%#+X.Xo+%$+X..XO$$+o..o+#$+X..XO#@+oX",
"Xo+%&@oXXo$*%@+XXO@%&@oXXO#**#OXXO$==#+XXo@*&@OXXo#&&#oXXo#&=#oXXo+%$+oXXO@$&+oXXo+*=$OXXO$&&@oXXO#*=#oXXX+&=$OXXO$%&@oXXo+%$@Oo",
"oO#&;&+oo@%==&@oo+%*-#+ooO%-;%@ooO&::%@ooO#&&&+ooO$;;$@ooO%==%oooO#&*$+XoO$*-%OooO#-:&@oo@&::&OooO#::&OXoo%;-&+ooO%--#OoXO$&*%+o",
"oO%:;&#oO#=:>-@Oo@*::&#oo+=,>=#oo#-,,=@ooO$-;%+oo+&;>%#oo+%-:-#OO+%:;*+oo@=>:*@oo+&:,-#OO@=>,&@ooO&;>%Ooo+&>>&@oo@%;:&+oo@=::%#O",
"O+=>;&$OO$=;;-#Oo+*>>&+Oo@&>;*#OO@=,,*@oo@*:;&@ooO%;:-#OO#*-:-$OO+*>>*@oO#=>:-#oo+&:>*#oo#-:>-#Oo+*,,*OoO#=>>=#Oo+&::&OOo@-,>*#O",
"O+=::&#OO@&->*#OoO=::=#OO+&>>=@oO#-,;%Ooo#=>:&@ooO%:,-#OO+%:>-$OO@=>:-@OO$->,=+OO+&:>&#oo@%>>*@OO+&:>%+oO#=>,=$OO+&>>&$OO$&,:-$O",
"O+&:,*$OO#=--*OooO&>,=@OO@&;-%+oo+%::&+ooO%>;%+oo+*:;&$OO+%:>=#OO#-:>-#OO$=,,&+OO#&;>&@ooO%;-%+oo@&::&Ooo#;,,;$OO$-,:=@OO$;,,;$O",
"O+%>,&#OO$%-;%+oo#%::*@OO#&-;&@OOO%->=#ooO=:-&@ooO=>>%@OO#&:>&#OO@->>=#OO$*>:&@oo@&-;*@ooO%-;%@oOO=-:&Ooo#=,,-$OO#;>,&$OO#*,,;$O",
"O#*>;*$OO#&-;%#OO#;>,-#OO@*-;%+OoO&;>*+OO@%--=OooO*:>=#OO@&>:*+OO@=,,=@OO@=::=#oo@%;-%+oO#&;:&OooO%--%#oO$=,>-#OO$-,>=$OO@-,,-$O",
"O#;:>;#OO@&:;%OoO$-::*#OO#--;%#OoO%;-%@OoO%--%+oo+&;>;#Oo@=>,=#OO#;>,;$OO#&;>%+oo#&;>=@oO+%>:-+oo@%;-%OoO#=,:&+OO#*>,;$OO@;>>-#O",
"O+*>,-$OO$*:;%OoO$->:*@OO$*:>=@Oo+*--%OooO%--%+oo#=>:;#OO+;,,;#OO$;,,=@OO$;>,&Ooo@->,-+OoO&;-=#Oo+*-;%OoO@-,:&+Oo#-,,;#OO$-,,=@O",
"oO%>:;#OO$%::%@oo@-;;&#OO@-,;-#OO$=--&+oo+%--%Ooo#=::&$oo#;,>-$OO#=>,=$OO$*>,-+oo#-,,=@oOO=->&+OO+=-:%@OoO*>>*#oO$;,,;#OO#;:;-#O",
"O+&;:=$OO+%-:%+OOO&:-%@oo#=>:=#oo#=:;%+OoO&-:%OooO%;-%OoO$;>,*#OO@;>,-$OO#;,>-#oo+-,,*#OO@&::%#OO#=:-%@OO#->,=Ooo@=,,;$OO$-:;*+O",
"O+=--=#oo+%-;%@ooO=;>%@OO#*,;%Ooo#=:;%@OOO%-;&+oo+&::&#OO$;,,&$OO+->:%$OO#=,,;OoO#=,>;#OO#*>,&$OO$->:&+Oo$-,,-#OO$*,,=$OO#;;:&#O",
"O#=-;%OoO@*--%Ooo+*-;%Ooo#*;-%+oo@=:>&OooO%--%OoOO%;:&@OO$-,,;#OO$-::&@OO$->>=@oO$=,,;$OO#&>,;$OO$-:-%#OO$=,>;#OO$=,>=@OO$;:,-@O",
"O#&>>%@Oo+&-;%Ooo#=::%@oO#=>:*OoOO*-:&@Oo#%::*+OO+%-:=@OO$;,>;$OO$=;>=+OO$->,&#Oo$;>>;#OO@-,,;$OO$*,,%@OO@;,>=$OO$;,>=$OO@*;>;$O",
"O$&:,;$OO@&-;&#oO@*:-%OoOO&>,=@ooO%--*#OO#%-:&$OO#=:>;#OO$->,-#OO$->>-@OO#;,:&@oo#=:,-$OO#-,,;$OO$-,>;OoO#*,,;#OO#*,>;$OO#*::;$O",
"O#;:,*$OO#*:-&OoO#&>,=#ooO%:,-@oO@&:-%+OO@=;>-@OO@;:,;$OO#-,>;$OO#*,,;@OO#;,,&@OO#&>,-$OO@=,,=#OO$*>,;@OO$;,:*@OO$;::-$OO#=>,-#O",
"O@=,,=#OO$=-:%@oo@&>>*@oo@&>,=@OO@&;>&@OO$->,*#OO$=,,;$Oo@=,>;$OO@%:,-$OO$;,,*@OO#;,>=#OO$;,,;$OO@-,,;#Oo$*>>&#OO$=>:&+OO+%:>=#O",
"O#-,>&+OO$---&@ooO=->=+oo+&;:*+OO@&,;=#OO$;:,*#OO$;>:*#oO@->>=$OO#=,>-#OO#-,:=+OO@&,>-#OO#;,,=$OO$;,,=#oO$-,:-$OO$;,:&@OO#*>:=OO",
"O+%::&@Oo#-;;&+oO@&;;%Ooo#=;-&@OO#=,>-$OO$-,,-#OO$;,:&#OO@;,,;#OO#-,>*#OO$;,:&@OO+=>>&@OO#-,,;@OO$=,>&#OO#%;:*+OO$-,,-$OO$-;>*@O",
"O#=:;=$OO$=>:-OoOO*;:%Ooo+=>;%#OO@*,>*@OO#-,,;$OO$=>,-+oO#->,&@OO@;,:-$OO$=>>;@OoO%,:*#OO#;>,;$OO$-:,&$OO#*:;&#OO#-,>;$OO$;;>=@O",
"O@%-;=$OO#=,,-+oo@%-:%OooO&>>%OoO+=,:*+OO$-,,;$OO$*>,-#OO@&>:&@OO#;,,;@OO$;,>;#OO#*:>;#OO$->,-$OO$=::;$OO$=>;*#OO$-,:*#OO$-,>;$O",
"O@&:,&$OO@=,,*#OO@%;;%+Oo#*>>%OoO+=,,;$OO#;,,;$OO$;,,-$OO#-,>%#OO$-,>=#OO$*,>;@OO#=,,-#OO#;,,;$OO#*;,;$OO@=>>-$OO#->,-@OO$&>>*#O",
"O@%:>=#oO#*,:%+OO+%-;%Ooo#&,:%@OO@=,,;$OO@*,,;#oO#-,>;$OO$*>:*+OO#-,,-#OO#=,>-#OO#;,,;$OO$=>,;#OO$=:>;$OO@;,>*@OO+%>,-#OO#&;:&@O",
"O#*>,=$OO#*,:=$OoO%:;%Ooo@&,>*@Oo+-,>*#OO#=>>;+OO$;,>;@Oo#%,:*#OO$;>,&#OO#=,:*+Oo@=,,;#OO$=,,-#OO#*,:*@OO#;,>&#OOO%;;-#OOO%:;%+O",
"O$;>>-$OO#=>>;$OoO%;:&+ooO=>,;$OO+%>>*$OO$->>=+oO#*>,=#OoO%>;=$OO#*>;&OOO#=>>&+OO@;,,=$OO$-,,;$OO@-,:&@OO$=,,=$OO@=;;*#OO+%-:%@O",
"O@;:,=#OoO&>,*$OO#&::%OoO+=,>;#OO@;,,=@OO$-,:=#oO#->,-$OO#-,>&#OO$&:>*$OO$*-:-@oO$=,,&$OO#=,:*@OO+&,>-#OO$=,>&@OO+=>-&+OoO%--&OO",
"O#=>,=$OoO&::%+OO$-,;%OoOO*,:*+oo#;,>;#OO$->,;$OO@*,>;$OO$-,>*$OO$=::;$OO#=;>;@OO$;,:=$OO$-,,*$OO#&:>-#OO$-,,&#Oo@&:;&@OO@=:;%@O",
"O$*::*@ooO%;:%#OO$=>>&+ooO%>;&OOo+;,>;$OO$;,,;$OO+-,,-#OO@&>>&@OO$*>,;$OO#&::*#OO#-,:&$OO$;>>%Ooo@*;>-$OO$=,:*Ooo#%:>%#OOO*;-%Oo",
"O@=>>%@ooO&-;%+OO$=>:*OooO%;-%+oo@*,>;$OO$-,>=@OO+&>,=$Oo+=::*$OO#=,,=$OO$=>>*@OO#;,,;$OO$*:>%+oo+%;;%#OO$=,,%OooO%-:&+oO+&--&Oo",
"OO*;>%@OoO%-:&+Oo@-,,-+oo@%::%@oo@%>,-@OO#=,,*@OO#->>%+OO#-,>=#OO#-,>=@OO$;,>=@OO#*,>-#Oo#%>-&OooO%;-=#OO@;>>=+OoO%-:-#ooO&;:%+o",
"OO%;-%OOo@&:-&#oo+;,:*+ooO%--%OOOO=>>-@OO@=,,;+oO@*:-&+oo#&>>&$OO@=,,=$OO#;,>;$OO@*>>=@ooO%;;%OooO%;:=#OO#&,>-+ooO%;:=+ooO&--&OO",
"OO&;,&$OO#&>:%+oo@&,,;OooO%--%#OOO*-;&Ooo#;,,=@oo+*:;&@OO$-;,*#OO@=>,&#OO#=,,-#OO+->,;Ooo+&,>*@ooO*:>%@oO#&>,;@oo@*;:*+oo+%--%#O",
"oO&:,;#OO$=,>&#Oo@&,,-#oo+*;>%+OoO%;-%OOO#-,>-@OO#-,:%@oo+&;;=$OO#-::-$OO$;,>;$OO#*,,=@ooO=>>*Ooo@*--%OooO&>:*#Oo#=>;%OooO%-:%OO",
"O@%>,;$OO$;>,-OOo@;,:-OOO@%>:&+oOO&->&#OO$;,>=@OO#-,>=OOO@*;-*#OO#*;:;@OO$*,,;$OO@-,,-Ooo+=:,&OoO+%-;%Ooo#-:,=+OO$-:;%Ooo+%:;%@o",
"O@&>>=#OO$=>:=$Oo@&,,&@OO$->,&+OoO%;:;#OO$=,>=#OO#->>;#oo#=>>&+OO$-,,*$OO@&>,;$OO$&>,*OooO*>>%OooO&:>&Ooo#=;:;$OO$;::%@ooO%;:&OO",
"o+&:>=$OO#;:,;$OO+%,;*#OO$;>:;@OO$*;>-$OO#;,,*$OO$&>>;#OO#*,>%@OO@;,>&#OO+;>>=$OO$=,:&+oo+%:;=OooO%:>&+oo$=;;-#OO@=>;&Ooo@&>>&OO",
"O+=;;=@OO$;,,;$Oo+=:>*@OO$;>,;@OO$;,,;$OO#=,,;#Oo@->:=@OO$;,>=@OO@-,,;@OO@;,>;$OO#=,,-+ooO=>>=@ooO%-;=#oO$-:;%@OO@&>:&OooO&:>%OO",
"o@&;;&@oO#=,,-#OO#&-;*+OO$&:>&+OO#;>,*#OO#*,,=@OO+->,;@OO$*:>&#OO#;>>;#OO#;>>;$OO#=>,*Ooo@%-:-+ooO&:>;#Oo#=>,=@OO$*>;*OoO#->:%OO",
"OO*;:=@OO$;,>-$OO+%;;&$OO#-:;&OOO$;>>-#OO#;,,*#OO$;>:;#OO#=>,;$OO$;,>=@OO$*>:-+Oo#%:>&OooO%;;=+Oo+%;-*#oo#-,>;#OO#=;-%+OO#;,>%+o",
"oO*,:*OoO$=,>=$OO+&-:*#OO@*>>&@oO#-,>=$OO$-,>=$OO#;>:*$oO@;>,;#OO#;,,-#OO$=,;&+OO#*-:%Ooo+*:-*#oo@=>;*Ooo$;>,;#OO+%:>%@OO#;,:&Oo",
"O+&>;%OOo@->>;$OO@=:;%#OO@&>,&OOO#=,>;$OO#->,=#OO$*;:&+OO$=>:&#OO#-,>-#OO$&;;%#OO@&-:&@oo@&-:%@OO#&>>&+oO$;,,-@Oo@=;;%OoO$;,:=Oo",
"O#&>>%@oO#=>,=#OOO&>>%+OO#=>,&OOo#;,,-$OO$=>,&$OO@-:;-+OO$&>>=#OO#=:>=@OO$-;-%@OoO&;>=Ooo+%::%#OO+*,;=Ooo#;,,=#oo#=>;*OoO#;,,=+o",
"O#=,:&OOo#;,,;@OO+*>>*$OO$;,>-#oo@=,>;@oo$*:>*+OO#=,>*#OO#=;;&#OO#;>:*$OO#%::%#OO#->:*#oo@%:;%@Oo#;>,=@oO#=,,;@OO@&>:*OoO$;,>*@O",
"O+&,,%$OO#=,,*#OoO&,;*$OO@-,>=OoO#=,,*#OO#*::*#OO#;,>*@OO$*:-=+OO$*>,&$OO@*-;%+oO+&>>*@oo#&>:=$OO$*>,&#oO@=,,;$OO#*,,;#Oo$;>>=+O",
"oO*>:*$OO#=,>-$OO#;,:=@OO@;,,-@ooO&::=#Oo#=>,*#OO$=,,;$OO$&::*#OO$-,,=#OO+%;-%+oO#&;>*OoO#=>:;$OO$=,,&#Oo@;,,;$OO#&,,;#OO#-,>*#O",
"oO*,>*+OO@&:>;#OO$=,,=$OO$*,,=#oOO*>>;$OO@->>*#OO#->,;#OO$&-;;#OO$-,,;@OO+&:;=#oO@&->*Ooo+->,-$OO#;:>=+Oo@;,,=$OO#=::&$OO+;:,=$O",
"o+=>>-#OO$&:,;$OO$;,,;$OO$=,,=#Oo+&;:-#OO$;,,;#OO#&,:-#OO$-;>-$OO$-:>;$OO#=>:;$OO+%-;*#ooO=>>-$OO$*>>&@oO+-,>*$OO@&;:&+OO#=:>=#O",
"o$=,>*+Oo$;-:;#OO@=,,-$OO#;,,=$OO@*;;-@OO$=>>=#OO$*>:&#OO$*:,;$OO$->>=@OO#;>,-#OOO%;-&@ooO=>:;$OO$=>,&+oo#;,>*+ooO%:>*#OO@-,:=@O",
"O#=,>*Ooo#&;:;$Oo@*,,;$OO$;>,;#OO#=:>-$OO$;,,;#OO$*::&@OO$;,,-$OO$=,,&#oO$=,>*$Oo@%:;%Ooo+%;;-$OO$=,>;#OO$=,,&+OoO&::*#oO@->,&+O",
"O@-:>%@oo#&>,-#OO@-,,-#OO$-;>;#OO@;:,=#OO#;,,;#OO@&,,-$OO$;,>;$OO#;>>=$OO$=,,=@OO$%::%@OOO%>:;#OO$;>>-#oO#-,,-#OO@*;>=@oo@=,;*OO",
"O@%;;=$OO+&>,=$OO#=,,;$OO#-:>-+OO#=,,;#OO$;,,;$OO#*,,=#OO$=>:;$OO$*::&#OO$=,,-$OO#&-;&@OoO*>,;$OO$->;&@OO#=>>;$OO@-::=@oo+=>>%OO",
"O$=:>&#Oo@;:,&$OO#=,,*$OO$&,:*@oO$;>>=#OO#;,>;$OO$=,>=$OO$-:,;$OO$;:,-#OO$;>,*#OO#&:>%#Oo@-,>;$OO$=:;=#OO$-;,=$OO$->>&#Oo@&>:%@O",
"O$-:,-$OO@=,:=$OO#;,,=#OO$;,,=#OO$;,,=#OO$*>>;#OO$;>,;$OO$;,,;$OO$=>,-$OO$;,,-$OO+=;-&$OO#-,:-@OO$->>*+OO$=>>&$OO$=,:*$OoO%:>%+O",
"O#*->;$oO@*,,=#OO#=>>-@OO$;,,*$OO+->>;#OO$->:-@oO#&>,&@OO$-,>-$OO#=,:&$OO$->>-$OO$-;,-@OO#=>,;$OO#=>;*#oO#->:&#OO#->,*@OO@%>>%@O",
"O@%;:-@OO#-,,;$OO#=,>=#OO$;,>-#Oo+%>>-$OO#&;>;@oo+*>:*@OO$;,>-+OO@-,,&@OO#*:>-@OO#->,=#oO#-:,-@oO#&>;%@oo@%::;#OO#->,;@OO@%-:=@O",
"O#%;>&$OO$;>>=$OO$-,,-$OO$;,>%@Oo#=;,=$OO$&:>&+Oo+%>>%#OO$;>>-OOO+&,>&$OO#*::*#OO$;,>*Ooo@*>>=@oO#*,>&+oo$->>-#OO@&>,=+OO+&;,=$O",
"O+%;>-+OO$=,>-#OO$-,,-@OO#;>>%@OO@->>-#OO$=>;%+OoO%-;*@oo@;,:&OOO#-,,;@OOO%::-$OO$->-%@oo+%:>*@Oo#->:%@oo$=,,-@OO+=>>*#OO@&>,;#O",
"O#-:>&#oO@;,>&@Oo+-,,;@OO$*>>*@OO+*>,=$Oo#&>:&#Oo@%:-=Ooo#=>:*#OO@;>>&#OO#*>;=$OO#&;>&OooO%:;*@OO$=,-&Ooo@;,,-$oO@*,,*OOo#*:,;#O",
"O$->:&@oo#->>&#ooO=,,-$OO$;>>;#OO+=>>-#ooO%--*#OO+%->*#oo@->;&@OO+=,>*#OO#%:>=$OO#&>;&@ooO*-;%OoO+%;:%OoO@=,>*#OO#;,,=+oo@=:>;#O",
"O$-,:*+oo#-,:%+OoO&>,-#OO$;>,-$OO#->--@Oo+%--&@oO#&--%+oO#&:>&@OO@-;>=Ooo#&;>;@ooO%,:*OooO%;:*#OoO%-:%OoO#-:,*#OO$;,>-$oO#->>=#O",
"O$=>>-+OO#-;:%+ooO=::*#OO$;,>=#OO$*;-%Ooo@*-:%Ooo@%--%+oo+&:>&#OO+=:>%Ooo+&->*+ooO*:>=OooO=>>&#OO+*-:%+oO$;,,;#OO$=,,-#OO$=,,;#O",
"O+=>>*OoO+%-:&OooO&:>-$OO$=>,*#OO$--:%+oo@&:;&+Oo#&-:&+oo+%>>=+OO+&;-&+OoO%-;*@OO@*>,%OOOO%:>%#OO+*--*#oO$=,,*#OO#;,,;+OO#=,,=#O",
"O+&,>%OoOO*;:%@ooO%:>*#OO@-,,-$OO$*;:&Ooo+%-:&+oo+%-;%Ooo+&;-*#OoO*;:*#oOO%-;&@OO@*,:&@OoO%;-%+OO#=->*@OO$;,>;$OO$;,,-#ooO*:;=@O",
"o+->>=#OOO&:-&Ooo@*:;-@OO@->,=#OO#&;:%+ooO%-,&@OO@%--&Ooo#*-:-+OOO*:>*Ooo@%:-=$Oo#-,,&$OoO%:-&@Oo+%-;&$OO$;,,-@oO#=,,*$oO@*->-$O",
"O$=,>=@oo+&>,%OoO+%-;=#OO+&>>=$OO$-::=@ooO&>>-$OO#*-;%Ooo+%-;&@oo@*:>*@oo+&;>-#OO#;,,=$OO@&;-%OOo+&:,=+OO$=,,;#OO@-,,-+Oo@&;:=$O",
"O@=,,&OooO*>>&#oo+=;;*#OO#-,:*#OO@&,;&@oo@%,:-#oO#%--%Ooo@%;>*OOO+*-;%+oo+%-:=@oO#=,,&$OO@&;-%@OOO&,,&#OO#;,,-+OO@;,>;#OO#=:>-$O",
"O@&:;=OooO%->=@oO#&>>&Ooo#;,>;$OO@->;&OoO@&>:-#oo@=:;%OoO@*>;&OOO@%;:%Ooo@&-,;#OO$;,,;@Oo#&>:&#OO+=,,-#OO$;,:&#oO+&,,=$OO$;,,-@O",
"O@&:;*+Oo@&-:-@oO#&>>&OoO#*>,;$OO#-,,&#oO+=::&@oo@%;>&Ooo#&>-%OoO+%:;%OoO#&::;$OO#;,,=#OO#;>,&#OO$=:,*#oO#=>,;+oO#=,,=$OO@;,>&+O",
"oO%;;&+oo@%--&OoO#->>%Ooo$;,,;$OO$=,,-$OoO&>,*#oOO%:;=OoO+&;-%OoOO&--%Ooo#->:;#OO$;,>*$OO$-,>;$OO$*>>-+oO@=,>;$OO#*,>*$OO#=,>&@o",
"oO%:;*+Oo#%;:&@oo@-;;%OOo#=,,;$OO$=>>&+OO+%:>-@ooO*:>&OoO#*-:%OOOO&-:&+ooO%>:=$OO@-,,=$OO$*,,=@OO$;,>&+oO@&,,=#OO@=,>&$OO@&,:-#o",
"O@%;;&+OO@=;-%Ooo@%;:%@OO@->:;#OO$;,;%OOo+&::=@oOO%-;&+oO#*--*$OO#=-:&OoO@&:,;$Oo@;,>*#OO@-,>&#OO$*,:%+oO#;,,-#OO#=,,-@oO#%;:=+o",
"OO*::&#Oo+&>-%@oo#%-;&#OO@;>>-$OO#-,:%@OO$-:,%+ooO&>>=@Oo#&-;=#OO$&-:%+oo+->,*$oO@->,&#OO$->>*#OO#=,:%@oo@&,,&+OO#;>,=$Oo#&-:*+O",
"o+*>;&+oo+=>;-@Oo#%-;%@OO$=,,;$OO#-,,&Ooo#;,>&#OO@&:>;@Oo+%--&@OO#*:>%@oo+-,:&+oO$;,,;#OO#->:*$OO$-,:&+oO#*,,&+OO$;,,-+ooO&-:%@O",
"O@=,>-@OO#*;:;#OOO%:-%+OO$=,>;$OO$-,>*#oO@->,=#OO#-;,;$oO$-:-&#OO#&;;=@OOO=>,;#OO#->,;@OO$=>:=#OO$=>:%OOO$->,&$Oo#*>,=Ooo@%-;&OO",
"O@->>;#oO@%:>=#OOO%;;=#OO$;>,;#OO@*>;%+Oo+&,,*@oO$&>,;#OO$*:>=$OO+%::=@OO+=>,;$OO+-,,=$OO$;,,;$OO$;>>&$OO#;,>;#OO+=>:&OoOO%--*#O",
"O@*:;*@Oo$=,>;#Oo@&-;&#Oo@&:;&#OO#*>;=@OO+;,>-@OO#&,,;#OO$;::=+OO+-:>=$Oo#->,;#OO@*,:=$OO#;>>-#OO#->>;@OO$=,>;$OOO&;-&+ooO&-:-#O",
"O+%:>&#OO$;,>-#OO+&>:*#Oo+&;-%#Oo@%;:-$OO#-,>-$OO#;>,;@OO$-,>*#OO$;,>;$OO$;,,;$OO#;>,-#OO@*,>;$OO$;,,;$OO$->:=+OoO%--%OooO&-:-#O",
"O#%;:*@OO@->>;@OO@&>;%+oO+*;>%@Oo@&>;=$OO$-:,-@OO$*;:-@oO#-,>-@OO$;,,=$OO$->>=#OO#&>,*$OO#;,,=@OO$->,=#OO$-,:=#Oo@=;:&OooO%--=$O",
"O+=>,-#OO@-,,;$Oo@=;-=@ooO%;:*OoOO&;:=#OO$->>=#OO+%-:&OoO$;,,=+OO$;,,;#OO#;,>&#Oo@;,,=#OO$;,>-$OO#;,,;$OO#=:;*@oO@-,,-@ooO=:;%+O",
"O@=:,;@oO#=,,;$OO@=>>=@ooO%;:%+Oo@%>;&#OO$;,,*$oOO&->&OOO$;>,=+OO$=,>;$OO@-,>-#OO+;,>*#OO$;>>-#OO$->,-$OO$&>>&OoO@-,,*#OoO%>-&+O",
"O#*>:=+oo@*,,-$OO$;>>%+ooO%--%OoO@&:,=#OO$;,>;#OoO&;:%+OO$;,,*#OO#;,,;#OO+%:;-#OO#->>=#OO$;,,=#OO$;>:&#OO#%:-%OoO#;,>&@OOO%;;%Oo",
"O+%-:-#OO@*,>-#OO$;,;&#ooO%>-%+Oo+&:,-$OO#;>,;@Oo$%;;=@oo$;,,*$OO#=,,&$OO#*>>-$oO$=>:=$OO#;,,-#OO$->:-#OO+%:>%+Oo#-,>*+OOO%:-*Oo",
"OO%-;*Ooo@&:,;@OO$&>>-@OO@=:>&#Oo@%::;#OO$;,>&OOO$=::;+oo$=>>;@OO$;>>*#OO#*,>=+Oo#*::-@OO$;:>*#OO$;,,-#OoO*:>%+OO#*,,=@OO+&:>&@o",
"oO%--%Ooo#=,>=#OO$;>:=#Oo#&:>=+oo@&>:;#OO#&,,-#OO#-,>-@Oo#*;>*$OO$=>,=#OO#;>>-$oO@;,,;$OO$-:>*#OO#;,,*#oo+=:;&#OO#;,>=#ooO%;>%Oo",
"oO%--%OooO&>,;$OO$;,,*@oo+%:;&@ooO&;;-@Oo@*:>-$OO#-,,;#OO@-::=#OO#-,,;$OO$->,-@OO$;>,;$OO#*,>*@OO#;,>;+oO+&:,-#OO$;,,*OooO&-:*@o",
"OO%:>%OoOO=,;*#OO$->,=+oo+*;;%OoO+*;;=@OO@*->-+OO$;,>*$Oo+->;;$OO$;,>-$OO@*,,;$OO$-:,;#OO#-,:;@OO#->>=+OO+%:,;@OO$;,:%#ooO%>:=+O",
"O#&:>=+OOO*>:&#OO#=,,;#OOO%;:%OOO@;>>&@oo@%--&OOO$;,,%#Oo+%:,;$OO#->,-$OO#->,;#OO$;>>;$OO#%::-@OO$;>:&#Oo@*>>-#OO#*,>=#Oo+%>>&@O",
"O$*;:-$OoO*;:&$OO@*,,;$OoO&:-&Ooo@&>:=OoOO=;:=@OO#*>:&#Oo@->>*$OO#;,,*$OO@&:,-#OO$=,>=$OO+%,,;$OO+*;>&OOOO*>,=$OO#*,,%OOo@=:,*Oo",
"O$=>:=+OO#-;:&#OO$;,,-#OO@%--%+oO#;,>=OooO%;>&@oO+=::=@ooO*,>-$OO$;,,;#OO#;>:-@OO$-,>;#OO@=>,;$Oo+&;;*@oO+&,>;$OO$*;-%OoO+->>=#o",
"O@;>,%#Oo+&:>&@OO$->,-OOoO&;-%OOoO;>:%@ooO%;>%@oOO&--&+oo#*,>;#OO#-:>;$OO@;>>=#OO$*>:=#Oo$*>,&#Oo+=-;&OoO#-,,;#OO#=:>%#Oo@-,,%Oo",
"O@*,>&@OOO*,>;$OO$=,,*+ooO=>>&+OoO%>,&@ooO%;-%+oo@&;-%+oO$;,>;$OO$-:;;#OO$;,,;$OO#=>>&+OO#;>:%OOO@%-:%OOO$-,,;#OO+=>,-#OO+&::&@O",
"O#&>;&OooO&,,-#OO#;,:-+oo@-,,=$OO+%>:*Ooo+%::%+OOO&::%+Oo@;,,-$OO@=:;&#OO#;,,;$OO+*,>&OooO&>:%@Oo+&-;%+oO$;>>-$OO+&,,;@OO+&,:%OO",
"O$*>;%Ooo+&,,;#OO#;,>*+OO$;,>;#OO@=;:%OoO+%>>%@Oo@*:>*@Oo#;,,*$OO#=;>*@OO$;,>;$OO#-:;%@ooO%;;%+OO+&->&OOo+=,,*#OO@&>,;$OO$*,>%OO",
"O#&;-%OooO=,>*@OO+->>&#Oo$-,,-$Oo#*>;&@OO@=,:%@oO@*->=#OO#&;,-$OO@&;:&#oO$&,>-$OO#%>>*@oO@%-:-@OO#&;:*+Oo@*,,*#OO#->>*$OO@;>:=@o",
"O#*;-%+oo+&::%Ooo+=,;&OOO#;,,;$OO#;,>=#OO@%>;&Ooo@%-;*#OO@%;;-$OO+%--*#OOO*:>&$OO+%:>=$oo#%->-#Oo@=-;-+OO#=>,;@OO#-::&#OO#;>,-$O",
"O@&:>%OOo+*:;%@Oo+->,&#Oo+;>,-#OO$->,*@OO@&:,%OooO*>>-#OO#*-;*$OO+*-:%OOOO*;:=@OO#-;>*+OO#%-;*@OO#*-:&#OO$;>,;$oO@-;>;@OO@*::=+o",
"O$->>&+ooO%-:%OooO&>>-Ooo@;,>;#OO$;,,;$OO$-,,*@oo@&:-*#OO@*;>-#OO#&;:&OooO&;>&#OO#*--%+OO@=;>*#OO$->:=@OO$;,>=+OO#->>;$Oo@&:>=OO",
"O$&,>=@oo#%;;%Ooo#-:>%+oo$*,:&$OO#->,=#OO$-,>*+oOO=>,*+OoO%-;-@OO@&:>%+oO#%:>=$oO@&-;&@OO$&>:&$OO#--,;$OO#;::-@OO#*:,;#OO@->:&@O",
"O$;>:-#oO@&-;%OoO$*>-%+oO#&:;*#OO#=,>;$OO$=,,;+oO+&:>*+OO+*;>*#OOO%;;%+oo#*,,-+OoO%;>-$OO$->,;$OO$=::;#OO#&:;=$OO#*>>-#OO$*>>&OO",
"O$;,>*@ooO&;-&OOO#*,>%+oOO->,=#OO#;>,=#OO$=,,=+oOO%>:=+Oo@=:>;+oOO%-:*@oO@-,,;#OOO*;;=@OO#;,,;$OO$*:,=@oO#=::&$Oo+-::-$OO@*>,-@O",
"O#*,,*@ooO%;:&OoO#->;%Ooo+*,>;$OO$;,,*$OO$;,>=@Oo#&;:&OOo+*>>-#ooO%;:*OooO&,,*OOo@=;:%+OO#;,,;#OO#=>>=#OO#=>,=$OO+&:-&#OO#-,,;$O",
"OO=>>%#OO+&;:=Ooo+;,:%#OO#;>>-@OO$=,>%#OO$;,:%@oo+&:--+OOO&::=#OO@*>:*OooO*>:&+oO#&;-*#Oo@-,>;$OO@*>>;@OO@%;,-@OOO=,,-$OO#;,>*#O",
"O+=:;&#OO@*--&Ooo+*,,-@OO$-,:*@OO$;:>=$OO$=,,&OooO%-:=$OO#&::%+oO@%:-%Ooo+*>-%OoO#*-;&+oo+*>,;#OO$;>,=+Oo@%;:;$OO@%>:-@OO#;>>=+O",
"O@-::-@OO@&:-%#OoO*,,&OOO#=,>=+oO$;,:;#oO$*,>&Ooo@*-:*$OO@%:;*OOO#-:-%@oO+=,:%@oo#%-;%OOo$-,>;#OO#-:,=#oO#=>>=$Oo#;>:;@OO$&;>=+O",
"O#%;;*+oo@&;=$@Oo@&>>%+ooO%>;&Ooo@&,>=@OO$-,:&+oo@*:>=@ooO&=:%+oO#-:=%Ooo+$:-&@oo+%;=$Ooo@-,,-$oO#-,,=+oo#&;:-$OO@->:=#Oo$&;:%Oo",
"o+%*&$OXoO#--&Ooo+&-;%ooXO&::#OooO&::&@oo@&:-#OooO%-*$OoX+$*&#Oooo%==%Ooo+$;;#Ooo+&&&#Ooo@%::&Ooo@%;-%Ooo+#-*$Ooo@&==%@oo+&;&#Oo",
"oO@$%+oXXo@&%$OXXO$=&+XXXo#=*#OXXo@&&$OXXO$=*+oXXo+&$@OXXo+$%+oXXo#=&#oXXo#&&#oXXO@&*@oXX+#==$OXXO#**#OXXo@&%@OXX+@%*$oXXo@&%+oX",
"Xo+@#OX..X+$#+o..o+$$OX..X+$%+oX.X+#%+o..XO%#OX..XO@#Oo..XO##OXX.o@#%@X..o@$$+X..o+&#@o..o+%$Oo..oO$$Oo..X@%%@oX.o@%%@o..X+$@+oX",
".XoO+OX  .O#@OX..XO#@OX  .O##OX..XO@+o.  .o+Oo.  .oO+o.  .oOOo. ..o@+o.  .O##OX  XO##OX..XO@+O.  XO#@OX .XO+@OX..XO#@oX  Xo+@o. ",
"%###$&%%###&&#&%$&$&$#$$####$$#%%#&##$@%$@@@$@@@@@@#@@@@@#@#@#$$$%%$$#@@#&#$$%&$%#&%$&%$&$#$%&&$%#%$$@$##%&$$%%$$&%%@##$@$$##@@@",
";:-;;:=-,>><>:,<,<<<>-=>:;;-*=:><<<>>;<,<;==:>**:*;=-*-*;>-*-;*=::;>,-:=,<>,>>,>*;,,;><<>>;;;,;;:-:;;::>:>,<--;>:,:=;*:=*>:--*;*",
";%;-=;-;-&*:>:>;:;:*-;;:-;%;;=%-&*;;&%&*%%-&%%-;*%%&%%%%&-*%&%&&%%&;&*;&;-:*-==*;=:>==;;=:*=->;--&&=&--;>=>:*-%&&=*===%%=&%%-=&%",
"%$#$#&&%$$**%*==*&&$#&$$$%*%%&%####$&##$#$####$&$%####%%$&#$##$#$#$&$%$*%*$&$#%$$$*==&===*&%&=*%%*&$$*&=&==*&=%$&$##$##$####$&&#",
"#$$$##@$#@$%%%&&$$%@###@#$#&%$#@@@@&##%$#%#$@##%&$@@$%$$%$$@#@@##@#$%&&&%%&#@%$#$#$&&%%&%$$$###$###@%#&$$$%%&$$@@@@@#@#$@####%$#",
"%$$%#@$$#@@#%#&&&&#@#$#$###$#@#@@@@%%&&%&&%%#%%&&%###%&##$@@@@@@#@#$#%%&&&$#####%&%&$&%&&%#%#@@@%$#@$%#$&&%#$$#@@@##@@##%$$@@#%$",
"###$#@#@#@$$$$#%&&%@#$#@#@%$$$#@@%#$&$&%&$&#&&$&&&$##&##&####@###@@%#%%$&$$$#$%#&&%&$&$&&&$##@@@#$%$&#$#$%$$$$####$##$##@$#@@%#$",
"#@$$$$@@##$$#%&%%&##@@@@#@#$@@@@#%#$$%$%$%$%%&&&&&%%$%$&&%##$@$%$###$##%$$%&%&&%&&&%$&$&&%%#$$#@##$%$$&%%%&%&%@@@#$$%%$@@@##%#$#"
};
