/* XPM */
static const char *flat1_3[] = {
/* columns rows colors chars-per-pixel */
"128 128 130 2 ",
"   c #010101",
".  c #090704",
"X  c #0E0A06",
"o  c #070808",
"O  c #090909",
"+  c #110C06",
"@  c #120E09",
"#  c #171007",
"$  c #161109",
"%  c #1D150B",
"&  c #1E180D",
"*  c #0F1011",
"=  c #141414",
"-  c #191611",
";  c #1E1912",
":  c #171718",
">  c #171818",
",  c #1B1B1A",
"<  c #21160B",
"1  c #241A0D",
"2  c #2C1C0C",
"3  c #311E0E",
"4  c #221B12",
"5  c #2B1E11",
"6  c #221F1B",
"7  c #311F10",
"8  c #27200E",
"9  c #2C210E",
"0  c #33200F",
"q  c #262115",
"w  c #2D2312",
"e  c #2E2917",
"r  c #25211D",
"t  c #2B241D",
"y  c #2E281B",
"u  c #342313",
"i  c #392615",
"p  c #352A15",
"a  c #3C2A16",
"s  c #342619",
"d  c #3A2718",
"f  c #35291C",
"g  c #3D2B1A",
"h  c #3F3017",
"j  c #3F301C",
"k  c #1F1F20",
"l  c #1F2020",
"z  c #242423",
"x  c #2A2622",
"c  c #2D2925",
"v  c #262728",
"b  c #272828",
"n  c #2B2B2B",
"m  c #302721",
"M  c #322A23",
"N  c #3D2D21",
"B  c #322E2A",
"V  c #382F29",
"C  c #3E3025",
"Z  c #35312D",
"A  c #3B322B",
"S  c #2F2F30",
"D  c #2F3030",
"F  c #343434",
"G  c #3A3632",
"H  c #3D3935",
"J  c #373738",
"K  c #373838",
"L  c #393A3A",
"P  c #412E17",
"I  c #402D1A",
"U  c #422F1A",
"Y  c #442F1B",
"T  c #402C1C",
"R  c #442F1F",
"E  c #403017",
"W  c #423118",
"Q  c #43301B",
"!  c #44311A",
"~  c #46351B",
"^  c #42321E",
"/  c #44301C",
"(  c #47331C",
")  c #46341C",
"_  c #49341B",
"`  c #4C371B",
"'  c #48341C",
"]  c #4B371C",
"[  c #4B371D",
"{  c #4C381B",
"}  c #4D391C",
"|  c #4F3B1D",
" . c #503C1D",
".. c #513D1E",
"X. c #533F1E",
"o. c #402F21",
"O. c #423222",
"+. c #463222",
"@. c #443521",
"#. c #413224",
"$. c #443326",
"%. c #483421",
"&. c #493423",
"*. c #473820",
"=. c #4C3A21",
"-. c #44352A",
";. c #45382E",
":. c #4A3B2E",
">. c #503C20",
",. c #553C20",
"<. c #593F21",
"1. c #423B35",
"2. c #4A3D31",
"3. c #413D39",
"4. c #54401F",
"5. c #564020",
"6. c #5A4121",
"7. c #4D4037",
"8. c #45413D",
"9. c #4C423A",
"0. c #52463A",
"q. c #56493D",
"w. c #614423",
"e. c #3F3F40",
"r. c #3F4040",
"t. c #424242",
"y. c #4A4541",
"u. c #4F4A46",
"i. c #474748",
"p. c #4B4B4C",
/* pixels */
"4...} _ ! ! _ { { _ ! ! _ _ _ } ..,.....} _ _ { { ! d s B Z @._ ! U U g g g g U U U U U U U U U U g g U _ { ` ` ` ` ` _ ! U U ! U U g T +.+.T g g g g g g T +.+.T g d d g U _ ` _ _ ! ! _ _ ~ W W ! _ { _ } ....} _ ! U U ! _ } ..../ U U g g / } ..} _ _ } ..4.",
"....} _ ! ! _ { { _ ! ! _ { { } ........' _ _ _ _ ! i s B Z @._ ! U U g g g g U U U U U U U U U g g g U ! _ _ _ _ _ _ _ ! ! U U U U / / %.%./ U U U U g g T o.o.T g d d g g / _ _ ! U U ! ~ W W U ! _ { _ } ....} _ W U U ! _ } ..} ' U g g g T ' } } _ } } ....",
"} } { _ ! ! _ { ` _ _ _ _ { { { } } } ' ! ! ! ! ! P u s Z G O.! Y U U g g g g U U U U U U U U U g U U U ! ! ! ! ! ! _ _ _ ! U U U / } } >.} ' _ _ ! U g g T T T T g g g m m g ! U U U U W h p p g T _ { _ { } } _ ! W U U ! _ { } } _ ! d d g U R / _ } ....} } ",
"_ _ _ _ ! ! _ ` ` _ _ _ _ _ _ _ _ _ _ ! U U U U U d 3 u G H #.Y ! ! U U U g U U U U U U U g g U U U ! ! U U ! ! ! ! _ _ _ ~ U U U / ..4.....} _ _ ! U U U U U U g g g f c c g U U U U U U a p p g T ' { _ _ _ _ ! U U U U ! _ _ _ ` { ! d d d g g g ) } ..} ' _ ",
"W W ! ! _ _ _ { _ _ ! ! ! ! ! ! U U U U U U U g d u 3 u G H #.! _ _ _ ! U U W W U U U U U g g W ! _ _ _ ! ! ' _ _ _ _ _ ~ ! U g U / ....} } } _ ! ! U U U U U U U g d s z x g Y U U U U U U a a U ! _ _ ` _ ! ! U U U U U Y ! ! _ { { ! d i d s c M / { { ' ! U ",
"a g U ! _ _ _ _ _ _ ! U U U U U U g g g g g g g i 3 3 u A G O.Y ' _ _ _ W U W W W U ! ! U U W ! _ _ _ ' Y ! _ ` _ _ _ _ ! U U U ! ' } } ' _ _ _ ! U U Y U U U U g d d u t y d U U U U U U U U U U ! _ _ _ ! ! U U U U U U U U ! ~ _ _ ! d u u s c m W _ _ ! U g ",
"a a g W ! ! _ _ _ _ W g U U U U g g g g g g g a 0 3 2 u o.$.T U ! ! _ _ ! U U U U ! ~ _ _ _ _ _ ! ! ! Y U U _ ` _ _ _ _ W U U Y _ _ / / / ! ! ! Y U U Y U U U U d d u u u u d d U U U U U U W U U ! ! ! W W U U U U U U U U U U ! ! ! g u 9 9 u f g T U U U U U ",
"W W E g U ! _ _ _ ! W U U U U U g g U U g g a i 3 2 2 u U R g g U ! _ _ ! ! W W ! ! _ ` ` { { _ ! U U U U U ! _ _ _ _ ! U U Y ! _ _ ! ! U U U U U U U U U ! ! U d u u u d d d d U W ! ! U U g U U ! ! ! U g g g g U U ! ! Y U U U U U g u 9 8 u d g g g g U ! ! ",
"_ ~ E g g T ' _ ! ! U ! ! ! U U g U U U U g d u 3 2 2 3 g g d d U ! _ _ _ ~ ! ! _ _ _ { _ ` { _ ! U U U U U ! ! _ _ ! ! U U ! _ _ _ _ _ ! U U U U U U U U ! _ ! d u 3 3 d g g g U ! _ ! U U g U U ! _ ~ W g g g g U U ! _ ! U U U U U g s u 2 3 u d g U U ! ' _ ",
"{ _ W g g U ! _ ! U U ! _ _ ! U U U U U U g d u 3 3 2 3 d g d d U ! _ _ { _ ~ ~ _ _ _ ` _ _ { _ ! U U ! ! ! Y ! _ _ ! U U U _ _ _ _ _ _ ! U U U U U a a U ! _ ! d 3 3 3 g T g g T ! _ _ U g g U U ! _ ~ W U U U U U U ! _ ! U U U U W U d u 3 3 u d g U ! ! _ ` ",
"` _ U g g U ! ! U U U U ! ~ ! W W U U U U g g d u 3 3 3 d g g U ! _ _ _ ` _ _ _ ! ! _ ` ` _ ` _ ! U U ! _ _ ! U ! ! U U U ! _ _ ! ! ! ! ! U U U U g d d g U ! U u 3 2 u T O.M m W _ _ _ W g g U W ! ~ ! W U U U U U U U ! ! U U U W W W g d u u u d g U ! _ _ _ ",
"_ _ U U U W U U U U g U W W W W W U U U U U g g d u 3 3 g T T / ' } { _ _ _ _ _ ! ! ~ _ _ _ ` _ ! U U ! ! ! ! U U U U U U ! _ _ ! ! U U U ! ! ! U g d d g U U d 3 2 2 u T C c c ) } } _ ! W P W W W W W U U W U U U U U U U U U U g W W U g s u u u g U ! _ _ _ ",
"_ _ ! U W W U U U U U g U T T U U U U U U U U g d u 3 u T +.+.%.} ..} _ _ _ ! ! U U U ! _ _ { _ ! U U U U U U U U g g U U ! _ _ _ ' ! U U ! ' _ _ ! U g U U d u 1 1 3 d R #.c M *.....} _ ~ W g U U U U U U U U U U U U U U U U U g U U U d u 9 3 u d U U ! _ { ",
"{ _ ! ! W W U U U U U g g g g g g U U ! ! ! U g d u 3 u T +.+.%.} ..} _ { _ ! U U U U ! _ _ _ _ ! U U g g g g g g a a U U ! ! _ _ _ ! ! U ! _ _ { _ U U U U d 7 1 1 u g R o.M M =.4.5...} _ W g g g g g g g a g g g g g U U U U U U U U U g u 9 2 3 d g g U _ { ",
"{ _ _ ~ W U U T U U g g g g g g g U U ! _ ' ! g d u 3 3 g T T / ' } { _ { _ ! U U U U ! _ _ ! ! U U g g g g g g g a g U U U W ! _ { _ _ ! ! _ _ { _ U g U g d u 2 3 d g T g g g } 5.6.6..._ U g g g g g g g a g g g g g U U U U U U U U U g d u 3 3 d U g U _ _ ",
"_ _ _ _ W g g g g g U U g g T U U U U Y ' _ ! g d 0 2 3 d g g U ! _ _ { { _ ! ! U U Y ! _ ! U U g g U U U U g g U U U g g g g U ! _ _ ~ ! ! ! _ _ _ U g g d u 3 2 3 g T g g g / ..6.6.6.} ! U U U U g g a P W W U U W W ! ! ! ! W U U U U U d u 3 3 d U U U _ _ ",
"! ! _ _ ! U d d g U U U U U U U U U U U Y ! ! g u 8 1 2 d g g U U ! _ { ` _ _ ! ! ! ' _ ! U d d g U U U U U U U W W U U d d g U U U W W U U U ! _ _ U g d u 3 2 1 5 g N m c W } <.6.6...' ! U U U U U g g W ! _ _ _ _ _ _ _ _ _ ! U U U U U g i 3 3 d U U ! _ _ ",
"! ! _ _ ' U d d g U U U U U U U ! ! U U ! ! ! g u 8 1 2 d U g U U ! _ { { _ ` _ ! ! _ _ ! U d d g T U ! ! ! U W W W W U d d g T U g d d g U Y ! _ _ U g d u 2 1 < 4 f N c m ) ..6.6...} ! U U Y U U U g g U ! _ _ _ _ _ _ _ _ _ ! U U U U U U a 0 3 s g U ! _ _ ",
"_ _ _ { _ ! U g g g U U g U U ! ' _ _ _ _ _ _ W u 8 8 w d g g U ! _ _ { { { _ _ ! ! _ _ ! U d d g U ! _ _ ! ! W W W U U g g U U U U d d g U ! _ _ _ ! U d u 1 < % 4 t c f W ,.6.6...' ! U U U U U U U g g U W W ! ! ! ! ! ! ! ! U U g U U U U a 0 2 9 s g U _ ` ",
"_ _ _ _ _ ! U U U g g g g g U ! _ _ _ _ _ _ _ W p 9 9 u d g g U _ _ _ _ _ _ _ _ ! ! ! ! U d d d g U _ _ { _ ! U U U U U U U U Y ! U d d g U ! _ _ _ ! U d u 1 % 1 4 r x g ' ,.6...} / U a a U U g g g g g g g U U U U U U U U U U g g U U U g i 3 2 9 u g ! _ _ ",
"! ! U U W U U U U U d d d d g U _ _ ! ! U U ! U d u 2 0 d g g U _ _ ! ! ! ! _ _ ! Y ! U d d u d g U _ _ { _ U U U U U U g U U ! _ ! U g g U U U ! ! _ ! d u 1 1 1 q r c ) ....} ' / T U g a a d d d d d g g g g g U U U U U U U U g g g U g a u 3 3 0 d ! _ _ _ ",
"! Y U g g g g g U d d u u d g U ! ! U g g U U U d u 3 3 d g g U _ _ ! U U U ! _ ! U U U d u d d U ! ! _ _ ! U g g g g g g U U ! _ _ U g g g g g U ! _ ! d u 1 1 8 w t M =...} ' ! U g g d d i u u u u d g g a g U U U U U U U U U U g g g g d u 3 3 u d ! { _ _ ",
"_ ! ! U U g d d d d i u u d g U W P d d g g U g d u 3 3 d g U U _ _ ! g d d U ! ! Y Y U d d d U ! ! ! W W W U g g g g g g U U ! _ _ U g d d d d a W ! U d u 1 1 w s s g } ....} / g d d d i u u u u p d a P a U U U U U U U U Y U U U g g d d u 3 3 u d ! { { _ ",
"_ _ ! U g d u u u 7 u u u u d g d a d d g T T g d u 3 7 g T g g / ! U d i d U U U U U U d d d U _ _ W a a g U U g g g U U U U U ! ! U d d u u i d a U d i 3 1 2 s g g / } ....} U d d u u u u i u u i i d a a U U U U U g g d d U U g g d a p u 3 3 u d ! _ _ _ ",
"! ! ! U d u 3 2 1 1 1 1 2 3 u d d d i d g g g g d u 3 u T N M m g U d d u d U U U U U g d u d d ' _ W a a U U U U g g U U U U U d d d d i i u u d d d i 3 2 2 w g R T U ' } } _ d d u u u u i i u u i i d d g g d d d d d i u u i d d d d p u 9 2 3 u d U ! _ _ ",
"U U U d u 3 3 2 < % 1 1 2 2 u u u u u u d a d d u 3 2 7 g N c c g U i u u i d U g g g d u u u d ! ! P a a a U U g g d d d d d d u 7 u u u u 7 u u u u 3 3 2 w p g N g U ! ! ! P i u u u u u u u u u u u 7 u d d u 7 7 u u 5 2 2 3 u u 7 7 5 8 2 3 u i d U ! _ _ ",
"d d d i 3 3 2 2 < 1 2 u 9 9 9 9 3 2 1 1 2 0 3 3 3 2 1 1 u s x x g d u 3 3 3 i d d d d u 3 3 9 u g U d d d a a g a i u 3 3 0 3 3 1 1 1 1 1 1 1 1 2 3 3 3 2 3 d f m c s d d d d i u 9 3 3 3 3 3 3 3 2 1 1 1 1 2 3 1 1 1 1 1 1 1 1 1 1 1 1 1 1 1 2 s g g g g W W ! ",
"u u d i u 3 3 3 2 5 u s u u u u 0 3 2 1 1 2 2 2 2 2 1 1 9 w r x M s u 2 3 3 u u u u u u 2 2 2 w s d u u u p i i u 2 2 2 2 2 2 1 < % % % % % % < 2 2 2 2 3 u d M x x t u u u u u 8 2 1 2 2 2 2 3 3 2 1 1 1 1 2 2 1 1 % % % % % % % % % % 1 1 1 w s g g g g a g U ",
"3 3 d g d d d d d s c c f g T T g d d u 1 < < 1 < 1 2 2 9 w r v c y w 9 0 u u u 3 2 9 8 1 < 1 1 2 3 3 3 3 3 3 2 1 1 1 < < < % % % % % % % % % % < < < 2 d N m c z z x t u u 3 2 1 1 1 < < 1 7 u u u u 2 2 8 u u 9 1 1 % % % % % % % % 1 1 9 s s y x c m s i d d ",
"3 u g g g g g g g g c c d g N N g g f s 4 & 1 1 1 1 2 3 w q r z v z t w u u u u 3 3 u w 2 1 1 1 2 2 2 2 2 2 2 2 1 1 1 1 1 1 < % 1 1 1 1 1 1 1 1 1 1 1 5 g N c v z z z x t u 2 2 1 < < 1 1 2 u d d d i u w w w w w 4 1 & & & & ; ; ; ; 4 4 w s f r z z t s s s s ",
"d d U g y x x c g g s s d s y x x t r 6 , ; 1 2 2 7 u u t r z z z z r r w w t t u u d a d s 9 8 8 2 2 2 2 2 2 8 8 8 1 8 s s 7 2 2 8 9 w 8 8 8 8 8 2 2 u g g x z z z z z x t w 2 2 2 2 2 2 u d g g d d u t r 6 6 , , ; ; ; ; ; , 6 r r 6 , , 6 6 , , q t t x x x ",
"U U g f c v c m g U d d d s y x v z z k k r t s f g d f c v v v v v v z t t z x f f N N N N s e e e u u u u e e e e e s g g s s e e f f e w w w w e s s g M x z z z x x x t e u 0 3 3 u u s f g g f s t x z r 6 r r r r r r r r x c c x r 6 r r 6 6 w w t c b b ",
"T g m c n Z C O.+./ / T g g d M n b b b b n Z Z Z Z Z Z n b b n F F n n n n n n n B Z G G Z Z Z n n B Z Z Z Z Z n n Z Z B B B n n B Z Z B c x z z c c B B n c v v c f g g g d d a d d d c x c c c x x x v c f g N N N N N N N N N N N N g f g g g f t t w t n n ",
"U g x b J H ;.-.:.:.-.#.#.N N C Z F F F F J J J K L L J F F F J L L J F F F F F F F J L L L L J F F J L L L L J F F J J F F Z Z Z Z G G Z B c c c c B B B B c c c m g g U U T T T T U g m c c c c c x x c m g T +.%.%.%.%.%.%.%.%.%.-.#.C #.;.:.#.N c x w e c n ",
"T s r v L t.3.3.u.u.3.G G H H H J L L L L L L J J L L L L L J L L t.L L L L L L L L L L L L L L J J L L L L L L J J J J J G A #.#.$.$.-.$.#.N g g g N N N M g g g g d d g T T T T T U g g g g g g g g g g g g T +.%.%.%.%.%.%.%.%.-.1.H G H y.y.H Z b x w w e e ",
"U s 6 v L t.L t.p.p.L J J L K J J F J J J J F F J J L L L L L L L t.t.L L L J J J J J F F J J J J J L L L L L L L J J J F B N g g g T T g g g d g g g g g g g g g d u u u s s s s s s d d d g g g g U g g g d d g g g g g g g g N C J L K L t.t.L F b x w 9 9 9 ",
"U s 6 v L t.L L L L J F F F n b v z z z z v v b n F J L L J J L L L L L J F n b b b v z z v b b Z F J L L L L L L J F n v r 5 5 5 w u u w 5 3 u i d d d d d g g d u 2 1 < < < < < 1 1 1 1 5 u d g g g g d s u w w 5 5 5 5 5 5 5 r x B J J L L J F n b x 5 2 2 2 ",
"U s 6 z L t.L J F n n n n b z , : = = : = : , , v n F J J J J J J J L J n v , , , , : = = : , , v n F J J J J J J F n v , = $ # # $ % % $ $ < 2 3 u u u d d g g d 2 < $ + + + + + + @ $ $ & 5 s d g g g d u 8 1 % $ $ $ $ # # $ = , z n F F n b n n b z 5 2 2 2 ",
"U d w y L t.J n v v n n b z : O O o o o o o o O : z n F J J F F F F F n z : = O O o o o o O O = , v n F F F F F F n b z : O . . . . . . . . X $ 1 3 u d d g g d u 1 @ O .         . . . O @ ; t d U g g g s 1 $ O O . . . . . . o O : , b b z z b n b x 4 1 2 2 ",
"U a u s H r.J n z z n n v , O o                 O : z n J J F F F F n v : O o                 O $ , b F S n n n n b z , O o                   X < 2 u d g U U d 3 < X                     O * ; f T T g g u < + .                   O = , z z v n S b x 4 1 2 3 ",
"U a w f H t.L F n b n b , = o                     O , v F J J J J F b , = o                     o = b J F n n n b v , = o                     . $ 2 s g g U T d 2 $ .                         $ s +.T g d u % + .                     O : z v n F F b x 4 < 2 2 ",
"g f w f H t.L J F F B v , O                       o = z F L J J L F v , O                         O n H F n F n b z : O                       . $ 1 d U g g g s 1 @ .                         @ s +.T g d 5 % X                       o : z n F J F b r 4 < 2 2 ",
"c t w s H r.J F J J F v : O                       o = z F L L L L F v : o                         @ N 1.Z D F F F v : O                       . $ 1 d g d d g s 1 + .                         + u T T g d 5 @ o                       o : z n J J F b r ; % < 1 ",
"c y e f H L F D F J F v = o                       o = z F L L L L F z = o                         @ g :.Z F J J F v = o                       . $ 2 d g d d g s & X                           X u U g g d 5 @ o                       o = z F L K F b r 4 % % % ",
"g s s f G L F n n F F v : o                       o : z F L J J L F z = o                         @ d -.G J J J n z = o                       . $ 2 d g g g U u % O                           X u g d d i 5 @ o                       o = z F L L F b r 4 % % % ",
"T g d g G K F n B F F v : o                       o : z F L J J J F z = o                         @ d -.G J J F b z = o                       . $ 5 d T T U U u % O                           X u g d u u 2 @ o                       o = z F L L F b 6 ; % 1 1 ",
"+.R g N G L F F F J F v : o                       o = z F L L J L F z = o                         @ g :.H J F n b z = o                       . $ 5 g +.T U U s & X                           X u g d u u 1 @ o                       o = z F J L F b 6 % % 1 8 ",
"%.+.U N G L F F J J F v : o                       o = z F L L J J F z : o                         @ N :.H J F n b z = O                       . $ 5 g +.T U U s < +                           X u g d p u 1 @ o                       o = z F L L F b 6 % % 1 9 ",
"%.R g g G L J J J J F v = o                       o = z F L L J J F v , o                         @ N 2.1.J F n b z = .                       . $ 2 d T T U U s < +                           X u U g d p 2 $ o                       o = z F L L J n r ; 1 1 8 ",
"%.T d g G L L J J J F v = o                       o = z F L J J J F b , O                         @ N 2.1.J F n b z = o                       . $ 1 s g g g U s < +                           X u T N N g 5 $ o                       o = z F L L J n x 4 1 2 w ",
"$.T d g H e.L J J J F v = o                       o : z F J F F J F b , O                         @ N :.H J J F b z = o                       . $ 1 d g d d g s < +                           @ s $.A F B z = o                       o = z F L L J n x 4 1 9 u ",
"+.T d g 3.t.L J J J F v : o                       o : z F J F F J F v , o                         @ N :.H J L J n z = o                       . $ 1 s d p s f s < +                           @ s -.G F D v = o                       o = z F L L F b r ; 1 w s ",
"T g d g 1.t.L J J J F v : o                       o = z F J J J J F v : o                         @ N :.H L L J n z = o                       . $ 1 u p u e t 6 & +                           @ s -.Z D n z = o                       o : z F L L F b r ; 4 t x ",
"g d i g 1.t.L J J J F v : O                       o = z F L J J J F z = o                         @ N :.H L L J n z = o                       . $ 1 u s u w t 6 & +                           @ s #.A B b z = o                       o = z J L L F b 6 ; 4 x v ",
"d d u g 1.t.L J J J F b , O o                     o = z F L L J J F z = o                         @ N :.H J L J F v = o                       . $ 1 s d s u u 5 % +                           + u T g M c z = o                       o = z F L L F b 6 ; 4 x v ",
"d d u g 1.t.L J J J F c , O                       o = z F L L J J F z = o                         @ N :.H J J J F v : o                       . $ 2 d g d i i 3 % +                           X u U g d m r = O                       o : z F L L F b 6 & ; x b ",
"g d i g 1.t.L J J J F v : O                       o = z F L J J J F z = o                         @ N :.H J F F F v = o                       . $ 2 d g d u i 7 < +                           X u g d d s 5 $ O                       o = z F L L F b 6 % & r v ",
"g g d g 3.t.L J J J F v = o                       o = z F L J J J n z = o                         @ g :.G F F F n v = o                       . $ 2 d g d d p 2 % +                           X u g d u u 5 $ o                       o : z F L L F b 6 & & r v ",
"g g d C 3.t.L J F F F v = o                       o = z F L L J F b z = o                         @ f -.Z F J F n z = o                       . $ 1 s g g a u 2 % +                           X u g d u u 1 @ o                       o = z F L L F b r 1 5 x v ",
"U U U O.3.L L J F n n v = o                       o : v J L L J F n z : o                         @ s #.V B Z Z b r = O                       . $ 2 s g T d u 2 % +                           X u g d s u 1 @ o                       o = z F L L F b r 5 5 t v ",
"_ ! ! O.H L L J F n b z = O                       o , b J L L J J F v , o                         @ s +.N N N N c r % X                       . $ 1 s T T g s 2 % +                           X u U g d s 5 $ o                       o = z J L L F b r 5 5 r z ",
"` _ ! O.G L J J F n b z = O                       o , b J L L J J F b , O                         @ s +.T g U g c z - X                       . $ 2 s g U g d u < +                           X u g g g d 5 $ o                       o = v J L L F v r 5 5 r z ",
"_ _ U C H L F F J F b z = o                       o : v J L L J F n v , O                         @ s +.T U U g c z = O                       . $ 2 s T U g g u < +                           X u N B M s 5 $ o                       o = v L t.L F v 6 4 4 r v ",
"{ _ U N G L F F F F n z = o                       o = z F L L J F n v , o                         @ s +.N N N M c 6 = o                       . $ 2 d U U g g u < +                           + u N B n f 5 $ o                       o = v L t.L F v 6 ; 4 t c ",
"{ ! d g G L F n Z F n v = o                       o = z F L L J J n z : o                         @ s $.A B B M f 5 @ o                       . $ 2 d U U g d 7 < +                           @ s #.Z n c 6 = o                       o = v J L L F b 6 ; 1 s g ",
"_ ! d g G L F F F F F v = o                       o = z F L J J L F v : o                         @ s #.V B S B s 2 @ o                       . $ 2 d U U g d 7 < +                           @ s $.Z S n z = O                       o = z F L L F b r ; 1 s g ",
"W a i g G L J J J F F v = o                       o : z F L J L L J b , o                         + u T N V B B s 2 @ o                       . $ 2 d U g g g u < +                           @ s -.G F F v = o                       o = z F L K F b r 4 4 t c ",
"g d p f G L L J J J F v = o                       o : z F J J L L J b , O                         X 5 g g g M M s 1 @                         . $ 1 s g g g T s < + .                         @ d -.G J F v : .                       o = z F L K F n x 4 4 t c ",
"g a 0 s H e.L J J J F v : o                       o = z F J J J L F b , O                         X 1 d d d g g s 1 X                         . $ 1 u d g U U s 1 @ .                         @ g :.H J F v = o                       o = z F L L F n x 4 1 s g ",
"g d 3 s H t.L J J F F v : o                       o = z F J J J J F b , O                         X 1 d d d g a u 1 O                         . $ 1 u d g U U d 2 $ .                         @ N :.H J F v = o                       o = z F L L F n x 4 1 s g ",
"g d 3 s H t.L J F F F v : o                       o : z F J J J J F b , O                         X 5 g d u d u 3 1 X                         . $ 1 s g g U U d 2 $ .                         @ N :.H J F v = o                       o : z F L L F n x 4 4 t c ",
"U d 3 s H t.L J F F n v = o                       o = z F J J J J F v , o                         X u g d u u u 3 1 @ o                       . @ 1 s g g g g d 2 $ .                         @ N :.H J F v = o                       o : z F L L F b r 4 4 t c ",
"U a u s H t.L J J F n z = O                       o = z F J J J J F z : o                         + u g d u u u 0 1 @ o                         + < u d d d g d 2 $ .                         @ N :.H J F v = o                       o = z F L L F b r ; 1 s g ",
"g d w f H t.L J J J n z = O                       o = z F J J J J F z = o                         + u T d d i u w 1 @ o                         + < 7 u u d d s 1 @ .                         @ N :.H J F v = o                       o = z F L L F b 6 ; 1 d U ",
"d p 9 f H t.L J J J F v = O                       o = z F J J J J F z = o                         @ s +.U d d u w 1 @ o                       . # 1 u u u i d u < + .                         @ N :.H J F v : o                       o = z F L L F b 6 ; 1 s U ",
"u u 8 e H t.L J J J F v : o                       o = z F L J J J F z = o                         @ s +.T g d u 9 1 @ o                       . $ 1 u d d d d u < +                           @ N :.H J F v = o                       o = z F L L F b 6 4 2 d U ",
"u u 1 t J t.L J J J F v = o                       o = z F L L J J F z = o                         X u T T g d u 9 1 @ o                       . $ 1 s g g g g s 1 @ .                         @ g :.H J F v : o                       o : z F L L F b r 5 3 d U ",
"d u 1 r J t.L J J F F v = o                       o = z F L L J J F v : o                         X u U T g d s u 1 @ o                       . $ 1 d U g g g d 2 $ .                         @ N 1.H J F v : o                       o = z F L L F b r 5 u s g ",
"g s 1 r J 8.J Z F F Z v = o                       o : z F L L J J F v , o                         X u T T g g d p 2 @ o                       . $ 1 d g d d g d 2 $ .                         @ B L J J F v : o                       o = z F L L F b r w w y c ",
"g s 4 r J 3.F n n F F v = o                       o : z F L L J J F b , O                         X 5 g g g g g p 2 @ o                       . $ 5 d U d d g d 1 $ .                         O b L L J F v = O                       o : v J L L F b z q q z v ",
"d u 4 z L L J F F F F v : o                       o = z F L J J J F b , O                         X 1 d g g d s u 1 @ o                       . $ 5 g o.U g U d 1 $ .                         O b L L F n z = o                       o , b J L L F b z 6 6 v b ",
"d u 6 x L L J F J J F v : .                       o = z F J J J J F v , o                         X 1 d g d d u w 1 O o                       . $ 5 g +.T U U d 1 # .                         O b L J F n z = o                       . , b J L L F b z 6 6 z v ",
"g d u f G L J J J J F v : O                       o = z F J F F J F v : o                         X 5 g d d u u w 1 O o                       . $ 5 g +.T U U d 1 $ .                         O n L J F n v = o                       o : v J L L F b z q q z v ",
"T g d g G L L J J J F v : o                       o : v F J F F J F z = o                         + u g d u d p w 1 O o                       . $ 5 g +.N g T d 5 $ .                         O n L J F F v : o                       o = z F L L F b z w e y c ",
"T g d g H L L J J J F v = o                       o , v F J F F J F z = o                         + u g d d g a u 1 O o                       o = r N #.B M O.g r = o                         O n L J J F v = o                       o = z J L L F b r w w f g ",
"U g d g 1.t.L J J J F b : O                       O , b F J F F J F v : o                         + u U d d d a u 1 $ o                       o : z A ;.F Z A V z : O                         @ B 3.L J F v : O                       o : v J L L F b r q w d U ",
"U g d g 1.t.L J J J J n , = o                     o , b J L J J J F b , O                         @ s T d u d p w 1 $ X                       o > b H 3.J J G Z b , O                         $ C 7.H J F v , O                       o > b L t.L J b z , r s U ",
"g d u g 1.t.L J J J J F v , O o o o o o o o o o o O z F J L J J J J n z : O O o o o . . . . . . X ; g +.d u u u u 8 1 $ X . . . . . . . . . o $ x G L L L J J J n z = O o o o o o o o o o . O 4 ;.7.H F F b z : O o o o o o o o o o o = x G L t.L J n z , 6 s U ",
"d u 3 s 3.t.L L J J J J n v , = = = = = = = = = = 6 L t.L J J J J J n b z , : = = = & 1 1 % # % w g %.-.M y u u u u r , % # # $ # $ $ # # $ = r :.0.3.K F F J J F v , : : = = : , , : = = ; f $.9.8.J D n n b z , = = = = = : = = : : x 2.0.8.L L J n x ; 4 s U ",
"u 0 3 s 3.t.L L L L L J J n v z z z z z z z z z z n t.t.L J J J J J F n b v z z z z y s e w 4 w o.%.:.;.B c f s s f c c r 4 4 4 5 5 5 5 4 r z B 0.q.H F S F F J F b z z z z z v b b v z z c ;.2.8.L F n n n F n v z z z z z z z z z v Z 0.q.3.L L J n r 4 1 s g ",
"w 9 2 s 3.t.L L t.t.L J J J F F F F F F F F F F F J L L L J J J J J J F n b b n F F F F Z Z n M #.$.A Z n n B B M B F F Z B Z B N g g N B Z F J 1.H F n n n F F n n b b n F F J J J F F F J H H J F D n n F J F n b n F F F F F F F J J 3.3.L J L F b r 4 4 t c ",
"4 1 2 s 8.i.L L t.t.L J J L J J J J J J J J J J L L L J J J J J J J J F F n F J L L L L L J F B A A B S F F S n n F F J J K K J ;.$.#.A J L L L J J F n n n F F F F F F J L L L L L J J L L L J F F F F F F J J F F J J J J J J J L L L L L L L L F b 6 ; 4 t x ",
"- ; 2 s 8.p.t.L L J J J J J J J J J F F J J F F J L J J F F J J J J F F n F F J L J F F J J F B B B n F F F F n n n F F J L K J J G Z Z J L L L J J F n n F F J J J J J J J L L L J F F J L K J J J J J J F F F J J J J J J J J J J L L L t.p.p.t.J b 6 ; 1 w s ",
"= - 1 f 8.i.L J n n F J J J J J J J F F J J F F J J J J F F J J J J F F F F J J J J F F J J F F n n F F J J F F F F F F J L J J J J F F J J J J J J F F F F J J J J J J J J J J J J F F J J L L L L J J J J F F J J J J J J J J J J J J L L p.p.L F b 6 ; 1 w u ",
"= - 1 s 3.t.L n z z n F J J J J J J J J J J J J J J J J J J J J J J J J J J J J J J J J J J J F F F F J J J J J J J J J J L J J J J J J F F F F F F J J J J J J J J J J J J J J J J J J J L L L L L L J J J J J J J J J J J J J J J L J J F J J F n v r 4 1 8 w ",
"= - 1 s G L F b k l b n F F F F F F F F F F F F F F F F F F F F F F F F F F F F F F F F F F F F n n F F F F F F F F F F F F F F F F F F n b b b b n F F F F F F F F F F F F F F F F F F F F J J J J F F F F F F F F F F F F F F F F F F n b v b b b v 6 ; 1 8 9 ",
"= - 1 e Z F b v z z v v b b b b b b b b b b b b b b b b n b b b b b b b b b b b b b b b b b b b b b b b b b b b b b b b b b b b b v b v v v z z z v b b b b b b b b b b b b b b b b b b b b n n n n b b b b b b b b b b b n n b b v v b b v v v v z k , & 1 8 9 ",
"= - w s m c t r r r r r r r r r r r r r r r r r r x x x x x z z x x x r t t t t r r r t t x x x x r r r r r r r r r r r r r r r r r r r t r 6 6 r x x x r r r x x x z z r r r r r r z x x x x x x x x z r r r r r r r r r x x x t t r r z z r r r 6 6 4 1 1 8 9 ",
"= ; w d s u 5 5 5 5 4 ; 4 4 5 5 5 5 2 5 w w 5 5 5 5 4 4 4 ; , 6 t s u u 5 5 5 5 5 5 u u u u s s e w 5 5 5 5 u u u u w w w q 4 4 5 5 u u u u u u u u u u w w w u w w w q 4 ; ; 4 q w w e s s s s s s e w 5 5 2 5 w w w w 5 5 5 5 u u u u w w w w 5 5 1 1 2 2 8 8 ",
"- 4 d U d i 3 3 3 2 1 1 1 1 2 3 3 3 3 0 u u 3 3 3 2 1 1 1 4 , 6 s d d i 3 3 3 3 3 3 u i u u u u u 9 3 3 3 u i d d p u 9 9 8 1 1 2 3 u i i i i i u u u u u u p p u 9 9 8 1 < < 1 w u w u p d i i i u 9 9 2 3 3 3 9 8 8 9 3 3 3 3 u i i u u w w 9 3 3 3 3 3 2 9 8 ",
"5 s ! } _ P i u u u u 3 2 2 3 u d d d d a d u u u 3 2 2 3 w r t d U g d u u d d u u u i u i i u u u u u d d g g g a p u u u 8 8 u u u u u i i i i i u u u p a a p u u 0 2 1 < 1 s a p p a a a d i u 9 9 0 u u u 9 8 8 9 u u u u u u i u u u u u u u u 3 3 2 9 8 ",
"d g } ..} ! d u u u i u 3 3 u d g g g g g d d u s u 3 3 i s x c j / ! U d d g g d d d d u u u u d d d d g g g g g g d d i u u u s d d i i u u u u i d d d d U P d d d i 3 2 1 1 d g s s g W ! W d s u u s d d d u w w u s d d d u u u i d d d d d d i u 3 2 9 w ",
"g U } ..} ! d u u u i u 9 9 u i d d g g d d i u u u 3 3 d g x M @.} ' ! U g g g g g g d d u u d d g U g d d d d g g g d d u u p d g d d i u u u u d d U ! ! _ ! P a a d i 2 1 1 d g c m W _ } } ! g d d g g U g g d a d g g g d d u u d d g g g g d d u 3 3 u u ",
"U / } ..} ! d u d d i u u w u u u d g g d u u u u u 3 3 d f x M *...{ _ U U g a g g U g d d i d d g U U d i u d d g g g d d d d g U U a a i u u d d U ! _ _ _ ~ ! W W a i 3 1 2 s d c M W } ..} ~ W U g g g U U U g U U U U U g d d d d g g T T U g d u 3 3 u u ",
"_ ' ....' U d d d d d u u u w u u d a d i u u u u u 3 3 u s x c ^ } { _ ! U U a a U U U g d d u d d U U a a d u d d g g g g d a U U U U a d i d d U ! _ _ _ ! ! _ ~ W d 0 2 2 2 u s p p ~ } } _ W U U g d d a U g U U Y ! ! ! U g g g g g U U U U U d u 9 9 9 w ",
"_ } ..} / U d d g g d i i u 9 9 u i d a i u u i d p 3 3 u u x c W { } ' ! ! W W P U U U U g d p i d U W W a d u u d d g g g U U W ! W U W a a d g U _ ` ` _ ! ! _ ~ W a 3 2 3 3 u s p p ~ ' _ ! W g g d d i a g g U U ! _ _ ! U U g g U U U ! ! ! U d u 8 8 w u ",
"_ { { _ ! U g g U U a d i u 9 9 u i i i u u u i d a p u u s x c W { ....' _ _ ~ ! U U U U g p p a a W W W a i u u u d d g U U U W W U U W a a a U ! _ ` { _ ! ! ! ! U d 3 3 3 u t t s d ! _ ! ! U g d d u i a g g U ! _ _ _ ! U U g g U ! _ _ _ ! U d u 1 1 s d ",
"_ _ _ _ ! U U U U U U a d u u u u i d d d d d d d d d u u u x c W } ....} _ _ ! Y U U U U g a p a W ! ~ W P a d u u u d g U U U U U U U U g a P U ! ! _ _ _ ! U U U U d u 3 u s x x s P _ ' / U U g d u u i a g U U _ { { _ ! U U U U ! _ _ _ ' ! g d w 1 4 s g ",
"_ _ _ _ ! U U U U U U U d u u u u d d g d d g g d i i u 3 5 x c W } ....' ! ! ! U U U g a g g g U ! _ _ _ ! U d d u u d g U U U U U U U g g a a U U ! ! ! ! ! U U U U d u 9 u s x c g ! } } / U U g d u u d a U U ! _ _ { _ ! U U U ! _ _ _ ! ! U g u 2 1 4 t c ",
"} } } ' ! U U U U U U U d u u p d d g g a a g g d u u 3 3 5 x M ) } ..} ! U U U U U W W E U U U ! ! _ _ _ ! U g d u d d g U ! ! U U g g g g d a a U U U U U U U U U g d w w u s x c g ' ..} / U U g d d d d a U U ! ! _ _ _ ! U U U ! _ _ ! ! U g d w 1 1 4 t c ",
"......} / U U U U U U g d u u d d g g g p p g g d u 3 3 3 5 x M *...} _ W g U U U ! ! _ _ ! ! ! ' _ _ _ ! U U g d d d g U ! _ _ Y U U d d d d a a U U U U U U U U g d p w 9 u s x c W ' >.=./ U U U g g g g U U U Y ! ! ! ! U U U U ! ! W W U g d u 1 1 2 5 s g ",
"......} ' ! ! ! Y U U g a d d d g U U g p p g g s 0 2 2 2 5 y M *.} ' ! U g g U ! ! _ _ _ _ ! ! _ _ _ _ ! Y U g d d g U ! ! _ _ ! U U a a i u d a U U U U U U g g g u 0 9 0 s s c M ) } =.' U g U U U U U U U U U U U U U U U U U U U U a d g a s w 1 1 2 u d U ",
"} } } } _ _ _ _ ! U U U U U U U g g g g d d g d u 8 1 1 2 3 s g ) ) W U U g g U ! _ _ _ ! ! ! ! ! ! _ _ _ ' ! U a a U ! ' _ _ _ ! U U U a a d d a a W U U U g g g d u 3 2 u g T g g } ..} ! d d g U U U U U U U U U U U U U g U U U U a a d d s u 9 8 8 0 i g U ",
"_ { } } } _ _ ' ! U U U W ! W W W W U g d d g a u 8 1 1 2 u g T U g g g g g d P _ { { _ ! U U U U ! _ _ _ _ ! U U U U ! _ _ _ ! ! U ! ! W a d d a a h g g U U U U d 3 2 2 u T +.T Y ' } ' ! d d g U U U U U U U U U U U T T U U ! ! W a a d u u 9 8 9 u d d g g ",
"_ } =.=.} _ ! ! U U g U U W W ! ~ ~ W g g g d p w 8 1 1 2 d T T g d d d d d d d ! { { _ ! U U U U ! _ _ ! ! ! U U U U ! _ _ ! ! U ! _ _ ! U g g g a a g g U U U U d 3 2 2 3 g T U U / / / U g g g U U U U U U U U U U U T U U ! _ _ ! W g d d u 3 2 2 u g T p p ",
"_ } =.=.} _ ! U g g g U U U W ! ' _ W g g d u 0 9 2 1 1 u g +.+.g d p u u u u i P ! _ ! ! U U U U ! ~ ! U U U W U U U ! _ _ ! ! ! ! _ _ ! ! U U g g g g g U U U U d u 2 2 3 g T g g g U U T T U U U U U U U U U W W W ! / ! ! ! ! ) / U g d u 3 3 2 3 d T +.a p ",
"` ` } } } _ W U a U U U U U U ! ! ! W a a u 3 3 2 2 2 7 g +.+.+.g d d u 3 3 3 3 i d U U U U g g U W W P d a a U U U U U ! ! _ _ _ _ ! ! _ ! ! U g g g g g g U U g d u 2 1 5 g o.M c s d U U U U U U U U U U U W W W W ! _ _ ! U U U U g d u 3 3 2 3 i g +.+.g g ",
"_ _ ! ! ! ! P a a U U U g g U U g a d i u 3 3 3 3 3 3 i T +.+.+.T g d u 3 3 2 2 3 u d a a a a a a a a i p p a p a d g g U ! _ _ ` _ ! ! _ _ ! U U U U U U U g g g d u 1 1 5 g N c x u d U U Y U U U U U T g U U U U U W ! ! U g g a d a p 0 3 2 3 u d T N N g g ",
"! U d d d d d d g U U a d d d d p u 0 3 3 3 3 u d d d g T T T T T g g d i 0 9 2 2 3 3 3 3 0 0 0 0 0 3 0 9 w w u p d d d g U ! ! _ _ ! Y ! ! U U U U U U U U U g g a u 2 < 1 d g x x u d g U U U U U T T g g d d d d d d d d d i u 0 u u w 9 2 3 3 i g g M c f p ",
"Y U d u u u u u d a a i u u 7 5 8 2 2 3 3 u i d g g g g g g g g g g g g s u w w u 3 3 3 2 2 3 3 3 3 3 3 9 9 8 9 u u u u d g g U ! ! U U U U U U U U U U U U U U g d 3 2 1 2 d g c y s d g g d d d d d d d d u u u u u u u u u u 3 2 2 1 8 2 2 3 i d g M c c e p ",
"Y U d u u u 3 3 3 3 3 3 3 2 1 1 1 1 3 d g T g g m c c m g U U g m c c c x x z y s d d s w 9 u u u u u u u u w 9 2 3 3 3 w u s d d d U T U U U U U U U U U U U U U a 3 2 2 3 d g g g g g d u u 3 3 3 3 3 3 3 3 3 3 2 9 9 w w w 9 2 2 1 1 1 1 5 u d g m m M f c x ",
"/ U s s s d u 3 3 3 3 3 3 2 1 1 1 2 u d N C N M c v c m g g g M c c M M M M M m g g g f e w s s s s u u d s e w u 7 3 3 9 w u u u u d g U U U ! ! ! ! W a a U U g d 0 2 2 u g U g g g g d u 3 3 3 3 3 3 3 3 2 2 3 0 u w u u w u 0 2 2 1 1 5 u d g M c c M M c v ",
"+.N m c g g g d u u u u u u u 7 u u d g M c c c v c M g g g m c M g @.=.=.*.) W T g m c x x x x x x x y d d c c g g i u u u w w 3 3 3 u d U U ! _ _ _ ! d i d d d p w 9 u i g U U g m m g d u u d d u u u u 9 w s a d d d d d d a d d s s d g g m c v v c c c v ",
"%.O.M m g g g f s s u u d d s s s d U W M M M c x m g g g f c c g / } ........} ' W M M M M M c c c c f g g M M O.T s s s u w 9 3 3 3 0 i a g U ! ! ! P i u u u u u w u a g g g g g M M N T g g T T d d d s u s g U U U U U T T g g g g g U U g m c M M M c M c ",
"' / g g g g m c x x x y d g c c f U ' } =.*.) g s s g g m c s s g Y / ' } ..<.6...} =.=.=.*.) W g g W W T g N o.T g c c c y u u u u u u i i d d d d d i 3 3 9 9 9 9 u a / O.M m g W O.#.+.+.+.+.+.+.U g g g d g U U U g g U U T U g d d g U U g g g @.*.) W W W ",
"..} / Y U g m c c c x c g g m M g ' ........} ! d d d f c c d P U U U ! _ } ,.6.5...........} _ ! ! _ _ ! / %.=./ T M c c m s d s s u u s u u u u u u u 3 2 9 w w e u g #.C M m j ) %.%.%.%.%.%.+.+./ ! U U U U ! ! U U U U ! / / U d d d d g g g / ....} { } } ",
"6.<...' / T W ! g g g g g g W ) ' ......} } { ! d u d s x M ^ _ ! U U ! _ } } ......} } } } { _ ! U ! ! ! ' ,.6.<.>.W g g g g g m x x x x t 5 3 3 3 9 9 2 3 u s t x x c c M M g / ' ' ' ' ' ' ' / / _ _ _ _ _ _ _ _ _ ! ! ! ! ' } ' U d a s y m W ' ....} } =.=.",
"w.6.5.../ ! _ _ U g U g g U _ } ..4.....} _ _ ! d u u s x M =.../ U U ! _ _ _ } ....} _ _ _ _ _ ! U U ! _ ..6.w.w.<.' U U U U g c v z z v x 5 2 3 2 9 9 2 3 u s x v v v v c g U _ ' _ _ { { { _ ! ! _ ` ` ` ` _ _ _ _ _ ! ! _ } ..} / g p e r c W } ....} } =.=."
};
