/* XPM */
static const char *wall57_2[] = {
/* columns rows colors chars-per-pixel */
"128 128 160 2 ",
"   c #000000",
".  c #050B04",
"X  c #080C07",
"o  c #0C0C0C",
"O  c #071005",
"+  c #0A1407",
"@  c #0A1807",
"#  c #0E140A",
"$  c #0D1B09",
"%  c #11130C",
"&  c #101C0C",
"*  c #141414",
"=  c #151B14",
"-  c #191B16",
";  c #1C1D1C",
":  c #0F200A",
">  c #13250C",
",  c #1D240F",
"<  c #152C0E",
"1  c #1F2B0F",
"2  c #17330F",
"3  c #1A310F",
"4  c #172211",
"5  c #192315",
"6  c #172C10",
"7  c #1A2D13",
"8  c #1D221B",
"9  c #173010",
"0  c #193411",
"q  c #1C3C14",
"w  c #1F3918",
"e  c #202C0F",
"r  c #212713",
"t  c #232B12",
"y  c #20231D",
"u  c #252C1D",
"i  c #292F1E",
"p  c #223212",
"a  c #213D15",
"s  c #27321A",
"d  c #2F371F",
"f  c #223D1A",
"g  c #2D3A1E",
"h  c #30371F",
"j  c #30381F",
"k  c #242423",
"l  c #282726",
"z  c #262923",
"x  c #292B25",
"c  c #292929",
"v  c #263123",
"b  c #2D3420",
"n  c #2F3720",
"m  c #2F3921",
"M  c #2E3129",
"N  c #303721",
"B  c #303625",
"V  c #313821",
"C  c #333B22",
"Z  c #333B23",
"A  c #343C23",
"S  c #333B24",
"D  c #343B25",
"F  c #353D24",
"G  c #353D26",
"H  c #383F27",
"J  c #373E28",
"K  c #383F28",
"L  c #353535",
"P  c #383A37",
"I  c #393938",
"U  c #1F4217",
"Y  c #1F4318",
"T  c #204417",
"R  c #224917",
"E  c #214319",
"W  c #2D421F",
"Q  c #244C1A",
"!  c #294C1C",
"~  c #27521B",
"^  c #2A591E",
"/  c #2F4220",
"(  c #334324",
")  c #394027",
"_  c #354826",
"`  c #384B27",
"'  c #384028",
"]  c #3B4328",
"[  c #3A4229",
"{  c #3D452A",
"}  c #3F472B",
"|  c #3E442E",
" . c #3C4C2A",
".. c #2E5622",
"X. c #2D5D21",
"o. c #335C25",
"O. c #3D512B",
"+. c #365F28",
"@. c #2E6222",
"#. c #316625",
"$. c #336A26",
"%. c #39652B",
"&. c #356E29",
"*. c #3D692E",
"=. c #36712A",
"-. c #39762C",
";. c #3B7B2D",
":. c #3F6636",
">. c #40472B",
",. c #40482C",
"<. c #444B2F",
"1. c #40552E",
"2. c #444C31",
"3. c #454D32",
"4. c #484F33",
"5. c #4A4F34",
"6. c #474D3A",
"7. c #445631",
"8. c #495034",
"9. c #4B5337",
"0. c #4D5337",
"q. c #4E5337",
"w. c #475833",
"e. c #4A5B35",
"r. c #4D533C",
"t. c #505539",
"y. c #53583C",
"u. c #406537",
"i. c #406936",
"p. c #416738",
"a. c #4E603C",
"s. c #426939",
"d. c #52663F",
"f. c #46743D",
"g. c #48743E",
"h. c #454545",
"j. c #4A4A4A",
"k. c #565E41",
"l. c #555C43",
"z. c #535353",
"x. c #5C5C5C",
"c. c #4A7941",
"v. c #5E6A5B",
"b. c #63655F",
"n. c #616D5E",
"m. c #646563",
"M. c #656B61",
"N. c #686963",
"B. c #686768",
"V. c #696969",
"C. c #647262",
"Z. c #6E7A6B",
"A. c #73746E",
"S. c #3E822F",
"D. c #3E8531",
"F. c #3F8833",
"G. c #40842F",
"H. c #408631",
"J. c #418C34",
"K. c #439236",
/* pixels */
"} } } } ,.,.>.} >.,.,.,.,.,.,.,.,.,.,.} ] ) ] ] } ,.,.,.>.} ] ] } } ] ] } >.>.,.,.} ] ] } ,.,.,.,.} ] ] } } ] ] ] ] } } ] ] } ,.,.,.,.} } } >.>.>.>.,.,.,.,.,.,.,.,.,.} ] J J ] } ,.,.,.,.} ] ] } } ] ] ] ] } ,.,.,.,.>.,.,.,.,.,.,.,.,.,.,.,.} ] ] ] ] } } ] ) ",
"3.3.3.3.3.3.3.3.3.4.0.t.t.t.t.0.4.3.3.3.3.3.3.3.0.t.t.0.4.3.3.3.3.3.3.3.3.3.3.4.0.0.4.3.3.4.0.0.4.4.0.t.t.t.t.0.3.3.3.3.3.3.3.3.3.3.3.3.3.3.3.3.3.4.0.t.t.t.t.0.5.3.3.3.3.3.3.3.0.t.t.0.4.3.3.3.3.3.3.3.3.3.3.4.0.0.4.3.3.4.0.0.4.4.0.t.t.t.t.0.4.3.3.3.3.3.3.3.",
"V V V V V V V V V V V V V V V V V V N N V N V V G G V V G G V V V V V V V V V V G G V V V V V V V A } } ] ] K G V N V V V V V V V V V V V V V V V V V V V V V V V V V N N N V V G G V V V V V V V V V V V V V V G G V V V V V V V A } } ] ] K G V N V V V V V V ",
"d d d d d d d d d b z k k l l x b b l k k l b V ] ] V d d d d d d d d d d d d d V V V d d d d d d V G G V b x l l x b d d d d d d d d d d d d d d b z k k l k x b b x k k l b V ] ] V d d d d d d d d d d d d V V V b d d d d d d V G G V b x l l x b V G G V d ",
"j d d d j V V j d d d b x l l x b b x k k l b V G G V d d d d d d V G G G G G G G G G G V V G G G G G G V V G G G G V d d d d d d d d d V V V j d d d b x l l x b b x k k x b V G D x l l x b d d V G G G G G G G G G G V V G G G G G G V V D G G D V V G G V d ",
"G S N V ) ] G G G D N N S G G G G S b d d b S G G D V d d N S G G G G G G G G G G G G G G G G G G G G G G S V d d V D G G G G G G S b V ] ] G G G D V N S G G G G S b d d b S G G S b b S G G G G G G G G G G G G G G G G G G G G G G G G S N d d b S G G S N d ",
"; ; k k k k ; ; k k k k ; ; ; ; ; ; ; ; ; ; ; ; ; ; ; ; ; ; ; ; ; ; ; ; ; ; ; 8 k k 8 ; ; ; ; ; k k ; ; ; ; ; ; ; ; ; ; ; ; ; ; ; ; k k k k ; ; k k k k ; ; ; ; ; ; ; ; ; ; ; ; ; ; ; ; ; ; ; ; ; ; ; ; ; ; ; 8 k k ; ; ; ; ; ; k k ; ; ; ; ; ; ; ; ; ; ; ; ; ; ",
"k k k k ; ; k k k k k k k k ; ; ; ; k k ; ; ; ; k k ; ; k k k k ; ; k k k k k k k k k k k k k k k k k k k k ; ; ; ; ; ; k l b s k k k k ; ; k k k k k k k k ; ; ; ; k k ; ; ; ; k k ; ; k k k k ; ; k k k k k k k k k k k k k k k k k k k k ; ; ; ; ; ; k k k k ",
"* * * * * * * * * * ; ; ; ; ; ; ; ; ; ; * * * * * * * * * * * * * * * * * * # # * * # # * * * * * * * * * * * * * * * * * * * * * * * * * * * * * * ; ; ; ; ; ; ; ; ; ; * * * * * * * * * * * * * * * * * * # # * * # # * * * * * * * * * * * * * * * * * * * * ",
"; ; k k k k ; ; k k k k k k ; ; ; ; k k k k ; ; ; ; k k ; ; ; ; ; ; ; ; ; ; ; ; ; ; ; ; ; ; ; ; ; ; k k k k ; ; ; ; * * ; ; ; ; ; ; k k k k ; ; k k k k k k ; ; ; ; k k k k ; ; ; ; ; ; ; ; ; ; ; ; ; ; ; ; ; ; ; ; ; ; ; ; ; ; ; ; k k k k ; ; ; ; * * ; ; ; ; ",
"k k k z b b l k k l b V D S N b S G G B l k ; 8 i d d d d d d d d d d d d b k k k k ; ; k k k k k l b d d b k k k k ; ; k k k k k k k z b b l k k l b V G D b b S G G B l k ; 8 i d d d d d d d d d d d d b k k k k ; ; k k k l k l b d d b k k k k ; ; k k k k ",
"k k k x b d d d d d d d d d d d d V G S l k ; y i b d d d d d d d d d b x k k z b b l k k l b d d d d d d b z k k k k k b b l k k k k l b d d d d d d d d d d d d V G B l k ; y i d d d d d d d d d d b x k k z b b l k k l b d d d d d d b z k k k k k k k k k ",
"k k b d d d d j V j d d j j d b x l l k k k k k k l l l l x b b x x b d d d d b l l b b d d b d d d d b x k k k ; ; ; ; k k k k k z b d d d d d V j d d V j d b x l l k k k k k k l b j d d d b x x b d d b d b l l b b d b d d d d d b x k k k ; ; ; ; k k k k ",
"k k b d d V G ) } } ) ] } ] A V b b l k k k ; ; k l l l b b d d d d d d d b z k k l l x b V G G V V d b z k k k k k ; ; k k k k k z b d d V G ) } } ) ] } ] A V b b l k k k ; ; k x b d d d d d d d d d j b z k k k l x b V G G V h d b z k k k k k ; ; k z b b ",
"k z b V G G V V G ] } ,.3.9.t.0.| B y ; k k ; y i b b b x x b b z z b j j s y ; k l b V ] <.0.9.<.K x k k k k k k k ; ; k l l k k z b V G G V V G ] } ,.3.9.t.0.| B y ; k k ; y i b d d b d d b z z b d j s y ; k l b V ] <.0.9.<.K x k k k k k k k ; ; k k k l ",
"b d d d d d d b l l b G ,.9.k.k.9.| M k ; * ; k k l b d d d d b l l b d j s y ; k k k M | 9.k.k.9.| M k ; * ; k k k ; y i b d d b d d d d d d b l l b G ,.9.k.k.9.| M k ; * ; k k k k k k x b b l l b d j s y ; k k k M | 9.k.k.9.| M k ; * ; k k k ; ; k k k k ",
"l x b j j b x l k k k z b ) 5.5.H b d u - * ; ; k k l x b d d d d b b b j s y ; k k ; y B } 3.,.G N b u - * ; k k k k k k x b b x x b j j b x l l k k z b H 5.5.H b d u - * ; ; k k k k k x b d d d d d d s y ; k k ; y B } 3.,.G d b i - * ; k k k k k k z b d ",
"d N G G G G G S x k ; ; k z b b l k ; ; ; ; ; y i d d d d d d d d b l l b b z k k k ; ; k z b d d s z k ; ; ; ; k k k k k x b d d V G G G G G S x k ; ; k z b b l k ; ; ; ; ; y i d d d d d d d d b l x b b z k k k ; ; k z b d d s z k ; ; ; ; k k k k k z b d ",
"k l S G V V G G V b z k ; ; * * * * ; ; ; ; ; y s j d d d d d b x k k z b b z k k k k ; ; * * * * * ; ; k k k k k k k x b b j b z l S G V V G G V b z k ; ; * * * * ; ; ; ; ; y s j d d d d d b x k k z b b z k k k k ; ; * * * * * ; ; k k k k k k l l l l b b ",
"k z b V G G G G V d d b z k ; ; ; ; k k k k k k b d d d d d d d d b b b l k k z b b z k k k ; ; ; ; k k k k k k k l b b b j j b k k b V G G G G V V b b z k ; ; ; ; k k k k k k b d d b x x b d d d d b l k k z b b z k k k ; ; ; ; k k k k k k k l b b x c l l ",
"k z b d b V G G G G G G N d d b l k k x b b k k b d d d d d d d d N x k k l b d d b b b b b d d d d b b d b l k k l b d b d d b k k b d b V G G G G G G N d d b l k k l b b k k b b x l b d d d d b x k k l b d d d d b b d d d d d b b b b l k k l b d d b l k ",
"k k l l l l l l l x b b z z b d d d d d d b l k k k k k k x b d d b l k k k k z b b z k k x b d d b x x b b z k k k k k k k k k k k l l l l l l l x b b z z b d d d d d d b l k k z b b x x b d d b l k k k k z b b z k k x b d d b x x b b z k k k k k k k k k ",
"b b b b N N N N b N V b x x b V j V V j V V N b x x b b b b V b x l k k k x b V j b x l l x b j j V N N V V b b b b x k k k k x b b V N b b b b N N j b x x b V V V V V V V V b x x b V V b d b x l k k k x b V V b x l c x b j j V N N V V N b d b x l l l k k ",
"} } } } } } } } } } } } } } } } } } } } } } } } } } } } } } ] ] } } ] J J ] } } } } } } } } } } } } } >.} } } } ] G J J G ] } } } } } } } } } } } } } } } } } } } } } } } } } } } } } } } } ] ] } } ] J J ] } } } } } } } } } } } } } } } } } } ] G G ] } } ] G ",
"3.3.3.3.3.3.3.3.3.3.3.3.3.4.0.0.4.3.3.4.0.t.t.0.4.9.0.0.5.3.3.3.3.3.3.3.3.3.3.4.0.0.4.3.3.4.0.0.4.4.0.t.t.t.t.0.4.3.3.3.3.3.3.3.3.3.3.3.3.3.3.3.3.3.3.3.3.4.0.0.9.3.3.4.0.t.t.0.4.4.0.0.4.3.3.3.3.3.3.3.3.3.3.4.0.0.4.3.3.4.0.0.4.4.0.t.t.t.t.0.4.3.3.3.3.3.3.3.",
"V V V V V V V V N V G G V V V V V V V V G ] ] ) ) ] } } ] G V V V V V V V V V V G G V V V V V V V A } } ] ] K G V V V V V V V V V V V V V V V V V V G G V V V V V V V V G ] ] ] ) G V V V V V V V V V V V V V V G G V V V V V V V A } } ] ] K G V V V V V V V V ",
"d d d d d d d b x x D D x x b d d V G G V d d d d V ] K x k k x b V G G V d d d V V V d d d j j d V G G V b x l l x b d d d d d d d d d d d d b x x D D x x b d d V G G V d d j d b x x b b x x b V G G V d d V V V V d d d d d d V G G V b x l l x b V G G V d ",
"d d d d V V V d d V G G V b d d d V G G V d d d d b V V d d d d d V G G V V G G G G G G V V G G G G G G V V G G G G V V d d d d b d d d j V j d d V G G V b d d d V G G V d d j j b x l b d d d d V G G V V G G G G G G V V G G G G G G V V G G G G V V G G V d ",
"G S N V ) ] G S b N D G G G G G G G G G G G G G G G G S N d d d d N D G G G G G G G G G G G G G G G G G G S V d d V D G G G G G G S N V ) ] G S b N D G G G G G G G G G G G G G G S b d d d d d d N D G G G G G G G G G G G G G G G G G G S V d d N S G G D N d ",
"; ; k k k k 8 ; ; ; ; 8 k k ; ; ; ; ; ; ; ; ; ; ; ; ; ; ; ; ; ; ; ; ; ; ; ; ; 8 k k ; ; ; ; ; ; k k ; ; ; ; ; ; ; ; ; ; ; ; ; ; ; ; k k k k 8 ; ; ; ; 8 k k ; ; ; ; ; ; ; ; ; ; ; ; ; ; ; ; ; ; ; ; ; ; ; ; ; 8 k k ; ; ; ; ; 8 k k ; ; ; ; ; ; ; ; ; ; ; ; ; ; ",
"k k k k k k k k ; ; k k k k k k k k ; ; k k k k k z b b k k k k ; ; k k ; ; k l l k k k k k k k k k k k k k ; ; ; ; ; ; k l b b z k k k k k k k ; ; k k k k k k k k ; ; k k k k k k ; ; k k k k ; ; k k ; ; k l l k k k k k k k k k k k k k ; ; ; ; ; ; k k k k ",
"b b b b V N N b b b b b V N N b b b d d N b N b x x b b x l b b z k k l l x b V V b x l l x b b b b b b b b b b d b x k k k l x b N N N V V b b b b b b b b b N N N b b b b N b x l k k k z b b z k k l l l b V V b x l l x b N b b b b N N N d d b x l l k k k ",
"} } } } } } } } } } } } } } } } } } } } } } } } } } } } ] G G G G ] } } ] ] } } } } } } } } } } } } } } ] ] } } } } } } ] ] } } } } } } } } } } } } } } } } } } } } } } } } } } } } ] ] } } ] G G ] } } ] ] } } } } } } } } } } } } } } ] ] } } } } } } ] ] } } ",
"3.3.3.4.0.0.4.3.3.3.3.3.3.4.0.0.4.3.3.4.0.t.t.0.4.5.0.0.9.3.3.3.3.3.3.3.3.3.3.4.0.0.4.3.3.4.0.0.4.3.3.3.3.4.0.0.4.3.3.3.3.3.3.3.3.3.3.4.0.0.4.3.3.3.3.3.3.4.0.0.4.3.3.4.0.t.t.0.9.3.3.3.3.3.3.3.3.3.3.3.3.3.3.4.0.0.4.3.3.4.0.0.4.3.3.3.3.4.0.0.4.3.3.3.3.3.3.3.",
"V V V V G G V V V V G G V V V V V V V V G ] ] ) ) ] } ] M l l x b V V V V V V V G G V V V V V V V V V V V V G G V V V V V V V V V V V V G G V V N V G G V V V V V V V V G ] ] ) ) D x x b b x x b V V V V V V V G G V V V V V V V V V V V V G G V V V V V V V V ",
"d d d d d d d b x x D D x x b d d V G G V d d d d V ] ] V d d d d d d N d d d d V V V d d d d d d d d d d d V V V d d d d d d d d d d d d d d b x x D D x l b d d V G G V d d j d d b d b b d d d d d d d j N V V V V d d d d d d d d d d V j j V d d d d d d d ",
"j d d d d d d d b V G G V d d d d V G G V d d d b b V V N b d d d V G G G G G G G G G G V V G G G G V V G G G G G G G G V d d d d d d d b N j d d V G G V b d d d V G G V d d j d b x l l x b d d V G G G G G G G G G G V V G G G G V V G G G G G G G G G G V d ",
"G S N N S G G S N N D G G G G G G S N d d b S G G S b b S G G G G G G G G G G G G G G G G G G G G G G G G G G G G G G G G G G G G S b b S G G S b N D G G G G G G S N d d N S G G S b d d b S G G G G G G G G G G G G G G G G G G G G G G G G G G G G G G G G G ",
"; ; k k ; ; ; ; ; ; ; ; k k ; ; ; ; ; ; ; ; ; ; ; ; ; ; ; ; ; ; ; ; ; ; ; ; ; 8 k k 8 ; ; ; ; ; ; ; ; ; ; ; k k ; ; ; ; ; ; ; ; ; ; k k ; ; ; ; ; ; ; ; k k ; ; ; ; ; ; ; ; ; ; ; ; ; ; ; ; ; ; ; ; ; ; ; ; ; 8 k k ; ; ; ; ; ; ; ; ; ; ; ; k k ; ; ; ; ; ; ; ; ",
"k k k k k k ; ; ; ; k k k k k k k k k k ; ; ; ; k k ; ; k k ; ; ; ; k k k k k k k k k k k k k k k k k k k k ; ; ; ; ; ; k l b s k k k k k k ; ; ; ; k k k k k k k k k k ; ; ; ; k k ; ; ; ; ; ; ; ; k k k k k k k k k k k k k k k k k k k k ; ; ; ; ; ; k k k k ",
"* * * * * * * * * * * * * * ; ; * * ; ; * * * * * * * * * * * * * * * * * * * * * * # # * * * * * * * * * * * * * * * * * * * * * * * * * * * * * * * * * * ; ; * * ; ; * * * * * * * * * * * * * * * * * * * * * * # # * * * * * * * * * * * * * * * * * * * * ",
"; ; k k k k ; ; k k k k k k ; ; ; ; k k k k ; ; ; ; k k ; ; * * ; ; ; ; * * ; ; ; ; ; ; ; ; ; ; ; ; k k k k ; ; ; ; * * ; ; ; ; ; ; k k k k ; ; k k k k k k ; ; ; ; k k k k ; ; ; ; ; ; ; ; * * ; ; ; ; * * ; ; ; ; ; ; ; ; ; ; ; ; k k k k ; ; ; ; * * ; ; ; ; ",
"k k k z b b l k k l b V G D b b S G G B l k ; 8 i d d b b i 8 ; k k k k k k k k k k ; ; k k k k k l b d d b k k k k ; ; k k k k k k k z b b l k k l b V G D N b S G G B l k ; 8 i b k k k k ; ; k k k k k k k k k k ; ; k k k k k l b d d b k k k k ; ; k k k k ",
"k k k l b d d d d d d d d d d d d V G B l k ; y s b b b l k k k k k k k k k k k b b l k k l b d d d d d d b k k k k k k b b l k k k k l b d d d d d d d d d d d d V G B l k ; y s b k k k k k k k k k k k k k k b b l k k l b d d d d d d b z k k k k k k k k k ",
"k k b d d d d V d d d d j j d b x l l k k k k k k l l l l k ; ; ; ; k k ; ; ; ; k l b b b b N d d d d b l k k k ; ; ; ; k k k k k z b d d d d d V V d h h j d b x l l k k k k k k k ; ; k k ; ; ; ; k k ; ; ; ; k l b b b d d d d d d b l k k k ; ; ; ; k k k k ",
"k z b d d V G ) } } ) ] } ] A V b b l k k k ; ; k l l l b i 8 ; k k ; ; ; ; k k k k l x b V G G V V d b z k k k k k ; ; k k k k k z b d d V G ) } } ) ] } ] A V b b l k k k ; ; k k ; ; k k ; ; k k ; ; ; ; k k k k l x b V G G V d d b z k k k k k ; ; k z b b ",
"k z b V G G V V G ] } ,.3.9.t.0.| B y ; k k ; y i b b b l k ; ; k k k k ; ; k k k l b V ] <.0.9.<.K x k k k k k k k ; ; k l l k k z b V G G V V G ] } ,.3.9.t.0.| B y ; k k ; y i i y ; k k ; ; k k k k ; ; k k k l b V ] <.0.0.<.J x k k k k k k k ; ; k k k l ",
"b d d d d d d b l l b G ,.9.k.k.9.| M k ; * ; k k x b b z k ; ; k k k k ; ; k k k k k M | 9.k.k.9.| M k ; * y k ; y i d b b d d d d d d d d d b l l b G ,.9.k.k.9.| M k ; * ; k k k ; ; ; ; ; ; k k k k ; ; k k k k k M | 9.k.k.9.| M k ; * ; k ; y i d d b z k ",
"l x b j j b x l l k k z b ) 9.9.) b b u - * ; ; k k l k ; ; ; ; k k k k ; ; k k k k ; y B } 3.,.G N b u - * ; k k z b b l l b b x x b j j b x l l k k z b ) 9.5.H b d u - * ; ; k k ; ; ; ; ; ; k k k k ; ; k k k k ; y B } 3.,.G V N u - * ; k k z b j d b l k ",
"d N G G G G G S x k ; ; k z b b x k ; ; ; ; ; y i d d b k k k k k l l l k k k k k k ; ; k z b d d s z k ; ; ; ; k l b b l l b d d V G G G G G S x k ; ; k z b b l k ; ; ; ; ; y s s y ; k k k k k k l k k k k k k k ; ; k z b d d s z k ; ; ; ; k l b b l l b N ",
"k l S G V V G G V b z k ; ; * * * * ; ; ; ; ; y s d d b k k k k b b b b x l k k k k k ; ; * * * * * ; ; k k k k k z b d d d d b z l S G V V G G V b z k ; ; * * * * ; ; ; ; ; y s b z k k k k k b b d b x l k k k k k y ; * * * * * ; ; k k k k k z b b z k l l ",
"k z b V G G G G V V b b z k ; ; ; ; k k k k k k b d d s y ; k k k z b j d b l l b b z k k k ; ; ; ; k k k k k k k z b j d d d b k k b V G G G G V V b b z k ; ; ; ; k k k k k z b b z k k k k k k z b d d b l l b b z k k k ; ; ; ; k k k k k k k z b d d d d b ",
"k k b d d V G G G G G G N d d b l k k l b b k k b d h s y ; k k k k b d d d b b d b b b b d d d d d b b d b l l b d d d d d d b k k b d b V G G G G G G N d d b l k k l b b k k b s y ; k k k k k z b d d d b b d d d b b b d d d d b b d b l l b d d d d d b b ",
"k k l l l l l l l x b b z k k k k k k k k k ; ; k x b s y ; ; ; ; ; k k k k k z b b z k k x b d d b x x b b z k k x b b z k k k k k l l l l l l l x b b z k k k k k k l k k ; ; k k ; ; ; ; ; ; ; ; k k k k k z b b z k k l b d d b x x b b z k k x b b x k k l ",
"b b b b N N N b N V V b x l l x b b V V b b l l b V V b z z b b z k k c l x b d j b x c c x b j j V N N V V b b b N V b z k k x b b V N b b b b N N j b x l c x b N N V b b l l b s y ; k z b b z k k l l l b d j b x l l x b j j N V V V V b b b V V b z k k l ",
"} } } } } } } } } } } } | | | } } } } } ] G V V } >.>.} ] G G G G ] } } ] G G ] } } } | } } } } } } } >.} } } } } } } } ] ] } } } } } } } } } } } } } } | | | | } } } } ] G V V } } V N G K ] G G ] } } ] J G ] } } } } } } } } } } } } } } } } } } } } ] ] } } ",
"3.3.3.3.3.3.3.3.3.4.0.t.t.t.t.0.4.3.3.3.3.3.3.3.0.t.t.0.3.3.3.3.3.3.3.3.3.3.3.4.0.0.5.3.3.4.0.0.4.4.0.t.t.t.t.0.4.3.3.3.3.3.3.3.3.3.3.3.3.3.3.3.3.4.0.t.t.t.t.0.4.3.3.3.3.3.3.3.0.0.,.} 3.3.3.3.3.3.3.3.3.3.3.4.0.0.4.3.3.4.0.0.4.4.0.t.t.t.t.0.4.3.3.3.3.3.3.3.",
"V V V V V V V V V V V V V V V V V V V V V V V V G G V b x c c x b V V V V V V V G G V V V V V V V A } } ] K K G V V V V V V V V V V V V V V V V V V V V V V V V V V V V V V V V G D x k l c c x b V V V V V V V G G V V V V V V V A } } ] ] K G V V V V V V V V ",
"d d d d d d d d d b z k k l l x b b x k k l b V ] ] V b z k k x b V G G V b x l l x b V G G V d d V G G V b x x b j j d d d d d d d d d d d d d d b z k k l l x b b x k k l b A ] K x k k k k l b V G G V b x l l x b V G G V d d V G G V b x x b j j d d d d d ",
"j d d d j V V V j d d b x l l x b b x k k l b V G G V b l l b d d V G G V V G G G G V V G G G G G G G G V V G G G G G G V d d d d d d d j V j d j d d b x l l x b b x k k l b V G S l k k l b d d V G G V V G G G G V V G G G G G G G G V V G G G G G G G G V d ",
"G S N V ) ] G G G D N N S G G G G V V d d N G G G G V d d d d d d b G G G G V d d V G G G G G G G G G G G G V V G G G G G G G G V d d V ) ] ] G G G V V G G G G G G b d d V G ] ] G b b l l b d d b G G G V V d d N S G G G G G G G G G G S V V D G G G G G G G ",
"; ; k k k k 8 ; k k k k ; ; ; 8 t t t t t t t t 0 9 9 9 9 9 9 9 9 0 q E E U U U U U U q 0 0 q E E E E E E U U U U U U E E E E E U U U U E E E E E T U U U U E E U E E U U U E E E q 0 9 9 9 9 9 9 9 9 9 9 9 t r 8 ; ; ; ; ; k k ; ; ; ; ; ; ; ; ; ; ; ; ; ; ; ; ",
"k k k k k k k l l k k k k k ; ; ; ; k k 8 ; ; 8 k k 8 ; ; ; ; ; * * * * * * * * & & * * * * * * * * * * * * o o * * * * - ; ; ; = * * * * * * * * * * * * * * * * * ; ; * * * = ; ; = * * * - ; ; ; ; ; ; ; ; ; ; ; k k k k k k k k k k k k ; ; k k k k k k ; ; ",
"b b b b b b b b N N N b x l l x b d b b d d d b N N d s y ; * o .         X ; c L L c ; X                                 X ; c L L c ; X                                 X ; c L L c ; X         . * * ; ; k k k z b b x x b V b b b N N b b b N V N b z k k l ",
"} } } } } } } } } } } } | | | } } } } } ] G G ] } } ] G V i - o .         X k I j.j.I k X                                 X k I j.j.I k X                                 X k I j.j.I k X         X ; k k l b V G K K ] } } } } } } } } } } } } } } } } ] ] } } ",
"3.3.3.3.3.3.3.3.3.4.0.t.t.t.t.0.4.3.3.3.3.3.3.4.0.t.t.9.,.J l ; X         o c h.x.x.j.L o                                 o c h.x.x.j.L o                                 o c h.x.x.j.L o         X ; x B ] ,.4.0.t.t.t.t.0.9.3.3.4.0.t.t.t.t.0.4.3.3.3.3.3.3.3.",
"V V V V V V V V V V V V V V V V V V V V N N V V G G V b x k ; o .         o c h.x.x.z.L *                                 o c h.x.x.z.L *                                 o c h.x.x.z.L *         . * ; k z b V G K ] ] } } A V j A } } ] ] K G V V V V V V V V ",
"} ) V d d d d d d b z k k l l x b b x k k l b V ] ] V b l k ; o .         o c h.x.x.z.L *                                 o c h.x.x.z.L *                                 o c h.x.x.z.L *         . * ; k k l l l x b V G G V d d V G G V b x x b j d d b d d d ",
"V V d b x x b j j d d b x l l x b b l k k l b V G G V b x k ; * .         o c h.x.x.z.L *                                 o c h.x.x.z.L *                                 o c h.x.x.z.L *         . * ; k x S G G G V V G G G G G G G G V V G G G G G G G G V d ",
"G S b d d b G G G V V b G G G G G G N d d b G ] G G V d d s 8 * .         o c h.m.m.z.L *                                 o c h.m.m.z.L *                                 o c h.m.m.z.L *         . * y s d d d d V G G G G G ] G ] ] G G G V V S G G G G G G G ",
"; 8 7 9 9 9 9 9 9 0 q q 0 9 9 0 q E E E E U E E E q 0 9 9 < $ O           o c j.B.V.z.L *                                 o c j.B.V.z.L *                                 o c j.B.V.z.L *         . $ > < 0 q E E E E E E E E E E E E q 0 9 9 7 8 ; ; ; ; ; ; ; ",
"k k ; ; ; ; ; ; y k k k k k ; ; ; ; k k ; ; ; ; k k ; ; ; ; * o .         o c j.B.V.z.L *                                 o c j.B.V.z.L *                                 o c j.B.V.z.L *         . o * * * ; ; ; ; y k k k k k k k k k k 8 ; ; k k k k k k ; ; ",
"* * * * * * * * * * ; ; ; ; ; ; ; ; ; ; * * * * * * * * o X X .           o c h.m.B.z.L *                                 o c h.m.B.z.L *                                 o c h.m.B.z.L *           . X X # # $ $ $ $ # * * * * * * * * * * * * o o * * * * * * ",
"; ; ; ; ; ; k k k k k k k k ; ; ; ; k k k 8 4 > 1 t e , % X               o c h.m.m.z.L *                                 o c h.m.B.z.L *                                 o c h.m.B.z.L *             . $ > < < < > - ; ; ; ; ; ; ; k k k k ; ; ; ; ; ; ; ; ; ; ",
"k k ; ; k z b b l l b V G D b b S G G B l 8 7 0 q U T w = o .             o c h.m.B.z.L *                                 o c h.m.B.z.L *                                 o c h.m.B.z.L *             . > 2 0 0 2 9 t r y k k l k l b d d b k k k k ; ; k k k k ",
"d i y ; k z b d d d d d d d d d b V G S l 8 7 0 U Y Y w = o .             o c h.m.B.z.L *                                 o c h.m.B.z.L *                                 o c h.m.B.z.L *             . > 0 q U Y f z k k l b d d d d d d b k k k k k k k k k k ",
"k k k k k z b d j h j d V j d b x l l k k y 7 0 q Y E w = o               # b r.m.B.z.L *                                 o c h.m.B.z.L *                                 o l h.m.B.z.L *             . > 0 U U Y E g b b b d j d d d b x k k k ; ; ; ; k k k k ",
"k k ; ; k k b V ) } ) ] } ] A V N b l k k z 0 0 q E E w = o .             # d r.m.B.z.L *                                 o c h.m.B.z.L * .                               o i 6.b.B.z.L *             . > 0 U U Y E g d N V G G V V d b z k k k k k ; ; k z b b ",
"k k ; ; k k b V G ] } ,.3.9.0.0.| b 7 4 8 y 7 0 q R ~ E 5 o               o i 6.b.B.z.L *                                 o c h.m.B.z.P 5 .                               o i 6.b.B.z.L *             . > 0 q U U f g V ] <.9.9.<.K x k k k k k k k ; ; k k k l ",
"k k k k ; ; k k k x b G ,.9.k.k.9. .W 0 = = 6 0 q R ~ E 5 o .             o c h.m.B.z.L *                                 o c h.m.B.z.L *                                 o i 6.b.B.z.L *             . > 0 0 2 2 0 z m +.i.d.k.0.| M k ; * ; k k k ; ; k k k k ",
"k k ; ; k k k k k k k z b ) 9.9.) g ! E 5 = 6 0 U Y T w 5 o .             o c j.m.B.z.L *                                 o c j.m.m.z.L *                                 # d r.m.B.z.L *             O 9 U 0 0 q q t a ~ #.7.,.G b b u - * ; k k k k k k z b d ",
"d i 8 ; k k k k k k ; ; k z W Q E a p t ; 8 6 0 R ~ ~ E 5 o .             o c h.m.N.k.D %                                 o c h.m.m.z.L *                                 # d r.m.N.k.D %             O 9 Y U U Y w 8 8 w E Q Q E f z k ; ; ; ; k k k k k z b j ",
"k k ; ; k k k l b b z k ; ; = * * = ; ; ; 8 7 0 U R ~ E 5 o .             o c j.m.N.k.D %                                 o c j.m.B.z.L *                                 # d r.m.N.k.D %             . > 0 U Y Y a p 5 = * * * * = ; ; k k k k k l l k k l b d ",
"k k ; ; k z b b d d d b z k ; ; ; ; k k k u f U U R ~ E 5 o .             # b r.m.N.k.D %                                 # d r.M.B.z.I *                                 # d r.m.N.k.D %             . > 0 U Y Y f u k k k ; ; ; ; k k k k k k k l b b x l l l ",
"k k ; ; k k k x S G G G N d d b l k k l b g f T Q ~ ~ E 5 o               # d r.m.M.k.G %                                 @ Q p.n.B.k.D %                                 # d r.m.M.k.D %             O 9 T Y U Y E g d d d d d d d d d d b l k k l b b d b l k ",
"; ; ; ; ; ; k k l x b b z k k k k k k k k u 0 0 U R ~ E 5 o               # d r.m.C.f.~ $                                 # d r.M.N.k.D %                                 # d r.M.M.k.G %             O 9 E T Y Y a p r z l b d d b x x b b z k k k k k k k k k ",
"k k k k k k k z b V V b x l c x b b b b b d d g E Q X...u * .             @ R p.M.C.f.~ $                                 $ R p.M.B.k.D %                                 + R p.M.C.g.~ $             O 0 E E E T f u k k x b V V V b V V V b b b b x c l k k k ",
"G G V V G G G ] } } } | | | | | } } } } ] G V A ] } ] ] V s w > .         + R s.Z.Z.c.~ $                                 @ R s.Z.A.k.G %                                 + R s.Z.Z.c.~ $         . > 0 Q ^ @.o.O.} ] ] } } } } } } } } } } ] ] ] ] J J G G G G ",
"} } } } } } ) ] ,.4.0.t.t.t.t.0.4.3.3.3.3.3.3.3.3.7.%.$.#.X.~ q O         # d r.M.C.f.~ $                                 @ R i.M.C.f.~ $                                 @ R i.M.C.f.^ $         + q ~ X.#.&.=.&.*.w.0.5.3.3.3.3.3.3.4.0.t.t.0.4.,.| } } } } } ",
"V V V V j j d j V V V V V V V V V V V V V N V V G ] } _ ! U 0 > .   + $ $ < ~ u.n.C.f.~ $                                 @ R i.n.C.f.^ $   . X & < w U U q 0 > O         $ R i.n.C.f.X.> X + O   O 0 R ~ ~ ~ ~ _ ] ) ] } } A V V V V V G ] ] G V V V V V V j j ",
"d d d d d d d d d b z k k l l x b b x k k l b V G ] } ] a 0 U q 0 U @.&.@.@.@.:.n.C.f.^ $       . # > 0 q q 0 < : + .     $ Q i.n.C.f.X.< $ > q ~ @.@.@.@.@.@.X.~ R 0 > + & Q i.n.C.f.@.Q E Q T < < T ~ ~ ~ R E d V h V G G V d d d d d d b x x b d d d d d d d ",
"d d N V d d d d V d d b x l l x b b x k k x b j V V G ( E T Q ~ ~ ^ $.=.$.@.@.:.n.C.f.^ $ . $ 3 T ~ X.@.@.@.@.@.@.~ q 2 2 q ~ u.n.C.f.@.U q ~ #.&.=.=.=.=.-.;.-.$.@.@.X.~ ~ ^ :.v.v.:.@.@.@.@.@.~ ~ ~ ~ ~ ~ ~ ! ( G V V G G G G G G V d d V G G G G V d d d d d ",
"G G G G G G G G G D V V S G G G G S b d d b S G G K } _ E T Q ~ X.#.=.=.#.@.@.:.n.C.f.@.U q ~ #.&.-.;.;.-.=.=.&.$.@.@.@.@.@.@.:.n.C.f.$.^ ^ $.-.S.S.S.;.-.-.S.S.-.&.#.@.@.@.@.:.v.v.:.@.@.$.;.-.$.@.@.X.~ ~ ~ ! g N S G G G G G G G G G G S V d d N S G G S b d ",
"; ; ; ; ; ; ; 8 k k k k ; ; ; ; ; ; ; ; ; ; ; ; k z b s 0 0 R ~ X.$.=.=.#.@.@.:.n.C.f.$.@.#.&.-.;.S.S.;.-.=.-.-.=.=.=.&.#.@.@.:.n.C.f.$.@.$.-.H.J.J.H.;.-.-.;.G.S.;.$.@.@.@.@.:.v.v.:.@.@.&.F.F.=.X.~ Q E U Y q < 4 ; ; ; ; k k ; ; ; ; ; ; ; ; ; ; ; ; ; ; ; ; ",
"k k k k k k k l l k k k k k ; ; ; ; ; ; ; ; * * & & > > & > q Q X.$.;.-.$.@.@.p.C.C.p.@.@.$.;.H.S.S.S.-.$.$.;.S.-.=.=.&.#.@.@.p.C.C.p.@.@.$.;.H.K.K.H.-.$.$.-.S.S.S.-.&.#.@.@.p.C.C.p.@.@.&.F.F.=.X.^ Q q 0 0 9 < 4 ; ; ; ; ; ; ; ; ; ; k k ; ; ; ; ; ; k k k k ",
"N N b b b b b N b b b b x l l l b V N N d d d d d d d d d d d / X.$.;.;.$.@.@.:.v.v.:.@.@.=.F.K.H.;.$.#.&.-.J.J.-.=.=.$.^ ~ X.u.n.n.u.@.@.$.-.H.K.K.H.-.$.#.&.-.S.S.S.-.$.@.@.:.v.v.:.@.@.$.;.;.$.@.@.@.@.o.O.,.} } 3.,.] G G G G G V d b b b d d b l l l l k k ",
"} } } } } } } } } } } } } | | } } } } } } } } ,.3.3.3.3.,.} } O.%.-.S.;.$.o. .,.3.O.+.#.&.-.J.K.H.-.$.@.#.=.F.J.-.=.=.&.#.+.1.9.9.4.,. .o.#.&.;.J.J.H.-.$.@.@.$.;.H.H.;.$.@.@.+.w.w.+.@.@.$.-.;.$.@.@.o.O.,.3.9.4.7.4.3.3.3.3.3.3.3.,.} } } } } ] G G ] } } ] G ",
"3.3.3.3.3.3.3.3.3.4.0.t.t.t.t.0.4.3.3.3.3.3.3.4.0.y.k.k.y.t.t.e.*.-.S.;.$.+.w.y.k.a.%.#.&.;.J.F.=.@.@.#.&.-.J.F.=.@.@.@.@.+.w.t.t.t.t.w.+.#.&.-.;.;.-.&.#.@.@.$.-.H.J.D.&.@.@.+.w.e.*.$.#.#.=.=.#.#.$.*.e.t.t.t.t.t.t.t.t.0.5.3.3.3.3.4.0.t.t.0.4.3.3.3.3.3.3.3.",
"V V V V V V V V V V V V V V V V V V V V V N V V G ] | ] M x b ( X.$.;.;.@.! g V G _ o.$.-.S.D.;.$.X.~ ~ X.=.F.F.=.@.@.@.^ ~ R E d V V g ! ~ @.$.=.=.$.@.^ ~ X.#.=.-.S.;.$.X.^ ! _ ( ! R ~ ^ $.=.$.@.^ ~ R E d V G ] ] ] } } A V V V V V G ] ] G V N V V V V V V ",
"d d d d d d d d d b z k k l l x b b x k k l b V G ] } K l z ! ~ X.=.F.D.@.! v z f Q ^ $.-.S.-.&.#.X.~ ~ X.=.F.F.=.@.@.X.~ ~ ~ ! g h h g E Q X.#.&.&.#.X.~ ~ ~ ^ $.-.S.;.$.X.~ ! ( V E E Q ^ $.&.$.X.~ Q E U T E d N h V G G V N b d d d j b x l l x b V G G V d ",
"d d d d j V V V j d d b x l l x b b x k k x b d V V V N d / ..@.@.$.;.;.@.! ( ( ! ~ ~ ^ $.-.=.$.^ ~ ~ ~ X.&.F.J.-.&.#.X.^ ~ R E d N d d d g ! ^ @.#.#.@.~ ~ ~ ^ $.-.S.;.$.X.Q E d d E T ~ ^ @.@.@.X.~ ~ ~ ~ ~ ! ( G V V G G G G G G V b d V G G G G V V G G V d ",
"G S N V ) ] G G G D V N S G G G G S b d d b S G G G G S N W ..@.@.$.;.;.X.! g g ! ~ ~ ~ X.@.#.@.^ ~ ~ ~ X.$.;.S.-.&.#.X.~ ~ ~ ! ( D V V ) ` o.@.@.@.@.@.~ ~ ~ ^ $.-.S.;.$.o._ G G V E T Q ^ @.#.@.X.~ ~ X.X.W d d N S G G G G G G G G G G S N d d V S G G G G G ",
"; ; k k k k 8 8 k k k k 8 ; ; ; ; ; ; ; ; ; ; ; ; ; ; 8 t p T Q X.$.;.-.~ w 8 8 9 0 0 q Q ^ X.@.@.X.~ ~ ~ X.;.S.-.&.#.X.Q Y T T p t u u t p T Q X.#.#.X.~ ~ ~ ^ $.-.S.;.@.Q q 0 p t 9 q Q ^ &.$.X.Q q q Q ! a t 8 ; 8 8 8 8 k k 8 8 8 8 ; ; ; ; ; ; ; ; ; ; ; ; ",
"k k k 8 7 0 s s f w 0 9 9 9 9 9 9 9 9 9 9 9 2 9 9 9 w E Q ~ ~ ~ X.$.;.-.^ Q Q Q Q Q Q ~ ~ ~ ~ ^ X.X.~ ~ ~ ^ $.-.=.&.#.X.~ ~ ~ ~ Q Q Q Q Q Q ~ ~ X.@.@.@.~ ~ X.#.&.-.;.-.$.X.~ Q Q Q Q ~ X.$.;.-.X.~ Q ~ X.X.~ Q Q Q Q Q Q Q E E Q Q E q q w 9 9 9 9 9 9 9 7 7 t ",
"* * * * * * * * * = ; ; ; ; ; ; ; ; ; ; * * * * * * * 5 E R 0 q ~ $.;.=.R < : $ > < 2 0 U R ~ ~ ~ ~ R E Q ~ ~ ^ @.@.^ Q q 0 0 2 < > = = > < 2 q Q ^ @.@.~ ~ X.#.&.-.-.$.~ q < > > > > 3 R @.;.-.~ U 0 0 0 2 < > $ $ $ $ * * * * * * * * * * * * * * * * * * * * ",
"; ; k k k k ; ; k k k k k k ; ; ; ; k k k k ; ; ; 8 r t 0 0 2 q ~ $.;.-.~ w 8 - > < 2 0 q E ~ ~ ~ ~ R R Q ~ ~ ^ @.@.^ Q T q 0 3 1 r ; 8 7 0 q E Q ~ @.@.^ ~ X.$.&.=.$.X.R q 0 3 e e 3 q ~ $.=.$.~ U U q 0 2 2 7 8 ; ; ; ; ; ; ; ; ; k k k k ; ; ; ; * * ; ; ; ; ",
"k k k z b b l k k l b V G S b b S G G S l k ; 8 i d d g E U U R X.$.;.;.@.! z y r p q E Q ~ ~ ~ ~ ~ ~ ~ ~ ~ ~ ^ $.$.^ Q E U U a p r y z f R Q ~ ~ ^ X.@.@.@.@.#.&.=.$.X.R q 0 0 s g f R X.$.=.$.Q U U Y U U U f z k ; ; k k k k k l b d d b z k k k ; ; k k b d ",
"d b l l b d d d d d d d d d d d b V G S l k ; 8 s d d g ! Q E R X.$.=.$.^ ! z k b g E E ~ ~ ~ ~ ~ ~ ~ ~ ~ ~ ~ ^ $.$.^ ~ ~ Q E E g d d g E R ~ ~ X.@.@.X.^ ~ X.#.&.=.$.X.R q 0 0 s g f R X.$.=.#.Q T Q Q E U Y E g b l k k l b d d d d d d b z k k k k k k z b d ",
"d d d d d d d j j h d d j j d b x l l k k k k k k x b g ! Q R R ^ #.=.$.^ ! g b b g E R ~ ~ ~ ~ ~ ~ ~ ~ ~ ~ ~ ^ @.@.^ Q R Y Y E g g ! ~ ~ ~ ~ ~ X.@.@.X.~ ~ X.$.=.=.$.X.R q 0 0 s d E Q X.#.#.X.R E ~ ~ E E Q ! g b b b d b b V d d d b x k k k ; ; ; ; k k k l ",
"d d d d d V G ) } } ) ] } ] A V V b l l k k ; y s d h g E R ~ ~ ~ ^ $.$.^ ! v k l v ! ~ @.X.~ ~ ~ ~ ~ Q E E Q ^ X.X.~ ~ ~ Q E E g g ! ~ X.X.~ ~ X.@.@.X.~ ~ X.$.=.$.^ ~ E q 0 0 s g ! ~ X.$.=.#.Q E Q ~ E E Q ! v l l x b V G G V h d b z k k k k k ; ; k z b b ",
"d d d V G G V V G ] } ,.3.9.t.0.| V p 7 y k ; y s N h g E Q ^ X.~ ~ @.X.Q w 8 y i g ! ~ @.@.^ ~ ~ ~ R U U E Q ~ ~ ~ ~ ~ R Y Y E g g ! ~ ` ` ~ ~ @.#.@.X.~ ~ X.#.#.@.^ Q T q p t d g E Q ^ $.;.=.~ E Q ~ R a p r z l b V ] <.0.0.<.K x k k k k k k k ; ; k k k k ",
"d d d d d d d b l l b G ,.9.k.k.9.} V i - * ; k k l b g ! ~ R R Q ^ @.X.Q w 8 8 w T T Q X.@.@.X.~ Q E q 0 q Q ~ ~ ~ ~ ~ ~ Q E f g / X.X.( g ! ^ @.@.^ ~ ~ ^ @.#.#.@.~ R 0 3 e t d g E R X.$.=.$.~ E Q ~ R w < 4 y k k M | 9.k.k.9.| M k ; * ; k k k ; ; k k k k ",
"d d d j j b x l k k k z b ) 5.5.H d d i - * ; ; k z f R ~ ~ E E Q ^ @.X.Q a p p a E Q ~ X.@.@.@.~ Q E U U R ~ ~ ~ ~ ~ ~ ~ ~ E f g / X.X./ g ! ^ @.@.@.X.~ ^ $.=.$.X.R q 0 3 1 e t p a R X.$.=.$.^ Q E Y Y a p t s i y y B } 3.,.G d b u - * ; k k k k k k k k l ",
"d V G G G G G S x k ; ; k z b b x z 0 7 8 ; ; y i g E R Q Q E E Q ^ @.X.R U U U U R X.@.#.#.@.@.~ R 0 0 R ~ ~ ^ @.X.~ ~ ~ ~ R E g / X.o._ _ o.@.@.#.#.@.^ ^ $.=.$.~ q 2 2 < < 6 s d d g ! ^ $.=.$.^ R U U a p r z k ; ; k z ! ~ Q ! z k ; ; ; ; k k k k k z b b ",
"d V G G V V G G V b z k ; ; 4 > < 7 8 ; ; ; ; y s d d g ! Q E E Q ^ @.X.R U U U Y Q X.$.=.&.#.X.R q 0 q R ^ @.@.@.X.~ ~ ~ ~ E f d ( o.X.~ ~ X.#.=.-.;.-.$.@.@.@.^ Q 0 2 2 9 t p a E d g ! X.;.;.$.X.R Y Y a p r y k k ; ; * * * * = ; ; k k k k k k l l l l l l ",
"d d d V G G G G V d d b z k ; ; ; ; k k k k k k b d d g ! ~ E E Q ^ $.#.Q U U E Q ~ @.$.=.&.X.~ E f g g ! ^ @.@.@.X.~ ~ ~ ! g d d / X.X.~ ~ X.&.D.J.H.S.-.&.#.X.^ ~ E U U f u z b d d g ! X.;.S.-.$.^ Q E a p t d b z k k k ; ; ; ; k k k k k k k l b b x x b b ",
"d d d d b V G G G G G G N d d b l k k l b b k k b d d g ! ~ ~ ~ ~ ^ @.@.~ Q E E Q ~ X.$.=.=.#.^ R E g g ! ~ @.@.@.X.~ ~ ~ ! g b d g ! ~ ~ ~ X.&.F.K.H.S.S.-.$.@.@.X.~ ~ R f u k s d d g ! ^ $.-.-.$.^ Q E E g d d d d d b b d d d d b b b b l k k l b d d b d d ",
"k k l l l l l l l x b b z k k k k k k l k k ; ; k x b g ! ^ X.@.@.#.&.$.^ Q E E Q ~ X.$.=.=.$.X.~ Q E E Q ~ @.@.@.@.@.^ Q f z k k v ! ~ ~ ~ X.=.F.K.H.S.-.=.#.@.@.@.^ ~ ~ R 0 0 q E E T U Q #.-.-.$.^ Q E U E E T E Q ! v l b d d b x x b b z k k k k k k k k l ",
"b b b N N N N N N V V b x l c x b b d b d b l x b N N g ! ^ @.#.@.@.#.X.Q Y Y R Q ~ X.&.F.F.&.@.@.X.~ ~ ~ ^ $.=.$.@.^ ~ ~ ! v z f Q X.X.^ ^ $.;.J.K.H.;.-.&.#.@.@.@.@.X.~ Q T E ~ ! g g E Q X.$.;.;.@.Q R E d d E E E f x x b j j V N N V V N b b b x l l l l l ",
"} } } } } } } } } } } } | | } } }  .o.o._ ( ! ~ ` } }  .o.$.=.&.#.@.@.@.^ ~ ~ ~ ~ ~ X.&.F.J.;.&.#.X.~ ~ ~ @.;.S.-.&.#.@.@.@.@.#.&.&.#.@.@.$.-.H.K.K.H.-.$.@.@.@.@.#.#.@.^ ~ ~ ^ @.o. . .o.#.&.-.S.;.$.X.^ ~ ` } } ] _ ] }  .o.o. .} } } } } } } ] G J ] } } } } ",
"3.3.3.3.3.3.3.3.3.3.3.4.0.0.4.3.3.3.7.3.3.O.o.#.&.=.=.=.=.-.;.-.$.@.@.@.@.$.;.;.$.@.@.$.F.K.H.-.$.X.~ ~ X.&.D.J.D.;.$.@.@.#.&.&.$.@.@.@.@.$.-.H.J.K.H.;.$.X.~ ^ $.-.-.=.#.#.&.-.;.;.=.$.#.#.&.-.S.S.-.-.-.;.;.;.=.&.&.&.&.&.=.=.=.*.e.t.t.t.t.0.4.3.3.3.3.3.3.3.",
") G V V V V V V V V V V V V V N V d E E E E Q ~ X.#.#.@.@.$.;.;.$.@.@.#.=.=.$.@.^ ~ ~ @.D.K.H.-.$.@.@.#.&.-.S.;.$.$.-.-.$.@.@.$.&.&.#.@.@.$.-.S.D.D.S.-.$.X.~ X.-.H.J.J.;.=.$.$.=.$.~ Q X.#.&.-.;.H.J.D.@.~ ~ ~ _ _ ~ ~ W W ! ^ @.o.O.} ] ] ] G V N V V V V V V ",
"d d d d d d d d d b z k l l l x b b x l l v f ! _ ` ~ ~ @.=.F.F.=.@.@.$.-.-.X.~ ~ ~ ~ X.;.H.H.-.$.@.#.$.=.-.-.&.#.$.-.;.-.&.#.@.#.#.@.@.@.#.=.-.S.S.-.&.#.X.~ ^ $.-.J.K.K.K.K.D.=.@.^ ^ X.#.&.-.;.S.H.;.$.@.^ ~ ~ ~ @.o._ G V W X.@.#.o.( b x l l x b V G G V d ",
"d d d j V V N / ..../ g f U U E g g E Q X.X./ g ! ~ ~ X.$.-.S.H.S.;.$.#.=.$.^ ~ X.X.~ ^ $.-.-.&.$.$.-.;.-.&.#.@.@.@.#.$.-.;.-.=.=.=.-.=.#.#.&.-.-.=.$.@.^ ~ ~ ^ @.$.;.H.K.K.K.K.K.J.D.;.$.@.@.$.=.-.;.S.S.;.-.&.#.@.#.#.#.X.~ ~ X.@.@.o._ G G G G G V V G G V d ",
"G G G ] ] ] ] ( ! ~ ~ ~ ~ ~ ~ ~ ~ ~ X.#.&.$.^ ~ X.#.&.-.;.D.H.S.-.=.$.#.#.@.@.@.@.X.~ ^ @.#.@.$.-.S.S.;.-.&.#.@.@.$.&.=.=.-.;.;.-.-.J.J.-.=.=.&.#.@.@.X.~ ^ $.-.;.S.S.H.J.K.K.K.H.H.S.-.$.@.@.$.=.=.$.$.;.;.$.$.&.&.#.@.@.@.@.@.@.@.@.X.~ ! g d d V G G G G G G ",
"t p a E E U 0 0 U T E T T E E R ~ ~ ~ ^ @.#.#.#.&.-.;.H.J.K.K.J.H.;.-.&.#.@.@.X.~ ~ X.@.@.X.~ @.;.H.S.-.$.@.@.$.=.=.$.@.@.$.&.=.=.-.F.J.H.-.$.@.@.@.@.@.@.@.#.$.;.S.S.H.J.K.K.K.K.J.H.;.$.@.@.$.=.=.$.&.D.J.H.-.$.X.^ ~ ~ ~ R E E E E R ~ ~ ~ ~ R E E U 0 7 8 ; ",
"p p T R R E E R ~ ~ ~ ~ ~ ^ $.-.;.S.S.D.J.J.D.S.S.H.J.K.K.J.H.S.S.;.-.&.$.@.@.X.^ ^ @.#.@.@.@.$.;.;.$.#.@.#.#.$.;.;.$.@.@.@.@.$.&.&.$.$.=.-.-.=.$.#.@.#.&.=.=.-.;.S.S.H.J.K.K.K.K.K.K.D.&.@.@.$.;.S.S.S.S.S.S.;.$.#.@.#.#.@.@.@.@.@.^ ^ @.$.=.=.#.@.@.@.^ ~ R E ",
"J.J.J.J.J.J.J.F.-.=.=.-.;.D.J.K.K.K.K.K.K.K.K.K.K.K.K.K.H.S.S.S.S.;.-.=.=.&.#.#.&.=.=.&.#.@.@.#.=.=.#.#.&.-.;.S.S.S.-.=.=.&.#.@.@.@.@.#.&.-.;.H.J.F.-.=.=.=.=.-.S.S.-.-.S.H.K.K.K.K.K.J.-.&.#.@.@.$.=.-.S.S.S.S.S.S.S.S.S.S.S.D.J.K.K.K.K.K.K.J.D.S.S.S.S.S.;.;."
};
