/* XPM */
static const char *wall57_3[] = {
/* columns rows colors chars-per-pixel */
"128 128 166 2 ",
"   c #000000",
".  c #060B05",
"X  c #0C0C0C",
"o  c #071005",
"O  c #0A1807",
"+  c #0E130A",
"@  c #0D1B09",
"#  c #11130C",
"$  c #101D0B",
"%  c #141514",
"&  c #161915",
"*  c #191B16",
"=  c #1C1D1C",
"-  c #0F200A",
";  c #12240C",
":  c #1D240F",
">  c #152D0E",
",  c #182E0F",
"<  c #17320F",
"1  c #18310F",
"2  c #172212",
"3  c #192315",
"4  c #162D10",
"5  c #192E13",
"6  c #1E221B",
"7  c #1D291A",
"8  c #173110",
"9  c #193411",
"0  c #1D3D14",
"q  c #1F3719",
"w  c #1F3B18",
"e  c #202D0F",
"r  c #212612",
"t  c #232B13",
"y  c #20221D",
"u  c #252C1D",
"i  c #292F1E",
"p  c #233312",
"a  c #213C15",
"s  c #22321F",
"d  c #2F361F",
"f  c #223D1A",
"g  c #2D3A1E",
"h  c #30381F",
"j  c #242423",
"k  c #262923",
"l  c #292B25",
"z  c #292929",
"x  c #263123",
"c  c #2C3221",
"v  c #2D3221",
"b  c #2D3421",
"n  c #2F3720",
"m  c #2F3921",
"M  c #2E3129",
"N  c #303721",
"B  c #303625",
"V  c #303820",
"C  c #343C23",
"Z  c #333B24",
"A  c #353C25",
"S  c #353C26",
"D  c #353D26",
"F  c #373F27",
"G  c #383F27",
"H  c #383F28",
"J  c #353535",
"K  c #383B37",
"L  c #383838",
"P  c #1F4216",
"I  c #1F4118",
"U  c #204517",
"Y  c #224A17",
"T  c #224419",
"R  c #2D421F",
"E  c #244C1A",
"W  c #294C1C",
"Q  c #26521B",
"!  c #28561D",
"~  c #2A5A1E",
"^  c #2F4220",
"/  c #344225",
"(  c #394127",
")  c #354926",
"_  c #394D27",
"`  c #374028",
"'  c #384028",
"]  c #3B4328",
"[  c #3C4429",
"{  c #3F472B",
"}  c #3E442E",
"|  c #3D4A2B",
" . c #2D5421",
".. c #2C5D21",
"X. c #335724",
"o. c #325C25",
"O. c #3C512A",
"+. c #2E6222",
"@. c #316624",
"#. c #336B26",
"$. c #366329",
"%. c #3A642B",
"&. c #356E29",
"*. c #3B6A2C",
"=. c #367327",
"-. c #36712A",
";. c #39762B",
":. c #3B7B2D",
">. c #3F6636",
",. c #3F6C31",
"<. c #40472B",
"1. c #40482C",
"2. c #444B2F",
"3. c #41542F",
"4. c #444C31",
"5. c #454D31",
"6. c #484F33",
"7. c #455332",
"8. c #4B5336",
"9. c #4D5237",
"0. c #4E5337",
"q. c #445A32",
"w. c #4A5C35",
"e. c #4D533C",
"r. c #505539",
"t. c #53583C",
"y. c #416737",
"u. c #406937",
"i. c #416738",
"p. c #4C6138",
"a. c #436B3A",
"s. c #51673F",
"d. c #52683F",
"f. c #427631",
"g. c #447833",
"h. c #47743D",
"j. c #454545",
"k. c #464846",
"l. c #4A4A4A",
"z. c #565E41",
"x. c #555C42",
"c. c #595F45",
"v. c #535353",
"b. c #5C5C5C",
"n. c #497640",
"m. c #616E5E",
"M. c #646562",
"N. c #656961",
"B. c #686963",
"V. c #676768",
"C. c #686768",
"Z. c #6A6A6A",
"A. c #647361",
"S. c #697866",
"D. c #6E7B6B",
"F. c #3E822F",
"G. c #3E8631",
"H. c #3F8833",
"J. c #40842F",
"K. c #408731",
"L. c #418C34",
"P. c #439236",
"I. c #449538",
"U. c #4D8141",
"Y. c #508444",
"T. c #71816D",
/* pixels */
"{ { { { 1.1.1.<.<.1.1.1.1.1.1.1.1.1.1.{ ] ] ] ] { 1.1.1.1.{ ] ] { { ] ] { 1.1.1.1.{ ] ] { 1.1.1.1.{ ] ] { { ] ] ] ] { { ] ] { <.1.<.<.<.<.<.<.<.<.1.1.1.1.1.1.1.1.1.1.{ ] ] ] ] { 1.1.1.1.{ ] ] { { ] ] ] ] { 1.1.1.1.1.1.1.1.1.1.<.1.1.1.1.1.{ ] ] ] ] { { ] ] ",
"5.5.5.5.5.5.5.5.5.6.9.r.r.r.r.9.6.5.5.5.5.5.5.5.9.r.r.r.r.9.6.5.5.5.5.5.5.5.5.6.9.9.6.5.5.6.9.9.6.6.9.r.r.r.r.9.5.5.5.5.5.5.5.5.5.5.5.5.5.5.5.5.5.6.9.r.r.r.r.9.6.5.5.5.5.5.5.6.9.r.r.9.6.5.5.5.5.5.5.5.5.5.5.6.9.9.6.5.5.6.9.9.6.6.9.r.r.r.r.9.6.5.5.5.5.5.5.5.",
"V V V V V V V V V V V V V V V V V V V N N V V V D ] ] ] ] D V V V V V V V V V V D D V V V V V V V C { { ] ] H D V b V V V V V V V V V V V V V V V V V V V V V V V V V N N N V V D D V V V V V V V V V V V V V V D D V V V V V V V C { { ] ] H D V N V V D ] D D ",
"d d d d d d d d d v k j j z z l b b l j j z v V ] ] V d d d d d d d d d d d d b V V V h h h d d d V D D V b l z z l v d d d d d d d d d d d d d d v k j j z j l b b l j j z v V ] ] V d d d d d d d d d d d d V V V b d d d d d d V D D V b l z z l v V D D V d ",
"V d d d h V V h d d d v l z z l b b l j j z v V D D V d d d d d d V D D D D D D D D D D D D D D D D D D V V D D D Z V d d d d h d d d d V V h h h d d v l z z l b b l j j z v V D Z l z z l b d d V D D D D D D D D D D D D D D D D D D V V D D D Z V V D D V d ",
"D Z N V ( ] D D D Z N N Z D D D D Z b d d b Z D D Z N d d N Z D D D D D D D D D D D D D D D D D D D D D D Z V d d N Z D D D D D D Z b V ] ] D D D Z V N Z D D D D Z b d d b Z D D Z b b Z D D D D D D D D D D D D D D D D D D D D D D D D Z N d d N Z D D D D D ",
"= = j j j j = = j j j j = = = = = = = = = = = = = = = = = = = = = = = = = = = 6 j j = = = = = 6 j j = = = = = = = = = = = 6 j j = = j j j j = = j j j j = = = = = = = = = = = = = = = = = = = = = = = = = = = 6 j j 6 = = = = 6 j j = = = = = = = = = = = = = = ",
"j j j j j j j j j j j j j j = = = = j j = = = = j j j j j j j j = = j j j j j j j j j j j j j j j j j j j j = = = = = = j z v d j j j j j j j j j j j j j j = = = = j j = = = = j j = = j j j j = = j j j j j j j j j j j j j j j j j j j j = = = = = = j j j j ",
"% % % % % % % % % % = = = = = = = = = = % % % % % % % % % % % % % % % % % % % % % % + + % % % % % % % % % % % % % % % % % % % % % % % % % % % % % % = = = = = = = = = = % % % % % % % % % % % % % % % % % % % % % % + + % % % % % % % % % % % % % % % % % % % % ",
"= = j j j j = = j j j j j j j j = = j j j j = = = = j j = = = = = = = = = = = = = = = = = = = = = = j j j j = = = = % % = = = = = = j j j j = = j j j j j j j j = = j j j j = = = = = = = = = = = = = = = = = = = = = = = = = = = = j j j j = = = = % % = = = = ",
"j j j z v v z j j z v V D Z V N Z D D B z j = 6 i d d d d d d d d d d d d v j j j j = = j j j j j z v d d v j j j j = = j j j j j j j z v v z j j z v V D D V N Z D D B z j = 6 i d d d d d d d d d d d d v j j j j = = j j j j j z v d d v j j j j = = j j j j ",
"j j j l b d d V D D V V D D V d d V D Z l j = y i d d d d d d d d d d b l j j k v v z j j z v d d d d d d v k j j j j j v v z j j j j l v d d V D D V V D D V d d V D Z l j = y i d d d d d d d d d d b l j j k v v z j j z v d d b d d d v k j j j j j j j j j ",
"j j v d d V D D V V d h V V d v l z z j j j j j j z z z z l b b l l b d d d d v z z v d d d b b d d d v l j j j = = = = j j j j j k v d d V D D V V d d V V h v l z z j j j j j j l b d d d d b l l v d d b d v z z v b d b b h d d d v l j j j = = = = j j j j ",
"j k v d d V D ] { { ( ] { ] C V b v z j j j = y d v z z v d d d b b d d d b z j j j z l b V D D V h d v k j j j j j = = j j j j j k v d d V D ] { { ( ] { ] C V b v z j j j = y i d d d d d d d b b d d d b z j j j z l b V D D V d d v k j j j j j = = j k v d ",
"j k v V D D D D D H { 1.5.8.r.9.{ B y = j j = y i d d v l l b b z z v d h d y = j z v V ] 2.9.8.2.H l j j j j j j j = = j z z j j k v V D D D D D ( { 1.5.8.r.9.{ B y = j j = y i d d d b d d v z z v d h d y = j z v V ] 2.9.8.2.H l j j j j j j j = = j j j z ",
"b b d d d d d v z z v D 1.8.z.z.8.} M j = % = j j z v d d d d v z z v d h d y = j j j M { 8.z.z.8.{ M j = % = j j j = y i b d d d d d h h h d v z z v D 1.8.z.z.8.} M j = % = j j j j j j l b b l z v d h d y = j j j M { 8.z.z.8.{ M j = & = j j j = = j j j j ",
"z l Z D V d d v z j j k v ( 6.6.G b d u * % = = j j z l b d d d d d d d h d y = j j = y B { 5.1.D V b u * % = j j j j j j l b b l l Z D V d h b l j j k v ( 6.6.G b d u * % = = j j j j j l b d d d d d d d y = j j = y B { 5.1.D d b u * % = j j j j j j k v d ",
"d V D D D D D Z l j = = j k v b z j = = = = = y d d d d d d d d d v z l b v k j j j = = j k v d d d k j = = = = j j j j j l b d d N D D D D ] Z l j = = j k v v z j = = = = = y d d b b b d d d d v z l b d k j j j = = j k v d d d k j = = = = j j j j j k v d ",
"j l Z D ] D D D V v k j = = % % % % = = = = = y d h d d d d d b l z j l v v k j j j j = = % % % % % = = j j j j j j j l v b h v k z Z ] ] D D D V v k j = = % % % % = = = = = y d V D D V d d v l z z l v v k j j j j = = % % % % % = = j j j j j j z j j z v d ",
"j k v V D D ] D V d d v k j = = = = j j j j j j v d d d d d d d d d b v z j j k v v k j j j = = = = j j j j j j j z v b d h h v j j v V D D D D V d v v k j = = = = j j j j j k v d h v l l v d d d d v z j j k v v k j j j = = = = j j j j j j j z v v l z z z ",
"j k v d b V D D D D D D N d d v z j j l v v j j v d d d d d d d d b l j j z v d d b b b b b d d d d d d d v z j j z v d d d d v k k v d b V D D D D D D N d d v z j j z v v j j v v l l v d d d d v l j j z v d d d d d b b d d d d d b b v z j j z v d d v z j ",
"j j z z z z z z z l b v k k v h d d d d d v z j j j j j z l b d d v z j j j j k v v k j j l b d d v l l b v k j j j j j j j j j j j z z z z z z z l b v k k v d d d d d d v l j j k v v l l v d d v z j j j j k v v k j j l v h d v l l b v k j j j j j j j j j ",
"b b b b v N N N b N V b l l b V V V h h h h N v l l v b b N V b l z j k v b b V h b l z z l b V h V N N V V b b b v l j j j z l b d b b b b N N N V h b l l b h h V h h V V V v l l b h V N h b l z j k v N b V h b l z z l b V h V N N V V N N d v l z z j j j ",
"{ { { { { { { { { { { { { { { <.{ { { { { { { { { { { { { { ] ] { { ] D D ] { { { { { { { { { { { { { <.{ { { { ] D D D D ] { { { { { { { { { { { { { { { { { { { { { { { { { { { { { { { { ] ] { { ] D D ] { { { { { { { { { { { { { { { { <.{ ] D D ] { { ] D ",
"5.5.5.5.5.5.5.5.5.5.5.6.9.r.r.r.r.r.r.r.r.r.r.9.6.8.9.r.r.9.6.5.5.5.5.5.5.5.5.6.9.9.8.5.5.6.9.9.6.6.9.r.r.r.r.9.6.5.5.5.5.5.5.5.5.5.5.5.5.5.5.5.5.5.5.8.9.r.r.r.r.r.r.r.r.r.r.9.6.6.9.9.6.5.5.5.5.5.5.5.5.5.5.6.9.9.6.5.5.6.9.9.6.6.9.r.r.r.r.9.6.5.5.5.5.5.5.5.",
"V V V V V V V V V V D D V V D D V V V V D ] ] ] ] ] { { ] D V V V V V V V V V V D D V V V V V V V C { { ] ] H D V V V V V V V V V V V V V V V V V V D D V V D D V V V V D ] ] ] ] D V V V V V V V V V V V V V V D D V V V V V V V C { { ] ] H D V V V V D ] ( ( ",
"d d d d d h d v l l Z Z l l b d d V D D V d d V D ] { H l j j l b V D D V d d h V V V d h h h d d V D D V b l z z l b d d d d d d d d d d d d v l l Z Z l l b h d V D D V d d V D Z l z v b l l v V D D V d d h V V V V h h h d d V D D V b l z z l v V D D V d ",
"d h d d h V h d b V D D V d d d h V D D V d d h V V V V d d d d d V D D V V D D D D D D D D D D D D D D V V D D D D V V d h h d h d d d V V V d b V D D V b d h d V D D V d h h h b z z v d d d d V D D V V D D D D D D D D D D D D D D V V D D D D V V D D V d ",
"D Z V V ( ] D D D D D D D D D D D D D D D D D D D D D Z N d d N Z D D D D D D D D D D D D D D D D D D D D Z V d d V Z D D D D D D Z N V ( ] D D D D D D D D D D D D D D D D D D D Z b d d d d N Z D D D D D D D D D D D D D D D D D D D D Z V d d V Z D D D D D ",
"= = j j j j 6 = = = = 6 j j = = = = = = = = = = = = = = = = = = = = = = = = = 6 j j = = = = = 6 j j = = = = = = = = = = = 6 j j 6 = j j j j 6 = = = = 6 j j 6 = = = = = = = = = = = = = = = = = = = = = = = = 6 j j = = = = = 6 j j 6 = = = = = = = = = = = = = ",
"j j j j j j j j = = j j j j j j j j = = j j j j j j d v k j j j = = j j = = j z z j j j j j j j j j j j j j = = = = = = j z v v k j j j j j j j = = j j j j j j j j = = j j j j j j = = j j j j = = j j = = j z z j j j j j j j j j j j j j = = = = = = j j j j ",
"b b b b N N N b b b b N N b b b N b d d b N N v z l b b l l v v k j j z z l v V V b l z z l v b b N b b b d b d d v l j j j z l b N N N N N N b b b b N b b b b b b d d b N N b l z z j j k v v k j j z z z v V V b l z z l b b b b b b d d d d d v l z z j j j ",
"{ { { { { { { { { { { { { { { { { { { { { { { { { { { { ] D D D D ] { { ] ] { { { { { { { { { { { { { { ] ] { { { { { { ] ] { { { { { { { { { { { { { { { { { <.<.<.{ { { <.<.{ { { ] ] { { ] D D ] { { ] ] { { { { { { { { { { { { { { ] ] { { { { { { ] ] { { ",
"5.5.5.6.9.9.6.5.5.5.5.6.9.r.r.r.r.r.r.r.r.r.r.9.6.6.9.9.6.5.5.5.5.5.5.5.5.5.5.6.9.9.6.5.5.6.9.9.6.5.5.5.5.6.9.9.6.5.5.5.5.5.5.5.5.5.5.8.9.9.6.5.5.5.5.6.9.r.r.r.r.r.r.r.r.r.r.9.8.5.5.5.5.5.5.5.5.5.5.5.5.5.5.6.9.9.6.5.5.6.9.9.6.5.5.5.5.6.9.9.6.5.5.5.5.5.5.5.",
"V V V V D D V V V V D D V V D D V V V V D ] ] ( ] ] { ] M z z l Z ( ( D V V V V D D V V V V V V V V V V V V D D V V V V V V V V V V V V D D V V N V D D V V D D V V V V D ] ] ] ] D l l b b l l Z ( ( D V V V V D D V V V V V V V V V V V V D D V V V V V V V V ",
"d d d d d h d v l l Z Z l l v d d V D D V d d V D ] { ] V d d d d V V V b d d b V V V d h h d d d d d h d d V V V d d d d d d d d d d d d h d v l l Z Z l l v d d V D D V d d V D D V d d d d d d b V V V V N V V V V h V h d d d d h d h V h h V V d d d d d d ",
"V d d d d d d d b V D D V d d d d V D D V d d d N V V N d d d d d V D D D D D D D D D D D D D D D D D D D D D D D D D D V d d d d d d d b V h d b V D D V b d d d V D D V d d V h b l z z l v d d V D D D D D D D D D D D D D D D D D D D D D D D D D D D D V d ",
"D Z N N Z D D D D D D D D D D D D Z V d d b Z D D Z b b Z D D D D D D D D D D D D D D D D D D D D D D D D D D D D D D D D D D D D Z b b Z D D D D D D D D D D D D Z N d d N Z D D Z b b Z D D D D D D D D D D D D D D D D D D D D D D D D D D D D D D D D D D D ",
"= = j j = = = = = = = = j j = = = = = = = = = = = = = = = = = = = = = = = = = 6 j j 6 = = = = = = = = = = = j j = = = = = 6 j j = = j j = = = = = = = 6 j j = = = = = = = = = = = = = = = = = = = = = = = = = 6 j j = = = = = = = = = = = = j j = = = = = = = = ",
"j j j j j j = = = = j j j j j j j j j j = = = = j j j j j j = = = = j j j j j j j j j j j j j j j j j j j j = = = = = = j z v d j j j j j j = = = = j j j j j j j j j j = = = = j j = = = = = = = = j j j j j j j j j j j j j j j j j j j j = = = = = = j j j j ",
"% % % % % % % % % % % % % % = = % % = = % % % % % % % % % % % % % % % % % % % % % % + + % % % % % % % % % % % % % % % % % % % % % % % % % % % % % % % % % % = = % % = = % % % % % % % % % % % % % % % % % % % % % % + + % % % % % % % % % % % % % % % % % % % % ",
"= = j j j j = = j j j j j j j j = = j j j j = = = = j j = = % % = = = = % % = = = = = = = = = = = = j j j j = = = = % % = = = = = = j j j j = = j j j j j j j j = = j j j j = = = = = = = = % % = = = = % % = = = = = = = = = = = = j j j j = = = = % % = = = = ",
"j j j z v v z j j z v V D D N N Z D D B z j = 6 i d d d d i 6 = j j j j j j j j j j = = j j j j j z v d d v j j j j = = j j j j j j j z v v z j j z v V D D V N Z D D B z j = 6 i v j j j j = = j j j j j j j j j j = = j j j j j z v d d v j j j j = = j j j j ",
"j j j z v d d V D D V V D D V d d V D Z l j = y i d d v z j j j j j j j j j j j v v z j j l v b d d d d d v j j j j j j v v z j j j j l v d d V D D V V D D V d d V D Z l j = y d v j j j j j j j j j j j j j j v v z j j z v d d d d d d v k j j j j j j j j j ",
"j k v d d V D D V h d d V V d b l z z j j j j j j z z z z j = = = = j j = = = = j z v b d d b h d d d v l j j j = = = = j j j j j k v d d V D D V V d h V V h v l z z j j j j j j j = = j j = = = = j j = = = = j z v b b b b d d d d v z j j j = = = = j j j j ",
"j k v d d V D ] { { ( ] { ] C V b v z j j j = y d v z z v i 6 = j j = = = = j j j j z l b V D D V h d v k j j j j j = = j j j j j k v d d V D ] { { ( ] { ] C V b v z j j j = y d d 6 = j j = = j j = = = = j j j z z l b V D D V d d v k j j j j j = = j k v d ",
"j k v V D D D D D ] { 1.5.8.r.9.{ B y = j j = y d d d v z j = = j j j j = 6 i v z z v V ( 2.9.8.2.H l j j j j j j j = = j z z j j k v V D D D D D ( { 1.5.8.r.9.{ B y = j j = y d d y = j j = = j j j j = 6 i v z z v V ] 2.9.9.2.D l j j j j j j j = = j j j z ",
"b d d h h h h b l z v D 1.8.z.z.8.} M j = % = j j l v v k j = = j j j j = = j j j j j M { 8.z.z.8.{ M j = & y j = y i d b b d d d d d h h h d v z z v D 1.8.z.z.8.} M j = % = j j j = = = = = = j j j j = = j j j j j M { 8.z.z.8.{ M j = % = j = y i d d v z j ",
"z l Z D V h h b z j j k v ( 8.6.( b b u * % = = j j z j = = = = j j j j = = j j j j = y B { 5.1.D V b u * % = j j k v b l l b b l l Z D V d h b l j j k v ( 8.6.G b d u * % = = j j = = = = = = j j j j = = j j j j = y B { 5.1.D V b u * % = j j k v d d v z j ",
"d N D D D D D Z l j = = j k v v l j = = = = = y i d d v j j j j j z z j j j j j j j = = j k v d d d k j = = = = j z b b l l v d d N D D D D ] Z l j = = j k v v z j = = = = = y d d y = j j j j j j z j j j j j j j = = j k v d d d k j = = = = j z b b z z v d ",
"j l Z D ] D D D V v k j = = % % % % = = = = = y d d d v j j j j v d b v l z j j j j j = = % % % % % = = j j j j j z v d d d d v k z Z ] ] D D D V v k j = = % % % % = = = = = y d v k j j j j j v b d v l z j j j j j = = % % % % % = = j j j j j z b b z j z z ",
"j k v V D D D D V g b v k j = = = = j j j j j k v d d d y = j j j k v h d v z z v v k j j j = = = = j j j j j j j k v h d d d v j j v V D D D D V d v v k j = = = = j j j j j k v v k j j j j j j k v d d v z z v v k j j j = = = = j j j j j j j k v d d d d d ",
"j j v d d V D D D D D D N d d v z j j z v v j j v d d d y = j j j j v d d d b d d b b b b b d d d d d d d v z z v d d d d d d v k k v d b V D D D D D D N d d v z j j z v v j j v i y = j j j j j k v d d d d d d d d d d d d d d d b d d v z z v d d d d d d d ",
"j j z z z z z z z l b v k j j j j j j j j j = = j l b d y = = = = = j j j j j k v v k j j l b d d v l l b v k j j l b v k j j j j j z z z z z z z l b v k j j j j j j z j j = = j j = = = = = = = = j j j j j k v v k j j z v d d v l l b v k j j l b b l z z z ",
"b b b b N N b b b N V b l z z l b N V V b v z z v V h v k k v v k j j z z l v h h b l z z l b h h V N N V V b b b N V v k j j l b d b b b b N N N V h b l z z l v N N N b v z z b d y = j k v v k j j z z z v d h b l z z l b h h V V V V V b b b V V v k j z z ",
"{ { { { { { { { { { { { { { { { { { { { ] D V Z ] <.{ { ] D D D D ] { { ] D D ] { { { { { { { { { { { <.{ { { { { { { { ] ] { { { { { { { { { { { { { { { { { { { { { { ] D V Z { ] V N D H ] D D ] { { ] D D ] { { { { { { { { { { { { { { { { { { { { ] ] { { ",
"5.5.5.5.5.5.5.5.5.6.9.r.r.r.r.9.6.5.5.5.5.5.5.5.9.r.r.9.5.5.5.5.5.5.5.5.5.5.5.6.9.8.6.5.5.6.9.9.6.6.9.r.r.r.r.9.6.5.5.5.5.5.5.5.5.5.5.5.5.5.5.5.5.6.9.r.r.9.r.9.6.5.5.5.5.5.5.6.9.9.1.{ 1.5.5.5.5.5.5.5.5.5.5.5.9.9.6.5.5.6.9.9.6.6.8.r.r.r.r.9.6.5.5.5.5.5.5.5.",
"V V V V V V V V V V V V V V V V V V V V V V V V D ] ] Z l z z l b V D D V V V V D D V V V V V V V C { { ] ] ` D V V V V V V V V V V V V V V V V V V V V V V V V V V V N V V V V ] Z l j z z z l b V D D V V N V D D V V V V V V V C { { ] ] H D V V V V V V V V ",
"d d d d d d d h d v k j j z z l b b l j j z v V ] ] C v k j j z v V D D V b l z z l b V D D V d d V D D V b l l b h h h d d d d d d d d d d d d d v k j j z z l b b l j j z v C { H l j j j j l b V D D V v l z z l b V D D V d d V D D V b l l b h h h d d d d ",
"h d d d h V V V h d d v l z z l b b l z j l b V D D V v z z v d d V D D V V D D D D V V D D D D D D D D V V D D D D D D V d d d d d d d h V h d h d d v l z z l b b l j j l b V D Z z j j z v d d V D D V V Z D D D V V D D D D D D ] D V V D D D D D D D D V d ",
"D Z N V ( ] G D D Z N N Z D D D D C b d d b Z D D D V d d d d d d V D ] ] D V d d V D ] ] ] ] ] ] ] ] ] ] D V V D ] ] ] ] ] ] D V d d Z ] { ] ] ] D V V D D D ] ] D b d d V D ] ] D b v z l v d d V D ] D D V d d V Z D D D D D D D D D D Z V V Z D D D D D D D ",
"= = j j j j 6 6 j j j j = = = 6 r t 9 8 8 8 8 9 0 T T T T T I w 0 T E W W W W W W W W E T T E W W W W W W W W W W W W W W ! ....! W W W W W W W W W W W W W W W W W W W W W W W T T P 0 0 0 0 P T T T T T a p r 6 = = = = 6 j j = = = = = = = = = = = = = = = = ",
"j j j j j j j j j j j j j j = = = 6 j j 6 = = 6 j j 6 = = = = = % % % % % % % & & & & % % % % % % % % % % % + + % % % % = = = = & & & % % % % % % % % % % % % % % & = = & % % & = = & % % % * = = = = = = = = = = = j j j j j j j j j j j j = = j j j j j j = = ",
"b b b b b b b N N N N v l z z l v d b b d d d d b b d d y = % + .         X = z J J z = X                                 X = z J J z = X                                 X = z J J z = X         . % % = = j j j k v v l l v V b b b N N b b b N V V v k j j z ",
"{ { { { { { { { { | | { { { { { { { { { ] D ] ] { { ] D V d y % .         X j L l.l.L j X                                 X j L l.l.L j X                                 X j L l.l.L j X         X = j j z v V D H H ] { { { { { { { { { { { { { { { { ] ] { { ",
"5.5.5.5.5.5.5.5.5.6.9.r.r.r.r.9.6.5.5.5.5.5.5.6.9.r.r.8.1.D z = .         X z j.b.b.l.J X                                 X z j.b.b.l.J X                                 X z j.b.b.l.J X         X = l B ] 1.5.9.r.r.r.r.8.8.5.5.6.9.r.r.r.r.9.6.5.5.5.5.5.5.5.",
"V V V V V V V V V V V V V V V V V V V N b b V V D ] ] Z l j = X .         X z j.b.b.v.J %                                 X z j.b.b.v.J %                                 X z j.b.b.v.J %         . % = j k v V D H ] ] { { C d h C { { ] ] H D V V V V V V V V ",
"{ ( V d d d d d d v k j j z z l b b l j z l v V ] ] Z v z j = % .         X z j.b.b.v.J %                                 X z j.b.b.v.J %                                 X z j.b.b.v.J %         . % = j j z z z l b V D D V d d V D D V b l l b h h d V d d d ",
"V h d v l l b h d d d v z z z l b b l j z l b V D D V v z j = % .         X z j.b.b.v.J %                                 X z j.b.b.v.J %                                 X z j.b.b.v.J %         . % = j l Z D D D V V D D D D D D D D V V D D D D D D D D V d ",
"D Z b d d b D D D Z b b D D D D D D V d d V D ] ] D V d d d y % .         X z k.M.V.v.J %                                 X z k.M.V.v.J %                                 X z k.M.V.v.J %         . % y d d d d d V D ] ] ] ] H ] ] D D D D V V D D D D D D D D ",
"= 6 5 8 8 9 0 T T T W W T T T T E W W W W W W Q W W T T T 0 > @ .         X z l.Z.Z.v.J %                                 X z l.Z.Z.v.J %                                 X z l.Z.Z.v.J %         . ; 9 0 T E W W W W ! W Q W W W W T T T T T w 7 = = = = = = = ",
"j j = = = = = = y j j j j j = = = 6 j j 6 = = 6 j z j y = = % X .         X z l.Z.Z.v.J %                                 X z l.Z.Z.v.J %                                 X z l.Z.Z.v.J %         . + % % % = = = 6 y j j j j j j j j j j j = = j j j j j j = = ",
"% % % % % % % % % % = = = = = = = = = = % % % % % % % % X X X .           X z k.M.V.v.J %                                 X z k.V.Z.v.J %                                 X z k.V.Z.v.J %           . X X + O @ @ @ @ + % % % % % % % % % % % % X X % % % % % % ",
"= = = = = = j j j j j j j j j j = = j j j 6 2 ; , 8 t : # X               X z k.M.V.v.J %                                 X z k.M.Z.v.J %                                 X z k.M.Z.v.J %             . ; 9 1 1 1 5 3 = = = = = = = j j j j = = = = = = = = = = ",
"j j = = j k v v z z v V D D V N Z D D B z 7 5 0 Y Q Q T 3 X .             X z k.M.V.v.J %                                 X z k.M.Z.v.J %                                 X z k.M.Z.v.J %             O 0 W T P P a p t j j j j j z v d d v j j j j = = j j j j ",
"d i y = j k v V D Z V V D D V d d V D B z 7 5 0 E ! ! T 3 X .             X z k.M.V.v.J %                                 X z k.M.Z.v.J %                                 + b e.N.B.z.Z #             O 0 ! Q Q Q W g v z z v d d d d d d v j j j j j j j j j j ",
"j j j j j k v d V V h d V V d b l z z j j k w U W ! ! T 3 X               O Y i.m.C.v.J %                                 + v e.N.V.v.J %                                 + d e.N.B.z.Z #             O 0 ! ! Q Y T g d d d d h d d d v l j j j = = = = j j j j ",
"j j = = j k v V ( { ( ( { ] C V b v z j j k 8 0 E ! ! T 3 X               O Y y.m.C.v.J %                                 X z k.M.V.v.K 3 .                               + d e.N.B.z.Z #             O 0 ! ! W T f g d h V D D V V d v k j j j j j = = j k v b ",
"j j = = j j v V D ] { 1.5.8.9.9.{ b 5 2 6 7 5 0 E ! ! T 3 X               + d e.B.C.v.J %                                 X z l.V.V.v.K 3 o                               + d e.N.B.z.Z #             o 9 Y Q Q T f g V ] 2.8.9.2.H l j j j j j j j = = j j j z ",
"j j j j = = j j j l v D 1.8.z.z.8.|  .T 3 & 9 U W ! ! T 3 X               + d e.N.V.v.J %                                 X z l.V.V.v.J % .                               + d e.N.B.z.Z #             O 0 ! ! W T f g / $.u.s.z.8.{ M j = % = j j j = = j j j j ",
"j j = = j j j j j j j k v ( 8.8.( ^ ..W 3 & 4 0 E ! ! T 3 X .             + d e.N.B.z.D #                                 X z l.V.V.v.J % .                               O Y y.m.B.z.D #             o 0 ! ! Q Y a p a ! $.7.1.D b b u * % = j j j j j j k v d ",
"d i 6 = j j j j j j = = j k R ! Q Y 0 5 3 3 5 0 Y ~ +.W 3 X               + d e.N.A.h.! @                                 + b e.N.V.v.J %                                 O Y y.m.A.h. .@             o 0 ! ! Q T a t p E ! ....! T k j = = = = j j j j j k v h ",
"j j = = j j j l v v k j = = & % % & = = = 3 5 0 Y ~ +.! 7 X               + d e.N.A.h.! @                                 + d e.B.C.v.J %                                 O Y y.m.A.h.! @             O 0 ! ! Q Y a p 3 * % & & % & = = j j j j j j z j j z v d ",
"j j = = j k v b d d d v k j = = = = j j j u f U W ~ +. .u % .             O Y y.m.A.h.! @                                 O Y y.m.B.z.` 2 .                               O Y y.m.A.h.! @             O 0 ! ! ! Q E p t y j = = = = j j j j j j j z v v l z z z ",
"j j = = j j j l Z D D D N d d v z j j z v g f U W ~ +. .7 X               O Y y.m.A.h.! @                                 O Y y.m.B.z.D #                                 O Y y.m.A.h.! @             O 0 ! ! ! ! W g d d d d d d d d b d v z j j z v d d v z j ",
"= = = = = = j j z l b b k j j j j j j j j u 8 0 E ~ +. .7 X .             O Y y.m.A.h.! @                                 O Y y.m.A.h.! @                                 O Y y.m.A.h.! @             O 0 ! ! ! Q E p t k z v d d v l l b v k j j j j j j j j j ",
"j j j j j j j k v V V b l z z l v d b b b g f T W ..#.o.s % .             O Y y.N.A.h.~ @                                 O E y.N.A.h.! @                                 O Y y.N.A.h.! @             O P ! ! Q Y f u j j l b V h V V V V V b d b v l z z j j j ",
"D D V V D D D ] { { { { { { { { { { { { ] D V Z ] | { / T I P 8 o         O Y a.D.T.Y.+.@                                 @ ! n.D.D.n.! @                                 O Y a.D.D.n.! @         . ; 0 ~ @.@.+.+.X.) ] { { { { { { { { { { ] ] ] ] D D D D D D ",
"{ { { { { { ( ] 1.6.9.r.r.r.r.9.6.5.5.5.5.O.o.@.#.&.-.&.@.+.+.Y O         O Y y.m.A.U.+.-       . . . .         . .       @ ! h.A.A.h.! @                                 O Y y.N.A.h.~ @         $ E @.&.;.:.;.-.&.&.*.w.9.6.5.5.5.5.6.9.r.r.9.6.1.{ { { { { { ",
"V V V V V h d V V V V V V V V V V V V N N V d V D ) o...E Y Q P O         O E y.m.A.U.+.-   . O O @ $ ; ; ; ; $ @ O O o   @ ! h.A.A.h.~ @                                 O Y y.m.A.h.~ @         O P ~ +.+.~ ! / ] ] ] { { C V V V V V D ] ] D V V V V V V h V ",
"d d d d d d d d d v k j j z z l b b l z j z v V D ) o.~ Y T Q U ; O O O O , ..h.A.A.U.@.1 O O - , 9 9 9 9 9 9 9 < , ; @ O , ..h.A.A.h.~ @                                 O E y.m.A.h.~ @         @  .-.@...~ W g N N V D D V d d d d h h b l l b d d d d d d d ",
"b d V V d d d d h h d v l z z l b b l j j l b h h g W Q T Y ..! 0 1 1 1 1 P +.h.A.A.U.@.8 ; P ! ..@.&.;.:.;.@...! U 1 ; O , ..h.A.A.h.~ @           o @ @ @ @ @ @ @ @ O O , ..h.A.A.U.+.;         @ ..-.@.+.+.o.) D V V D D D D D D D D V V D D D D V V D D V d ",
"D D D D D D D D D Z N V Z D D D D Z b d d b Z D D ) X...! ! ..~ P 0 ! ..! ~ @.h.A.A.U.-.Q P P W ..-.H.P.P.K.;.@.~ W U 0 9 0 ! y.m.A.U.+.;       . $ P Q Q W U U W ! ....Q ~ @.h.A.A.U.-.Q 8 o     ; @.:.#.+.+.X.) D D D D D D D D D D D D Z V d d N Z D D Z N d ",
"= = = = = = = 6 j j j j = = = = = = = = = = = 6 r p a P P Y ..+.+.+.+.+.! ~ @.h.A.A.U.-.Q U W ~ @.:.L.P.K.:.#.+.~ Q Y 0 9 0 ~ y.m.A.U.=.W 0 1 9 U ~ @.-.@...! ! +.@.-.@.~ ~ @.h.A.A.U.;.~ Q W W W ~ ;.;...W Y P 0 5 3 = = = j j = = = = = = = = = = = = = = = = ",
"j j j j j j j z z j j j j j = = = = = = = = % % $ $ ; ; ; 8 Y ..#.-.-.@.~ ~ @.h.S.S.U.=.Q Y ~ @.;.K.P.I.I.H.&.+.+...! W U E +.n.D.D.n.+.P 1 1 0 ! &.H.L.;.&.@.#.H.L.K.;...~ @.n.D.T.U.-.~ ! ....! ~ +...W T T 0 , 2 3 = = = = = = = = = j j = = = = = = j j j j ",
"N b b b b b b N b b b v l z z l v d d d d d d d d d d d d ^ ..@.-.-.@.+.! ! ..>.m.m.h.@.~ ! ..@.;.K.P.P.K.:.@.+.+.+.! W U Y ..y.m.m.y.! 0 9 0 Y ..-.H.L.:.&.@.#.H.I.I.H.#.+.+.>.m.m.y.+.! ! ..+.+.+.@.+.+.o.3.5.{ { 5.1.] D D D D D V d b b b d d v z z z z j j ",
"{ { { { { { { { { { { { { { { { { { { { { { { 1.5.5.5.5.1.O.*.-.;.-.@...! ! +.$.7.8.8.7.o.+.+.@.&.:.L.L.;.&.@.+.@.+.~ W U R | q.,.,.q.| R U W ~ @.;.L.P.K.;.@.#.H.I.I.H.&...!  .3.8.8.O. .~ +.+.+.o.3.5.1.1.7.7.7.5.6.6.5.5.5.5.5.5.1.{ { { { { ] D D ] { { ] D ",
"5.5.5.5.5.5.5.5.5.6.9.r.r.r.r.9.6.5.5.5.5.5.5.6.9.t.z.z.t.w.f.F.F.;.@...! ~ -.g.d.c.c.p.%.+.+.@.&.;.F.:.#.+.+.@.-.#.~ W U Q -.f.p.r.r.7. .! ..@.&.;.L.P.K.;.@.@.;.K.P.H.&...! ~ @.*.w.7. .~ #.-.@.o.q.r.r.w.f.f.p.r.r.r.r.r.r.9.8.5.5.6.9.r.r.9.6.5.5.5.5.5.5.5.",
"V V V V V V V V V V V V V V V V V V V V N V V V D ] ] ] T W ..@.@.+.~ Q ! ! ! ! ) ] ] ) W ~ ..@.-.;.;.-.@.+.+.#.:.;.+.W U Y Q ! ! W Z g W ! ..+.+.#.:.K.K.:.@.@.&.;.F.:.#...! ! +.X./ g W ..;.;.+.! ! W m / X.o.) H H ] { { D V V V V V D ] H D V N V V D D V V ",
"d d d d d d d d d v k j j z j l b b l z j z v V D ] { ) T Y ~ @.&.@.~ ! ..+.~ W g N N g W ! ..@.;.F.;.&.@.@.&.;.F.:.@.~ Y Y ~ ..~ W g g W Q ! ~ ..@.:.K.P.H.-...! +.;.:.;.@.~ Q ! W g g W +.;.:.#.o._ ] V R .. .m l v V D D V N V V V V h b l z z l v V D D V d ",
"d d d d h V V V h d d v z z z l b b l j j l v h V V V d T Y Q ! ! ! ! ! +.+.+.X.) D D / W ! ..#.:.F.;.&.@.@.-.;.F.:.#...Y P P Y Q W g g T E ..+.+.-.H.I.I.L.:.@.~ ! ..@.-.@.~ Q ! W g g W +.;.:.#.+.@...! ! ..o.) Z V V D D D D D D D D V V D D D D V V D D V d ",
"D Z N V ( ] D D D D V N Z D D D D Z b d d b Z D D D D / W Q Q ~ @.@.~ ! +.+.~ W g V D / W ! +.#.:.:.#.+.+.@.;.F.F.:.#...Y P P Y W W / )  .+.+.@.&.:.L.I.I.P.K.;...! ..+.+.+.! ! .. .R g W +.;.:.#.+.+...! ! ....^ N Z D D D D D D D D D D Z N d d V Z D D D D D ",
"= = j j j j 6 6 j j j j 6 = = = = = = = = = = = = = = 7 w P P Y Q ! Q ~ @.#.~ Y 0 8 9 0 E ~ @.;.F.:.#.+.+.@.;.J.F.:.#...Y T W Q Y f k k f Y Q ..;.K.P.I.I.P.K.;.@...~ ~ +.+.! W Y P 9 0 Y +.;.:.#.+.~ W 0 0 E E 7 = = 6 = 6 j j 6 = = 6 = 6 = = = = = = = = = = ",
"j j j u q 0 0 0 0 0 w w w 0 9 8 8 9 0 0 9 1 , 8 0 0 0 0 P P P Y ~ ..! ~ &.&.~ W P 0 P U W ~ @.;.F.:.#.+.+.#.:.J.F.:.#...Y T W Q Q W T 0 P U W ..;.K.L.P.P.L.K.;.@.+.+.+.+.+.! W T 0 9 0 Y +.;.F.;.@.~ W U U W Y 0 8 0 0 0 0 0 0 0 0 0 0 0 0 0 0 0 0 8 9 0 0 t r ",
"% % % % % % % % % & = = = = = = = = = = % % % % % % % & ; ; ; , 0 W ..@.-.&.~ Y 1 ; @ ; U ~ +.#.:.:.#.+.+.@.;.F.F.:.@...! Q Q E 0 4 & & 4 0 Y ~ @.;.F.K.H.:.;.&.@.+.+.+.+...~ Y 0 , ; , U +.;.:.#...! U 1 , 0 0 3 % @ @ % % % % % % % % % % % % % % % % % % % % ",
"= = j j j j = = j j j j j j j j = = j j j j = = = = j y t e 1 9 0 Q @.;.-.#.~ Y 0 1 1 0 Y ! ..@.:.F.;.&.@.@.&.;.F.:.@...! W Y P P 0 7 = 5 0 E ~ +.@.;.:.;.-.@.+.+.+.+.+.+...~ E 0 1 1 0 Y ~ &.&...! ! Y 0 0 Y T 7 = = = = = = = = = j j j j = = = = % % = = = = ",
"j j j z v v z j j z v V D D V N Z D D Z z j = 6 i d d d d g T U W ~ @.;.-.&.@...Y P P U W Q Q +.;.:.#.+.~ ~ ..@.-.-.@.+.! W T Y Q E k j d g W ~ ..+.+.@.-.#...! Q ~ +.+.~ Q Q Q Q W T U W ~ #.-.@...! W U U W E x j = = j j j j j z v d d v k j j j = = j z v d ",
"d v l l b d d V D D V V D D V d d V D Z l j = 6 d d d d d g W Q Q ~ @.;.-.-.@...! W T T Q Q Q ..;.F.;.&.@...! ~ +.@.-.@.~ Q Q ! .. .x z v g W ! ! ~ +.+.@.@.+...! ! +.+.~ E p p 0 T g g W ~ #.-.@.+.~ W T T W W g v z j j z v d d b d d d v k j j j j j j k v d ",
"d d d d d V D D V V h V V h d v l z z j j j j j j z z z v g W W T W @.-.-.&.@...! Q Q Q Q Q Q ..;.K.J.;.@...! ! ..@.-.&.~ W U Y Q W g d d g W Q Q ! ..+.+.+.~ Q Q ~ +.+.~ Y 0 9 0 T g g W ~ #.-.@.+.+...Y U W E x z v b d d d h d d d v l j j j = = = = j j z z ",
"d d d d d V D ] { { ( ] { ] C V V v z z j j = y d v z z v g W Q T Y ..@.@.+.~ ! ! Q Y Y Q ! ! +.;.F.J.:.@...! ! ..#.:.-.Q P P Y Q W g d N d T P P Y Q ~ +.+.~ ! ..+.+...! Y 0 9 0 T g g W ~ @.&.@.+.+...R g T f k j z l b Z D D V d d v k j j j j j = = j k v b ",
"d d d V D D D D D H { 1.5.8.9.9.{ Z p 5 y j = y i d d d d g W W T Y ..+.+...! Q Q Q Q ! ..@.;.;.#.#.:.:.#...! ! ..@.-.@.W U W Q Q W g V D / W W T Y ~ @.&.&.@.+.+.+.+...E 0 9 9 0 T g g W ! +.+.+.+.+...^ g 9 5 k z v ^ ..%.w.9.2.H l j j j j j j j = = j j j j ",
"d d d d d d d v z z v D 1.8.z.z.8.{ Z u * % = j j z v g T T I P P Y ..+.+...! W T P P W @.@.Q Q @.;.F.:.#...! ! ..+.@.+.! Q Q W g d d d b d d g T Y ~ @.-.&.@.+.+.+.+...Y P P P P f g g W Q ! ~ +.+.+.../ d y = j j d / $.,.d.z.8.{ M j = & = j j j = = j j j j ",
"d V D D V h h b z j j k v ( 6.6.G d d i * % = = j j z l v d k u f E ..+.~ ! ! W T P P T Q ! Q ~ @.;.F.:.#...! ! +.@.+...! W Y T g V D D V h h d T Y Q ..&.&...! ..+.~ Q T 0 9 9 g d d g T Y ..+.+.+.+.../ i y = j j t a ! @.@.o./ b b u * % = j j j j j j j j z ",
"d V D D D D D Z l j = = j k b b l k f w 7 = = y d d b g W W g g W ~ #.-.@...! W T 0 0 0 0 U W ..;.F.;.-.@...! ~ @.&.@...E Y W W g V D D D D D / T Y W ~ &.-.@.+.+...! W T 0 9 9 g h d g f Y ..+.+.+.+...^ v k j j j = 7 w Y ....! R k j = = = = j j j j j k v b ",
"d V D D D D ] D V v k j = 3 5 9 0 w 7 = = = = y d h h g W W g g W ..;.:.#...Y P P P P 0 9 0 Y +.;.:.#.+.+.+.! ! +.@.+...! W T T g V D D D D G / W Q Q ~ &.-.@.+.+.+.~ Q T P P f g V D Z T Y ..+.~ Q Y T g g W R k j j = = & 5 1 > 2 = = j j j j j j z j z z z z ",
"d d d V D D ] D V d d v k j = = = = j j j j j j v g g g W W g g W ~ &.-.@.~ Y T W E p p 0 Y ~ @.:.:.@.@.&.@.~ ! ..+.+...! W g d d d d V D D D / W ! ..@.&.&.@.+.+.+.+...Y P P T g h N g f Y ..+.+.~ Y f k k f T g v k j j u f 0 7 = j j j j j j j z v v l l v b ",
"d d d d b V D D D D D D V d d v z j z l v v j j v d d ^ ....^ g W ~ #.#.~ W U T g d d g W ! ..#.:.:.#.@.-.#.~ ! ..+.~ ! ! W g d d d d g T T / / W ! ..@.-.-.@.+.+.+.+...E P P T g d d g f Y ..+.~ Q Y f k x R W g d d d b g W W g d b b d v z j j z v d d b d d ",
"j j z z z z z z z l b v k j j j j k f f k j = = j l v g W Q T T W ~ +.+.~ W Y T g d t p a E ..#.;.:.;.-.-.&.@.+.+.+.+...! W T 0 9 0 E Q Q Q ! Q Q ! ..@.-.&...~ +.@.+...! W T P T T g g T E ..+.~ Q Y f k k f T d v k k b d d d d v l l b v k j j j j j j j j z ",
"b b b b N N N N N V V b l z z l b d d R W R x z v N N g W Q Y Y Q ..#.@.~ Q Q Q Y T d g T W @.&.@.@.-.;.;.-.@.+.~ ! ..+.~ W T T W Q ! ! ! ! ! ! Q ! ..@.-.&.@.@.&.&.@.+.! Q Q Q Q ! ! ! Q ! ....! Q Y T g b d d h b z x W W R d h V N N V V N N b v l z z z z z ",
"{ { { { { { { { { { { { { | | | | | | O.o...^ Z { | | O.o.+.+.+.+.@.-.#.~ ! ..+.+.o.O._ ! ! +.@.+.@.;.F.F.:.;.@.~ Q ! ~ +.o.O.O.o.o.O.O.o.@.-.#.~ ! ..@.-.@.~ ! +.@.-.@.~ Q !  ._ | | O.o.+.~ ! Q ! +.+.+.o.O.| | | | O.*.-.@.o._ | | | | | | | | { ] ] { { { { ",
"5.5.5.5.5.5.5.5.5.6.9.w.*.&.&.&.&.-.;.F.K.L.L.L.L.L.L.L.L.L.L.H.;.-.-.@.~ ~ ;.H.K.K.G.;.@.+.+.+.+.@.;.F.F.F.;.#.~ ~ @.-.-.;.:.G.K.L.L.L.L.L.L.G.#.@.&.-.@...! ! ..@.-.@.~ ~ -.F.L.L.L.L.L.G.#...! ~ -.:.:.:.:.:.:.:.:.:.:.:.:.:.:.:.:.:.-.&.&.&.&.%.3.5.5.5.5.5.",
"( D V V V V V V V V V V b b b b V g T Y Q ~ +.@.@.@.@.@.@.@.@.+.+.@.-.-.@...~ ! ~ ! Y Y Q ~ +.+.+.@.&.;.F.F.F.;.@...~ ! ! ! ! ~ +.@.@.+.~ ! ! ~ +.@.-.-.@...! ! ..@.-.&...! ! ~ +.+.~ ! ! ! ! ! Q Q ! W R V V / o.+.~ W R R W ! ! ! _ | { ] ] D V b V V V V V V ",
"d d d d d d d d d v k j z z z l v d T P U Y W ..@.$.) ^ ..+.~ ~ +.@.-.-.@.+.+.+.+...! ! ..@.-.#...~ +.#.:.J.J.:.@.+.+.+.+.+.+.@.-.;.:.;...! ..@.&.-.;.-.@.+.+.+.+.#.:.:.#...! ! ....! ! ....! Q Q Q Q W g V D ) o.+.~ ! / D V R W ~ +.X./ b l z z l v V D D V d ",
"d h h h V V b d h d d g T I I f d g W ! +...^ ^ X...! ! +.@.&.-.-.-.-.-.@.@.-.-.-.&.@.+.+.#.:.;.@.+.+.#.;.F.J.:.#.+.~ ~ +.#.;.F.F.F.;.;.-.-.-.;.-.;.F.:.#...! ~ @.;.F.F.;.#.~ W / / ! ! ! ! ! ! ! ! ! W / _ $.&.@.@.@.@.@.@.+.+.+.+.+.o.) D D D D D V V D D V d ",
"D D D ] { { D D D / W Q Q Q Q W / / W ~ @.@.~ W / _ $.-.-.&.@.&.H.L.H.F.F.F.F.;.#.@.@.@.&.;.F.:.@.@.&.-.;.;.F.F.F.F.F.:.F.F.F.K.L.P.P.L.L.L.P.P.P.P.P.L.;.@.~ ~ @.:.L.P.K.;.@...! ..@.-.-.&.@.+.+.@.&.@.....@.-.-.;.:.:.;.&.@.+.+.+.+...! W g d d V D D D D D D ",
"t p a T T P 0 0 P T T U U T T T T T T Q +.+.~ ! ! ~ +.&.:.:.@.#.:.:.#.@.-.;.F.F.F.F.F.F.F.F.F.;.@.+.+.@.;.K.L.I.I.H.-.@.-.;.-.;.F.F.;.-.@.#.:.K.L.L.K.F.;.-.-.-.-.;.F.K.F.F.;.&.@.&.H.H.+...@.;.:.:.;.-.-.&.@.@.-.;.;.#...~ +...W T T Y Q ! ! W Y T T P 0 5 7 = ",
"p p T Y Y T T Y Q ! ! ! ! ~ @.;.:.F.F.H.L.P.P.P.L.P.P.P.P.L.;.;.L.H.&.@.&.;.:.K.L.P.P.L.:.-.@.@.@.@.@.#.:.K.L.I.P.L.;.-.-.-.-.:.L.L.:.-.-.;.F.K.H.F.F.:.#.@.@.-.H.L.K.F.F.K.L.H.;.;.:.F.F.;.;.;.:.F.F.F.F.F.F.K.L.L.:.-.@.+.@.@.@.+.~ ~ +.@.-.&.@.+.+.+.~ Q Y T ",
"L.L.L.L.L.L.L.H.;.-.-.;.:.H.L.P.P.P.P.P.P.P.P.P.P.P.P.I.P.P.P.P.P.L.;.-.-.;.F.F.K.F.;.:.L.L.H.F.F.H.L.L.K.F.F.K.F.F.F.:.;.;.:.F.F.F.F.F.F.K.L.L.K.:.;.;.:.H.L.L.K.F.F.F.F.F.;.;.-.-.@.@.@.@.@.+.@.-.H.P.P.P.P.P.P.P.P.P.P.L.H.H.L.P.P.L.P.P.P.L.H.F.F.F.F.F.:.:."
};
