/* XPM */
static const char *aqrust07[] = {
/* columns rows colors chars-per-pixel */
"128 128 53 1 ",
"  c #170F07",
". c #1F170B",
"X c #131313",
"o c #1B1B1B",
"O c #2F1B0B",
"+ c #2B230F",
"@ c #372313",
"# c #332B13",
"$ c #3F2B1B",
"% c #2F371F",
"& c #232323",
"* c #272727",
"= c #2F2F2F",
"- c #373F27",
"; c #373737",
": c gray23",
"> c #432F1B",
", c #43331B",
"< c #4B371B",
"1 c #533F1F",
"2 c #473323",
"3 c #4F3B23",
"4 c #4F3B27",
"5 c #4F3B2B",
"6 c #533F2F",
"7 c #3F472B",
"8 c #5F4323",
"9 c #5B472B",
"0 c #474F33",
"q c #574333",
"w c #5F4B37",
"e c #53573B",
"r c #6B4727",
"t c #67533F",
"y c #434343",
"u c gray28",
"i c #4B4B4B",
"p c gray31",
"a c gray34",
"s c #5B5B5B",
"d c #6F5743",
"f c #775F4B",
"g c #5B6347",
"h c #676B4F",
"j c gray39",
"k c gray42",
"l c #6F6F6F",
"z c #777777",
"x c gray50",
"c c #838383",
"v c #8B8B8B",
"b c #939393",
"n c #979797",
/* pixels */
"czxvncvzzbvxlslzxvbvzvzxzxclkzzzzzxvvzvzzzxxcxxzzzzzxjxzjzxzkzzcczxvncvzzbvxlslzxvbvzvzxzxclkzzzzzxvvzvzzzxxcxxzzzzzxjxzjzxzkzzc",
"sijskkjaikjuiypppskjajiuiijyiiiiaipsjaiaiijssapapppaa:paiiuiayijsijskkjaikjuiypppskjajiuiijyiiiiaipsjaiaiijssapapppaa:paiiuiayij",
"jsklzlksszkskasaakzkjkapskkiasajaipjkssssskjkjiapassapajjsaasyiljsklzlksszkskasaakzkjkapskkiasajaipjkssssskjkjiapassapajjsaasyil",
"kklzxzjajjzllsjjlzjzjlsjlxkssjjkkjlljjkajalkzjiasssjsaskjjsjjaaxkklzxzjajjzllsjjlzjzjlsjlxkssjjkkjlljjkajalkzjiasssjsaskjjsjjaax",
"lslkclkislljjjjkxkllsljjlxxjjsjjjkzkkjkissslljpjjjsjjpjkjjjjjasjlslkclkislljjjjkxkllsljjlxxjjsjjjkzkkjkissslljpjjjsjjpjkjjjjjasj",
"jalskzjasklsjjsjxxklajsjlxzjjsjjlkxxzjkasaaklksjjjssjakssjajjsaljalskzjasklsjjsjxxklajsjlxzjjsjjlkxxzjkasaaklksjjjssjakssjajjsal",
"ljljlljjjjlsjjsjxzjlslsklxzjjjsjzzxzzksjjskjljsjkjsjjpjksssajsjkljljlljjjjlsjjsjxzjlslsklxzjjjsjzzxzzksjjskjljsjkjsjjpjksssajsjk",
"zljskljjjjjasjjjxzjjsjjzlzzjjjaslzxzkjjjjkljjpsjsssjjuajjajissljzljskljjjjjasjjjxzjjsjjzlzzjjjaslzxzkjjjjkljjpsjsssjjuajjajisslj",
"zljajlsssjjsjjjsczjjskjzzlzajssjlkclkajsskjjjajsajasauiajjlpssljzljajlsssjjsjjjsczjjskjzzlzajssjlkclkajsskjjjajsajasauiajjlpsslj",
"lkjijsissjkssjsjlzjkakkzzkkssssslslzjisssjjjkjjsjkiaaipsjjljjjlklkjijsissjkssjsjlzjkakkzzkkssssslslzjisssjjjkjjsjkiaaipsjjljjjlk",
"jjlasasksjjjjjskkjajskzzklkssjsjljkzjpsljsjsjlkkklasjasjjsljjklljjlasasksjjjjjskkjajskzzklkssjsjljkzjpsljsjsjlkkklasjasjjsljjkll",
"slljsjklsjjjjjjjlaasklxzjkjjjjklkjllksjllsjsjklljjsjjssjjkzssjllslljsjklsjjjjjjjlaasklxzjkjjjjklkjllksjllsjsjklljjsjjssjjkzssjll",
"jlljjjjjasjjsjsjlasjzlzzjjsjsskkjsjljjjjlsjjkkkkjjsjjssjkxlssslljlljjjjjasjjsjsjlasjzlzzjjsjsskkjsjljjjjlsjjkkkkjjsjjssjkxlsssll",
"ajlssjjjajjjsasjzpajzzllsjpsssjjkajkasjjjjjkklkkjjjjjajskxzjsaklajlssjjjajjjsasjzpajzzllsjpsssjjkajkasjjjjjkklkkjjjjjajskxzjsakl",
"pjjpssjksjsjjjkzlajkzzklsjisjssjkpjjpjsjsssllljjjjjjjsjsjxxjjaklpjjpssjksjsjjjkzlajkzzklsjisjssjkpjjpjsjsssllljjjjjjjsjsjxxjjakl",
"ijspjsskpapjjjlxljllllkjskajjjsjjpjkjjsskpazlljjsjjkjsjjjxzjjskjijspjsskpapjjjlxljllllkjskajjjsjjpjkjjsskpazlljjsjjkjsjjjxzjjskj",
"askjjjskiaisjjkxxjlklljssjjjjjsjssskkjjsjiaxzksjssjjjsjjsxzjssjjaskjjjskiaisjjkxxjlklljssjjjjjsjssskkjjsjiaxzksjssjjjsjjsxzjssjj",
"asjjjjjlpasjsjlxzjklkkjjjssjjsjjjajkjjjjjaszzkassssjjjjsszzasakjasjjjjjlpasjsjlxzjklkkjjjssjjsjjjajkjjjjjaszzkassssjjjjsszzasakj",
"pjjsjsjlssjjsllzzjkljjjjjpjjasssjpkjsjsjjasjzjsjjssjssjakjzsjakjpjjsjsjlssjjsllzzjkljjjjjpjjasssjpkjsjsjjasjzjsjjssjssjakjzsjakj",
"ajjsasjzpasjjzlzlskljjjjjjjasjpsjakssjajjsazkjjjjjssspaslzkjlsljajjsasjzpasjjzlzlskljjjjjjjasjpsjakssjajjsazkjjjjjssspaslzkjlslj",
"ijkjsjzzassjkzzklajksjsjjkjjkliajiskjajajskjljsjjjasjaskzjljlskjijkjsjzzassjkzzklajksjsjjkjjkliajiskjajajskjljsjjjasjaskzjljlskj",
"iskklzvzjzjjzzzlljllsjjjjlkjkzjjjisjjjlpjjzlzsjjkjjjkklzxkzjzjzliskklzvzjzjjzzzlljllsjjjjlkjkzjjjisjjjlpjjzlzsjjkjjjkklzxkzjzjzl",
"askzzxbblvlzzxxzllzlklllklzlkcklkssklzckllczzjlkllklzlzxcljcclvxaskzzxbblvlzzxxzllzlklllklzlkcklkssklzckllczzjlkllklzlzxcljcclvx",
";:uyyajsispppiiuuuuiuuuuyyu:aay:y=:uuupuipappiiyuuuuy:yasupsiuay;:uyyajsispppiiuuuuiuuuuyyu:aay:y=:uuupuipappiiyuuuuy:yasupsiuay",
"++**+&&&+***@&&.=@++@+&@+@&*+*+#@++@#@&##@***+&X$&*#&++&+@@+@+++++**+&&&+***@&&.=@#+@+&++@&*+&+##@+@#+&##@***+&X$&*#&++&+@@+@+++",
"$$$$$=*%#===$##.2$$$$$$>#$=$$=$$*##=2$==$%=;=$&.5@$$*#$=%$$$>###$$$$$=*=#===$##.2$$$$$$>#$=$$=$$*##=2$==$%=;=$&o5@$$*#$=%$$$>###",
"2:222;%$22;22%;+q222222<$32;;;22;25522;::$2-:-%oq2>2;$;;22222>222:2<2;%22$;22%;+q222222<$32;;;22;25522-::$;-:2%oq2>2;$;;22222>22",
"6uu6::2:225y45:+w3345426265y:55666y58::yy35y615*w323:2:53255y2256uu6::2:225645:#t3355426265y:55656y58::yy45y615*w323:2:53225y225",
"ipiqu66u6qqu660#t8q8q5ww5wq7yu9iiqppwu6pe556uq6*d618y5yq86qww566ipiqu66u6qqi66y*t8q8q5ww5wq7yu9iiqppwy6pe566uq6*g618y5yq86qww566",
"ppeqyequiwqy59q#d8q96qpw6wqu5qqippppwuqpeqeqi68#f68qy36q9qrpwqwwppeqyequiwqy59q#d8q96qpw6wqu5qqippppwuqpeqeqi68#f68qy36q9qrpwqew",
"qper5q86r9quq86#f66969ppqq6q566wippwq5qqpiwq658@dq866456qqrppqipqpe95q86r9quq86#f66969ppqq6q566wippwq5q0piwq658@dq866456qqrppqip",
"dqpq56888rqqq88$$+#$$$==#$****$*jqper56iw89quq8$#$+#*#**##======dqpq56888rqqq88$$+#$$$==#$****$*jqper56iw89quq8$#$+#*#**##======",
"dqpq6yqe886qqq9ffttddhkjshjdhsd=j9iw85uiw6896qejjfdhsggsddjdsjj=dqpq6yqe886qqq9ffttddhkjshjdhsd=j9iw85uiw6896qejjfdhsggsddjdsjj=",
"diwrquqi68yy6q6qr866wwpe0qyq60i$s9qe96uqe889qqeeuq6qq66uqww86yi=diwrquqi68yyqq6qr866wwpe0qyq6ui$s9qe96uqe889qqeeuq6qq66uqww86yi=",
"dqeq60qy88u68566e46qewie695q868$s8qi660qi8qqqwuuqq6qq89que9886u=dqeq60qy88u68566e46qewie695q868$s8qi660qi8qqqwuuqq6qq89que9886u=",
"dqi586qu8qyq86qww56qeeui5q55888$s4qy59qq786qqwu0qq66q884qpp884u=dqi586qu8qyq86qww56qeeui5q55888$s4qy59qq786qqwu0qq66q884qpp884u=",
"tq72886q455q8qre96qqeeuq685y886$s1qy684qu56wwwyq6qqqq688qpiq98u%tq72886q455q8qre96qqeeuq685y886$s1qy684qu56wwwyq6qqqq688qpiq98u%",
"t6yq88695526q6rppquqeuy6696y698$d56qq886q55eeqyq666qq8988peq68q#t6yq88695526q6rppquqquy6696y698$d56qq886q55eeqyq666qq8988peq68q#",
"t6qq68qr455y66qpiququu66666yq68#s56uq98yy55pe9566666q8665pe558q$t6qq68qr455y66qpiququu66666yq68#s56uq98yy55pe9566666q8665pe558q$",
"tyy6q568456y6qqiwyyqyy666566558#s5yy666y6466i6566688666586i563q#tyy6q568456y6qqiwyyqyy666566558#s5yy666y6466i6566688666586i563q#",
"ty68555u456y6wqiq6yqyy666684565#s5u6865yq55iq866666865569iq6r8q@ty68555u456y6wqiq6yqyy666684565#s5u6865yq55iq866666865568iq6r8q@",
"ty6856ww55566equu40qy6666q886r2+s2yy85656566065666486559r60685q#ty6856ww55566equu40qy6666q886r2+s2yy85656566065666486559r60685q#",
"w5666re95q45quuyq56976666668684@a276859256qqy555668668qrw6u5q6q*w5666re95q45quuyq56976666668684@a276859256qqy555668668qrw6u5q6q*",
"w25668ii6u66q0uy6566566616665q3@a22556r5y5uqy51555456468q67qq6u*w25668ii6u66q0uy6566566616665q3@a22566r5y5uqy51555456468q67qq6u*",
"t5y55qii0u66q0y6656856665865qq4@a25y6686y6uqy6q56656655uq6ye96u*t5y55qii0u66q0y6656856665865qq4@a25y6686y6uqy6q56656655uq6ye96u*",
"a5y5qqiqyuqqqyy6666656654455i95#s55y55u5yyuq06y6566606qq656ii5q&a5y5qqiqyuqqqyy6666656654455i95#a55y55u5yyuq06y6566606qq656ii5q&",
"t5y6uqiq7yqqqy65666545654456ii5*a55y6qq45:uq06-64566q9i98yyiu85+t5y6uqiq7yqqqy65666545654456ii5*a55y6qq45:uq06-64566q9i98yyiu85+",
"@@#*==*=+*=*#**@t66534553568uu5**@@**=$@@#****+&d346uqiiqy5iq55&@@#*==*=+*=*#**@t66534553568uu5**@@**=$@@#****+&d346uqiiqy5iq55&",
"tdttjssdtajsdpa@t45665555658iq6sttdttjjddtasddp*d858uiiuq:6iq5qttdttjssdtajsdpa@t45665565658iq6sttdttjjddtasddp*d858uiiuq:6iq5qt",
"4884iq50365u555#t386:y55545yiqyy64816iu544y6q65*t438yuiq5256uy644884iq50365u555#t386:y55545yiqyy64816iu544y6q65*t438yuiq5256uy64",
"3544iq5y16yq857#t416-54556qq:u:y53444iq65355y54*t535y6iq825yq8443544iq5y16yq857#t416-54556qq:u:y63444iq65355y54*t535y6iq825yq844",
"3554:u5;365y555@t33522134yu6yq5y53544iq55365yq5*p55yy37u52:663833554:u5;365y555@t33522134yu6yq5y53544iq55365yq5*p55yy37u52:66383",
"2256y65y365y545#t3482:1145uu663:535215y5526qq55*e226y4y685:5y4112556y65y365y545#t3482:3345uu563:535215u5526qq55*e226y4y685:5y411",
"25585055555:234+t3555:5435uy5y3y:2258y65836u68:*p:45535054:5:33425585055555:234+t3555:5435uy5y3y:2258y65836u68:*p:45535054:5:334",
"358q5y::556:554+t4554:5533uq5:35525485y5855uu6:&t:24y<5y2355:355358q5y::556y554+g4554:5533uq5:35525485y5855uu6:&t:24:<5y2355:355",
"35865::53y6y5:5+a552452534u65:35535865y2656uy6:*t:56:25-2334522535865::53y6y5:5+a552452532u65:35535865y2656uy6:*t:56:25-23345225",
"226q5::55y6y5-5@t4543224237y4525535865;663yu652&t5y6:25:53324222226q5::55y605-5@t4543224237y4525535865;663yu652&t5y6:25:53324222",
"56654525256y522@t345335821y65:36:22yq5:y55yu682+t214524:5535822256654525266y522@t345335828y65:36:22yq5:y55yu612+t214524:55358222",
"6y485:2232y632:@t4353348285:::24556652:uu265y52&t333:2::552482245y485:2232y632:@t4353348285y::24756652:uy265y52&t333:2::55248224",
"5uy6::2:225545:+t3345426265y:24556y48::yy32y615&t323:2:53222y2245uy6::2:225545:+t3345426265y:24556y48::yy32y615&t323:2:53222y224",
"yyy6:25:455y22:&t3535266265-::3yy5uy6:5u6225:42&t323:2:532466222yyy6:25:455y22:+t3535266265-::3yy5uy6:5u6225:42&t323:2:532466222",
"yy65;:2::55;235+t32322y4264:-55yyyyy6:5y6565:23+t235;$25348y4256yy65;:2::55;235+t32322y4264:-55yyyyy6:5y6565:23+t235;$25341y4256",
"5y63-532335:232+t22324yy452:2225yyy65-5:y:55-$3+t222-$$2441yy5yy5y63-532335:232+t22324yy452:2225yyy65-5:y:55-$3+t222-$$2441yy5yy",
"t:y52232332:533+@+++@@**+@&&&&@+a5y73$2:5332:53@+@++&o&&++***&**t:y52232332:533+@+++@@**+@&&&&@+a5y73$2:5332:53@+@++&o&&++***&**",
"t:532:y5232:533tdwwttdsaagapeaw+a<-y22;57<32:54ttdwwpptatttsaaa*t:532:y5232:533tdwwttdsaagapeaw+a<-y22;57<32:54ttdwwpptatttsaaa*",
"t5732;2:23:;222252222:y7:5;52:2*a3:532:5:2<;;2522322;22:5y4y7-:*t5732;2:23::222252222:y7:5;72:2*a3:532:5:2<;;2522322;22;5y4y7-:*",
"w5:22;2:<5:2<225522555;y;2-;22:+p22:42;5;2<:2<222:222<22;yy-y2;*w5:22;2:<5:2<225522555;y;2-;22:+p22:42;5;2<:2<222:222<22;yy-y2;*",
"w5;$222=22;:222y422:y4:523$2<2<+a<2:2225;22;;<22552222<22y::52;&w5;$222=22;:222y422:y4:523$2<2<+a<2:2225;22;;<22552222<22y::52;&",
"w2;2<22;22-2223yy252yy5:>22;<<<@p$2=$<22:222;223y32522<<2y52:2-*w2;2<22;22-2223yy252yy5:>22;<<<@p$2=$<22:22-;223y32522<<2y52:2-*",
"w2:5<<2;$2$2221y:2:2y:2:232;232@p>2;2<<23$2$2223yy2:22222y52:<2+w2:5<<2;$2$2221y:2:2y:2:232;232@p>2;2<<23$2$2223yy2:22222y72:<2+",
"e2:222;;222;223y7-:2y52;222;22>+p22;-2221$22;225y:;:22222;:2=>2+e2:222;;222;223y7;:2y52;222;22>+p22;-2221$22;225y:;:22222;:2=>2+",
"w;;222;2>22;22:y5;:2y52;<222222+p$;;22223222;255:5;;2>223:52;>5+w;;222;2>22;22:y5;:2y52;<222222+p$;;22223222;255:5;;2>223:52;>5+",
"w:2<22;-222;255;:;:2-:2;>%2222>op$;2<222:$22;255:52;-22232:2;22+w:2<22;-222;255;:;:2-:2;>%2222>op$;2<222:$22;255:52;-22232:2;22+",
"q;;222%;2222;:3:52;3:52;<$2$22$op$;-22255$2222:5;:>-222352:;;22+q;;222%;2222;:3:52;3:52;<$$$22$op$;-2225522222:5;:>-222352:;;22+",
"q%2222%22-<>2::2;>;32;;;2$;223$+i$%;223:32-22-::;22-222352=;22:&q%2222%22-<>2::2;>;32;;;2$;223$oi$%;223:32-222::;22-222352=;22:&",
"q$$223$;2:<<2::2;2;52;;222;$23>+i$$222<::2:222;;;2222$2:52;;-2:&q$$223$;2:<<2::2;2;52;;222;$23>+i$$222<::2:222;;;2222$2:52;;-2:&",
"q$;22<2;-;222:72=>252=;;2,;22:$+i$$;2$;::;:222;;--22;25522;%-$-&q%;22<2;-:222:72=>252=;;2,;22:$+i$$;2$;::;:222;;;-22;25522;%-$-&",
"w22>222:522>22;2,;22222%-22;55$+p=2;255:5;;222;;2222;2:2<2;$22$ow22>222:522>22;2,;22222%-22;55$+p=2;255:5;;222;;2222;2:2<2;$22$o",
"w22222>:;$2>22=$22$2>22$22$<:22&i22;-:2:;-;222;-2222:2::5;;$=$$.w22222>:;$2>22=$22$2>22$22$<:22&i2>;-:2:;-;222;-2222:2::5;;$=$$.",
"++o++o+o&o++++&+w$$2$$2$=22>::2&+O+oo*&o&+&&&+oow222;:::2;22;2-o++o++o+o&o++++&+w$$2$$2%=22>::2&+O+oo*&o&+&&&+oow222;:::2;22;2-o",
"eeiqqwtptwtwtwp+w>23$$<2;22$::;pwwwweapptwpapwuow2>2;::-2=;>;;2eeeiqqwtptwtwtwp+w>23$$<2;22$::;pwwwweapptwpapwuow2>2;::;2=;>;;2e",
"2>=$$232;2<$22;ow22<$$2>=2>>:;;;2>>>2:;2;$-=:2%ow>>2;2:;2%2>$22>2>=$$232;2<$22;ow22<$$2>=2>>:;;;2>>>2:;2;$-=:2%ow>>2;2:;2%2>$22>",
"222>2<22;$;2-==+e>$;$>$>$2$>:-=;2>22$:-2;>2;2<%oe>>>;>-;2$$>>><>222>2<22;$;2-==+e>$;$>$>$2$>:-=;2>22$:-2;>2;2<%oe>>>;>-;2$$>>><>",
";22>2<22%22>;;$Oe$22$$$>>$$$-;$;=>2$>=;2%$22-2$ow>>>;>;22%=;2$>>;22>2<22%22>;;$Oe$22$$$>>$$$-;$;=>2$>=;2%$22;2$ow>>>;>;2<%=;2$>>",
";$=$$;2>=;22;=-Oq$;2$22>>$2#;22==$$$2;2>=$22;$$ow$>>=>2-2$=,->>>;$=$$;2>=;22;=-Oq$;2$22>>$2#;22==$$$2;2>=$22;$$ow$>>=>2-2$=2->>>",
"-$-2222$=::$2%$Oq2::$-2$>2<$%$$-=$$><2-$=$>2=$>+q$$$=$2;$$=2;>22-$-2222$=::$2%$Oq2::$--2>2<$%$$-=$$><2-$=$>2=$>+q$$$=$2;$$=2;>22",
";>22;2<==;;>$#$+w<;;$;$2$>2$%=$=2$>222;==$-2=22+e$$$=$2=#>22%>$2;>22;2<==;;>$#$+w<;;$;$2$>2$%=$=2$>222;==$-2=22+e$$$=$2=#>22%>$2",
";$;2:;2=%:-$$%=+w2:-=;>$$$;$$=$$2>><22==$$;--2=oq=>>=$2=$>$$=$$2;$;2::2=%:-$$%=+w2:-=;>$$$;$%=$$2$><22==%$;--$=oq=>,=$2=$>$$=$$2",
"2>;;;;2==;-$-%=+q;:-=;>$$22$$=$2=$$;2$===$;--2%oq$>>$$$=2>>$=#$;2>;;;;2==;-$2%=+q;;-=;>$>22$$=$2=$$;2$===$;--2%oq$>>$$$=2>>$=#$;",
"=2;;;-$*==;;2$=ow2=;=;$>2;2$$=$2=$22$$=*=$--;$#.w$$>=$$=$>>==$$;=2;;;-$*==;;2$=ow2=;=;$>2;2$$=$2=$22$$=*=$--;$#.w$$>=$$=$>>==$$;",
";$;$;->#$;2>$$$op2;2$=$$<;;$$$$$=2;>>$=#$>$;2>*ow>$>=$==$$$=%$$=;$;$;->#$;2>$$$op2;2$=$$<;;$$$$$=2;>>$=#$>$;2>*ow>$>=$==$$$=%$$=",
"=$;$=;$%=$=$>>$op;%=$=$$-;;=>$$>;2;;2==%=$$%=>%oq$$>=$=$$$$==$$;=$;$%;$%=%=$>>$op;%=$=$$-;;=>$$>;2;;2==%=$$$=>%oq$$>=$=$$$$==$$;",
";$=$;2>%=$=$$>$+p;$=$=$22;-=$$$$=;;;2=$%=$-$=$$ou$$$=#==$$$*=$$$;$=$;2>%=$=$$>$+p;$=$=$22;-=$$$$=;;;2=$%=$-$=$$ou$$$=#==$$$*=$$$",
"2-=$$=$$=$=$$$$Op-$=$$$-2;-$$$$$=;;-$==$==2$=#$oq$$$=@*$$$$#$$=$2-=$$=$$=$=$$$$Op-$=$$$-2;-$$$$$=;;-$==$==2$=#$oq$$$=@*$$$$#$$=$",
"=$=$$=#$$$=$$$$.p-$=$$%--==$$#$$=$;->*$$$>$$=$$.q$$$*@##$$>#=$=$=$=$$=#$$$=$$$$.p-$=$$%--==$$#$$=$;->*$$$>$$=$$.q$$$*@##$$>#=$=$",
"i>=@$*#$$$=$#$#Ooo.o.+ooooo.....i$=;$##$$$>$=$$O.O..o..o..Ooooooi>=@$*#$$$=$#$#+oo.o.+ooooo.....i$=;$##$$$>$=$$O.O..o..o..Oooooo",
"q=2>*==$$$$=%$$qwqqqqwpiueuuuuq.i$%=%#=%=$$$=%$qqw6quuuuqwwpiui&q=2>*==$$$$=%$$qwqqqqwpiueuuuuq.i$%=%#=%=$$$=%$qqw6quuuuqwwpiui&",
"q%=$%=$=$$==$%$$=$$$$=;==2=%$=$oi$=$>%=$=#$==$$$$>$$=$$==;$;=%=&q%=$%=$=$$==$%$$=$$$$=;==2=%$=$oi$=$>%=$=#$==$$$$>$$=$$==;$;=%=&",
"q$=$$=$=$$=$$$#$2$#$22==*$*=$$=+u$$=$$=$*$$=%$##$=@#$@$#%;;%=@=&q$=$$=$=$$=$$$#$2$#$22%=*$#=$$=ou$$=$$=$*$$=%$#$$=@#$@$#%;;%=@=&",
"6$*#$$$*$$*=$#$-$#$=;$=$#>+#$@$.u@$=*$#$=$$=%$#$2$#$$$$$$;==$$=o6$*#$$$*$$*=$#$=$#$=;$=$$>+#$@$.u@$=*$#$=$$=%$#$2$#$$$$$$;==$$=o",
"6$=$$@$=@#*%$#$;;$%$;;%=@%#*$$$Ou@$*+$$$=@#*%$$>=$$=$$$$$;=#=@%o6$=$$@$=@#*%$#$;;$%$;;%=@%#*$$$Ou@$*+$$$=@#*%$$>=$$=$$$$$;=#=@%o",
"q$=$$$#=+###$$>==$=$==$=$$%=$$#.u@$=$$$#$##+#$$>;=$=$$$$$;=$=@$.q$=$$$#=+###$$>==$=$==$=$$%=$$#.u@$=$$$#$##+#$$>;=$=$$$$$;=$=@$.",
"y#=%$$**@@#*$$$==%=$==$*@$$*#$@.y##%%$$$>@##*##%====*$%#$*=$*@$.y#=%$$**@@#=$$$==%=$==$*@$$*#$@.y##%%$$$>@##*##=====*$%#$*=$*@$.",
"6**$#$=*@@**@#=====@==$*@*$#$#$.y@**#$#$$@@#*@$$==*=*###$=$$=@$.6**$#$=*@@**$#=====@==$*@*$#$#$.y@**#$#$$@@#=@$$==*=*###$=$$=@$.",
"6=#$$#**@##*$$$*=*=$*=$%@&*$##@.u@**@###=@##*$=$==#=*##$>%=#*#$.6=#$$#**@##*$$$*=*=$*=$%@&*$##@.u@**@###=@##*$=$==#=*##$>%=#*#$.",
":**$##&*#$@#==$=$#=$=$#=@+###$+.y+**$#$$$##@**====@*$@$$$$=**#%.:**$##&*#$@#==$=$#=$=$#=@+###$+.y+**$#$$$##@**====@*$@$$$$=**#%.",
"5&*$#$+##%$@#==%%@*$#%**#&*$$$+.y+&*$$$=$@%@#%==*$@%$@$$$$***@=o5&*$#$+##%$@#==%%@*$#%**#&*$$$+.y+&*$$$=$@%@#%==*$@%$@$$$$***@=o",
"5+#@$$#*@=$@$==$=@=$$==###*#@$@.y++#$@$==#=@#$%=**##*@#=$$***#=o5+#@$$#*@=$@$==$=@=$$==###*#@$@.y++#$@$==#=@#$%=**##*@#=$$***#=o",
":&*#@$#**=$@@=%$*@#$#&**@#*##=@.y+#*##===*=$#$****##*#$$#@*&*#%o:&*#@$#**=$$@=%$*@#$#&**@#*##=@.y+#*##===*=$#$****##*#$$#@*&*#*o",
"q$#@@@@=%##@#$=##*##@##&*@#=$$+.y*#*@$$=%*=$$$**####*$=$$#*+#@#Xq$#@@@@=%##@#$=##*##@##&*@#=$$+.y*#*@$$=%*=$$$**####*$=$$#*+#@#X",
"q$*@#@@=%+#@$@*+@#+#@#$+#@@@=$@oy@@**=$=%**$%$**####=$==%**&*+#Xq$*@#@@=%+#@$@*+@#+#@#$+#@@@=$@oy@@**=$=%**$%$**####=$==%**&*+#X",
".......oo.....o.6@@@+##&*@@@==#o.....oooo.ooo.X.6@@#====%*##*#*........oo.....o.6@@@+##&*@@@==#o.....oooo.ooo.X.6@@#====%*##*#*.",
"yyy:66quqqq6q6y.6@@$++@#*@@@==*uq6666uuuq6yuuq:.6@@@*==%#**@**#yyyy:y6quqqq6q6y.6@@$++@#*@@@==*uq6666uuuq6yuuq:.6@@@*==%#**@**#y",
"#@*++@$#*@$#@#*.6@@$@@@@*#@@=%**#@@@@=%#*@**=#+X6@@@**=%$&#@+@@@@@*++@$#*@$#@#*.6@@$@@@@*#@@=%**#@@@@=%#*@**=#+X6@@@**=%$&*@+@@@",
"#@@@@$$@*+*#***.y@+*@@&@+#+@=***#@#@@=*@*@#*$@&Xy@@@*@*=#++@@@@@#@@@@$$@*+*#***.y@+*@@&@+#+@=***#@#@@=*@*@#*$@&Xy@@@*@*=#++@@@@@",
"*#@@@@$@&##@**+.y+##@++@@+@@**+*&@#+@**@&@@#*@@.6@@@*@*#@&**$@@@*#@@@@$@&##@**+.y+##@++@@+@@**+*&@#+@**@&@@#*@@.6@@@*@*#@&**$@@@",
"*#&++*$@*%@#*&*.:@%@+#@@@+@+*#@*&+++@*#@*@##*+@.6@@@*@#*@+*#*@@@*#&++*$@*%@#*&*.:@%@+#@@@+@+*#@*&+++@*#@*@##*+@.6@@@*@#*@+*#*@@@",
"*@*#$##@*==+*&&.:@==@*&@@@$+&++*&++@$**+*+@@*+@.6@@@*@@*++*@*@@@*@*#$##@*==+*&&.:@==@*&@@@$+&++*&++@$**+*+@@*+@.6@@@*@@*++&@*@#@",
"*@*@*@@&&**@+++.6@**+*+#+@@@+&@&@@@@$@*&&+***&*.:+@@*+@&+@&@&@+#*@*@*@@&&**@+++.6@**+*+#+@@@+&@&@@@@$@*&&+***&*.:+@@*+@&+@&@&@+#",
"*+*#=*#*&=*+++&.6@=*&*@+++*++&++@@@@#@&*&@***#&X5&@@*O@*@@+@*++**+*#=*#&&=*+++&.6@=*&*@+++*+&&++@@@@#@&&&@***#&X5&@@*O@*@@+@*++*",
"#@****#&&=*+*&&.:*=***@+@##++&+#&++*#@&&&+***@+X5+@@&+@&#@@+&++*#@****#&&=*+*&&.:*=***@+@##++&+#&++*#@&&&+***@+X5+@@&+@&#@@+&++*",
"*@****+o&&**#+&.q#&*&*@@@*@+@&##&###++&o&+***++.6@@@&++*&@@&&++*&@****+o&&**#+&.q#&*&*@@@*@+@&+#&###++&o&+***++X6@@@&++&&@@&&++=",
"*+*&**@++*#@@@&Xy@*#+&@@@**+@+@@&@*@@+&++@+*#@oX6@+@&+&&@+@&&O+&*+*&**@++*#@@@&Xy@*#+&@@@**+@+@@&@*@@+&++@+*#@oX6@+@&+&&@+@&&O+&",
"&+*@&*++&+*@@@+.y*+*O&++***&@@@@*#**#&&+&+++*@+X5@@@&+&+@++&&++*&+*O&*++&+*@@@+.u*+*O&++***&@@@@*#**#&&+&+++*@+X5@@@&+&+@++&&++*",
"*@&@*@@+&+*+@@@.y*+*+&+##**&@@+@****#&++&+&+*++X:+@+&+&&@++o&+++*@*@*@@+&+*+@@@.y*+*+&+##**&@@+@****#&++&+&+*++X:+@+&+&&@++o&+++",
"#*&O+&@+&+&O@@@.y*+&O++*#**+++O@****+&&+&&#+&++X:+++&.o+@+@o++&+#*&O+&@+&+&O@@@.y*+&O++*#**+++O@****+&&+&&#+&++X:+++&.o+@+@o++&+",
"*+&O+&oO++&O+++ y&+&O+&**&&+++O+&&*&@o+O+@@+&+@ :+++o.+++@@+&+&+*+&O+&oO++&O+++ y&+&O+&**&&+++O+&&*&@o+O+@@+&+@ :+++o.+++@@+&+&+",
"y@&.+o.@O+&O+++.Xo.X .XXXX.. . XyO&*+++@OO@+&+@...  X  X...XXXX.y@&.+o.@O+&O+++.Xo.X .XXXX.. . XyO&*+++@OO@+&+@...  X  X...XXXX."
};
