/* XPM */
static const char *w105_1[] = {
/* columns rows colors chars-per-pixel */
"128 128 244 2 ",
"   c #020101",
".  c #080704",
"X  c #0A0907",
"o  c #0B0B0A",
"O  c #160E07",
"+  c #130E0A",
"@  c #171007",
"#  c #15110C",
"$  c #1C150B",
"%  c #1F180E",
"&  c #0F1010",
"*  c #141413",
"=  c #191612",
"-  c #1C1915",
";  c #171718",
":  c #1C1C1B",
">  c #22170B",
",  c #231B0D",
"<  c #2E1B0B",
"1  c #311D0C",
"2  c #391F0B",
"3  c #221D13",
"4  c #2B1E11",
"5  c #211E1A",
"6  c #311F11",
"7  c #1F2218",
"8  c #26230F",
"9  c #2A220F",
"0  c #34210E",
"q  c #3B220D",
"w  c #262113",
"e  c #2C2412",
"r  c #2F2815",
"t  c #24221C",
"y  c #2A251B",
"u  c #2D291C",
"i  c #332512",
"p  c #3A2514",
"a  c #332A14",
"s  c #3C2D16",
"d  c #352619",
"f  c #332B1C",
"g  c #3C2D1A",
"h  c #2D331E",
"j  c #38331B",
"k  c #3E301C",
"l  c #1F2020",
"z  c #252424",
"x  c #272625",
"c  c #292723",
"v  c #282725",
"b  c #2A2822",
"n  c #2D2922",
"m  c #2B2924",
"M  c #2A2825",
"N  c #272728",
"B  c #272828",
"V  c #2C2C2B",
"C  c #332D23",
"Z  c #3A2E21",
"A  c #312F2B",
"S  c #2F3129",
"D  c #333524",
"F  c #3C3124",
"G  c #343A25",
"H  c #3B3A23",
"J  c #33312D",
"K  c #3B342B",
"L  c #363A2B",
"P  c #3A3A2E",
"I  c #2E2F30",
"U  c #2F3030",
"Y  c #343433",
"T  c #393733",
"R  c #373837",
"E  c #3B3935",
"W  c #3A3A39",
"Q  c #49240A",
"!  c #572807",
"~  c #5D320D",
"^  c #422D16",
"/  c #482B12",
"(  c #412E1C",
")  c #552E11",
"_  c #423017",
"`  c #4C3316",
"'  c #43321B",
"]  c #4A361B",
"[  c #4D391C",
"{  c #553414",
"}  c #5A3512",
"|  c #5D3A15",
" . c #533B1B",
".. c #573919",
"X. c #6D2D04",
"o. c #642D08",
"O. c #732D02",
"+. c #782E01",
"@. c #64330B",
"#. c #6A320A",
"$. c #6B370B",
"%. c #753204",
"&. c #7A3404",
"*. c #7B3B09",
"=. c #643C14",
"-. c #453422",
";. c #493623",
":. c #463825",
">. c #4D3A26",
",. c #43362A",
"<. c #493728",
"1. c #45392C",
"2. c #4B3B2A",
"3. c #513D26",
"4. c #513E29",
"5. c #423C34",
"6. c #4A3E31",
"7. c #423E39",
"8. c #503E30",
"9. c #5D401C",
"0. c #7A410D",
"q. c #674319",
"w. c #784916",
"e. c #795217",
"r. c #4E402E",
"t. c #544127",
"y. c #5B4220",
"u. c #55422A",
"i. c #59462B",
"p. c #5C482E",
"a. c #474035",
"s. c #4C4133",
"d. c #45413C",
"f. c #4C443B",
"g. c #544433",
"h. c #594632",
"j. c #5D4934",
"k. c #53473B",
"l. c #5E4C3A",
"z. c #694724",
"x. c #764D27",
"c. c #614D37",
"v. c #614E3A",
"b. c #65513E",
"n. c #434342",
"m. c #4B4641",
"M. c #4D4843",
"N. c #554B41",
"B. c #6A5541",
"V. c #823C06",
"C. c #843C07",
"Z. c #903C04",
"A. c #864207",
"S. c #894407",
"D. c #854309",
"F. c #8A4509",
"G. c #8D4B0D",
"H. c #974609",
"J. c #924C0C",
"K. c #95520F",
"L. c #9A550F",
"P. c #864816",
"I. c #964D14",
"U. c #8C5317",
"Y. c #945412",
"T. c #995715",
"R. c #9C5A12",
"E. c #A64906",
"W. c #AC530B",
"Q. c #B1560F",
"!. c #B9570B",
"~. c #A25B12",
"^. c #A95C16",
"/. c #A66519",
"(. c #B96214",
"). c #915126",
"_. c #895A35",
"`. c #9D6A25",
"'. c #9B6339",
"]. c #A16023",
"[. c #AC6728",
"{. c #B36E2D",
"}. c #B8763B",
"|. c #C35609",
" X c #C35B0C",
".X c #CB5B0B",
"XX c #D45E0A",
"oX c #CD5E11",
"OX c #D9630E",
"+X c #CA6415",
"@X c #D86914",
"#X c #D1781C",
"$X c #E2690F",
"%X c #E36C13",
"&X c #E96E14",
"*X c #E97319",
"=X c #EC741A",
"-X c #F37619",
";X c #FB7C1B",
":X c #C47329",
">X c #D1712D",
",X c #D9772A",
"<X c #C77635",
"1X c #EA7A26",
"2X c #F37E27",
"3X c #A96D42",
"4X c #B77446",
"5X c #C57B47",
"6X c #D17B42",
"7X c #BB812E",
"8X c #FE801D",
"9X c #D3842F",
"0X c #F98329",
"qX c #EC8732",
"wX c #ED8536",
"eX c #F68937",
"rX c #FC8B35",
"tX c #FC933B",
"yX c #A3866C",
"uX c #D48A4F",
"iX c #EB934E",
"pX c #F99445",
"aX c #FD9A42",
"sX c #FD9B4C",
"dX c #FD9E53",
"fX c #F89D59",
"gX c #F8A151",
"hX c #FEA255",
"jX c #F5A058",
"kX c #FEA35D",
"lX c #D9976C",
"zX c #E79C68",
"xX c #FAA666",
"cX c #FDAA6B",
"vX c #E8A570",
"bX c #FAAC75",
"nX c #FDB077",
"mX c #FFB27B",
"MX c #FEB383",
"NX c #FAB689",
"BX c #FEB98D",
"VX c #FFBB92",
"CX c #FEC396",
"ZX c #FFC69A",
/* pixels */
"s s b e a x e x M s s A a A a g s a b e s s x x M g T A a b e a a a b e s s x x c a V M a c a M M a s c e M M g M x x c a A e g s s b e a s s ' M g M A a V a V c a s c e c A g M x c M s a s >.M a V M g s x x M a V M a c a M M a s c e M M g M M k M a A ' g ",
"s i a c e c g x a e e V g g s c a a a c a a g V b g g s s s a x a e a M s a g V c g a s a t a x a a a c a A g a s c e c s g a c s i a M a e a x c g g s a n g x w e e c s b a s a M a M a a a x c g a a s a g V k g a s f t a x a a a M a A g a s c e c s s a x ",
"9 s a B b f x : w s x c g s r - w s e M g g B : w V g r g s r - w a e c g g B : w M a u n u x : w a x x a a r - w c g M a s w - w s a M a g B : e J g f c g B : w a x B a a a - w c a M a a x : w M a r g g B : w M a r n a x : w a M c a a r - w x g c a s w - ",
"a e b A a n x + 5 a b n x e 5 + 5 y x b c B x + : b g J n e : + 5 e B x M M x + 5 V F Y e n x + 5 a c b x n x + 5 B g n b f x + t e b V n b 5 + e Y F Y e A x + 5 a c A B n x + 5 c g b c B : + : n g A M M x + 5 V k Y e n x + 5 a c b x n x + 5 x g n b f t + ",
"_ a a a a k K * u s a s C u n # f A n a e V A = y a s s s a y $ s n M y s e A $ a b M A a g K * u a 9 a u g K $ g A A s a Y D $ s a a a s a M $ s n M y e g K * f s e s A F K # u y b a e Y x $ t a s a s e A $ a n n A a g D * u a e a n g K $ f c A s a Y n $ ",
"e g a f a V f M n a u f g t w e c f f g e y e s a f s g g g a s s s e e s u e s s a e u a V Z B n a f f u y f a V f f u a C a s e g a f g f e a s s y e e x f J A a f Z f M g e B y u u w y a k s g a a s u e s s a e u a V C N n a f f u y f a V y r u a C s s ",
"u C g M C B C u a f C B B e x u u V B V a 9 u w u y s M g A s a u C u y a f a a u u u t u c A A g Z A V B a x C A I V B a a Z a u C g M g u a 9 u Z A u u x C A g a A V B e V C A V B x e 9 f a Z C g M a f a a u u u t u x A A g Z A V B a x C A N x x a a C a ",
"u u f x u C Z a s M g C x y 5 x s u V C e w u a f y u c a s a y u V u 9 i s i u u B u e f f Z s g A s u V C u B g C V y e r C s u u f c a a a y C Y Z a u f f a s M a f V u u V g C V y a e f s C C C M a s a u u B u e f f C s g A s u V C y B g u x y e e C s ",
"u y u f u F u e F u f C f x e u a u x s a 9 u s f y y u 9 a u x y u x a a s u x y u c s C F C a C Z C u C c a f s C V a a e f s u y u f 9 s C x f D B s C F y a u u u C C B a f g A B i s i f g C C C f i s u x y u c s C F f a C C C u C x a f s u x a a e f s ",
"F j H K Y P D H W H D L K S h D D Y Y H H D Y D Y J J D j D F D F ' ,.H K H D Y U J Y H L R D D Y K Y Y H J ' H >.Y L P P H Y H Y j j H J H L Y U D Y H L W D K Y D Y Y H Y ' j ] ,.1.H H j D H V j H K K H D D D D Y K Y T D n L H Y D H ,.' K ] S S K ;.H F ] ",
"i e w t 5 3 5 w x t t w 5 w 7 x t l : w t 5 5 x l x l l t x y t y y y t 5 w t x t l : w t 5 5 l x l l x 7 t y t y t t 5 x 3 5 w x t t w 5 w t t t x 5 w t 5 5 x l l x l 7 5 t t t y y t w w w w = 3 w 5 5 w w w w 5 5 5 5 t 5 : t w y e w r i 5 r , w t r e i i ",
"* @ $ $ = $ > # * # $ O $ - * * : ; * o o   O + $ # $ # + + + $ , $ * : = , , . $ w w 9 - = = o * o $ + + + * $ +   * , - , 9 $ , o o @ O , - $ , : $ @   O , % $ $ # $ $ = 3 , 3 w 3 w 9 , = . > , = = # $ , $ O O O O @ # @ # + . + + # # : # @ # $ $ $ * # $ ",
"% , $ % : - : % - , % - % % 7 : r : : $ o   $ , @ $ , X O $ @ $ t : : : x t i   $ i g g : x w o * o * # $ @ % $ $   ; : w 9 i 9 9 $ + - % t - - 5 f t -   = i 9 9 9 - $ , w p p i i c g g c :   i t x : : : t % @ $ O X , $ @ , $   o $ : : i : o : - % - : % - ",
"- , % : x w w 9 : , % % > 9 8 % c x : - o   8 d . $ 9 X $ 9 9 i g x x x x x M   - g -.A x x t : * o + O o O $ @ #   5 w t e g t w @ + w , Z i x x <.r r   % g , 9 w w 9 g c ' ' ' ' k <.T F t   M x x x x x g i , 9 $ o 9 $ . d ,   o - : x c % o t : : x : 9 : ",
": : : % x c e c : e r x 9 a h t V x x : *   > , X < i $ > , a g <.5 x Y A 1.-.  % -.<.2.A F c * : + * $ o + $ @ O   x d a c g d ( > @ d i -.p A A 2.a (   - g < p p p i g A -.>.<.>.>.4.6.E x   -.1.J Y x 5 >.g a , > $ a < X , $   * : : x V t # h r w x x a w ",
"x a e a g x a a g e 9 e s e J - : x x x *   9 J , a t w 9 g x c T a V Y Y g.4.  t T R g.R T d x : * w x 8 , t , ,   x V M -.A p -.w * i p -.a 1.R h.' 7.  w ;.e i d A -.>.-.<.g.>.4.j.j.j.R x   4.g.Y Y V a T c x g e w t a , J w   * x x x : % * h a w e e e e ",
"x g a s s g s g b s a c g n G - V B B V o   9 >.e g w c g s e A R J Y W R g.d.  e u.E g.R E g c x * e J w w c w i   x A Z R u.( u.5 % A k u.D u.E g.E 6.  9 >.s s g g >.u.>.u.f.u.i.h.b.h.R x   d.g.Y W Y J E A e s s c e g e >.9   o V x B V * @ Y r e e e c V ",
": V g x s s s A : r c e b g 2.5 Y Y x V *   , 3., K e d t g s ( u.T Y m.Y W n.  s u.u.M.E u.J c Y , A g , e ( 9 $   x V A E 4.( u., , T R h.r n.7.v.R E   w g i s g g J 7.E 7.b.7.i.j.b.j.W w   n.W Y m.Y T u.( s s t d e K , 3.,   * V x Y Y : $ Y M a c a e V ",
"@ : V x a g a + # : e a a a L , Y M : B %   $ s , >.r s s ] g g Y g D u.M Y W   w E F i.J 7.A e x w g ] = w u.i $   x B B 2.h.( u.w : g n 1.e T >.g.V k.  - p i s g g R u.T 2.v.2.u.p.v.p.m.b   W Y M u.D f Y Z g ] s s r >., s $   % V : M Y , * Y a s r e g o ",
": y n n i b N w t w b a s M W 3 Y s M B $   o g i t.c s e f : A x 5 F 1.w V l.. : T T g.Z i.g c a = A -., , u.g $   A A J u.i.( r.5 % >.e A q ` a A c E   3 p i s g g R u.' 5.i.K -.i.b.v.n.k X l.N w 1.F 5 x A : d e s c t.i g o   $ B M s Y , * Y b f c a a t ",
"n A g k s a A a s e a a s V T u f.f M Y *   , ( i >.y w w x : g n B E W x R l.. 9 ,.F n.D g.s c ,., ' ( e % >.g ,   f K A >.i.-.7.x * 2.s @.I.W.w.} i 1 . : d e g s g K 4.' u.i.( 4.b.b.b.5.Y X l.Y x W E B n g : x w w y >.i ( ,   * Y B f f.y * Y e c e n s a ",
"F s g Y g a u s u y u a Z J G b 2.Y B Y &   i 1.- ,.d 5 w x : A Z B ,.W B M.l.. 9 n Y W F 5.g y K e ;.>.y o -.s w   B >.Y 4.i.>.i.5 - A _.eXhXrXXXH.} p > w V a A g ( ' i.<.,.i.-.p.B.b.v.j.A . l.M.B W ,.B Z A : x w 5 d ,.- 1.i   & Y B Y 2.y * Y r c u f a s ",
"Y a s C f Z C r x y C a V V G C Y V B J +   C K - C , , , : * s F K Y R V v.j.. y Z 5.n.K i.F V s y d _ , 3 Z u x   x 4.E s.i.( 3., , s zXBXBXxX&XR.+.[ i 9 K f A Z ( 3.u.Z K j.6.v.j.b.b.v.s . j.v.V W Y K F s * : , , , C - K C   + Y B V Y n * J a y C C s s ",
"y g s u u B s y x M s e x M G Y K U V Y %   C g = s y > % : 3 a 3.s.W Y Y N.l.. Y 5.5.a.Z h.R x f y y g , e Y A t   f i.Y a.i.F K , 1 =.cXVXZXmX;X!.+.[ s 1 ' f g A Z ;.>.1.4.j.5.v.c.b.v.p.s . l.N.Y Y E s.3.a 3 : $ $ y s = g C   % Y V Y K V * L a a s F g s ",
"w s s y a M s M x c a e x B L x F f V Y %   C A , C y - = * 5 w 6.W Y Y V k.l.. f t.W h.Y f.Y x f e C g , w F g C   s 6.Z i.j.F f < 1 @.uXlXlXfX#XE.+.@.^ 1 p ^ -.( Y g >.u.;.i.4.j.v.b.j.s.s . l.k.V Y Y W a.t 5 * = - y C , A C   % Y A f F x * ,.u s s C a u ",
"$ t u a u y a * $ t s r x B 5.t Y K Y V %   V B w Y w * o $ # 3 K 2.Y W V j.v.. A 5.s.i.E k.1.Y s , _ s , : s C Y   A 1.K i.>.i 1 < < ( P.z./.tXw.} Q D.s < < p 5.K F K u.-.A u.;.i.b.v.j.s.g . v.j.V W Y 6.K 3 * $ o * w Y w B V   % V Y K Y w * H B u e s a * ",
"= 3 u a c e a : = w a s x M H e W Y Y B %   C Y e J y : o # * d _ 3.F 1.F v.M.. F k.i.4.F i.5.V s , ] s - w g c Z   V >.Z s 0 i ! ! ^ @.[.3XuX/. .$.! F.^ @.@.s d d g 1.;.;.Z i.' i.v.j.j.j.A . M.v.F 1.F 3._ a * # o : c J e J C   % V Y Y W w * :.x u y a s e ",
"w a 9 a c c b f N n s s e V R n F Y U V -   g F e V c w 3 , w ;.' u.] T D d.W   K u.f.u.' i.Y B J w >.;.w e >.g n   g g 1 1 _.:XoXE.*.+.[.,X2X&._ &.+.P.<X9X,XQ.#.s p p ;.5.;.i.( i.p.b.p.j.g   W d.D T ] u.' ;.w , 3 w x V e k g   - V V Y F M = ;.e A V s g C ",
"c e a b c g g g A U K g b Y W u g Y B Y *   M t 5 Y g c e e s >.( 3.A W V W n.  Y u.g.7.T i.k g k s [ u.c , >.A w   c 1 1 _.vXdXrX@XT.V.q.^.pX}.U.} V.3XnXnXdX;XL.*.s < p R -.5.>.4.j.j.N.m.A   n.W B W A >.( >.s 9 e c g Y 5 t M   * Y B Y g r = >.b B f n e V ",
"x c b e V A a M Y B Y M a Y Y e J B V V :   Y : : <.g e c s k d.>.>.r Y B W n.  A i.5.2.Y 2.' M K i a E e 5 t.g 9   w < p vXBXMXsX&XR.F...5XpX@XG. .F.3XMXBXmXsX XS.] 1 1 <.' u.2.>.p.b.M.g.g   n.W B Y r >.>.d.k s c e g <.: : Y   : Y V B J w * H g e e x e M ",
"M g g s k Y a a B M g r A Y W r <.M V Y -   R x V R A e c r J u.2.>.M Y B 1.g.. g j.u.>.' h.>.A Y e s Y c 3 ' n x o 9 1 3.bXCXBXdX*XR.F.y.5XrX.XS.0.V.1XmXCXBXdX@XF. .1 < A ' j.i.4.i.l.M.i.g . g.1.B Y M >.2.u.A r c e A R V x Y   - Y J M <.w $ Y a e a a s g ",
"V g a s s k a a V V a e V Y W M g t Y V :   <.t A W R e V M B E R M B B B W W   A i.i.T k i.>.r Y e g M r c >.g x   < 1 z.'.uXfX/.R.F.D. .G.wXiXT.&.OXeX5X3X+X1X~. .[ i < a ( i.4.i.p.j.M.i.T   E W B B c M R E B M V e R W A 5 <.  : V Y t g c % G g s s b a e ",
": V g x s a s J : V a a V U G e >.c V x *   t.t Z E M e V g g u.J g B V x W W   A i.i.g M >.R M E e ;.g s e T A x o < 1 %.R./.5XG.q.} !. .[ ....` q OX*Xz...{.iXD.s 0 s 1 d >.j.E i.p.p.M.j.<.. W W x V B g A u.g g A e M R g t 3.  * x V c >.w * G M a e a e J ",
"@ : V x a a a # # : s a M V G r E x V B :   >.k J u.' e A r 5 W V k Y B B W l.. s >.i.' k i.A e K e i g e 9 g e 9   < 1 x.5XOXC.Y.T.!.Y. .=.V.H.| { +X6X}.wXsX4X^ ] p p 1 d T i.2.4.j.j.l.2.g . l.W B B Y k V W 5 r A i ' u.J g >.  : B V x E e = Y x b a a s # ",
": e b b e M J a : e e s b B G k Y M V V x   t.k Y 1.<.s ' J C 7.E E T Y M 7.g.. s 1.i.( K u.g r ' e ( g 9 , c e e   w < p P.+XR.H.S.0.X.z.1XsX0X|.F.=.+XT.@X0Xx.` ] _ 1 1 D >.u.W i.j.g.M.7.g . g.7.M Y T E E 7.M D ' s <.1.Y g t.  x V V M Y g 3 Y x a M a s a ",
"A n s f s s K a x x f a a J G g V y V x w . u.n V A B e M <.-.i.3.u.-.K F u.Y   g R i.k ( >.A B V e ] ' 9 9 g n a   x a < q 1X9X@X0.] / 4XMXMXxX%XR.%.R._.[.fXpX&.] 1 1 g ;.>.7.E i.i.N.v.j.]   Y u.F K -.u.3.i.-.1.B e B A V n u.. w c V y V f * Y y V b a a M ",
"F a a V g a f a V B V u c U G n W b V c :   j.e J -.A y V Y D j.4.u.u.Z 7.W t   s K i.J F >.g M T e ] 3.i i ' Z 9 o c ;.1 1 !.9X(.=.} &.4XVXZXmX-XQ.&.Y.zX}.*X%XV.[ 1 p 3.-.>.u.5.i.i.b.b.k.g   t W 7.Z u.u.4.j.D Y V y A -.J e j.. : c V b W n * Y n b a x e V ",
"J u s u s f V r Y Y V n a A P ' E y J e x   2.e 7.u.' V Y A g v.4.c.<.V i.5.y   a _ r.K T >.K V -.a ' t.i ( ' K 3   x Z < 1 G.{.Q.J.0.0.uXlXvXxX*X!.+.O.3XzXsX1XV.^ 1 ( u.;.<.W g.j.h.b.b.a.C   y 5.i.V <.c.4.v.Z A Y B k u.7.e 2.  x e J y E g $ G k a e y a A ",
"y C u u f n A a C K J s s f T a Y C Y y t   7.r W ;.g A Y V c u.3.t.g F s.;.B   9 g 5.-.Z ;.1.C s s g ,.9 d , a 5   x 5.e 1 ! {.(.0._ ] ).x./.tXe.=.! *.^ e.}.{.@.0 p ;.>.( g 5.k.h.n.k.b.u.C   B ;.s.A g u.4.u.c V Y J g -.W r 7.  y y Y C Y a = L Y g M u f s ",
"x u y u B a a u e s V A C J 1.y 1.C Y B t . u.3 C Z -.V B x e g.;.>.>.-.W K V   i K i.s A K Y y ' e k 1., - $ 9 , O y g < < < 0 d < < [ )._.<X:X .| ! G.p < i i < < 1 d -.d p ;.3.;.5.k.B.k.'   V K W -.>.>.;.g.e c V V -.C C 3 u.. t B Y C 1.y @ Y J C C V J K ",
"= x u u f s e * = y u C Y ' 1.B 5.B Y M y   t.3 ' Y >.f u y e j.' >.i.;.W W Y   s K h.;.' Y F y >.e s ' < > > e p s ~ ! i < < < < < 1 ^ {.,XwX&.` &.+.=.0 < < < < < p ! @.~ ^ s i p s ;.4.f.-.  Y W W <.i.>.' j.e y u f >.Y ' 3 t.. t M Y B 6.M = Y a C g A f : ",
"= 3 u x f a u x = 3 a C V a L x Y x Y c 5   a.i >.2.>.C y y , u.[ >.i.g 1.W Y   s ;.4.>.g F g y ;.< 1 1 < ! $.J.e.e.K.C.$.! ! p < < < 1 ~ W.eX[.w.~ Q ' 1 < < < ^ $.H.W.!.W.w.@.! s < < p g i   Y W 1.g i.>.[ t., y y C >.2.>.i a.  5 M Y x Y x * Y A s s Z x , ",
"r a a u V w f Y x a a y u e E : Y x Y N x   f.n >.3.u.y c f w h.>.u.i.g >.s.R   g 5.u.3.;.( g x p < < p H.>X1X&X@X XR.K.S.V.O.] s p < < 1 {.pX,XJ.[ ! 0 1 1 ! H.:X,X2X0X0X=X@X!.G.*._ p < < < # E s.>.s i.u.>.h.w f c y u.3.>.n f.  x B Y x Y : * Y F J A s a a ",
"b b a s B M n a e a b a e c L w Y B V f w   h.k >.4.c.n e n 3 j.4.4.i.' >.v.Y   J F 4.>.' ;.p 4 < 1 s <XfXdXaXrX;X$XoX!.K.S.*.[ o._ p < q 5XrX.XS.*.O.1 1 o.+XpXcXcXcXcXdXtX;X&X!.S.0.` ^ 1 < < k c.3.' i.4.4.h.3 n e n c.4.>.k h.. w f V B Y w * Y D g k A a e ",
"N x b n g V e e 9 b u e e e G t V B Y A ,   >.w ' ' 4.r e f e j.4.3.i.D h.b.V   g K u.>.' ( p 1 < 0 3XcXMXnXhXaX8X-X$X|.R.S.S.X.| [ _ 1 1 z.eXiXT.&.Q 1 2  XtXmXmXBXMXmXnXhXrX;XOXL.S.#.[ p < < 0 b.h.D i.3.4.h.e d e r 4.' ' w >.  , A Y N V : * Y B a n V a a ",
"x a a e b M a a V v b e c V G : ,.A Y B *   ;.e s ( u.e A >.g j.i.i.i.k i.j.V   s 1.i.i.' ' 1 < 1 z.vXMXBXMXmXhXrX-XOX|.R.S.S.| [ ] ] 1 < 0 ..z. .2 1 1 [ wXcXMXMXVXMXMXMXbXdXrX&X~.Y.A. .o.1 < 1 >.i.k i.i.i.j.g <.A e t.' s e <.  * B Y V ,.: * L g A V M a b ",
"x a A c a a b a M M v b g f G v T B A e ,   <.M A a u.M 1.>.( i.i.4.i.M m.7.Y   i >.i.i.( 1 < < 1 3XMXVXVXVXVXnXtX;XOX~.R.S.A. .] [  .1 < < < 1 1 < < 1  .eXxXmXMXMXVXVXVXmXkXaX&X XR.F. .` 1 < 1 p d.M i.4.i.i.( >.>.M i.a A M <.  8 e A B T x * Y M M g e b g ",
": a g M g g g J : g A g M g T : B V V e 9 . >.u.J >.h.M ] >.[ j.j.A u.M 2.Y g   9 ( 3.3.s 1 < < p jXMXVXVXZXBXkXtXrX%X XR.S.+.X. .[ ] p 1 < < < < < < 1 D.aXhXnXmXMXMXZXZXMXkXhX=X~.R.D.X. .i < < 1 1.M u.A j.j.[ >.] M h.>.J u.>.  9 e V V B : * <.a a x c g J ",
"@ : a g A A g # # : a b M J 2.: V M B V w   <.h.a >.i.' >.>.>.i.i.J Z V E W E   9 >.u.>.p 1 < 1 ..bXBXVXZXZXMXkXdXrX=X~.R.Y.+.O.X. .[ p 1 < < < < < < 1 R.rXtXaXmXBXMXZXCXmXnXdX;X|.~.S.O.[ s 1 1 1 E V Z J i.i.3.>.>.' i.>.a h.<.  w V B M V : * H g n V f a # ",
": w g M g M M x : e s r g J G 5 Y y c V *   g i.i >.>.' >.>.>.4.i.J E W u.i.t.  w K ( >.1 < < 1 *.fXjXMXCXCXMXdXeX*X@X~.~.F.+.X.X.O. .^ 1 < < < < < < 2 |.;X;X*XkXMXNXNXbXxXaXrX;XXX!.D.O.[ ^ 1 1 1 ;.W E J i.3.>.>.>.' >.>.i i.g   * V c r Y : * <.k g g A A g ",
"M M c c a n g M V s e b a a G e T V w V o   M v.e u.1.( >.4.>.>.h.g g R g 4.E   9 ( ( u.1 1 < 1 '.4X`.`.iXhXtX+XY.U.U.U.W.K.%.[  .#...] 1 < < < < < < 2 |.-X;X*XxXzX4X'.U. X=X-XXX!.0. .X.` ] 0 < < d Y g g h.>.3.4.>.( 1.u.e v.c   o V w V T w * Y J g V V a V ",
"g g e x e s A g V i a a a s G e >.M 5 Y o   x j., >.K -.>.u.>.:.>.n g 7.B u.u.. 9 >.( u.1 1 < 1 A.| ` ` Y.pX@XS.{  .] / ^ O.F.} [ | o.] 1 < < < < < < 2 XX-X-XeX/.#.[ s p ^.1X2X+X0.[ _ ^ p ] s 1 < e 5.g n >.:.>.u.>.-.K >., j.x   o Y 5 M >.e * L J c V M g A ",
"N b n b x y A s C s ' C a a G a >.M x V o   * >.3 >.] A ' <.k 5.4.' C t.B E u.. 9 >.( t.1 < < 1 P.H.H.Z.I.dXOXS.%.{ [ o.^ D.XX+. .o.[ { 1 < < < < < < 1 (.,X@XeX+.] ] ] z.2XxXmXuX=.` p < 1 p < < < r t.C ' 4.5.F <.' A ] >.3 >.*   o V x M >.i $ E g e b b a s ",
"u s s f b x a e f s s g ' a G s >.y : V *   # ' - u.g ^ ' Y Y 4.i.' ' 3.u ' u.. w >.( 3.1 < < 1 _.OXXX*XtX5XQ.S.G.*.| ) | #X#X#.| [  .~ p Q } } ) Q p 0 /.(.[.pX).=.=.U.uXcXmXbX}.o._ 1 < < 1 < < < y 3.' ' i.4.Y Y ' s g u.- ' #   * V : y >.s = P s 9 a a f f ",
"e a s n a x a V x s f u C n G a t.9 - x +   d i.w 2.C a w K K i.u.F >.u.9 a u.. 9 >.-.4.p 1 < 1 P.%X,XaX>X .&.C.R.(.E.S.R.+XR.[ ~ ' [ P.I.!.(.Q.J.D.=.Q F.%X>XhXzX(.{.wXdXxXzX'.g p } ^ p p ^ 1 < < , u.>.F u.i.K K w a C 2.w i.a   + x - 9 u.a @ L u a f s A W ",
"= 5 u a C y a t = w y a u a G K j.u 3 J =   -.j.w K a 9 w g _ u.>.J >.-.t 1.f.  9 >.;.3.p < < 1 @.OX>X1XT. .V.@.J.!.E.K.R.R.S.@.~ P.~.qXrXtX2XOX(.R.J.&.+.G.W.qXeX2X>X>X0XeX[.0 p 0 &. .[ [ ] 1 < y t ' >.J >.u._ g 3 9 a K w j.-.  = J 3 f j.F @ J C g C s s t ",
"= 5 f g V e a : = 5 y s s n T Y g.f e Y =   ( 4., >.e y 9 _ s -.K ,.F g C k.n.  9 >.;.i.p 1 < < 1 *.E.XX+X@.T. .G.Y.O.S.J.q.~ +.w.iXsXcXcXkXtX;XOX!.R.S.O.] =.OXT.E.!.%X-XeXG.! ^ ^ =. .] ^ i < < Z f g F ,.K -.s _ 9 y e >., 4.(   = Y e f g.V = L C s u a a w ",
"w a a s B y C F a a f g g J W f >.y t Y %   p >.w K 5 y y C i g C A c g C j.k.  w ,.2.3.p 1 < < < < Q E.2X+XJ.^.(.R.C.&.} p 1 O.'.MXBXBXmXcXkXrX&XXXR.S.*.[  ..X@.Q w.=XdXkX9X:X0. .] ' p 1 < 1 g 4.C g c A C g i C y y 5 K w <.p   % Y t y >.f * L y u u C a s ",
"y a a n c f f s s u s s k Y W C ] y w Y *   -.g.5 ,.g e c k s s ;.Y M n V h.l.. w r.>.>.p < < < < < 1 S.eXsX,X%X&XR.=.} 0 1 ! O.3XMXVXVXBXBXmXaX;XOXR.S.D.[  .~.:X..^ :XxXcXnXcXT.$. .~ 1 < < > h.h.V n M Y ;.s s k c e g ,.5 u.-.  = Y w y ] C * G a c s g a a ",
"V b b y c n a A n e A g n V L y 3.y e Y $   >.>.3 t.K e g ( <.>.5.W B c k i.v.. i ' >.>.p p p 1 < < 1 =.eXpX{.(..Xq.o.s 1 ^ O.+.3XNXVXVXZXZXBXaX8X&X XK.D.[  .@XhXuX/ Y.tX0XeXqXJ.}  .X.1 < < X v.i.k x B W 5.>.;.( g e K t.3 >.>.  % Y e y 3.e $ G g c n n s a ",
"B a a a a V g g M c g a V B T e i.A c A ,   <.>., >.A i i ;.' ] Y Y x V ' j.v.. e ;.>.u.g -.] y < < 1  .tXaX}.'.R. .*.o.` 0.V.%.4XMXVXVXZXZXCXaX-X$XXXR.D.#. .(.kXBXyXuX:X:X$X.XK.#.[ { 1 < < . v.j.' V x Y Y ] ' ;.i i A >., >.>.  8 J c V i.e @ J i e g g s s ",
"c s e s a f >.g M M s e M B E e ' k V V ,   <.( 9 g M g V T g >.k Y x V M m.h.. s u.u.' p ;.' V < < 1  .=X-X+X[.G.W.S.V.0.K.&.&.iXMXVXVXVXZXCXaX;X;X.XR.F.{  .*.7XMXNXnXxXiX*X~.S.O. .] 1 < < . j.m.M V x Y k >.g T A g M g 9 ( <.  , V V g ' w % G s a a n s a ",
": A a s a ] s J : V g a c M L J <.k M e $   A e , g e e g A M T J J M g r 2.J   d 3.3.>.p ( g M p < 1 ^ |.%X.X/.R.~.Y.S.&.%.{ T.fXmXbXpXgXmXmXtXOX^.H. XY.X.X...q.1XsXkXsX0X%X~.S.V.X.^ 1 < <   J 2.r g M J J T M A g e e g , e A   $ e M g <.V - G J a a a e V ",
"@ : M ' a a g # @ 5 s e x M G 1.A g V V w   <., e <.e e M V J 1.J 1.g T ' m.n.  s >.u.i.' t.e c i 1 < 1 S.eXsXeX*X.XF.%.*./ q T.4XU.z.z.~.%X0X=XH.%.{ .. . .{ [ s {  X0XtXdXdXqXF.A.` 1 < 1 i   n.m.' T g 1.J 1.J V M e e <.e , <.  w V V g V ,.- Y B b e e a # ",
"e e M M a A A r : w a a M B L J E g r V x   ;.e d T e s M M >.i.W R M 1.i >.n.. s u.' >.>.u.e c i 1 < 1 / +XwX=X=X!.*.^ 1 1 1 Y...[ ' p | *XaXOX%.{ X.` p 0 F.O.s 1 q D.@XiXeX+XD.X.p < < < i   n.>.i 1.M R W i.>.V M s e T d e ;.  x A r g E A 3 Y x g M a s s ",
"Y A g g s g b a V c f s a J G M E M V Y w   <.i p A g 5 k >.i.u.R T k R e 1.h.. s i.>.>.>.5.d c g 1 < < 1 p ^ _ [ ^ 1 1 < < 1 T.%...9.&.T.fXxX+X} ] ] 0 < / =XD.p < < 1 p [ [ ^ ^ p 1 < 1 p p . h.1.e R k T R u.i.>.k 5 g A p i <.  w Y A M E M * Y f Y A g s M ",
"k s g M g a a s M B V g c U G g 1.u V x ,   <.e g A x e ;.1.>.7.D ' T J r T t.. s i.4.>.( <.g 3 a < < 1 < < < < 1 1 < 1 < < q <X[.Y.[.1XkXbX4XU.X.{ { ` Q x.,X#.s 1 < < < < 1 1 < p 1 < p ( s . t.T r J T ' D 7.>.1.<.e x A g e ;.  , c V y 1.g = Y M A g V e V ",
"J a s A g g M a M V V n i J L e Y V Y c 3   ,.e s ( 5 e Z D ( i.[ >.] >.n 4.1.. s u.u.<.( g g c a < 1 -.i < < 1 < > 9 g 1 < 2 +XpX6XuXxXcX5X#.` ` #.J.J.0.G.#.] p 1 1 < < c g 1 i >.g 1 3.u.s . 2.4.n >.] >.[ i.( D Z w 5 ( s w ,.  3 c Y V Y w $ G k a a b w c ",
"y n u f g n b e b A M s s k T t K a J w *   A , f -.c y E >.' i.>.' g <.e u.n.. d T 4.( g J g r a 1 1 u.( 1 1 ( a   9 g 1 1 1 w.@X.X(.-XeXD.` X.p { o.#.} %. .^ 1 a i < a A g s p >.>.s h.;.i   n.u.e <.g _ >.i.' >.T y M -.f , A   * w J a K 5 * L Y a x u e i ",
"B Z C A Y e a D r s M f f J 1.a 1.f B y :   -.w A T B x >.>.' j.4.>.>.5.a >.W   g 2.i.( g ,.A c g 1 ( >.s < p >.>.. e g 1 g < 1 @.e.^.-XpX^.` %.Q %.[  .! @._ < 1 p a 1 a A g ' ( ;.>.4.i.;.i   W >.a 5.>.>.3.j.' >.>.x B T A w F   : y B f 1.i @ Y J f n x C F ",
"= x f f J a a x = y u J Y ' 2.C K y V x -   I 3 F 1.c : _ >.' >.;.>.u.;.] 4.V   g K 2.' ( 1.F M ' 1 >.3.s , g ;.>.X i s p 3.p 1 1 | ~ +XhXdX}.G.D.G.=.] i p s 1 1 Z i 1 Z Z -.] _ ;.;.u.p.i.s   V 3._ ;.u.>.;.>.' >._ : c 1.F 3 I   - x V y K f $ Y a y g V C x ",
"= 5 y B u s C : = 5 a f A a L y C y V x $   1.e K Y x x F >.' K g >.>.C 1.k.V   s g R g s F K B 3.1 >.j.] a -.>.F   9 ' ;.i.-.1 1 D.).w.iXkXdX(.R.K.O.^ i ) s 1 6 Y C < R Y >.1.' u.( i.v.u.a   V f.1.C >.>.g K ' >.F x x Y K e 1.  $ x V y C y * Y C a s J V $ ",
"e e 9 u N a C Y x e a y u r W y V B V M e . u.d 6.W x V 1.-.' W ( >.' C k.k.V   s g W K K -.F y u.1 >.v.' ' ;.j.K X 9 >.u.i.' 1 1 C.lXe.,XiXtX(.R.=.X.p ! O.p 1 ( 1.Z p 5.E >.Y K >.;.i.b.u.a   V k.k.C ' >.( W ' -.1.V x W 6.d u.. e M V B V y * Y u u C s f s ",
"u y 9 s A D A u y s u a e n P B V y Y M i . u.d Y Y x V ' _ a r.g ,.s ( j.4.M   s K s.K R -.1.C 3.i _ 4.( a g 4.' . y >.>.i.' 1 1 =.mXuX<X4X0XR.V.@.X.^ O.O.1 1 K ' ^ ( ' F ' 1.s.3.3.p.b.i.s   B 4.j.( s 1.( r.a _ ' V x Y Y a u.. i B Y y V N * Y u u u C a a ",
"V x y C Z V y 9 9 A a a 9 y G y V b Y y 9   >.: N V f t C ' e i.<.F A >.i.u.<.. g 1.a.K R <.>.V t.k ( >.a 9 g t.g X w ( ( 3._ p 1 ^ wXpXiX+X,X].C.C.*.*.*.) 1 1 Z K A g K g A u.5.5.>.i.b.i.-.. <.u.i.>.A F <.i.e ' C t f V B - >.. 9 y Y c V y * Y V s n V s s ",
"B a f e n c s s D V b w c c G e Y B Y y 9   ;.w f Y A x : e , u.-.;.,.' i.i.h.. g E n.E F E ( r i.a g >.s 9 g 3.-.o 9 g ;.u.' g p 1 Z.=X0XeXwX+XS.S.D.q.| p < 1 _ 1.J 3.F ( <.i.F r.4.i.v.j.( . h.p.i.' ,.;.-.i., e : x A Y f w <.  w c Y B Y w * L F D V B g D ",
"x a n c g g n g Y V V V g g G b Y B Y M 9 . u.e A W B : * , , >.( ' u.' v.j.h.. J 2.W W D Y A b u., s >.>.s ] >.>.. 9 ;.3.i.-.-.C 1 2 Z.-XhXcXqXR.K.%.[ p < < 1 ' >.Z ' ( g ' 3.>.i.i.p.b.i.i . h.j.v.' u.' ( >., , * : B W A e u.. w M Y B Y x * Y J B f e A k ",
": s a V g s a J t g M g A k Y x Y B Y B x   d.M Y Y V * % , = t.' >.7.] p.j.h.. g >.R 1.k R Z M u.e ;.>.' ' >.3.t.. s >.>.4.<.T t.1 < 2 q.{.7X/.R.F.Q 0 < < < 1 g >.( <.<.( <.T ' i.i.p.b.i.s . h.j.p.] 7.<.' t.= , % * V Y Y M d.  x B Y B Y : * <.f a b n g K ",
"$ 5 s g A M ' * @ 5 e A V A 2.5 E B Y c -   t.r -.A e o *   o T M J Y a m.b.>.. g T R T k k A M ( e >.( i g >.>.>.  e u.2.5.>.E u.n 1 < 1 q Q q q q 1 < < < < 1 ( >.' >.>.] >.R ( i.i.4.b.i.b   >.b.m.a Y J M T o   * o e A -.r t.  % c Y B E : * H a A V f e # ",
": w a M g M M x : w a r a M L 5 u.J Y V %   t.e b w x $ o   o V B Y W T b.b.u.. g >.u.>.' E V M <.i u.( e e u.3.>.  x ( >.2.i.1.E c < 1 < < < < < < < < < < < p ( >.' ( u.J >.>.>.i.2.7.b.i.e . u.b.b.Y W U B V o X o $ x e M e t.  % V Y J u.: * >.g g g V c r ",
"c c M c a b g M x a e c e e E t Y V Y B :   t.e c = w * o * : V M Y W V b.b.>.. ' >.M.u.' 1.A r >.i i.] s e >.>.<.  w g >.3.i.E >.c < < < < < < < < = < < < 1 s ( >.g >.>.J >.>.E W W u.i.>.s . >.b.b.V W Y M V : * o * w - c e t.  : B Y V Y : * >.J g A V e x ",
"g a a x e a M g M e e e 9 a E r Y B W N :   ;.k ' i c % , o w g ] ( t.' b.b.>.  c 2.u.n.J 1.A B 1.a i.>.g i >.4.g   w A >.3.i.E u.M < < < < < 1 < < w < > < 1 g ( ;.i >.3.k 1.R E W E >.i.>.w   >.b.v.' u.( ] g w o , % c e k k ;.  : B W B Y e * :.A M V x a b ",
"x b b M n a b a n s g b e a R g W R Y B w   g R <.-.Y * = : - ' >.' W Z i.M.j.. e i.4.7.J Y g J K g u.>.g s i.c.g   9 g >.3.i.4.1.A < < 9 1 < < < a V < O > p ( ;.( g >.i.D E E >.4.1.k i.>.c . j.M.i.Z W ' >.' - : = * Y -.<.R g   w B Y Y W s = G a e c c a a ",
"M a a s ' k a a g e i a ' g E y E Y Y V 3   V 7.c E f.t w n A >.>.1.E 7.j.j.l.. w u.u.i.' Y B V Z i >.g e e >.<.(   9 s ( >.i.>.7.y < < i p 1 < 6 M.M a X % ' ( ' <.K >.i.' u.1.-.u.5.K i.>.w . j.l.j.7.E 2.>.>.A n w 5 f.E c 7.V   3 V Y Y E e @ G s a a 9 e u ",
"x u a a ' a a a x a g n g C W n r.Y V Y *   V h.5 <.2.e : g >.' 4.K g u.u.j.u.  5 1.K u.' E B B Y ' >.( e e >.' <.. w g ( >.i.-.i.A < < f ' 1 < f k.V ,.  $ ' ( ;.' >.3.u.Z >.5.<.>.<.2.i.4.n . u.j.g.u.g K 4.' >.g : e 2.<.t h.V   * Y V Y r.c @ G e a e i c Y ",
"= x u _ s s s : = e C a u s E y Y K B R o   x s.: Y V w : V >.;.g.<.C 5.K i.h.. w W F W y Y c M K s ;.>.a a 3.;.<.  y ' -.4.j.4.i.x < < A g 1 < V Y A Y   $ ' ( ' >.3.3.>.J <.2.F >.K 5.i.i.a . h.i.K 5.C <.g.>.>.V : w V Y : s.x   o W B K Y y @ G C g u s a : ",
"$ 5 x F g s u # # : u a a f T b W C B Y +   C W t Y V : = x s [ 4.K g r.g s.j.. i 5.W W b Y e y F e ' >.s ( i.-.>.. y >.4.i.j.3.i.t < p g g 1 < f B w Y   , 3.F ;.4.;.;.>.J ' W K ;.3.2.u.i.i . j.r.g r.f K 4.[ s x = : V Y t W C   # Y M f W y @ D F s f s s * ",
"x y f u s s V r y w u s g V G e Y y M Y ,   ;.E r Y x : - x a u.i.C B W e 5.l.. a 3.K W y ,.y B W w >.>.e ( v.4.3.. y 4.;.i.j.1.i.M , >.-.g 1 1 f V : 1.  - t.5.( 4.( -.4.J ' 6.Z _ -.5.5.i.s . l.1.e W B f i.u.a x - : x Y r E ;.  , Y M y Y e @ S C C C C s u ",
"Z u s C a s D s s u s s g V G e ,.n B Y =   ' R r W B : w y C 1.5.y B Y y k j.. 9 i.K W C ,.V B Y w >._ e y l.-.A   a 3.( u.j.W u.M t ;.>.g 1 < C W x a.  : >.] ( 4.;.4.6.V g f.Y K K u.W h.s . j.k y Y B y 5.1.C y w : B W r R '   = Y B n ,.e @ G a A s Z s s ",
"C e a B s f u a f u A g A V G 9 3.F V W :   g R t s.B : - y x W 1.y B Y y y l.. w i.5.W C 1.V V Y : K K e 3 i.;.f X i >.( u.v.,.i.f 3 ;.1.g 1 1 s W V s.  : t.( ( 4.>.-.1.V K W F F 1.a.k.u.s . l.y y Y B y 1.W x y - : B s.t R g   : W V F t., @ L g V C C a a ",
"B a s f n Y u r x n g a V V T x 5.K Y Y -   _ r.: 5.f : 3 x x F ;.B B Y a Y l.. a i.-.W g >.y B -.3 V 1.y 5 >.K i . y >.] i.j.3.i.C , t.F g 1 1 K g.V a.  w 3.a ;.>.>.;.u.F F <.a g 5.s.p.>.s . l.Y s Y B B ;.F x x 3 : f 1.: r.'   - Y J K 7.t @ Y a y u u s s ",
"V g s s g V a a V V a e V J P y 1.Y Y 7.=   k 5.w Y t x 5 e M ;.] g V W >.l.v.X s i.g.n.D E s M J s k >.g : >.Z a   e >.>.i.c.u.h.g w 3.] g 1 < W M.B W   9 >.s >.>.3.>.5.K g 5.A <.W i.i.h.s . v.l.>.W V g ] ;.M e 5 x t Y w 5.g   = 7.Y Y 1.e @ L s s s n a i ",
"x A g y g g y c x V a a V U E g u.k Y W *   g r.t W x e w M g D ' n B W 7.v.M.  e >.d.g.Z u.A x V M n ] i w ' K e   9 ( >.i.p.4.i.i , >.>.g 1 1 1.W Y r.  5 >.' u.3.>.>.u.F T W Z 5.2.f.j.i.i   M.l.7.W B n ' D g M w e x W t r.g   * W Y k u.s $ G n a i a e J ",
"$ : A x g s r + $ 5 s a B U L M J J Y E %   <.5.5 <.c , c N g N >.R V W 2.j.n.  p u.2.i.T f.g : x e e A , w A A :   s ;.' 3.i.E u.5 , u.' ;.1 1 u.g.-.j.. w >.' 3.>.( K 4.>.Z E k n.j.h.p.i.e   n.j.2.W V R >.B g B c , M <.5 5.<.  % E Y J J b @ G M b a a s * ",
": w k c e n A e : w e s M B G M g k Y J %   >.1.3 <.c , g V A R h.2.J R J 7.1.  e >.5.W Y g.A : x 5 g V , 9 g g o   e >.' i.7.Y E w , u.' u.1 p u.M.' h.  , <.p >.( ;.k u.>.J u.T W p.j.i.i.s . 1.7.J Y J 2.h.R A V g , c <.3 1.>.  % J Y k g x @ G x a b a s e ",
"V b g a s g Y a x c a a a V L r t.T Y Y :   <.A 5 g w , e g k 1.E R V W Y n.Y   w >.2.W Y W Y V e w J r > , g c -   9 g ' i.i.] >.e e u.s u.1 g 7.l.E l.  * g g >.( ( ( ' >.J 2.Y 1.M.i.4.i.g   Y n.Y W V R E 1.k g e , w g : A <.  : Y Y T t.e @ Y e V M a a M ",
"k a a A g a a a M B V a b U W B E Y W V :   g M w J : w : A g E W E k m.-.g.W   c v.i.2.J W A r Y - g s , , b w ,   w g ( >.>.' >.w 5 u.i u.1 -.m.b.W l.  : g p ;.( g ( >.>.J n.R >.i.j.i.j.>.. E u.F n.k E W E g A : w : J w M g   : V W Y E c @ Y M M a c e V ",
"J r s b s g A r Y Y V M e A E M <.Y Y V %   -.s , ' 5 w 5 <.M g.E ,.B W E n.W   c 2.j.u.V u.g M V 5 M M , % -.e >   x g ( >.>.-.E : , t.i g.1 p u.b.Y l.  - Y g ( g g ( 3.>.Z i.( T 2.j.p.j.g   W n.T W B ,.E g.M <.5 w 5 ' , s -.  % V Y Y <.c @ Y g a e t a A ",
"e A a a f b A a A Y J g s f L e Y I V A -   d 9 e >.i e c M A f.>.M c W g Y E   g W 2.5.B T B c M g g Y w + g g 9   w g ( >.>.E W x w >.r 5.1 p 7.M.V l.. : A g ( p ( >.u.] A u.( ( 7.i.p.W g . E Y g W c M >.f.A C c e i >.e 9 d   3 A V Y Y w $ Y J g M a a a ",
"x u y b V a s f r g V g f J W y 7.Y B Y x   i , p 1.( s M -.1.u.1.g u W V W s.. A 7.<.<.A <.n w s c 5 J x , ;.g ,   t c g >.4.1.W : 5 u.n 4.1 ;.v.M.W l.. , p g ;.' >.>.>.Z g 5.>.>.u.i.h.5.n . s.W V W u g 1.u.1.-.M s ( 1.p , i   x Y B Y 7.e * L J g n B A F ",
"- x u u n a e c - a n D Y k W n u.V V Y t   , , g K d w M y K >.V s V W J R 5.  f r.Y V c Y w : y 3 M -.5 , ( g ,   w y C >.i.Y W : - t.e ( 1 h.j.p.E l.. $ i i g ' >.3.4.K ( u.2.K >.u.2.r.d   5.E J W V a V >.K y M w d K g , ,   t Y A A t.y $ J a A g A f B ",
"$ 5 c x f a u $ $ 5 a f J s T y 1.V V x $   , @ i Z : , B M ] 3.A y B W f Y 2.  x Y Y A u 5.u : V - c ' i , -.s 9   t y s ;.u.D W : * u.5 6.1 1.g.j.T l.. - a i g ( ;.>.u.^ F 4.R F 1.4.5.T n   2.Y f W B y A 3.] M B % : Z i @ ,   $ x V V 1.y * M f s s A x # ",
"w e a u B w f Z x e a y u e G B 7.V V x *   e # w V - , u M k k.W Y Y n.W W W   y K A Z V 1.Y x Y w y >.e % p g ,   y C d ' >.' E - - a.t n.6 W m.j.d.j.  - y w C g g >.>.F K i.E 5.a.i.p.3.s   W W W n.Y Y W k.k M n , - V w + w   * x V V 7.B = G J F Z s u a ",
"u u a s V u f C y a u e e y L B f.B Y x *   d , s C , > s M C f.Y Y Y W W W s.  y C A V V Y B : Y - 3 ' , * i g ,   x g ( 3.>.C 1., - Y w 1.1 1.m.i.k.k.  $ d a K g ( >.1.1.( i.1.s.i.i.j.>.s . s.W W W Y Y Y f.C M s , , C s , d   * x Y B f.M , L F J A C a e ",
"N N u C f V y e 9 u u e 9 y P C s.Y Y x :   i # e p 9 , a x x i.,.,.s.n.W W ,.  x V A C x Y B x Y t y s , o , a p   y s s ' >.C K , o V - 1.p 1.m.i.s.k.  $ a a ( g ( >.1.-.;.i.3.R a.i.k.u.F   ,.W W n.s.,.,.h.x x a , 9 p e # e   : x Y Y s.f , L V s f V a r ",
"x u u y C B r s n x u w y n G K 5.Y V * *   ,   9 p - # 9 f : i.3.3.a.W Y W V   w C Y A d V V x Y x a s , O , , e   y g s ( 3.( ,.+ o x * u a E m.a.W a.  - s 5 s g ( -.>._ 3.4.5.1.2.j.N.i.F   V W Y W a.3.3.i.5 f 9 $ - p 9   ,   * * V Y 5.K % G f A V B a u ",
"M a C y u u ' s B N x y f F G V Y V B * *   ,   9 g $ o 9 i x i.5.d.1.B I W B   t g 1.A J ,.A w M - 9 g > > 9 < ,   x g g ( i.' >.* o x - n D A N.W W R   w g w s g g g >.>.3.' F 5.5.j.v.i.s   B W V B 1.a.5.i.x i 9 X % g 9   ,   * * B U R V @ <.C B g y b f ",
": a g M s s ' D t f V f C k G g Y U Y & *   t @ d n + , w t 3 2.Y g.A M 2.W Y   f D u.<.Y E A e x , # c , > 9 s ,   x ;.( ;.3.' ( o o w : Y W B d.n.W R   , g d A g g g ' >.s g A F 2.N.b.i.A   Y W 2.M A g.Y >.3 y w , + n d @ t   * & Y Y Y f , >.a u y c f K ",
"$ 5 a g A A k * $ t a n M J G n W Y Y , -   -.e ;.f o 9 9 3 , >.Z K g M 7.Y V   s Y 7.E 1.Y Z e w + * d , > i s s   x >.>.i.>.g J * * 9 = Z <.B n.g.E R   , g s Z ;.' ;.( ' n K Z g E h.b.7.V   V Y 7.M f K Z >., 3 9 9 o d ;.e -.  - 3 Y Y W n % K g b V a a * ",
"* * $ - % % $ O + o = ; - = 3 - - : - $ @ O > = - # * @ = * @ 4 , : , - x = 3 # $ : - = , % % = * o * $ * * $ , , O = , , , , % = o * = * % 3 - 3 5 = = O $ % - = # = , - - = 3 , - 5 5 5 : = + - = = $ - - % > @ @ @ @ * % - $ , O * $ = - - $ * : % $ 3 = $ O ",
"G G D G D D D D Y Y Y D Y Y G G D D D D Y D ,.G Y Y G D G G J <.G Y Y Y Y Y D G D D D D Y D ,.G Y Y G D G G J 1.G D D D D D D D Y Y Y D Y Y G G D G D D Y G ,.G Y Y D D G G J 1.G Y Y Y Y Y Y Y G D D D Y G Y D D G Y Y G Y Y Y D D Y D D D D D G D ,.D D G D D ",
"J J Y M k M f a r r M r M f k J J r k k f M k a M B J J B M B B B J Y Y Y Y J U M J U A f J k k r r b r J a k J J a k a a M a r J J Y B B B M M M J J J k J ' k r f M r M k k J M r a a k M g f J M J B Y J Y U B J J A f J k k e e M r J k k J J a a a a M a e ",
"g g g M s e M V M s e w c g b V g a a a k k b a s s g A x x x c c r M f V V V M M a b r s a A Y M a e w c g M M g a a e ' k b a g g g M V c c x M a M r s a A Y M a e w c g A V a e 9 e ' k b a g g g A V V V M M a b r s a A Y M a e w c g M M g a e e ' k b a ",
"g s s g a a M a b a a e r M a b e A a A a b e a a a a a e e e a s s k M e e a a s a a M g g V g b e a e e M g b e c a n g n a a g s s g a e a e a s g M g a V g b e g e e A g V e c e n a n a a a s s g e e a a s a a M g g V g b e a e e c g b a n a A g n a a ",
"c s g n B M M r a s n a x x A r a a a ' a a b w c a a c g g a d a g Y V g f f d e a V V Y A M r a a b a c c A r s e 9 ] a s b w c s g A g g g g a a V V B M n r a a n f M V n w a e e k e s A r x a g A g f f s e a V V Y A M r a a b a c M A r s i a s a g b w ",
"w a n e V s d - w a s c B c d - w g a g a g r - w e b e x x x - w V I V B V B - w x B Y Y g d - w a a c B c a - w g y g a g r - w a n e x x B - w B B V V s a - w a s n Y V d - w r e f i a r - : a n u M V B - w x B Y Y g a - w a a c B c a - w g y g a g r - ",
"x a s n y e x + : B e e J x x + : b n B ' n x + 5 s a b c x : + : A A Y n A x + 5 b b J A a : + x B e e n b x + : V A n a x x + t s g B n n x + 5 A n b y a x + x B 9 e K A x + : x n b s b : + 5 s s y b n : + 5 b b J A a x + t B e e A b x + : V A n a V x + ",
"J g s s e a A - B A f 9 i u K $ n a s C s k K $ e y s u i u u $ u f s u a a K $ f f a u f a y $ Y J u 9 a u K - x C g g e u K $ A f g C _ ' D % f u s u e a A - Y A y 9 s f D 3 x C f u a a u $ e f s e a a x $ f f a u f a A $ f A u 9 s s K - c C g g e u K $ ",
"a M s u x e 9 k n s Y u Z u f a s M s f f s s s M A r C Z u f a e c s f D s s a V K a A V s e a y a B u u u g F c f A n u u f a a M g a Z ' s s V C a C B e 9 s C s Y y f C s F M f u u s a s s C D a M D u u s V K a A V s 9 a y a B u u ' s F c f A n u y f a ",
"n M C B C y u s y J Y F Y C C u u M u V C ' ' s y s a ' V n u y y M C Y K ' s a y s s _ f C f g y u V J B a k J C u a y B u C u n M C B C a ' a C _ s ' F n C s f C Y C M ' ' V C u a f ' k _ ' _ a s C Y C ' ' y s s _ f C f g y u V J M a k J C C a y M u C a ",
"* * * * $ * * # * : * $ * $ $ * * * * * $ $ $ # @ $ $ $ * # # * * * * * $ $ $ $ @ $ $ $ $ * * $ * * * $ * # $ * $ $ + * * $ $ * * * * * # # # # $ $ $ $ $ * : # * * * $ * $ $ * $ $ @ * $ % $ $ $ $ $ $ * % $ $ @ $ $ $ $ * * $ * * * $ * # $ * $ $ @ * * $ $ , ",
"                                                                                                                                                                                                                                                                ",
"                                                                                                                                                                                                                                                                ",
"                                                                                                                                                                                                                                                                ",
"                                                                                                                                                                                                                                                                ",
"                                                                                                                                                                                                                                                                ",
"                                                                                                                                                                                                                                                                ",
"                                                                                                                                                                                                                                                                "
};
