/* XPM */
static const char *wall40_1[] = {
/* columns rows colors chars-per-pixel */
"128 128 36 1 ",
"  c black",
". c #070707",
"X c #170F07",
"o c #171F07",
"O c #1F170B",
"+ c #131313",
"@ c #1B1B1B",
"# c #2F1B0B",
"$ c #2B230F",
"% c #232B0F",
"& c #372313",
"* c #3F2F17",
"= c #3F2B1B",
"- c #2F371F",
"; c #272727",
": c #2F2F2F",
"> c #373F27",
", c #373737",
"< c gray23",
"1 c #4B371B",
"2 c #533F1F",
"3 c #473323",
"4 c #4F3B27",
"5 c #4F3B2B",
"6 c #3F472B",
"7 c #5B472B",
"8 c #474F33",
"9 c #5F4B37",
"0 c #675333",
"q c #67533F",
"w c #434343",
"e c gray28",
"r c #4B4B4B",
"t c gray31",
"y c #775F4B",
"u c #5B6347",
/* pixels */
"441313144<13=*411=&&3141==41417552=1414,111===-3==:=411=41315411=14411=1313177443:,,13::=111=1<534144<,,255w5w143,3,2111>3,3:331",
"77575777707777577755557707979079779797777e775533,655w5556<365<5e77778e77077579777777554,7777777w9977u797999797909777777e79775575",
"333===313333=================3;==343434333,,;;==33===;==&=&&;;&*%&,-;=4,,>,=3=;=;==1;==&;,36=,;,==;;&=@&=========,==4343333====1",
"&&&#&###@@&&&&@@&#=&&&&&%@;@&&=;&&&&&@&@&&&&@@%@&&;&&&@@&@&&;@@%##@@&@@&&;&@;;&&&&%;*&@&;&-&&&=*&&##oO@@##&#&#&&&&&&&&&&&&&&&&==",
";%@%@;%@;;&&@;@&;;%;&-;;=,==&&;&&&&&=====,=;*=;=====;=;=;=;=;;=;==;;=======&=;====&=;=&=&-&;===&====&&&&&&&&&&&&==&&==&=========",
"==3=:=:::::=,,33,3,,<,:=,,3==*:-4<*==313=*31==334,254434*=3344=1444455:=33====1=3344445413333=33===1===1==313131=3**=======*55<<",
"=====:=:=1**===*,:3=333,:=44:=:=33=11=1=1==1=3=3333=334441313413354455343=3=3====*=1=*=*===;1==&=*=*-=3=&&-=-=&&**%&;%=&=***::43",
"#O##oO+#OOOXo##O+o#+&#+O#O&#o###&&&&&@&&@#&#&&&&&&&&&&&&&;&&&#&&#O&#&&#&####O#o#+##OXXOO.XOOOOXOo+OOOO##OO#####O&#@##O#O@#;&&&*=",
"XX .XX..XX..@X+X. XXXOOX...+XXX++$@ O$$=OO+.X.XXXXXX+ +OO@OXO..+.@+XO@@+ X$OOOX$OO$OOO$$&$+ @$++XXX+...XOOXXX .X+X@..XX..XX. XX ",
"X+XXXXXXXXX.@+@XX @XXXOXXX +OOO@@@@ &&$&@$@.XXOOXX+OO @@$$&O$XX+X$.+;@O@ X$OO$O@$$$$$&&;;&# @@@@OOO+ XXXOXXX@ XX@+@.XXXXXXXXX+X ",
"XOX XXXXXX@@;@@XX O.@XOXXXXOXO@@==& &;=3&=@XXXOOXX@OX @&&&=&&X.OXO@@:;@@ @&@##O$&@;;=3=33;@ &==@@OXOXXXXOX@.O XX@@;@@XXXXXX X$O ",
"@@X.$OOXXO@O:;;+X $OOX&XXOX&&&:$;,; &335==;+$.=$XXO@$ ;&==3&=OX@X;=@3:;@ O3=&&$;=;=:35345,; ;,;$:&&&XOXX&XOO$ X+;;:O@OXXOO$.X@@ ",
"O;OOOOOOOO@@,;;++ O#&O&OOOO&5=;:,53 &777,,:+@.&OOO@&O ;3,57&3+.&O5:=5<=& O5&&&O&&:55575775: 35,:;=5&OOOO&O&#O ++;;,@@OOOOOOOO;$ ",
"O$.O$;;$O$$;1:;$+ $=O$=.O$O&<;;;w<5 &599:<3+@+@O$O$&$ ;:3=5=3$O:$<&::9<: ;5===;$315555w99w: 5<w;;;<&O$O.=$O=$ +$;:1;$$O$;;$O.$O ",
"$$ ++@$++$;$,:;;+ *4 $*.$**17:::,<e ;79e,<:;@+OO.O$OO :=:=4:=O+*$91,,q*1 $7$==*=4,77997qr7: e<,:::71**$.*$ 4* +;;:,$;$++$@++ $$ ",
"$OO.O;$+O;$;,:;;@ $$.&*$$$*49;:r<97 $77q<7:+;O+$.O$OO :=*:4=7$O4=7=<<q*7 ;4&====4,79799qqe: 79<r:;94*$$$*&.$$ @;;:,;$;O+$;O.OO$ ",
"*$+.$;$OO:@O+:;:+ $<O*;$$1;;<*,<,99 ;<<9<<=;@+$;$O;O$ :,:4,=4$+==4*7<q1e $7$==,4744977qqq<; 99,<,*<;;1$$;*O<$ +:;:+O@:OO$;$.+$* ",
"$$OO;*$+O;O+:;;:. $4$=$;**$:<::<,9e $7<9,<*;;+$,$$;$& ;:=,7=7@O:*7:7<9,9 $4**==4747e779q9<; e9,<::<:$**;$=$4$ .:;;:+O;O+$*;OO$$ ",
"..OO$;$@@:@@,,;:+ O7O,$&@**=7,,r:<e *77r,7:;,O:*O$=$O ;::,4=7OO<,9$e<q,< $=&*=*:<,<q<79q9<$ e<:r,,7=**@&$,O7O +:;,,@@:@@$;$OO.. ",
"OOO$*:,+$;+O<;@:O O*O4$**1*=,*:7;,< $<=7:<:$;$=1+$7$O ;;;49=7$@=;4$<49;9 @&$***,7,4q47797e; <,;7:*,=*1**$4O*O O:@;<O+;$+,:*$OOO ",
"O$$+;*:.O;@O:*;;O .=$7;*$*@:;@*4$;q @,,7=7*;$+:4OO7=O :::77=7@O4$,$4:e;e $&&*==,7*,7,=7q9e* q;$4*@;:@*$*;7$=. O;;*:O@;O.:*;+$$O ",
".$O@@:$.$*+$e$;<+ O=&4@$$;@*;;,<@:q $4=e:9&;4O*=$O4*O *::47=<;.7*4$74q<9 @&$***,4*77=49qq<, q:@<,;;*@;$$@4&=O +<;$e$+*$.$:@@O$. ",
"$$O@$*:O:*$;7,;,+ $4+4*@$;@:=;4<;eq $;,<*<*$,$44;.4*$ :4:4747@@<=4$7<q;9 $:$:*==7447=7yq97: qe;<4;=:@;$@*4+4$ +,;,7;$*:O:*$@O$$ ",
";$$ *4*O;7$$,;;:. *<O:O$$@+*:::,;99 $=,e:7=;*$=1$+=$; ;4,77=7OO4:7;<,9*, $:*:**47=:9499qqq* 99;,:::*+@$$O:O<* .:;;,$$7;O*4* $$; ",
"**OO*;;@;,$,,,;,O :=+*$OO@+*14,<:qq :,4<=9,:*;$=O$,:; ;7,<7*4O+<=4$:ee;, ;7;=:=44:49,q9qq9* qq:<,41*+@OO$*+=: O,;,,,$,;@;;*OO** ",
";;+O4**O;9*;*;::O ==O*;OO@$$7e,::e9 ,7<9:7,@;$;=$$,=$ *7:77::++,;<:<e<@; @4*=*:=4749499q97* 9e::,e7$$@OO;*O== O::;*;*9;O**4O+;; ",
";$OO=*$O*4*@,*:,O ::O:$@+.@@<,:<;9q $4<7,e,;*$=*O@*=, *<=79*4$@7$7$:<<@+ ;7*4=,*44=747qq7<* q9;<:,<@@.+@$:O:: O,:*,@*4*O$*=OO$; ",
";@$$*;$O$4*$,<,;O :;$,$+ $.$=7,<:9q ,<77,74,*O1*O@*;, :4,77,=$$7*7$<,9.: ;4*,,=,7=:7=7q997= q9:<,7=$.$ +$,$;: O;,<,$*4$O$;*$$@; ",
";@$;*;*+;*$$<:::O =,$:;@+.@=14=4*qe *974=7,;*O1*@$=;* :4=79,4$@7$=$:<<;+ ;4:,444=4=7*79979: eq*4=41=@.+@;:$,= O:::<$$*;+*;*;$@; ",
";;$O=4,+**$:*,::@ =*$:;$$$$4=71,:<< ,4e7*7,;,$44$$7*; *=,777e;$7O4*:<e$: ;4*:,:47<47=77q79* <<:,17=4$$$$;:$*= @::,*:$**+,4=O$;; ",
"$;O;*,;O,,;$*:;,+ :@@,*;$$*4=4;<;<r ,77<,7****17;O4:$ ;:=7744$$7$7$;77;: ;4*4=4<4,=<4497re: r<;<;4=4*$$;*,@@: +,;:*$;,,O;,*;O;$ ",
"*@$$*,*+;*$$,;::@ <@@4*$;**e44$,;,e :7<4:4*;,$$<$@7*$ ;44e<:4;O7$<$;47,< ;4*4*=474*7447qe7* e,;,$44e**;$*4@@< @::;,$$*;+*,*$$@* ",
",@$@:*;O;<:$4;:,O <;:,:$;$:744;,;49 =974*94:,$*,;O*;;.;4,77:<;+7$e$,7q<< ;4*,*,<4,*97479e7* 94;,;447:$;$:,:;< O,:;4$:<;O;*:@$@, ",
"$$;;**:+;*$;*@,:@ 4@:<<$:;;<,;;;;<< :77,*74$,$*;$;4*; *7477,4$O9$4$*7<<q $7*::=47:=74779e7, <<;;;;,<;;:$<<:@4 @:,@*;$*;+:**;;$$ ",
",,;$,:=@;,;$4;:;+ 7@=,;$:**7:*;:@<< :77=;4,;<$4=*$,:;.:7479:<$$7$7;*77<r ;4==**44=49,777e94 <<@:;*:7**:$;,=@7 +;:;4$;,;@=:,$;,, ",
"::+$***O;,$$<@:;@ 4*:7*$:$@<;*,;;<q *47**7:$,$$=$$*$$ *7777:,@O7$4;:9779 $7==:*4==,7449994* q<;;,*;<@$:$*7:*4 @;:@<$$,;O***$+:: ",
"$;O$44;$;*@*<;::; 7*,44*1:;<<,,,;<9 *47=,7=$1$*=$O;$$ ;=,<4*,@Oq$e41q9er ;4:1**44,47<797e<= 9<;,,,<<;:1*44,*7 ;::;<*@*;$;44$O;$ ",
"$*O;1**$$,$*;$:;$ 7;::;$;41747=,*7, *,7*=4:;:$1*$$=;* ;:44<:,;;9$4*;q97q $4**$*1444<,77e991 ,7*,=74714;$;::;7 $;:$;*$,$$**1;O*$ ",
"$,$$:4*$;7O;<;:;@ q$:=:$:,:7447=<<; *,7:=4*;,$14$$==$.;4=,e:4$$7$4<=y99q $4*:=*44=47,77qq9* ;<<=7447:,:$:=:$q @;:;<;O7;$*4:$$,$ ",
";*+$17;O:7$*<$:$; 7$<7*;::*q4q4;7,$ **7:<4:;4$*7&*4,$ ;=:47*4;$q*77*q99q $=*;,*=744,777qqe= $,7;4q4q*::;*7<$7 ;$:$<*$7:O;71$+*; ",
"$,O$14:;;,$*,;,$; <$e4*:,:;947=:74: $*<4=44:***4$=$*@ ;<:77:4;$9174;q9qr $:**=*44==<e9e9q4: :47:=749;:,:*4e$< ;$,;,*$,;;:41$O,$ ",
"$*+$;7*$;4@$,*:;$ 9$:=*:;;$444=*<=; $=7&:=,$*$*,O$O$$ ;4;47=4;$q$44*qq7< $**;:&=4==474<<q7* ;=<*=444$;;:*=:$9 $;:*,$@4;$*7;$+*$ ",
";:@**7*@@4O;7;,;; 7+*:4;:;$q=474<,, *,9**,,;4$*7O+@$..;*;77=7;$q$494q4qq O***=&=4==7747qqe4 ,,<474=q$;:;4:*+7 ;;,;7;O4@@*7**@:; ",
";;;$=4$$$4@;<;:;$ 7$1<4*$$$7147=<<, *=74*,*$4$=*@+$$. *=,79=7$$q$77*q797 @,=***=1444477qq9= ,<<=7417$$$*4<1$7 $;:;<;@4$$$4=$;;; ",
";,@+4*;$;:O@,@,;@ e$444;;;O7147&4<, *444**=;4O==$$$.$ *4=47=7;$9$74*q47e $44*,*4=447777797; ,<4&7417O;;;444$e @;,@,@O:;$;*4+@,; ",
";:O@:*$$@,@@,;:;; 9;447$;*$9477*47< =<744==;7O==*$$$; ;7==447$$7*q4*q77q $74*4==,4=74797q7= <74*7749$*;$744;9 ;;:;,@@,@$$*:@O:; ",
"@,+;,:*O$*;$,;:*$ 9*44q;$;O9447*4q: ,=44*4=;=$*1*=*$$ *4:4747$$7$q11q99q $4=*4:==*444777q7* :q4*7449O;$;q44*9 $*:;,$;*$O*:,;+,@ ",
"@*++;:;@;$*@:;,:O 4O*=4$$*$9447:9q: *,74*=,;4&4=&&,;$ *=44747;*q$971q949 $4***$,==44794797* :q9:7449$*$$4=*O4 O:,;:@*$;@;:;++*@ ",
"@;O.,,:$;*:@4:,;+ 4$**7$:4=9777*79: *477*4=:7;9**$4;* $===744;*q*q9=q974 O4=&=:=7=747747q7* :97*7779=4:$7**$4 +;,:4@:*;$:,,.O;@ ",
";;O@;4;;;,*;,;:$$ 4;:$7;44=7747;e<, &477*=,;4&91=&4=* $444744:=q;q779q9; $7===**7=44774794* ,<e;7477=44;7$:;4 $$:;,;*,;;;4;@O;; ",
";:$O,,,;*,*@;::$$ 47:49;14199;7;4:* $=44***:7*74:*474 ;444744:*q*q=q4q94 $9==*==74744447q7= *:4;7;99141;94:74 $$::;@*,*;,,,O$:; ",
";;+@:,;@$;$@:;;:$ 49$47*44477:=;<<< $474*=*$**44*$=,1 ;4*44=4$*q*7474q44 $7=,:=47=44474794$ <<<;=:77444*74$94 $:;;:@$;$@;,:@+;; ",
";$@O**;O$:;@,$;:+ =7$44*44447:<<777 $,=4*=*;,$:4$$=*= $=*=4*4:$947494q=q O7=1*=4===74<7774& 777<<:74444*44$7= +:;$,@;:$O;**O@$; ",
"@;O+;*,@;,*$,:$:. ;q$74=44449*=,*4< $==7*<;,**47$$1$* $==44*4:*74747=9:q O4****47==<,44747$ <4*,=*94444=47$q; .:$:,$*,;@,*;+O;@ ",
";$OO*,:$$<;$4;O,. ;qO4:147414;*<;77 $4=7&7$$,*77$$4$* $4=47*4;@447*74q49 $4**==*4*47=44744$ 77;<*;414741:4Oq; .,O;4$;<$$:,*OO$; ",
"$+OO*,,;;,$$4;;:. @7O41:*4*<4*;7;,7 $4=7=4&:<$77$$1;; ;4*47*4$@$;7*94q:q O4&$=*=71=7*4=944& 7,;7;*4<*4*:14O7@ .:;;4$$,;;,,*OO+$ ",
"+$O$*,4O;,$*4;@,+ .=+7**1,:47**4;47 $4=4=7*$7&=4$$*;* $4=47=4;O:.4$94q*q $4=&*4*7==7447747& 74;4**74:,1**7+=. +,@;4*$,;O4,*$O$+ ",
"$$+$$=:+;<:$7$@;. $7O7;*$,,77*47$$7 $4=7*7*:=$44OO=$1 $4=47==$+4;7*q1q49 $4&&:**4==74=7774& 7$$74*77,,$*;7O7$ .;@$7$:<;+:=$$+$$ ",
"$*OO$*;O;<**7$O:O =9$,*$@=*74:44O*9 $444*7&,7$1=$$*** $=&44&4$O=4q194q1q O4*****4==<**7794& 9*O44:47*=@$*,$9= O:O$7**<;O;*$OO*$ ",
"$$.$$:$O*=;,q:$,+ 49O4$$$=*44:4*;ee $4=7=9**7*=4*O*=& $==44*4$@444*q7q<q $4$=*$=4*47*7q974& ee;*4:44*=$$$4O94 +,$:q,;=*O$:$$.$$ ",
"@$$.*:*O*4$;4$$,O &4O4$;$1&=:4;**7e $447&7*$=*44*O;=& $4=47=4$$4=4174q=q $=$***====4=77777$ e7**;4:=&1$;$4O4& O,$$4;$4*O*:*.$$@ ",
"@*$.***@$4$*4;@,O =4$,@$;;$**;;*;99 $,44*7&$**14$$:1= $=&=7=4;$444*44e,9 $4$4**44=*4=77777$ 99;*;;**$;;$@,$4= O,@;4*$4$@***.$*@ ",
"$$OO,4,O$4O;1$$,+ 49+41$;1=*4<;;:7q $744*7&$*$44$;=41 $4&47=,@$4*4*7qr;q $4&:*=*44*4=77774* q7:;;<4*=1;$14+94 +,$$1;O4$O,4,OO$$ ",
"@@OO4**O*:$$7;$,O 41O7:$*=44<,;;*7q &=44=4*@*$=4&$==1 $4&49=4$$4*7=97q;9 O4$=====4*4*79q74$ q7*;;,<44=*$:7O14 O,$;7$$:*O**4OO@@ ",
"$$O;,*;O$*;$7:;:$ 44O4:&$4=1::@:*9q $447441;=$4=$$=*4 $=*=7=<$&9$7$79q*q $4$===*,:*7=77777= q9*:@::1=4$&:4O44 $:;:7$;*$O;*,;O$$ ",
";O$O;:;O$*$$=*::O 4=$=;*:,*4*,;:;e9 *77==4*:=O44$$4$* $=*47,<;$9*4*47q7q O=*==4=:;*4=47477* 9e;:;,*4*,:*;=$=4 O::*=$$*$O;:;O$O; ",
"OO@O$*4O;**:4*;$O :$O=$$*:;,::;*$4: &444&=*;1*44$O4*$ $=&77,<$$4$4*179*9 $=$:=*,:;*4=44777& :4$*;::,;:*$$=O$: O$;*4:**;O4*$O@OO ",
"@$O+**$O==*4;*::$ 4O$4$$;::4:4*,1ee *477*7$;1==4=O44$ $*=774<$$7$7*,,9*q O,$,=::*;:==77777* ee1,*4:4::;$$4$O4 $::*;4*==O$**+O$@ ",
";$OO*;*O*4$:<*$:; 4$&,$*;;47<,;4$4e *7=447$;*$*4$$4== $=*74,4$O9*q*4<74q $**4*:::::,:47977: e4$4;,<74;;*$,&$4 ;:$*<:$4*O*;*OO$; ",
";O++:**O*,*;<;:,$ 4&&:*@*477,,*<$49 *7444<&;4;44=$4== $*4471<$@q*9*7474q O*$***,=**7447777& 94$<*,,774*@*:&&4 $,:;<;*,*O**:++O; ",
"@@+O*;*$:*$=4$:;O 4$*:;$444<:*,:$,7 *744=4*O:$$4=$=4* $*=474<$$q*717<749 $:&1=,,,;=4=4777=* 7,$:,*:<444$;:*$4 O;:$4=$*:$*;*O+@@ ",
"@$O@*4*O;,*$,::;$ 4$*=@$=:=71414;44 *774*=*;:@.=$$=4*.$=444,7;$9$7*=4,4q O=*=*=4,;*<:4=777* 44;41417=:=$@=*$4 $;::,$*,;O*4*@O$@ ",
";;+O*,*O*<$@,$,$+ :O*1;$,4*74**4$7e &,4==:*$:+;9*$=4$ $=*44=e;Oq*4**<,49 @,$,:4,,:*4=44794& e7$4**47*4,$;1*O: +$,$,@$<*O*,*O+;; ",
"$OOO$,;$**$$4*;$@ 4$;,;;44*944*<$4e *47==,:;4$14*$144 $=44747;$q$711<419 O:*4*:<,:*744447=$ e4$<*449*44;;,;$4 @$;*4$$**$;,$OOO$ ",
"@;+$;,:+;*;*<;:;@ :O44:@14*74474*4: =,7*=4=;4*44*O=44.&*=47,e;;7$4*1<,7q $4*4=:<<*=7==4477* :4*47447*41@:44O: @;:;<*;*;+:,;$+;@ ",
";;@@;**$;4O;=$:;O <$;,@@*4*==44=17: *=,**,,;7*47*$=*4 $*479,7$$7$4=*<:7q @:$4,*,,:4417=797* :71=44==*4*@@,;$< O;:$=;O4;$**;@@;; ",
";$@+,<*$*<$$:;:;O 7$7<;;,4*<=44;<e: *=<=***;7=4q1*47: $44774e;$q*44*e<7q $=*=,:,<,4,=4=7q4$ :e<;44=<*4,;;<7$7 O;:;:$$<*$*<,+@$; ",
"$:O$*4,;*<O;:;:;* 9&,<@:4=*<*4*=q7: **<,,4,$7419=*=94.$477747$*q=74*9,77 $4*44*44,4,<447q7* :7q=*4*<*=4:@<,&9 *;:;:;O<*;,4*$O:$ ",
"$$.;*4=O*<$;:$,;$ 7$::;;*1$7=,**74; *,9=,=4:4*=4*$=4= ;4=774<;*q*7<*9799 $:*,=*===*47447q7* ;47**,=7$1*;;::$7 $;,$:;$<*O=4*;.$$ ",
"&;@;*7;$*<;$:;,$$ 4+;:*@;*$74*:4777 =4<,,44;7*=4$$*7=.$==474e$$q*77*q:<7 $1*=,:=,*:7,,47q74 7774:*47$*;@*:;+4 $$,;:$;<*$;7*;@;& ",
";$$@=*$O;4O$,;,;$ 4$*,:;+$O7=44*779 =,e,*,=$7$*4*$=44.$=47747$$7$74*<;:q @4414:7==47=74799= 977*44=7O$+;:,*$4 $;,;,$O4;O$*=@$$; ",
"@:;@4=;O$4;;,;:;$ 9$:<;++OO4*=7*q99 ,4,<:,:;7O*44*144 $44794e$O7$94*,*;, @44*4=====44777q7$ 99q*7=*4OO++;<:$9 $;:;,;;4$O;=4@;:@ ",
";:O$*:*$$4$@,;,;; e;,::+O$+7*4<1799 =4,4*,=;7$44**447 *4449,7$$7$74$1;;; O4,=4*44=4,=777q7* 9971<4*7+$O+::,;e ;;,;,@$4$$*:*$O:; ",
"@:O$;**$$1$@<;:;O 7$1:$.+ .,;:,$eq4 *,,,**:;=$4=$=444 $74<7,7;$7$7*;;.;+ O7=*4*4414,=774q7; 4qe$,:;,. +.$:1$7 O;:;<@$1$$**;$O:@ ",
"@:OO$;$O$;*@7:,:O 7$;$;O...:;:<,qq7 =474*<:;4$7=$$744 ;=4474<;$7***$,;.+ @,=*4*=7:44474<q7$ 7qq,<:;:...O;$;$7 O:,:7@*;$O$;$OO:@ ",
";:+.;$$@+;*@,:,;@ 7$;+$+.@@:;,<;qq4 14e7*4:$4$71*$444 $=447,4;;9$74$:;+; @4**4*44:44,<<774* 4qq;<,;:@@.+$+;$7 @;,:,@*;+@$$;.+:; ",
"$:O+$;$O.$*$,;<;@ 4**$;O$.$=1=7*qq4 ;47e:4:;4$74*$44= $:447,7;@7$44:@;$. O7==4$44*4,,<,474$ 4qq*7=1=$.$O;$**4 @;<;,$*$.O$;$+O:$ ",
"$;O@.;;O.$;*<,,;$ *,41:++@+*4*<=7e9 $74<:,*:,*74=*7q= $=44744:$9$71q;;:$ +7*4=*47:,,444*74; 9e7=<*4*+@++:14,* $;,,<*;$.O;;.@O;$ ",
";$++.;$OO$@$,,::$ :<;,e@$;;444<,99q $777=:;:=$4=$$44= $**474<$$7*44q<e;: O7*=4:47*74=7<:74$ q99,<444;;$@e,;<: $::,,$@$OO$;.++$; ",
";$++$$$+O;;;7:::+ :9@47$@*4*4,*7797 @4,71<;;,*4=$$4=4 $==47=7:O7,7=74q;7 O7*4=447=4<444474; 7977*,4*4*@$74@9: +:::7;;;O+$$$++$; ",
";;O.$$$O@:;$,,;<. ;7@,:$@:4491;<,79 $<=<$,;:,*44$$444 ;==4947;@,:4*7,<:< O7==4444:44=4:<77* 97,<;1944:@$:,@7; .<;,,$;:@O$$$.O;; ",
";;++;$;@@1;;<*;<. ;e@,:@+;1*4,*7=79 $<,<;<$$*$=4**7=4 $447947@O**4$<;:$, O7=44444:=<,44477$ 97=7*,4*1;+@:,@e; .<;*<;;1@@;$;++;; ",
"$@O+@,,O;<$$<;;,O 1<$,;@O;$77*;<$,q *4,<$,$;<$44$=947 ;447947;O7=4$4*;@< O7,=7*=4:1<==4<47* q,$<;*77$;O@;,$<1 O,;;<$$<;O,,@+O@$ ",
"$@+@@::$$,;$,$;,O 4<$<;@@;*47;;<$49 $7*<;4;;<O41$*q44 $7=79,7;$444$,;<@7 @44=4=47:=7:1=4<7* 94$<;;74*;@@;<$<4 O,;$,$;,$$::@@+@$ ",
":@+@O*4O$7:$4:;<+ *,$e;@$$;,,$;,;$q $7,<*,:;,$4=$@9*; *4=49<7;@144;<*<;e @4**744<;=e,:,7<9* q$;,;$,,;$$@;e$,* +<;:4$:7$O4*O@+@: ",
";;O@@,:+;e$O7*:<@ =<@7;@+;@<4;;,$;q $74<;4;:,+:<$O74*.$4*7q=7*O4,<$4*<:7 @7==41=4:,<**4<94* q;$,;;4<@;+@;7@<= @<:*7O$e;+:,@@O;; ",
"*@+O$::O;=$;<,:,O 17+,*@$;;=1;;,*<q *7=<*4$;1$:4;@4:$ ;417777;O7*=$,,9;e $4$44447*=4$=<774* q<*,;;1=;;$@*,+71 O,:,<;$=;O::$O+@* ",
"$$@+:,:$,7;$4:,e+ *<$<@;@$;41*:<4qq *79e:<*;:**4*@4=* $447q49*$41=$<<e;< $4*4444<,=<:4<779* qq4<:*14;$@;@<$<* +e,:4$;7,$:,:+@$$ ",
"$:O+::*O;*$*7*:,+ =7@<;$$:*:*;;<<9e $4<7=7:@:;;1$$*,$ $=47747$O44=*44<,7 @4*74447=,<=<4e97$ e9<<;;*:*:$$;<@7= +,:*7*$*;O*::+O:$ ",
";;+.;**O*7O;::,<O 4<@4;O;;*;4<:<49e &747,e*@;$$:O$::@ *4=47,7@O7*4;<79*q $4*44=:44=<*e9777$ e94<:<4;*;;O;4@<4 O<,::;O7*O**;.+;; ",
";OO.;;;O*,$;**,:O 44O4;O*::,94:,:<4 $4<<:7:@;@=:O$**. $4*7<:<$O7*7;77e*9 O4&4=4*74:7,<7977* 4<:,:49,::*O;4O44 O:,**;$,*O;;;.OO; ",
"@@OO;$$O*,*$7,,,@ 4:@=$O$**4,,;<:e, $44<:<::$$,$OO*;@ $=*7714$$7&7;4<q,q +=*4=*==4:4:4e747* ,e:<;,,4**$O$=@:4 @,,,7$*,*O$$;OO@@ ",
";@+O@$;O;$;;<:<:@ =;$,@$@:*,<<*r*7< ;q74:<:$,+**OO;$$ $==44*4$@7$7;req<q @=&4===44:e,479794 <7*r*<<,*:@$@,$;= @:<:<;;$;O;$@O+@; ",
";$O.$;;O@;$;4,::O 4*O1@$@4;7,4;<,e< ;497;7=;:@;;OO4$O ;**441<@O7$9;=7q:q O,*====44=7=,4979* <e,<;4,7;4@$@1O*4 O::,4;$;@O;;$.O$; ",
";*.+$;;+$;O$::::O =$$4$$;;;e4;;<*:< *<4<;,;;;**<$.*=$ $**44,<;$4$<$=<r;q @:*=&=471:7==<77<* <:*<;;4e;;;$$4$$= O::::$O;$+;;$+.*; ",
"O$+O;;$++.O$<:;,; &O&4=*;4474*$<;,9 :<44:4:$*;@:;O4=$ ;;*444<@@7;9$1qe,q $&=4*444==<41779<; 9,;<$*4744;*=4&O& ;,;:<$O.++$;;O+$O ",
"OOO+;$; O$O;7::,; $O=,*$;$,4:*:<,<< *7::;,$@$$;4@O==O $;;47:<@O7$=$997<q O$$=*444,*74,4747* <<,<:*:4,$;$*,=O$ ;,::7;O$O ;$;+OOO ",
"OOO+@$$+.O+$4;:;O OO==@O:;14;$;,$:7 ;,,:$<$+:+;*&O4&$ ;$*47:<@+7O4$479:q O*&=*447*=4,=44,,; 7:$,;$;41;:O@==OO O;:;4$+O.+$$@+OOO ",
".O.+$$$+$:;;<::;+ $.O:@O;;*7<::e,,, ;,:*:4:;:$;4$O=*$ $;&=4*<@+9@r;<e9<9 @@$==*44*,7,,<774* ,,,e::<7*;;O@:O.$ +;::<;;:$+$$$+.O. ",
"O$O $$$O:<;;9;:;+ &O*:OO*;*e<,:<<<e $*::;,:@,@$4$+&=O ;==44*<OO<$<:,e7eq O=$:*=44,=7,77794* e<<<:,<e*;*OO:*O& +;:;9;;<:O$$$ O$O ",
"$O.O$$$O$*@;e;,@@ *O&&$O*;;7::,<,<7 ;:=::,;@:O@*O+$*& ;**44;4O+,O7;4e77e O$*4==4,4*74,7774* 7<,<,::7;;*O$&&O* @@,;e;@*$O$$$O.O$ ",
"OO O$;OO$:;*7,,;@ $.$&$$$;@9447e<,: ;::*@::;,;**$ O$& $***4*,O.:+,*,e7,q O*$&==44=474,<7e7, :,<e7449@;$$$&$.$ @;,,7*;:$OO;$O OO ",
"$O..O;$O;<$,<:;.+ $ $=+.$*@744<::<: $*,:*::@:@$*OO$O$ ;=*=7=4..;+$,,e<<< @*@*=*=4144,449q7* :<::<447@*$.+=$ $ +.;:<,$<;O$;O..O$ ",
"OO OO&$O;<@;,::@+ $ $=O.$$;7<e4;:<; ;*4::4:$;O$=OO$&O ;===7*4+.;O:<;q,<< $=$*===444*=<,797* ;<:;4e<7;$$.O=$ $ +@::,;@<;O$&OO OO ",
"@. .$*$O$:$*,:,.+ ;O=;.$$;O4:7;;7<, *:74,,:$;$.;OO$*$ ;4=44*=..$@,<;<e,< O*&:=*==4$=:*4rq7: ,<7;;7:4O;$$.;=O; +.,:,*$:$O$*$. .@ ",
"O$ O$*$O$4$;<:,$@ 4$4*.$$OO4=:*;<:: *,<,4:=$$.+*OO&** ;4474=,++$+=4;e7,< $=*=4*4=*:,=*,7q<: ::<;*:=4OO$$.*4$4 @$,:<;$4$O$*$O $O ",
"@$.O$:$+$7O;e;,@O 4O*&O@$$O4;$=4<,= :,<=,::O$.O;O.O4*.;1=47*4O.4O=4;e,*< $=*$*==4*===449q71 =,<4=$;4O$$@O&*O4 O@,;e;O7$+$:$O.$@ ",
"$$OO&*$O$;+@e::$+ 4O=4;$OO.4$:,;::, :,4<,,*@;.+;O+$1& $==47:<O.:O77*r<;7 @==:*=4===4=44999: ,::;,:$4.OO$;4=O4 +$::e@+;$O$*&OO$$ ",
"$;+O$$$O$1O@<;:@O 4$$*;OOOO=$*7;,<, ,=44:::O$.$*OO$*& ;,,49;4O.:.**$4:,4 O1*$==4==444=77q9$ ,<,;7*$=OOOO;*$$4 O@:;<@O1$O$$$O+;$ ",
"@$.+$$O$$*O$7@,$@ ,$*1*$O+$4*;:$=<: :,4<***O;.$*OO$*; ;4=77*4OO1O<4*4,,< @4****4=444*,77q7; :<=$:;*4$+O$*1*$, @$,@7$O*$$O$$+.$@ ",
";$O.$*$O$*+$<$;@@ 7O*&$OO@O7*;*@<<$ *,,=::$$;+O*OO$=$ ;<=47*4++*O7&$7=,7 @=:;*$1==444444q7; $<<@*;*7O@OO$&*O7 @@;$<$+*$O$*$.O$; ",
"$;+O$**O@;$@4;,;O 7$$&;O@OO41$*$<<, ::<<&,:$$O*&O+*$$ $4,=744$O=$,;$e<:< O4$$:*=4=444774q7* ,<<$*$14OO@O;&$$7 O;,;4@$;@O**$O+;$ ",
";*O *$;OO@;O,@:@O 4O*$;O$*@4*$4O<<, :,<=*=:$$.1&OO=$$ ;=417=4$O4+=,*47:, O4$&=*=4*444947r7$ ,<<O4$*4@*$O;$*O4 O@:@,O;@OO;$* O*; ",
"$$OO@**$O@@@:;;;+ 1&@O=$;$O*;::$<<, =<<4$=*O$O,*$O&&$ ;===414$@;.:4;7e,; $=:**;=7=444747q7; ,<<$::;*O$;$=O@&1 +;;;:@@@O$**@OO$$ ",
";$@+**;$O$;$;@:;O :7;*=O$;+;=@;$:7, $44=$,:@$+;;$@=*@ *4444,7;O;+4;=:7,, $7:****7=4447=7q<* ,7:$;@=;+;$O=*;7: O;:@;$;$O$;**+@$; ",
"=3444444*54<>,:,,,::,<,:,,,,;*15777757999999995q97e779777991ew*1,7w35eeeweeeeq57,,w<t711q7434554*11*;,,,;%;:;@@;%-;:%<35&q1;tww<",
"@;::::::;==;;@@;;;@@;;;@=:$;;;,:34433455444744=53,3334==317*:;$;@:=*=131=3334q=4%%:-<**$4:%%%-:;$;,;;;$:$++++..++@+@$@$*;<$$7133",
" +@O%O$;OOO.$+.++...O+++@O+.. O. + . ;::=:*$,***=&&;;-;;;:,$*;+O+$%+@%;@;%;%:***. OO$O@@;@+++++. .O ..+O+...X   .+ +$.OOO;$O:+@@"
};
