/* XPM */
static const char *wall57_1[] = {
/* columns rows colors chars-per-pixel */
"128 128 115 2 ",
"   c #0E0E0E",
".  c #0F170C",
"X  c #11180E",
"o  c #151514",
"O  c #161B13",
"+  c #191B16",
"@  c #1C1D1C",
"#  c #14240D",
"$  c #18270D",
"%  c #162A0E",
"&  c #17300F",
"*  c #162210",
"=  c #182412",
"-  c #192C11",
";  c #1E211C",
":  c #173310",
">  c #1A3511",
",  c #1C3B13",
"<  c #1E3918",
"1  c #242C14",
"2  c #20221D",
"3  c #272C1D",
"4  c #292F1E",
"5  c #233212",
"6  c #233B15",
"7  c #27321A",
"8  c #2F361F",
"9  c #223D19",
"0  c #2F391F",
"q  c #30381F",
"w  c #242423",
"e  c #272823",
"r  c #292B25",
"t  c #2A2B28",
"y  c #263122",
"u  c #2C3121",
"i  c #2C3320",
"p  c #2F3720",
"a  c #2F3621",
"s  c #2F3920",
"d  c #2E3029",
"f  c #303721",
"g  c #303624",
"h  c #313820",
"j  c #333B22",
"k  c #343C23",
"l  c #333B24",
"z  c #343B25",
"x  c #343A27",
"c  c #353D26",
"v  c #373F27",
"b  c #383F27",
"n  c #383F28",
"m  c #1F4217",
"M  c #204317",
"N  c #214519",
"B  c #2B431E",
"V  c #244C1A",
"C  c #2A4D1D",
"Z  c #27531B",
"A  c #28551C",
"S  c #2A581E",
"D  c #2E4B20",
"F  c #344224",
"G  c #394027",
"H  c #374827",
"J  c #394A27",
"K  c #384028",
"L  c #3B4328",
"P  c #3B4229",
"I  c #3C432B",
"U  c #3F472B",
"Y  c #3E442F",
"T  c #3D4A2A",
"R  c #2E5120",
"E  c #2D5E21",
"W  c #315623",
"Q  c #325A25",
"!  c #3F512D",
"~  c #365E28",
"^  c #2F6223",
"/  c #306524",
"(  c #326926",
")  c #3A672C",
"_  c #356E29",
"`  c #3B682C",
"'  c #36722A",
"]  c #38762B",
"[  c #3C7D2D",
"{  c #40472B",
"}  c #40482C",
"|  c #444B2F",
" . c #41572F",
".. c #444C31",
"X. c #454D32",
"o. c #484F33",
"O. c #4A4F35",
"+. c #445431",
"@. c #4A5135",
"#. c #4B5337",
"$. c #4D5337",
"%. c #4E5337",
"&. c #4B5437",
"*. c #4A5B35",
"=. c #4E5438",
"-. c #505439",
";. c #406D32",
":. c #51673F",
">. c #565E41",
",. c #526640",
"<. c #3E812E",
"1. c #3F8530",
"2. c #408731",
"3. c #418E35",
"4. c #429136",
/* pixels */
"U U U U } } { U { } } } } } } } U U } U P c P P U } } } } U P P U U P P U { U } } U P P U } } } } U P P U U P P P P U U P P U U { { { { U U U U U } } } } } } } } } } U P c c P U } } } } U P P U U P P P P U } } } } { { } } } { { } } } } } U P P P P U U P P ",
"X.X.X.X.X.X.X.X.X.o.$.-.-.-.-.$.o.X.X.X.X.X.X.o.$.-.-.-.-.$.o.X.X.X.X.X.X.X.X.o.$.$.o.X.X.o.$.$.o.o.$.-.-.-.-.$.X.X.X.X.X.X.X.X.X.X.X.X.X.X.X.X.X.o.$.-.-.-.-.$.O.X.X.X.X.X.X.X.$.-.-.$.o.X.X.X.X.X.X.X.X.X.X.o.$.$.o.X.X.o.$.$.o.o.$.-.-.-.-.$.o.X.X.X.X.X.X.X.",
"h h h h h h h h h h h h h h h h h h f f f f h h c P P P P c h h h h h h h h h h c c h h h h h h h k U U P n n c h f h h h h h h h h h h h h h h h h h h h h h h h h h f f f h h c c h h h h h h h h h h h h h h c c h h h h h h h k U U P P n c h f h h c P c c ",
"8 8 8 8 8 8 8 8 8 i e w w e e r a a t w w t i h P P h 8 8 8 8 8 8 8 8 8 8 8 8 8 h h h 8 q q 8 8 8 h c c h a r t t r i 8 8 8 8 8 8 8 8 8 8 8 8 8 8 i e w w e w t a a r w w t i h P P h 8 8 8 8 8 8 8 8 8 8 8 8 h h h 8 8 0 8 8 8 8 h c c h a r t t r i h c c h 8 ",
"8 8 8 8 q q h q 8 8 8 i r t t r a a r w w t i h c c h 8 8 8 8 8 8 h c c c c c c c c c c c c c c c c c c h h c c c z h 8 8 8 8 8 8 8 8 8 h h h h 8 8 8 i r t e r a a r w w r a h c z t t t r a 0 8 h c c c c c c c c c c c c c c c c c c h h c c c z h h c c h 8 ",
"c l f h G P c c c z f a l c c c c l a 8 8 a l c c z f 8 8 f l c c c c c c c c c c c c c c c c c c c c c c l h 8 8 f l c c c c c c l a h P P c c c z h f l c c c c l a 8 8 a l c c l a a l c c c c c c c c c c c c c c c c c c c c c c c c l f 8 8 f l c c c c c ",
"@ @ w w w w @ @ w w w w @ @ @ @ @ @ @ @ @ @ @ @ @ @ @ @ @ @ @ @ @ @ @ @ @ @ @ ; w w ; @ @ @ @ @ w w @ @ @ @ @ @ @ @ @ @ @ ; w w @ @ w w w w @ @ w w w w @ @ @ @ @ @ @ @ @ @ @ @ @ @ @ @ @ @ @ @ @ @ @ @ @ @ @ ; w w ; @ @ @ @ @ w w @ @ @ @ @ @ @ @ @ @ @ @ @ @ ",
"w w w w w w w w w w w w w w @ @ @ @ w w @ @ @ @ w w w w w w w w @ @ w w w w w w w w w w w w w w w w w w w w @ @ @ @ @ @ w e i 8 w w w w w w w w w w w w w w @ @ @ @ w w @ @ @ @ w w @ @ @ w w w @ @ w w w w w w w w w w w w w w w w w w w w @ @ @ @ @ @ w w w w ",
"o o o o o o o o o o @ @ @ @ @ @ @ @ @ @ o o o o o o o o o o o o o o o o o o o o o o . . o o o o o o o o o o o o o o o o o o o o o o o o o o o o o o @ @ @ @ @ @ @ @ @ @ o o o o o o o o o o o o o o o o o o o o o o . . o o o o o o o o o o o o o o o o o o o o ",
"@ @ w w w w @ @ w w w w w w w w @ @ w w w w @ @ @ @ w w @ @ @ @ @ @ @ @ @ @ @ @ @ @ @ @ @ @ @ @ @ @ w w w w @ @ @ @ o o @ @ @ @ @ @ w w w w @ @ w w w w w w w w @ @ w w w w @ @ @ @ @ @ @ @ @ @ @ @ @ @ @ @ @ @ @ @ @ @ @ @ @ @ @ @ w w w w @ @ @ @ o o @ @ @ @ ",
"w w w t i i t w w t i h c z f f l c c g t w @ ; 4 8 8 8 8 8 8 8 8 8 8 8 8 i w w w w @ @ w w w w w t i 8 8 i w w w w @ @ w w w w w w w t i i t w w t i h c c h f l c c g t w @ ; 4 8 8 8 8 8 8 8 8 8 8 8 8 i w w w w @ @ w w w w w t i 8 8 i w w w w @ @ w w w w ",
"w w w r a 8 8 h c c h h c c h 8 a h c l r w @ ; 4 8 8 8 8 8 8 8 8 8 8 a r w w e i i t w w t i 8 8 8 8 8 8 i e w w w w w i i t w w w w r i 8 8 h c c h h c c h 8 8 h c l r w @ 2 4 8 8 8 8 8 8 8 8 8 8 a r w w e i i t w w t i 8 8 a 8 8 8 i e w w w w w w w w w ",
"w w i 8 8 h c c h h 8 h h q 8 i r t e w w w w w w t e e t r a a r r i 8 8 8 8 i t t i a 8 a a 8 8 8 0 i r w w w @ @ @ @ w w w w w e i 8 8 h c c h h 8 8 h h 0 i r t t w w w w w w r a 0 0 8 8 i r r i 8 8 a 8 i t t i a 8 a a 8 8 8 8 i r w w w @ @ @ @ w w w w ",
"w e i 8 8 h c P U U G P U P k h a i t w w w @ 2 8 i t t i 8 8 8 a 8 8 8 8 i t w w w e r a h c c h q 8 i e w w w w w @ @ w w w w w e i 8 0 h c P U U G P U P k h a i t w w w @ 2 4 8 8 8 8 8 8 8 8 8 8 8 8 i t w w w t r a h c c h 8 8 i e w w w w w @ @ w w i a ",
"w e i h c c c c c b U } X.#.=.$.U g 2 @ w w @ 2 4 a 8 i r r a a t t i 0 0 8 2 @ w t i h P | $.$.| n r w w w w w w w @ @ w t e w w e i h c c c c c G I } X.#.=.$.U g 2 @ w w @ 2 4 8 8 8 a 8 8 i t t i 0 q 8 2 @ w t i h P | =.=.| n r w w w w w w w @ @ w w w e ",
"8 a 8 8 8 8 0 i t t i c } #.>.>.#.Y d w @ o @ w w t i 8 8 8 8 i t t i 0 q 8 2 @ w w w d U &.>.>.#.U d w @ o @ w w w @ 2 4 a a a 8 8 8 q q q 8 i t t i c } #.>.>.#.Y d w @ o @ w w w w w w r a a t t i 0 0 8 2 @ w w w d U =.>.>.#.U d w @ + @ w w w @ @ w w w w ",
"e r l c h 8 0 i t w w e i b O.O.b a 8 3 + o @ @ w w e r a 8 8 8 8 8 8 8 0 8 2 @ w w @ 2 g I X.} c f a 3 + o @ w w w w w w r a a r r l c h q q a t w w e i b O.O.b a 8 3 + o @ @ w w w w w r a 8 8 8 8 8 8 8 2 @ w w @ 2 g U X.} c 8 a 3 + o @ w w w w w w e i 8 ",
"8 f c c c c c l r w @ @ w e i a t w @ @ @ @ @ ; 4 8 8 8 8 8 8 8 8 i t t a i e w w w @ @ w e i 8 8 8 e w @ @ @ @ w w w w w r a 8 8 h c c c c c l t w @ @ w e i i t w @ @ @ @ @ 2 4 8 a a a 8 8 8 8 i t r a i w w w w @ @ w e i 8 8 8 e w @ @ @ @ w w w w w e i 0 ",
"w t l c c c c c h i e w @ @ o o o o @ @ @ @ @ 2 8 0 8 8 8 8 8 a r t w t i i e w w w w @ @ o o o o o @ @ w w w w w w w r i a q i e t l c P c c c h i e w @ @ o o o o @ @ @ @ @ 2 8 h c c h 8 8 i r t e r i i e w w w w @ @ o o o o o @ @ w w w w w w e w w t i a ",
"w e i h c c c c h 8 8 i e w @ @ @ @ w w w w w w i 8 8 8 8 8 8 8 8 8 a i t w w e i i e w w w @ @ @ @ w w w w w w w t i a 8 0 q i w w i h c c c c h 8 a i e w @ @ @ @ w w w w w w i 0 a i r r i 8 8 8 8 i t w w e i i e w w w @ @ @ @ w w w w w w w t i i r t t t ",
"w w i 8 a h c c c c c c f 8 8 i t w w r i i w w i 8 8 8 8 8 8 8 8 i r w w t i 8 8 a a a a a 8 8 8 8 8 8 8 i t w w t i 8 a 8 8 i w w i 8 a h c c c c c c f 8 8 i t w w t i i w w i i r t i 8 8 8 8 i r w w t i 8 8 8 8 8 a 8 8 8 8 8 8 a 8 i t w w t i 8 8 i t w ",
"w w w t t t t t t r a i e e i 0 8 8 8 8 8 i t w w w w w e r a 8 8 i t w w w w e i i e w w r i 8 8 i r r a i e w w w w w w w w w w w e t t t t t t r a i e e i 8 8 8 8 8 8 i t w w e i i r r i 8 8 i t w w w w e i i e w w r i 0 8 i r r a i e w w w w w w w w w ",
"a a a a a f f f a f h a r r a h q h h q h q f i r t i a a a h a r e w e i a a a q a r t t r a q q h f f h h a a a i r w w w w r i 8 a a a a a a f h q a r r a q q h q q h h h i r r a q f a q a r t w e i a a f h a r t t r a h q h f f h f a a 8 i r t t e w w ",
"U U U U U U U U U U U U U U U U U U U U U U U U U U U U U U P P U U P c c P U U U U U U U U U U U U U U U U U U P c c c c P U U U U U U U U U U U U U U U U U U U U U U U U U U U U U U U U P P { { P c c P U U U U U U U U U U U U U U U U U U P c c P U U P c ",
"X.X.X.X.X.X.X.X.X.X.X.o.$.-.-.-.-.-.-.-.-.-.-.$.o.O.$.-.-.$.o.X.X.X.X.X.X.X.X.o.$.$.o.X.X.o.$.$.o.o.$.-.-.-.-.$.o.X.X.X.X.X.X.X.X.X.X.X.X.X.X.X.X.X.X.#.$.-.-.-.-.-.-.-.-.-.-.$.o.o.$.$.o.X.X.X.X.X.X.X.X.X.X.o.$.$.O.X.X.o.$.$.o.o.$.-.-.-.-.$.o.X.X.X.X.X.X.X.",
"h h h h h h h h f h c c h h c c h h h h c P P P P P U U P c h h h h h h h h h h c c h h h h h h h k U U P P n c h h h h h h h h h h h h h h h h h h c c h h c c h h h h c P P P P c h h h h h h h h h h h h h h c c h h h h h h h k U U P P n c h f h h c P G P ",
"8 8 8 8 8 0 0 i r t z z t r a 0 8 h c c h 8 8 h c P U n r w w r a h c c h 8 8 0 h h h a h q q 0 8 h c c h a r t t r a 8 8 8 8 8 8 8 8 8 8 8 8 i r t z z t r a 0 8 h c c h 8 8 h c l r t i a r r i h c c h 8 8 h h h h 8 q q 8 8 8 h c c h a r t t r i h c c h 8 ",
"8 8 8 8 q q q 8 a h c c h 8 8 8 8 h c c h 8 8 q h h h h 8 8 8 8 a h c c h h c c c c c c c c c c c c c c h h c c c c h a 8 8 8 8 8 8 8 8 q h q 8 a h c c h a 8 8 8 h c c h 8 8 q q a t t i 8 8 8 8 h c c h h c c c c c c c c c c c c c c h h c c c c h h c c h 8 ",
"c l f h G P c c c c c c c c c c c c c c c c c c c c c l a 8 8 f l c c c c c c c c c c c c c c c c c c c c l h 8 8 h l c c c c c c l f h G P c c c c c c c c c c c c c c c c c c c l a 8 8 8 8 a l c c c c c c c c c c c c c c c c c c c c l h 8 8 h l c c c c c ",
"@ @ w w w w ; @ @ @ @ ; w w @ @ @ @ @ @ @ @ @ @ @ @ @ @ @ @ @ @ @ @ @ @ @ @ @ ; w w @ @ @ @ @ @ w w @ @ @ @ @ @ @ @ @ @ @ ; w w ; @ w w w w ; @ @ @ @ ; w w @ @ @ @ @ @ @ @ @ @ @ @ @ @ @ @ @ @ @ @ @ @ @ @ @ ; w w @ @ @ @ @ @ w w @ @ @ @ @ @ @ @ @ @ @ @ @ @ ",
"w w w w w w w w @ @ w w w w w w w w @ @ w w w w w w 8 8 w w w w @ @ w w @ @ w e e w w w w w w w w w w w w w @ @ @ @ @ @ w t i i e w w w w w w w @ @ w w w w w w w w @ @ w w w w w w @ @ w w w w @ @ w w @ @ w e e w w w w w w w w w w w w w @ @ @ @ @ @ w w w w ",
"a a a a a a a a a a a a a a a a a a 8 8 a a f i t r a a r t i i e w w t e t i h h a r t t r i a a a a a a a a 8 8 i r w w w t r a f a a a f a a 8 8 a a a a a a a a 8 8 a a f a r t e w w e i 8 e w w t e t i f h a r t t r i a a a a a 8 8 8 8 8 i r t t w w w ",
"U U U U U U U U U U U U U U U U U U U U U U U U U U U U P c c c c P U U P P U U U U U U U U U U U U U U P P U U U U U U P P U U U U U U U U U U U U U U U U U U { { U U U U { U U U P P Y Y P c c P U U P P U U U U U U U U U U U U U U P P U U U U U I P P U U ",
"X.X.X.o.$.$.o.X.X.X.X.O.$.-.-.-.-.-.-.-.-.-.-.$.o.O.$.$.O.X.X.X.X.X.X.X.X.X.X.o.$.$.o.X.X.o.$.$.o.X.X.X.X.o.$.$.o.X.X.X.X.X.X.X.X.X.X.o.$.$.o.X.X.X.X.O.$.-.-.-.-.-.-.-.-.-.-.$.O.X.X.X.X.X.X.X.X.X.X.X.X.X.X.o.$.$.o.X.X.o.$.$.o.X.X.X.X.o.$.$.o.X.X.X.X.X.X.X.",
"h h h h c c h h h h c c h h c c h h h h c P P b P P U P d t t t z G G c h h h h c c h h h h h h h h h h h h c c h h h h h h h h h h h h c c h h f h c c h h c c h h h h c P P P P z t r a a r t z G G c h h h h c c h h h h h h h h h h h h c c h h h h h h h h ",
"8 8 8 8 8 0 8 i r t z z t r i 8 8 h c c h 8 8 h c P U P h 8 8 8 a h h h 8 8 8 8 h h h 8 q q 8 8 8 8 8 8 8 8 h h h 8 8 8 8 8 8 8 8 8 8 8 8 0 8 i r r l z r r i 8 8 h c c h 8 8 h c c f 8 8 8 8 8 8 8 h h h 8 f h h h h q q q 8 8 8 8 8 q q h q 0 h 0 8 8 8 8 8 8 ",
"q 8 8 8 8 8 8 8 a h c c h 8 8 8 8 h c c h 8 8 8 a h h 8 8 8 8 8 8 h c c c c c c c c c c c c c c c c c c c c c c c c c c h 8 8 8 8 8 8 8 a f 8 8 a h c c h a 8 8 8 h c c h 8 8 q q a r e t r i 8 8 h c c c c c c c c c c c c c c c c c c c c c c c c c c c c h 8 ",
"c l f f l c c c c c c c c c c c c z h 8 8 a l c c l a a l c c c c c c c c c c c c c c c c c c c c c c c c c c c c c c c c c c c c l a a l c c c c c c c c c c c c l f 8 8 f l c c l a a l c c c c c c c c c c c c c c c c c c c c c c c c c c c c c c c c c c c ",
"@ @ w w @ @ @ @ @ @ @ @ w w @ @ @ @ @ @ @ @ @ @ @ @ @ @ @ @ @ @ @ @ @ @ @ @ @ ; w w ; @ @ @ @ @ @ @ @ @ @ @ w w @ @ @ @ @ ; w w @ @ w w @ @ @ @ @ @ @ @ w w @ @ @ @ @ @ @ @ @ @ @ @ @ @ @ @ @ @ @ @ @ @ @ @ @ ; w w @ @ @ @ @ @ @ @ @ @ @ @ w w @ @ @ @ @ @ @ @ ",
"w w w w w w @ @ @ @ w w w w w w w w w w @ @ @ @ w w w w w w @ @ @ @ w w w w w w w w w w w w w w w w w w w w @ @ @ @ @ @ w e i 8 w w w w w w @ @ @ @ w w w w w w w w w w @ @ @ @ w w @ @ @ @ @ @ @ @ w w w w w w w w w w w w w w w w w w w w @ @ @ @ @ @ w w w w ",
"o o o o o o o o o o o o o o @ @ o o @ @ o o o o o o o o o o o o o o o o o o o o o o . . o o o o o o o o o o o o o o o o o o o o o o o o o o o o o o o o o o @ @ o o @ @ o o o o o o o o o o o o o o o o o o o o o o . . o o o o o o o o o o o o o o o o o o o o ",
"@ @ w w w w @ @ w w w w w w w w @ @ w w w w @ @ @ @ w w @ @ o o @ @ @ @ o o @ @ @ @ @ @ @ @ @ @ @ @ w w w w @ @ @ @ o o @ @ @ @ @ @ w w w w @ @ w w w w w w w w @ @ w w w w @ @ @ @ @ @ @ @ o o @ @ @ @ o o @ @ @ @ @ @ @ @ @ @ @ @ w w w w @ @ @ @ o o @ @ @ @ ",
"w w w t i i t w w t i h c z f f l c c g t w @ ; 4 8 8 a 8 4 ; @ w w w w w w w w w w @ @ w w w w w t i 8 8 i w w w w @ @ w w w w w w w t i i t w w t i h c c h f l c c g t w @ ; 4 i w w w w @ @ w w w w w w w w w w @ @ w w w w w t i 8 8 i w w w w @ @ w w w w ",
"w w w t i 8 8 h c c h h c c h 8 8 h c l r w @ 2 4 a 8 i t w w w w w w w w w w w i i t w w t i 8 8 8 8 8 8 i w w w w w w i i t w w w w r i 8 8 h c c h h c c h 8 8 h c l r w @ 2 8 i w w w w w w w w w w w w w w i i t w w t i 8 8 8 8 8 8 i e w w w w w w w w w ",
"w w i 8 8 h c c h q 8 8 h h 8 i r t t w w w w w w t e t t w @ @ @ @ w w @ @ @ @ w t i a a 8 a 8 8 8 0 i r w w w @ @ @ @ w w w w w e i 8 8 h c c h h 8 8 h h 8 i r t t w w w w w w w @ @ w w @ @ @ @ w w @ @ @ @ w t i a a a 8 8 8 8 8 i t w w w @ @ @ @ w w w w ",
"w e i 0 8 h c P U U G P U P k h a i t w w w @ 2 8 i t t i 4 ; @ w w @ @ @ @ w w w w e r a h c c h q 8 i e w w w w w @ @ w w w w w e i 8 0 h c P U U G P U P k h a i t w w w @ 2 8 8 ; @ w w @ @ w w @ @ @ @ w w w w t r a h c c h 8 8 i e w w w w w @ @ w e i a ",
"w e i h c c c c c P U } X.#.-.$.U g 2 @ w w @ 2 8 8 8 i t w @ @ w w w w @ ; 4 i t t i h P | $.$.| n r w w w w w w w @ @ w t e w w e i h c c c c c G P } X.#.=.$.U g 2 @ w w @ 2 8 8 2 @ w w @ @ w w w w @ ; 4 i t t i h P | $.$.| c r w w w w w w w @ @ w w w t ",
"a a 8 q q q q a r t i c } #.>.>.#.Y d w @ o @ w w r i i e w @ @ w w w w @ @ w w w w w d U &.>.>.#.U d w @ + ; w @ 2 4 8 a a 8 a 8 8 8 q q q 8 i t t i k } #.>.>.#.Y d w @ o @ w w w @ @ @ @ @ @ w w w w @ @ w w w w w d U #.>.>.#.U d w @ o @ w @ 2 4 8 8 i t w ",
"e r l c h 8 0 a t w w e i G #.O.G a a 3 + o @ @ w w e w @ @ @ @ w w w w @ @ w w w w @ 2 g I X.} c f a 3 + o @ w w e i i t t a a r r l c h q q a t w w e i G #.O.b a 8 3 + o @ @ w w @ @ @ @ @ @ w w w w @ @ w w w w @ 2 g U X.} c f a 3 + o @ w w e i 0 8 i t w ",
"8 f c c c c c l t w @ @ w e i i t w @ @ @ @ @ 2 4 8 8 i w w w w w t t w w w w w w w @ @ w e i 8 8 8 e w @ @ @ @ w t a a t t i 8 8 h c c c c c l t w @ @ w e i i t w @ @ @ @ @ 2 8 8 2 @ w w w w w w e w w w w w w w @ @ w e i 8 8 8 e w @ @ @ @ w t a a t t i 8 ",
"w t l c c c c c h i e w @ @ o o o o @ @ @ @ @ 2 8 0 0 i w w w w i a a i t e w w w w w @ @ o o o o o @ @ w w w w w t i 8 8 8 8 i e t l c P c c c h i e w @ @ o o o o @ @ @ @ @ 2 8 i e w w w w w i a 8 i r w w w w w w @ @ o o o o o @ @ w w w w w t a a t e t t ",
"w e i h c c c c h q a i e w @ @ @ @ w w w w w w i 8 0 8 2 @ w w w e i 0 8 i t t i i e w w w @ @ @ @ w w w w w w w e i 0 8 8 8 i w w i h c c c c h 8 8 i e w @ @ @ @ w w w w w e i i e w w w w w w e i 8 8 i t t i i e w w w @ @ @ @ w w w w w w w e i 8 8 8 8 a ",
"w w i 8 8 h c c c c c c f 8 8 i t w w t i i w w i 8 8 8 2 @ w w w w i 8 8 8 a 8 8 a a a a 8 8 8 8 8 8 8 8 i t t i 8 8 8 8 8 8 i w w i 8 8 h c c c c c c f 8 8 i e w w t i i w w i 4 2 @ w w w w w e i 8 8 8 a 8 8 8 8 8 a 8 8 8 8 8 8 8 8 i t t i 8 8 8 8 8 a a ",
"w w e t t t t t t r a i e w w w w w w w w w @ @ w r a 8 2 @ @ @ @ @ w w w w w e i i e w w r i 8 8 i r r a i e w w r a i e w w w w w e t t t t t t r a i e w w w w w w w w w @ @ w w @ @ @ @ @ @ @ @ w w w w w e i i e w w t i 0 8 i r r a i e w w r a a r w e e ",
"a a a a a a a a a a h a r t t r a a h f a i t t i f h i e e i i e w w t t t i 8 q a r t t r a q q h f f h h a a a f h i e w w r i a a a a a a a f h q a r t t r a f a a a i t t i 8 2 @ w e i i e w w t t t i 8 q a r t t r a q q h a a h h a a a a h i e w w t ",
"U U U U U U U U U U U U U U U U U U U U P c h l P { U U P c c c c P Y U P c c P U U U U U U U U U U U U U U U U U U U U P P U U U U U U U U U U U U U U U U U U U U U U P c h l I P h f c n P c c P U U P c c P U U U U U U U U U U U U U U U U U U U U P P U U ",
"X.X.X.X.X.X.X.X.X.o.$.-.-.-.-.$.o.X.X.X.X.X.X.X.$.-.-.$.X.X.X.X.X.X.X.X.X.X.X.o.$.$.o.X.X.o.$.$.o.o.$.-.-.-.-.$.o.X.X.X.X.X.X.X.X.X.X.X.X.X.X.X.X.o.$.-.-.-.-.$.o.X.X.X.X.X.X.X.$.$.} Y X.X.X.X.X.X.X.X.X.X.X.o.$.$.o.X.X.o.$.$.o.o.$.-.-.-.-.$.o.X.X.X.X.X.X.X.",
"h h h h h h h h h h h h h h h h h h h f f f h h c P P z t t t r a h c c h h h h c c h h h h h h h k U U P P n c h h h h h h h h h h h h h h h h h h h h h h h h h h f f f f h h c z r w e t t r a h c c h h f h c c h h h h h h h k U U P P n c h h h h h h h h ",
"8 8 8 8 8 8 8 8 8 i e w w e e r a a r w w t i h P P k i e w w t i h c c h a r t t r a h c c h 8 8 h c c h a r r a q q 8 8 8 8 8 8 8 8 8 8 8 8 8 0 i e w w e w r a a r w w t i k P n r w w w w t i h c c h i r t t r i h c c h 8 8 h c c h a r r a q q 8 0 8 8 8 ",
"q 8 8 8 q h h h 8 8 8 i r t t r a a r w w t i h c c h i t t i 8 8 h c c h h c c c c h h c c c c c c c c h h c c c c c c h 8 8 8 8 8 8 8 q h q 8 h 8 8 i r t t r a a r w w t a h c l t w w t i 8 8 h c c h h c c c c h h c c c c c c c c h h c c c c c c c c h 8 ",
"c l f h G P c c c z h f l c c c c l a 8 8 a l c c z f 8 8 8 8 8 8 f z c c l f 8 8 h l c c c c c c c c c c l h h z c c c c c c c c l f h P P c c c z f f l c c c c l a 8 8 a l c c l a i t t i 8 8 f z c c l h 8 8 h l c c c c c c c c c c l h h z c c c c c c c ",
"@ @ w w w w ; @ w w w w @ @ @ @ @ @ @ @ @ @ @ @ @ @ @ @ @ @ @ @ @ @ @ @ @ @ @ @ @ @ @ @ @ @ w w @ @ @ @ @ @ @ @ @ @ @ @ @ ; w w @ @ w w w w ; @ w w w w @ @ @ @ @ @ @ @ @ @ @ @ @ @ @ @ @ @ @ @ @ @ @ @ @ @ @ @ @ @ @ @ @ @ w w @ @ @ @ @ @ @ @ @ @ @ @ @ @ @ @ ",
"w w w w w w w w w w w w w w @ @ @ @ w w @ @ @ @ w w w w w w @ @ @ @ w w @ @ @ @ @ @ w w w w w w w w w w w w @ @ w w w w w t i i e w w w w w w w e w w w w w @ @ @ @ w w @ @ @ @ w w @ @ @ @ @ @ @ @ w w @ @ @ @ @ @ w w w w w w w w w w w w @ @ w w w w w w @ @ ",
"a a a a a a a a f f f i r t w t i 8 a a 8 8 8 8 a f h i e e i i e w w t e t i 8 8 8 a a a a a a a f a a a a a a a f f i e w t r a f f f f f a a a f a i r t e t i 8 a a a 8 8 8 a i e w w e i i e w w t e t i 8 8 8 a a a a a a a a a a a a a a a f f i e w w e ",
"U U U U U U U U U U U U U U U U U U U U P c c P U { U Y P c c c c P U U P c c P U U U U U U U U U U U U U U U U U U U U P P I U U U U U U U U U U U U U U U U U U U U U P c c P } U P c c c c c c P U U P c c P U U U U U U U U U U U U U U U U U U U U P P I U ",
"X.X.X.X.X.X.X.X.X.o.$.-.-.-.-.$.o.X.X.X.X.X.X.o.$.-.-.$.X.X.X.X.X.X.X.X.X.X.X.X.$.-.-.-.-.$.o.X.X.o.$.-.-.-.-.$.o.X.X.X.X.X.X.X.X.X.X.X.X.X.X.X.X.o.$.-.-.-.-.$.o.X.X.X.X.X.X.o.$.$.} U X.X.X.X.X.X.X.X.X.X.X.X.$.-.-.-.-.$.o.X.X.o.$.-.-.-.-.$.o.X.X.X.X.X.X.X.",
"h h h h h h h h h h h f h h h h h h h h f f h h c P P z t t t r a h c c h h a h c n P P U U k h q k U U P P n c h h h h h h h h h h h h h h h h h h h f h h h h h h h h f f h h P z r w e t t r a h c c h h a h c n P P U U k h q k U U P P n c h h h h h h h h ",
"U G h 8 8 8 8 8 8 i e w w e w r i i r w w t i h P P h i e w w t i h c c h i r t t r a h c c h 8 8 h c c h a r r a q q 8 8 8 8 h G G h 8 8 8 8 8 8 i e w w e w r i i r w w t i h P n r w w w w t i h c c h i r t t r a h c c h 8 8 h c c h a r r a q q 8 8 8 8 8 ",
"h h 0 i r r a q 0 8 8 i t e e r a a r w w t a h c c h i t t i 8 8 h c c h h c c c c h h c c c c c c c c h h c c c c c c h 8 8 h h h 0 i r r a q 0 8 8 i t e e r a a r w w t a h c l t w w r i 8 8 h c c h h c c c c h h c c c c c c c c h h c c c c c c c c h 8 ",
"c l f 8 8 a l c c l a a l c z c c l a 8 8 a l c c l a a l l f 8 8 f l c c l f 8 8 f l c c c c c c c c c c l f h z c c c c c c c c l a 8 8 a l c c l a a l c z c c l a 8 8 a l c c l a 8 8 8 8 8 8 f l c c l f 8 8 f l c c c c c c c c c c l f h z c c c c c c c ",
"@ @ @ @ @ @ @ @ w w w w @ @ @ @ @ @ @ @ @ @ @ @ @ @ @ @ @ @ @ @ @ @ @ @ @ @ @ @ @ @ @ @ @ @ w w @ @ @ @ @ @ @ @ @ @ @ @ @ @ w w @ @ @ @ @ @ @ @ w w w w @ @ @ @ @ @ @ @ @ @ @ @ @ @ @ @ @ @ @ @ @ @ @ @ @ @ @ @ @ @ @ @ @ @ w w @ @ @ @ @ @ @ @ @ @ @ @ @ @ @ @ ",
"w w @ @ @ @ @ @ w w w w w w @ @ @ @ w w @ @ @ @ w w w w w w @ @ @ @ w w @ @ @ @ @ @ 2 w w w w w w w w w w w @ @ w w w w w e i 8 w ; @ @ @ @ @ @ w w w w w w @ @ @ @ w w @ @ @ @ w w @ @ @ @ @ @ @ @ w w @ @ @ @ @ @ 2 w w w w w w w w w w w @ @ w w w w w w @ @ ",
"o o o o o o o o o o @ @ @ @ @ @ @ @ @ @ o o o o o o o o o o     o o o o o o o o o o . . o o o o o o o o o o o o     o o o o o o o o o o o o o o o o @ @ @ @ @ @ @ @ @ @ o o o o o o             o o o o o o o o o o . . o o o o o o o o o o o o     o o o o o o ",
"@ @ @ @ @ @ w w w w w w w w w w @ @ w w w w @ @ @ @ w w @ @ @ @ @ @ @ @ @ @ @ @ @ @ @ @ @ @ @ @ @ @ w w w w @ @ @ @ @ @ @ @ @ @ @ @ @ @ @ @ w w w w w w w w w w @ @ w w w w @ @ @ @ @ @ o o @ @ @ @ @ @ @ @ @ @ @ @ @ @ @ @ @ @ @ @ w w w w @ @ @ @ @ @ @ @ @ @ ",
"w w @ @ w e i i t t i h c c f f l c c g t w @ ; 4 8 8 8 8 8 w w w w w t i i w w w w @ @ w w w w w t i 8 8 i w w w w @ @ w w w w w w @ @ w e i i t t i h c c f f l c c g t w @ 2 4 i w w w w w w w w w t i i w w w w @ @ w w w w w t i 8 8 i w w w w @ @ w w w w ",
"8 4 2 @ w e i h c z h h c c h 8 a h c l r w @ 2 8 8 8 8 8 i t t i 8 8 i r w w e i i t w w r i 8 8 8 8 8 8 i w w w w w w i i t t i 4 2 @ w e i h c z h h c c h 8 a h c l r w @ 2 8 i t w w w w t i 8 8 i r w w e i i t w w r i 8 8 8 8 8 8 i w w w w w w w w w w ",
"w w w w w e i 8 h h 0 8 h h 0 i r t t w w w w w w t t r i i t w w e i 8 8 a a i t t i 8 8 8 8 a 8 8 0 i r w w w @ @ @ @ w w w w w w w w w e i 8 h h 0 8 h h 0 i r t t w w w w w w t t e w w w w w e i 8 8 a a i t t i 8 8 8 8 a 8 8 0 i r w w w @ @ @ @ w w w w ",
"w w @ @ w e i h G U G G U P k h a i t w w w @ 2 8 a r e w t i i t t i 8 0 i t w w w e r a h c c h h 8 i e w w w w w @ @ w w w w w w @ @ w e i h G U G G U P k h a i t w w w @ 2 8 a t e w t i i t t i 8 0 i t w w w e r a h c c h h 8 i e w w w w w @ @ w e i a ",
"w w @ @ w w i h c P U } X.#.=.$.U g 2 @ w w @ 2 8 a 8 i r w e w w e i q q 8 2 @ w t i h G | $.$.| n r w w w w w w w @ @ w t t e w w @ @ w w i h c P U } X.#.=.$.U g 2 @ w w @ 2 8 i t w w w w w w e i q q 8 2 @ w t i h G | $.$.| n r w w w w w w w @ @ w w w e ",
"w w w w @ @ w w w t i k } #.>.>.#.Y d w + o @ w w t i 8 8 i t w w e i q q 8 2 @ w w w d U #.>.>.#.U d w @ o @ w w w @ ; 4 a a i t w w w @ @ w w w t i k } #.>.>.#.Y d w + o @ w w w w w w w w w w e i q q 8 2 @ w w w d U #.>.>.#.U d w @ o @ w w w @ @ w w w w ",
"w w @ @ w w w w w w w e i G O.O.b a a 3 + o @ @ w w w r a i e w w t i f h 8 2 @ w w @ 2 g I X.} c h a 3 + o @ w w w w w w r a i e w @ @ w w w w w w w e i G O.O.b a a 3 + o @ @ w w w w w w w w w t i f h 8 2 @ w w @ 2 g I X.} c h a 3 + o @ w w w w w w e i 8 ",
"8 4 ; @ w w w w w w @ @ w e i i t w @ @ @ @ @ 2 4 8 8 8 8 i t w e e t r a i w w w w @ @ w e i 8 8 8 e w @ @ @ @ w w w w w r a 8 8 4 ; @ w w w w w w @ @ w e i i t w @ @ @ @ @ 2 4 8 8 8 8 i t w e e t r a i w w w w @ @ w e i 8 8 8 e w @ @ @ @ w w w w w e i 0 ",
"w w @ @ w w w r i i e w @ @ o o o o @ @ @ @ @ 2 8 8 8 8 0 a r e e w w e i i e w w w w @ @ o o o o o @ @ w w w w w w w t i 8 8 i e w @ @ w w w r i i e w @ @ o o o o @ @ @ @ @ 2 8 8 8 i t w e e e w w e i i e w w w w @ @ o o o o o @ @ w w w w w w e w w t i 8 ",
"w w @ @ w e i a 8 8 a i e w @ @ @ @ w w w w w w i 8 8 8 8 8 a i t w w w t w w e i i e w w w @ @ @ @ w w w w w w w t i 8 8 8 8 i e w @ @ w e i a 8 8 a i e w @ @ @ @ w w w w w e 7 i t w w e i i t w w w t w w e i i e w w w @ @ @ @ w w w w w w w t i i t w t t ",
"w w @ @ w w w r l c c c f 8 8 i t w w t i i w w i 8 8 8 8 i t t i i t e w t i 8 8 a 8 a a 8 8 8 8 8 8 a 8 i t w w t i a 8 8 8 i w w @ @ w w w r l c c c f 8 8 i t w w t i i w w i i e w w w w t i i t e w t i 8 8 a 8 a a 8 8 8 8 8 8 a 8 i t w e t i 8 8 i t w ",
"@ @ @ @ @ @ w w e r a i e w w w w w w e w w @ @ w r a a r t w w e t w w e w w e i i e w w r i 8 8 i r r a i e w w w w w w w w w @ @ @ @ @ @ w w e r a i e w w w w w w e w w @ @ w e w w w w w w e t w w e w w e i i e w w r i 8 8 i r r i i e w w w w w w w w w ",
"w w w w w w w e i h h a r t t r i a a a a i t t i f h h h i e w w e w e i a a f h a r t t r a q q h a f h h a a a i r w w w e t e w w w w w w e i h h a r t t r i a a a a i t t i h h a r w w w e e w e i a a f h a r t t r a q q h a f h f a a a i r t t w w w ",
"c c h h c c c P U U U { U U U U U U U U P c h h P U U U U U P c c c c c c P U U U U U U U U U U U U U U { { P P P P c c c P U U P c h h c c c P U U U { U U U U U U U U P c h h P } P P c c c c c c c c c P U U U U U U U U U U U U U U { { P P P P c c c c c c ",
"U U U U U U G P } o.$.-.-.-.-.$.o.X.X.X.X.X.X.X.X.#.$.$.o.X.X.X.X.X.X.X.X.X.X.o.$.-.-.-.-.$.o.X.X.X.X.o.$.-.-.$.o.} U U } X.X.X.} U U U U U G P } o.$.-.-.-.-.$.o.X.X.X.X.X.X.X.X.X.X.X.X.X.X.X.X.X.X.X.X.X.X.o.$.-.-.-.-.$.o.X.X.X.X.o.$.-.-.$.o.} U U U U U U ",
"h h h h q q 0 q h h h h h h h h h h h h f f h h c P U P d t t t z G P c h h f h c n P P U U k h h h h h c P P c h h h h h h h h h h h h q q 0 q h h h h h h h h h h h h f f h h c z t r a a r t z G P c h h f h c n P P U U k h h h h h c P P c h h h h h h q q ",
"8 8 8 8 8 8 8 8 0 i e w w e e r a a r w w t i h c P U n r w w t a h c c h a r t t r a h c c h 8 8 8 8 0 q a r r a 0 8 8 8 8 8 8 8 8 8 8 8 8 8 8 0 i e w w e e r a a r w w t i h c l t t i a r t i h c c h a r t t r a h c c h 8 8 8 8 0 q a r r a 0 8 8 8 8 8 8 ",
"8 8 a f 8 8 8 8 h 8 8 i t t t r a a r w w r a q h h h h 8 8 8 8 8 h c c h h c c c c h h c c c c c c c c h h c c c c h 8 a a h h 8 8 8 a 8 8 8 8 h 8 8 i t t t r a a r w w r a q h a t t i 8 8 8 8 h c c h h c c c c h h c c c c c c c c h h c c c c h h c c h 8 ",
"c c c c c c c c c z f f l c c c c l a 8 8 a l c c c c l a 8 8 f l c c c c l h 8 8 h l c c c c c c c c c c l h 8 8 h l c c c c c c c c c c c c c c z f f l c c c c l a 8 8 a l c c l a 8 8 8 8 f l c c c c l h 8 8 h l c c c c c c c c c c l h 8 8 f l c c l f 8 ",
"@ @ @ @ @ @ @ @ w w w w @ @ @ @ @ @ @ @ @ @ @ @ @ @ @ @ @ @ @ @ @ @ @ @ @ @ @ @ @ @ @ @ @ @ w w @ @ @ @ @ @ @ @ @ @ @ @ @ @ w w ; @ @ @ @ @ @ @ w w w w @ @ @ @ @ @ @ @ @ @ @ @ @ @ @ @ @ @ @ @ @ @ @ @ @ @ @ @ @ @ @ @ @ @ w w @ @ @ @ @ @ @ @ @ @ @ @ @ @ @ @ ",
"w w w w w w w e e w w w w w @ @ @ @ w w @ @ @ @ w w i 8 e w w w @ @ w w @ @ @ @ @ @ w w w w w w w w w w w w @ @ @ @ @ @ w t i i e w w w w w w e e w w w w w @ @ @ @ w w @ @ @ @ w w @ @ w w w w @ @ w w @ @ @ @ @ @ w w w w w w w w w w w w @ @ @ @ @ @ w w w w ",
"a a a a a a f f a a a i r t e t i 8 a a 8 8 8 i t r a a r t i i e w w t e t i 8 8 8 a a a a a a f i r r i a 8 8 8 i t w w w e r a 8 a a a a a f a a a i r t e t i 8 a a 8 8 8 i r t e w w e i i e w w t e t i 8 8 8 a a a a a a f i r r i a 8 8 8 i t e t e w w ",
"U U U U U U U U U U U U U U U U U U U U P c c P U U U U P c c c c P U U P c c P U { U U U U U U U U U U U U U U P c c c c P U U U U U U U U U U U U U U U U U U U U U U P c c P U U P P U U P c c P U U P c c P U { U U U U U U U U U U U U U U P c c P U U P c ",
"X.X.X.X.X.X.X.X.X.o.$.-.-.-.-.$.o.X.X.X.X.X.X.X.X.#.=.$.o.X.X.X.X.X.X.X.X.X.X.X.$.-.-.-.-.$.o.X.X.X.X.o.$.-.-.$.o.X.X.X.X.X.X.X.X.X.X.X.X.X.X.X.X.o.$.-.-.-.-.$.o.X.X.X.X.X.X.X.X.X.X.X.X.X.X.X.X.X.X.X.X.X.X.X.$.-.-.-.-.$.o.X.X.X.X.o.$.-.-.$.o.X.X.X.X.X.X.X.",
"h h h h h h h h h h h h h h h h h h f f f f h h c P U P d t t t z G P c h h a h c n P P U U k h h h h h c P n c h f h h h h h h h h h h h h h h h h h h h h h h h h f f f f h h c z t r a a r t z G P c h h a h c n n P U U k h h h h h c P n c h f h h c c h h ",
"8 8 8 8 8 8 8 8 8 i e w w e w r a a t w w t i h c P U n r w w r a h c c h i r t t r a h c c h 8 8 8 8 8 q a r t t r a 8 8 8 8 8 8 8 8 8 8 8 8 8 8 i e w w e w r a a t w w t i h c l r t i i t t i h c c h i r t t r a h c c h 8 8 8 8 8 q a r t t r i h c c h 8 ",
"8 8 8 8 q q q q 8 8 8 i t t t r a a r w w t i q 8 h h h 8 8 8 8 8 h c c h h c c c z h h c c c c c c c c h h c c c c h 8 8 8 8 8 8 8 8 8 q h q q 8 8 8 i t t t r a a r w w t i q q a t t i 8 8 8 8 h c c h h c c c z h h c c c c c c c c h h c c c c h h c c h 8 ",
"c l f h G P c c c z f a l c c c c l a 8 8 a l c c c c l f 8 8 f l c c c c l f 8 8 f l c c c c c c c c c c l f 8 8 h l c c c c c c l f h G P c c c z f a l c c c c l a 8 8 a l c c l a 8 8 8 8 a l c c c c l h 8 8 f l c c c c c c c c c c l f 8 8 h l c c c c c ",
"@ @ w w w w @ @ w w w w @ @ @ @ @ @ @ @ @ @ @ @ @ @ @ @ @ @ @ @ @ @ @ @ @ @ @ @ @ @ @ @ @ @ w w @ @ @ @ @ @ @ @ @ @ @ @ @ ; w w @ @ w w w w @ @ w w w w @ @ @ @ @ @ @ @ @ @ @ @ @ @ @ @ @ @ @ @ @ @ @ @ @ @ @ @ @ @ @ @ @ @ w w @ @ @ @ @ @ @ @ @ @ @ @ @ @ @ @ ",
"w w w w w w w w w w w w w w @ @ @ @ w w @ @ @ @ ; w 4 4 w w w ; @ @ w w @ @ @ @ @ @ 2 w w w w w w w w w w w @ @ @ @ @ @ w e i 8 w w w w w w w w w w w w w w @ @ @ @ w w @ @ @ @ w w @ @ @ @ @ @ @ @ w w @ @ @ @ @ @ 2 w w w w w w w w w w w @ @ @ @ @ @ w w @ @ ",
"o o o o o o o o o o @ @ @ @ @ @ @ @ @ @ o o o o o o o o o o     o o o o . . o o o o . . o o o o o o o o o o o o o o o o o o o o o o o o o o o o o o @ @ @ @ @ @ @ @ @ @ o o o o o o o o         o o o o . . o o o o . . o o o o o o o o o o o o o o o o o o o o ",
"@ @ w w w w @ @ w w w w w w w w @ @ w w w w @ @ @ @ w w @ @ @ @ @ @ @ @ @ @ @ @ @ @ @ @ @ @ @ @ @ @ w w w w @ @ @ @ o o @ @ @ @ @ @ w w w w @ @ w w w w w w w w @ @ w w w w @ @ @ @ @ @ @ @ @ @ @ @ @ @ @ @ @ @ @ @ @ @ @ @ @ @ @ @ w w w w @ @ @ @ o o @ @ @ @ ",
"w w w t i i t w w t i h c z f f l c c g t w @ ; 4 8 8 8 8 i w w w w w w i i w w w w @ @ w w w w w t i 8 8 i w w w w @ @ w w w w w w w t i i t w w t i h c z f f l c c g t w @ ; 4 8 8 8 8 i e w w w w w i i w w w w @ @ w w w w w t i 8 8 i w w w w @ @ w t i 8 ",
"8 i t t i 8 8 h c c h h c c h 8 a h c l r w @ ; 8 a 8 8 8 i t w w w w w t e w e i i t w w t i 8 8 a 8 8 8 i e w w w w w i 8 a a 8 i t t i 8 8 h c c h h c c h 8 a h c l r w @ ; 4 8 8 8 8 i t w w w w w t e w e i i t w w t i 8 8 a 8 8 8 i e w w w w w w e i a ",
"8 8 8 8 8 h c c h h 8 h h q 8 i r t e w w w w w w t e r a a t w w w w t i a 8 i t t i a 8 8 a 8 8 8 8 i r w w w @ @ @ @ w w w r i 8 8 8 8 h c c h h 0 h h q 8 i r t e w w w w w w r i 8 0 a t w w w w t i 8 8 i t t i a 8 8 a 8 8 8 8 i r w w w @ @ @ @ w w w t ",
"8 8 8 8 8 h c P U U G P U P k h a i t w w w @ 2 8 i t t i i t w w w i 8 8 i t w w w t r a h c c h 8 8 i e w w w w w @ @ w w w t i 8 8 8 8 h c P U U G P U P k h a i t w w w @ 2 4 8 8 8 8 i t w w w i 8 8 i t w w w t r a h c c h 8 8 i e w w w w w @ @ w e i a ",
"8 8 8 h c c c c c n U } X.#.=.$.U g 2 @ w w @ 2 4 8 8 i r t w w @ @ w t t w @ @ w t i h P | =.=.| n r w w w w w w w @ @ w r i 8 8 8 8 h c c c c c P P U X.#.=.$.U g 2 @ w w @ 2 8 8 8 i t w w w @ @ w t t w @ @ w t i h P | =.=.| n r w w w w w w w @ @ w w w w ",
"8 8 8 8 8 8 0 a r r a k } #.>.>.#.Y d w @ o @ w w t i 8 8 i e w w w w w t w @ @ w w w d U &.>.>.#.U d w @ o @ w w w @ ; 4 a 8 8 8 8 8 8 8 8 0 i t y B S ( ;.,.>.#.U d w @ o @ w w w w w w w w w w w w w t w @ @ w w 7 F / ;.:.>.#.U d w @ O @ w w w @ @ w w w w ",
"8 h c c h 0 q f a 0 9 N 0 G #.#.G 0 8 3 + o @ @ w w e r a i e w w w w t i 8 2 @ w w 1 6 A ~ +.} c B C M # X @ w w w w w w r a 0 8 h c c h q q i t e 9 M Z W *.#.D N V M - X + @ w w w w w w w w w w w t i 8 2 @ w w 1 6 A / / W F 0 8 7 $ * ; w w w w w w w w t ",
"8 h c c c c c c h 0 9 N V V N N V V , % # X + 2 4 8 a 8 8 i t w w w w e i i e w w w @ ; < N V Z Z V N < ; @ @ @ w w w w w r a 8 8 h c c c c c l r w @ ; < N V V N , > - ; @ @ ; 4 8 a 8 8 i t w w w w e i i w w w w @ @ w y B Z Z V N , > - ; @ w w w w w e i a ",
"8 h c c c c P c h 8 0 7 > : : : > & % * + @ @ 2 8 q 0 8 8 i r w w 2 1 1 8 i e w w w w ; = # # % & - ; @ w w w w w w e t i a a 8 8 h c c c c P c h i e w @ @ O O # * + @ @ @ @ 2 8 h c c h i t w w w w e i i e w w w w @ @ o o O # $ - 1 2 w w w w w e w w t t t ",
"8 8 8 h c c P c h 0 q 8 2 @ @ @ @ @ w w w w w e i 0 0 0 0 0 8 7 1 1 e e t w w e i i e w w w @ @ @ ; w w w w w w w t i 8 h h 8 8 8 8 8 h c c P c h 8 8 i e w @ @ @ @ w w w w w e i 0 8 i r t i i e w w w w w w e i i e w w w @ @ @ ; w w w w w w w t i i r r i a ",
"8 8 8 8 a h c c c c c c a 8 8 i t w w t i 8 8 8 8 h c F C V N m m 6 5 1 7 a a 8 8 8 8 8 a 8 8 8 8 8 a a 8 i t w w t i 8 8 8 8 8 8 8 8 8 a h c c c c c c f 8 8 i t w w t i i w w i i r r i i t w w w w w w e i 8 8 8 8 8 a 8 8 8 8 8 8 a 8 i t w w t i 8 8 a 8 8 ",
"w w e t t t t t t r a i e w w w w e i 0 N M M M N N V Z A V N m m m m 9 0 i e e i i e w w r a 8 0 a r r a i e w w w w w w w w w w w e t t t t t t r a i e w w w w w w e w w @ @ w r i i r t w e 1 1 1 1 8 i e e i i e w w r i 0 8 i r r a i e w w w w w w w w e ",
"a a a a a f a f a f h a r t t r a f f 0 C V N N V Z Z Z Z V N N N 6 5 1 8 a a a q a t t i h h q 0 0 a a 0 0 a a a a f i e w e r a a a a a f f a a a h a r t t r i a f f 8 i t t i h h h a 8 1 5 6 m m N 0 0 a f h a r t t r a q q h f f h h f f a i t e t t t t ",
"U U U U U U U U U U U U U U U U U U U U U U G G U U U U U U G P P P c c c P U U U U P P U U { T Q ^ ^ ^ ^ ^ ^ Q T U U U U T Q Q T U U U U U U U P P U U U U U U U U U U P c h h I { { U P c c F C Z Z Z Z D J U U U U U U U U U U U U U U U { U P c c P U U U U ",
"X.X.X.X.X.X.X. .) ` *.-.-.-.-.$.o.X.X.X.X.X.X.o.$.-.-.$.o.X.X.} U U } X.X.X.X.o.$.$.X.X.X.o.$.*.` ' ' ' ' ' ' ' _ _ ( ( _ _ ' ' ' )  .X.X.X.X.X.X.#.$.-.-.-.-.$.o.X.X.X.X.X.X.X.$.-.-.$.X.X.X.! Q ^ _ )  .X.X.X.X.X.X.X.X.o.$.$.o.o.$.-.-.-.-.$.X.X.X.X.X.X.X.X.",
"h h h h a 0 C Z S C s f h h h h h h h h h f h h c P P P G c h f h h h h h h h h c c h h h h h 0 N B H J R Z Z Z Z Z Z Z S S S S S S Z Z Z Z Z Z S C B h h h h h h h h h f f h h c c h h h h h 0 N V Z A S C 0 h c c h h h h h h h k U U P P n c h h h h h h h h ",
"8 8 8 0 N N 0 0 0 i e e i 8 0 0 0 0 0 i r r i h P P h 8 0 a r t i 0 0 0 q 0 0 0 a h 0 0 0 0 0 0 0 h P P h 0 N N N N M V Z Z Z Z Z Z Z Z Z Z Z Z Z V N M m 9 0 8 8 a r t e r a h P P h 8 8 8 8 0 C Z Z Z Z C F c h h c c h 0 0 8 8 h c c h a r t t r i h c c h 8 ",
"8 8 q 0 N N 0 0 8 8 a 8 8 0 N V Z C 0 0 0 0 8 h c c h 8 q a 8 0 0 h c G U J C S E ^ ^ E S S E ^ ^ ^ / ^ ^ ^ ^ ^ ^ E S Z Z Z Z Z Z Z Z S E E S Z Z Z Z Z V M N N 0 0 a a a 0 0 h P P h 0 0 0 0 0 N V Z S ^ E S S E E S Z Z C F P P c c c h h c c c c h h c c h 8 ",
"c c c H W E S C F c c F C S E ^ ^ E S Z Z C F c P c h h G J C Z Z S E E E E ^ ^ ^ ^ ^ ^ ^ ^ ^ ^ ^ ^ ^ ^ ^ ^ ^ ^ ^ ^ ^ ^ ^ ^ ^ ^ ^ ^ ^ ^ ^ ^ ^ E ^ ^ ^ ^ E E E E E E E E E E E E ^ E S V V Z E ^ ^ ^ _ ' ' _ ( ^ ^ E S S E ^ ^ E S C F c c c h 0 8 0 C S E W F c ",
": > , V Z Z V M N N N N M V Z S S S S S S S S Z S S S S S S S S S Z V N N N N V Z S S S Z Z Z Z Z Z Z Z Z Z Z S S S S S S S S Z V N N N N m , , m N N m , , m N N N N N N N V V V V N m , , m V Z S ^ ( ( ^ S S S S A Z V N N N N N N N N N N N N N N N N m , > ",
"5 6 V S S S S S S S A S E ( _ ' ' ' ' ] [ [ ] ] [ <.<.<.<.[ ] _ ( ^ ^ E S Z Z Z S S ^ ^ S Z Z Z Z Z Z Z Z Z S S ^ ^ ^ ^ ^ ^ ^ E S Z Z S E E S Z S S Z Z Z Z Z Z Z Z Z S E ( _ ' ' ' ' _ ( ^ ^ ^ ^ ( _ ' ' ' ' _ ( ^ ^ ^ ^ ^ ^ ^ ^ ^ ^ ( _ _ ( ^ ^ ^ ^ ^ ^ E V N ",
"3.3.3.4.3.3.3.3.1.<.<.1.3.4.4.4.4.4.4.4.4.4.4.4.4.4.4.3.2.<.<.<.<.[ ] ' ' _ ( ( _ ' ' _ ( ^ ^ ^ ^ ^ ^ ^ ^ ( _ ] [ [ ] ' ' ' ' _ ( ^ ^ ( _ ] [ <.<.] ( ( _ _ ( ( _ _ ( ( ] 1.3.4.4.4.4.3.1.[ ] ' ' ] [ <.<.<.<.<.<.<.<.<.<.1.3.4.4.4.4.4.4.4.4.3.1.<.<.1.3.4.3.3."
};
