/* XPM */
static const char *flat1_1[] = {
/* columns rows colors chars-per-pixel */
"128 128 92 1 ",
"  c #1E160A",
". c #21170A",
"X c #241A0C",
"o c #2D1C0C",
"O c #321E0E",
"+ c #241C13",
"@ c #2C1E12",
"# c #321F10",
"$ c #27200E",
"% c #2D210F",
"& c #33200F",
"* c #2E2411",
"= c #2F2814",
"- c #2D251E",
"; c #342312",
": c #3A2616",
"> c #342914",
", c #3C2B16",
"< c #35261A",
"1 c #392719",
"2 c #352A1C",
"3 c #3D2B1B",
"4 c #3F3017",
"5 c #3F311B",
"6 c #262525",
"7 c #2B2622",
"8 c #2D2925",
"9 c #262728",
"0 c #2C2B2B",
"q c #302721",
"w c #322B24",
"e c #3C2E22",
"r c #332E29",
"t c #382F29",
"y c #3E3124",
"u c #34302B",
"i c #3B322A",
"p c #2F3031",
"a c #373431",
"s c #3F3730",
"d c #3C3835",
"f c #412E17",
"g c #412E1B",
"h c #422E1D",
"j c #403017",
"k c #423118",
"l c #43301B",
"z c #44301A",
"x c #47341A",
"c c #44301D",
"v c #44341E",
"b c #47351F",
"n c #48331B",
"m c #49341B",
"M c #48341C",
"N c #4B371C",
"B c #4B371D",
"V c #4C381B",
"C c #4E3A1C",
"Z c #4F3B1D",
"A c #503C1D",
"S c #513D1E",
"D c #533F1F",
"F c #583F1F",
"G c #432F20",
"H c #413122",
"J c #423222",
"K c #463221",
"L c #473321",
"P c #473323",
"I c #403124",
"U c #443326",
"Y c #483421",
"T c #4B3720",
"R c #4A3623",
"E c #473821",
"W c #4D3A23",
"Q c #4C3824",
"! c #4E3A27",
"~ c #463629",
"^ c #4B3728",
"/ c #473828",
"( c #4C3928",
") c #513D21",
"_ c #533D22",
"` c #583F21",
"' c #513D29",
"] c #54401F",
"[ c #564020",
"{ c #5B4122",
"} c #624424",
"| c #684626",
/* pixels */
"]SCmzzmVVmzzmmmCS[]SCmmVVz,:gYMVVmzgg33ggggggzggg33gmVVVVVVmzggcKKKY((YKKKKKggKKg3::3gmVVmzzmmxkkzmVmCSSCmzggzmCSScgg3:,CSCmmCS]",
"SSCmzzmVVmzzmVVCSSSSMmmmmz;:HKbmmzzgg33gggggggggg33gzmmmmmmmzzgcKKY!!!YYYYKGggKKg3::23cmmzgzzxkkgzmVmCSSCxzggzmCSCMg33:,MSCmCCSS",
"CCVmzzmVVmmmmVVVCCCMzzzzzf;:isHgzzgg333ggggggggg3gggzzzzzzmmmzgggcC___CMMMggggggg332qq3zggggkj,,,gmVVVCMzzkggzmVCCMz,:3gKYMCSSCC",
"mmmmzzmVVmmmmmmmmMmzggggg,O<adygzcggg,ggggggg3,gggzzzgzzzzmmmzgggcS]SSCmmzggggggg3g2783gggggg,,,,gMmmmmmzggggzmmmVVz,:33eHMCSCmm",
"kkzzmmmVmmzzzzzzggggggg3,;O<adIgmmmzggkkkgggg,,kzmmmzznmmmmmzzgggMSSSCVmzzggggggggg2773ggggggg,,gzMmzzzzgggggzzzmVVz,:32wtbVCmzk",
",,gzmmmVmmzgggggg33333g3;OO<i~HgmmmmkgkkkgzzggkzmmmnzzmVVVVmzgggzMCCMmmmzggzgzgg3332-73ggkgggggggzMmzggggggggggzzmmz:;:27qkMMzkg",
",,,kzzmVmmkggggg33333,,,;Oo;eKggzzmmzggggzxmmmmmzzzzggmVVVmmgggzmmMczzzzgggzzggg::::123ggkggggkggzzzkgggggggggggzzzg;**>23KKhggg",
"kkj,gzmmmxkggggg,,ggg,,:Ooo;ghg3gzmmzzkkzzmVVVVmzgggggzmmmmzggzzmmzzzggggggggzzg:;;:3g3ggzzzgggggzzzk,,3,ggzzzggggg,;%$;>gKKggzz",
"mxk,ggMmzzgzzzggggggg3:;Ooo#3g33gzmmmmmmmmmmmVVmzgggggccmmzzggzmmmmmzggggggggzmz:;O;,33ggzmzgg,ggzmxk,,,,ggzmzggggg,:;o&>gKKgzmm",
"Vmk,,gzmzggzmmzkggggg3:;OOoO:3ggzzmVVVVmmmmmmmVmzggzzzzcmmzgggmmmmmmzggggg,,gzmz:OOO3g23kMmmg,,ggzmxkggggggzmxgggkkg,;O#:gKKczmV",
"Vmg,,gzzggggzxzkkgggg33:;OOO:gKKMmmmVVVmzzmVVVVmzggzmmMMzzgggzmmzzzzzgggg3::3gMz:Oo;gewwKCCmk,,gkzxzkggggggzzzgggkkk,:;;::3gMmmV",
"Vmgggkgggg3gkkkkgggggg,3:;OO3KPYCCVmmmmmzzmmmVVmzggzzmMczggggzmmzzgggzzzgg::3gzf&oo;gI8rW[SCz,fkkkkkkgggggggggggggkkg3:;;;3gMMMV",
"Vmzgkkggggg3ggggggggggg3:;O;gY(!_SCmmmzzggzzmmVmzggggggggg,ggzmmmmzggzmmmzg3gg,;XXX;gI8rW{{_Czf,ggggggggggggggggg,ggg1;%O;:gKYMV",
"Vmzzzkggggg3333ggggzzzg3:;O;gK^!_SCmmmzggggzmmmmzgg3333,,,,ggzxmmmzzgzmVVmgggg:#XX%>etty_}}{Smk,,3ggzzkg,3,,ggggggggg3;%oO:gKYMV",
"mmmmzggggg3333333ggzmmz3:;OO3GKYCCVmmmzggggzmmzzggg3,,3,,,,gggkzmVmmzzmVVmg3g3:;oo:2qti({}}{Smg33,gznmzgg3,gggggggggg3:;OO:gKYMV",
"mmmmzg3333gg33gggggznmz,:;oO:gKKMmmmVmzzggzzmzgg3ggggg,,ggg333,kzmmxzzzmmmg33:;OoO3278~'{}}{CzgggggzmMzzggkkzzzzzggggg:;OO<eKYMm",
"zzmmzg::3gggggggggggzzz,;$XX:gKKczmmVmmmzznmzg,:3ggggggggggg::3gggkkgggzmmg3:;OoX@3e78E{||}`Mzgggggzmmmmmmmmmmmmzggggg:;O@-rIYMm",
"gzmmng,:3gggggggzzggzzz,;$X@:gKKczmVVVVmzzmmzg::3ggzzzkgggkg::3gg,,,3ggzmmg3:;oo.@2ewiW{||}_Mzzzkggcnmmmmmmmmmmmzggggg,;O@-wyYMm",
"gzmVmzg33ggggggzmmmmmmmk;$$*1gKYMmmVmmVmzzmmz3::3gzmmzzggzgg33gggg>:3gzmmmzg:;X.X*7ti/_}||_CMmmmzgggzzzzzzzzzzzzgg3ggg,;Oo=2HYMm",
"gzzmmzgggggg33gzmVVmmmmk;%%;1gKYMmmmmmmmzznnz3::3gmVVmzggggggggzzg,:3gzmmmzg:;XX*=78~_{}|{Cmmmmnzggggggggggggggggggggg,:Oo;,kYMm",
"ggggkkgggggg33ggmVVmzgcg:;o&:gKYMmzzzzmmzgzzg333,kmVVmgggggg3ggzMzg33gzzmmmz,;oo:278E[{{SCnzmmzggg3ggggggggggggggggggg,;OO;,xMmm",
"cgg,,,33gg3333,gzmmzgggg:;OO:gKYMmzggzmmzgggg3ggkzxmmzg33,,,,ggzmmgg,ggzmVVz,;O&>2qwM]{{Czkkmmzgg3gggkkg,gggggggzzzggg:;OO;,xVVm",
"KKggg3::::::3,,gzzkkg3g3:;OO:gKYMmzggzzzzgggg3gzxmzzkkg33g,,,ggzmmcgg3,gmVVn,;%;13eHW[{`Mgggzzgg3ggkkkkkgggggggzmmzgzg:;OO:gmVVm",
"KKcg3:;;;;;;:,,,gg,,3333:;O;3gGHMmzggggggggggggzmmzgkggggg,,,ggzMMcgg,,gzmmf;;%;3gKYC]{_Mgggggg33ggkkkkkgggg333gzzggg,:;OO:gzmmm",
"cccg,;OOOOOOO;;:::::3g33:;;:gHtwkzzggggggggg33ggmmzkkkgggg,,,gggggkgg,,kzg,;Oo$;gKKYCCSCcggggggg3gggkkggggg3:::,gg,:::;%oO:ggzmV",
"ggg,;OOooOOOOO;;;;;;:33:;;;:ge883gg3333g3333333gzMckczkg331:,,,311,,,,,,,,:OOo*>eIKczzzzgggg,,::::::>>::::::;;;;::;;;;%%;;3ggzzm",
":::;OOoooO::;;*%oOOO;::;OOO;3e882g,;;;;:::::::::gggcckkg>:;O&;::;;;;;;;;::OOoO:2qweg,:,,::::;OOOOOOOOOOOOOOOOOOOOOOO%%$;3gg,gggg",
";;::;OOOO;221:>;&O;;;;;;Ooo&:27723:;;O;;;;;;;;;;::,,,,,>;#ooooO*$Xoo%$$%;OOOO:3287q1::;;;;;#OoOOOOOOOOOOOOOooooooooo%*;2eye3,,33",
"OO:33::::2tt23g333g,>;*%ooo;>2772333:::;OO%%OOOOOOO&OO&OOoX...XXXXX%ooooOOoO3gg2897-1:OOOOOOoO::::1:;;::::Ooooooooo%;>,et8rt33::",
"O;12233ghHtt3gKG3eee2==;&;;>2w772gggg3<<#;;;;;#OOOOOOOOOOoXXX@@@X@*;;OOOOOO:gKewq77723;OOOOO;:3gggg3:1222<<@@@@@O&;;=2ee808t33<<",
",1q88weYCMH3ggg3q8887721:33ettw2333gg2q-<33ggg3:::::::::::;<13321:111::::::3KIw72222333::::3ggKKKKg332q77777766-<,12-78897213277",
"g3q798IW_SMzzgg2w8888wegggKyrregg33gg2882gKKKH3222222223gg33KYYKgggGKKgggggKYItw3gggg3223323HKKKIHGgget8778w8rre3gg2778r8q1,3280",
"g32w78K_{`Cnzgg3eyyyyIYYKKhe882ggg3gg2882gggg3q88777788tKYKKKYYKKKY((((^^(^((^IIKKg332qq33qq3ggewt~YKKKKkkkkkKW_Mzg323KEbkkgger0",
"332wwtW[{{SmzgggKYYYYW!!YKg2qq2322332w782322eew88877888t/!YYYYYYYY!((('''''''!YYKKgg32q7227qw233ii('YYWWCVVVVS{{SmzgzMS]SCYKg3r0",
"g2qweKW[{{SmzggcMMMCC___CMcg2232qq22277822q8rtykkkyee3kbW_CMCWCMMMCCCW____{{[_CMcgggg322772wqq2hW_{`CMCCVVVVVCSSCmmmmC{{SSCbk,>=",
"g280IW_[{{SmzggzzmmCS]]SCmzgg3g2qq32769721q8riWSCCYYczmCSSCCSSCmmmmmmMCSSS{{SSCmzg313332772wwt3M`{{`CmmmmmmmmMCCMmmmmCS{DSCmk>;$",
"g2ruKW_][SCmzggggzmCS]]SCmzg::3323327997<:13HW_{SSWYczmVCCSSSSCmmmzzzzbMMCSSCCVmk,;;>>33227wyYWS_[__CmzzggggzzzczzkkkxCSCCVmg>&o",
"g3ti!_[_SSCmzzg3ggmCSSSSCmz3:;:3222wq887<:gMMS{{_CWYczmmmMCSSCCmVmzgzzzxmmmmmmmz4>**>>332wwtY'[[SCWYMzzgg,ggggggggg,,kxmmmmzg:Oo",
"3gIY_{{{SVmmmzg3gzmVCCCCVmg,;O;<q88qw2223gMS`{}{McccczzzzzcccMmVVmzzmmmmmmmmzzg,,>**>3g2qweI!'{{SMcgggggggggggkgggg,,gkzkkgg:;Oo",
"3gK!{}{`CmmmVmggzzmmmmmmmzg1#O;:q7982ggggcC[{{{_MgzzzzzzzzggggzmmzzzmVVVmmmmzzg3>>*;1gg3wtHW__`_Mzg333ggggggggggg,,fggggg,33:;Oo",
"3gY'{{{SMzmVVmzznmzzzzzzzzg3;;;:2w782gggGY_[{{SMzzmmmmmmmzgggggggggzmVVVmmmmmxk,>;**133gI~W_{`MMzzgg::3gggggggggg,,gggggg333:;Oo",
"2eY'`{]CczmVVmzzmmzgggggggg3:::::1qqw22eHY_[{_MgzzmVmmmmmzg333333ggzmmmmmmmVVmk,;;%;332e!'{{{_Mzzzzg::3ggzzk,,333,ggggggg3g3:OOo",
"7wIYCCCMzzmVVmmmzzggggggggg3g3:;;;1wq88wIY_SSMczmmVVVmzzzzg333333ggzzzzzzzmVVmk,&Oo;gewt'}|}{SCmmmzg333ggzmz,>::3gggkgkgg3g3;OOo",
"7wHYCVVmzzmVVmmxzggg333ggggggg:;OO:3q88wHW_SCxzzmmmmmzzggggggggggggggggggzmmmxj:Ooo;gIti_|||[CMmmmzggg3ggzmz,>::gggggkkgg33:Oooo",
"23Y_SSCmzzmVVmzkggggg333ggggkg:;OO:32223W_SSMkkzzzkkzzgggg3ggggggggggggggzzzk4,>OooO3G~({}}{SMzzzzzggg3ggzzk,33gzzcgggggg3:;OoX.",
"3cS[[SCzzzmmmxkgggggg333ggzzk,:;O;>323gMCS_Cbkkggggggggg33ggggggzzzzzzzzzkkgg,,>&ooo:gY'{{{_Cxzgggggzzggzzzggggzmmcggkkgg3:;OoXX",
"3c_{[SMzgzmmzkkgggggg33ggzmxk,;*;>32qwKSCCYYckgggg,ggggggggggggzmmmmmmmmzkkg,,,>;OXX:gK!_SSCMzkgggggzmmmmmzggzzmmmcggkkkgg3:OoX$",
"gM_{SCzggzmmzgggggggg3gggzxxk,;%;>328rWSCMKKggggg,gggzzzgggg,,gzmVVVVmmmxzkg3,g,:;XX:gKYCCCmxzzgggggmVVmVmzggzmmmmzg,,kkgg3:Oo%*",
"KY_SSmkggzmmzgg,gggg3gggkkkk4>&o;:3eruW[SCcggggggggzmmmmmnzg>:3gmVVmmmzzmmzggggg:;oo:gKYCVVmmmzggggzmVVVVmzggzmmzzg3:>,kg3:;Oo;>",
"KY_SCmzkzzmmzggggg333gggkkk,4>&O;:33tiW][Sc3gggggggzmmmmmmzg::3gmVmmmmzzxzzggggg:;OO:gKYMmmmmxzzzzzzmmmmmmzzzzmmzzg3::,,,>:;OO>>",
"gcCSSCmmmmmmggzzzgg3333ggk,,j,;;:33gIKMS{_Mgggggg,gkzzzzzzg333gzmVVVmmxkgggg33g3:;OO:gKKczkkkkkznmmmmmzzxxmmmmmmmzg333,,,>;%oO:3",
"3hCSSSCmVmmzggmmzgggggg,,,,,f,**1323KYMC`_MgggggggggggggggggggzzmVVVmmxkg3,,3333:;OO3GGHggkk,gzzmmmmVmzgkxmVVVVVVmzgggg,>;$Xo#1e",
"3gMCCCVVVmzzgzmmzgggggggg,,,g,;;12qwIYMVCMcggggggggggggggggggznmmVmVmmkg,,,,::33:;O;gHtw3kkk,kzmmVVVVmzgkzmVVVVVVmmmmzg3:;XXo;qr",
"23bVVmmmmmzzgzmmzzkgggggggggg,;;12wtIYMVmmzgggggggggggggkzzzzzmVVVmVmmk,ggg,::33:;O;gIr83zzxkzmmmmmmmmzgzzmVVmmmmmmmmng3>;XXo@8p",
"7wkVVmzzmmmmzzmmmxkggggggcMxk>&&>geIKYMVVmzggggggggg3gggkkkznmmmmmmVVmggggg3::33:;O;gIrrezmmmmzzzzzzzzkkxmmVVmzzkzmmzzgg,:OoX+8p",
"7wkVVmzzmVVmzzmVVmk,,ggggzMmk>OO:gKYKYMmmmzzggg333gg3ggzxxzzmVmmmVmmmmggggg3::33:OO;gIuuynCCmnzggggggggkxmmmmzgggkmmzzzkk,&o.+70",
"23bVVmzzmVVmzzmVVmk,,3gggzmmg>OO;3KKKKczzzmmzgg33gggggzmmmmmmVmmmVmVVmzgggggggg3;OoO3etuHVSCMzg3::3gggggzzzzgggggzmmmnzkk,&o.+70",
"3gMCVmzzmmmmzzmVVmkg,33gznmmg:OO;3gKKKhggzmmzg333gggggzmmVmMmmVmmmmVVmzzkgggggg:OooO:eruKSSCcgg3::3gzzzzzzzgg33ggznmmmzzc,&oX+79",
"3gCSCmzzzzzzmmmVVmzgg33gzmVmg:OO:3ggKKhgkzzzg3::,gggggkzmVVMVVVmzzmmVmmmzgggggg:OooO:28rES_Cc33333gzmmmmmmzgg333ggzzmmmmc,OO;<79",
"gMSSSMzggggzmmmmmmzzgggzmVmzg>OO:33gKKccxzzgg3::,ggggggzmmmMVVmmzgzmmVVmzgggggg,OooO:27rES_CcgggggzzmmVVVmzzgggg3ggzzmmmzf&O:279",
"CS{{SCcggggzzzzzzzmmmmmmmmzzg,OO:g3gKYWCMxzgg3::3gggggggzzmVVmzzggzzmVVmzgggggg,OooO:28wbSSSMzgggznmmVVVVmmmmzggg33gzzmVmf&O:276",
"SS{{_Ccggggzzzgggzmmmmmmmmzgg>OO:323KY_SCmzgg3::3ggggggggzmmmmzg33gzmVCMzzkgggg,&ooO:288kCSSCmzzgzmVVVVVmVVVmmzzgggggzmmmf;#:276",
"CS{{SMzggggzmzggggmmzzzzzzggg>OO:2qwIYCCVmzgg333333ggggggzzzzzg3::3gmCSSCmzgggg,&ooO:288kCSSCmmmzzmVVVmmmmVVVmmmmmmzzzzzzg:;:<79",
"CS{`Czzggggzmmg33gzmzggzzzzzg3OO:2qwIYMmmzzggggggggggg3gggggggg3::3gzMSSCmzzzzz,Ooo#3e8wkCSSCmmmzzmmVmmmmmVVVmmmVmmmzggggg:;;<70",
"SS[SMzggggkxmmg33gzzzggzmmmmc,&O:323KYMmzkgggggggzzzzggggggggggg333ggzCCCmMmmmz,&oX@3t88kVCCCmzzzzmVVmzzmVVmVmVVVmzzgggggg:;O<80",
"SSSCzgggggkzmmzggggggzzzmmVmc,&O:323HYMmzzzzzzkkzzMmzgggzzzzzzzzgg,ggkzmMMMVmmz3;oX@3t88kVVmVmzggzmmmmzznmmmmmVmmmzg333ggg:;O@80",
"CCCmkgggggkkzzzzgggggzmmzzmmh,OO;27wIYMmmmmmmmzzmmzzkggzmmmmzzmmzgg,ggggccmMzzzg:OoO3e88kVVVmmzggzmmzzggzzzzmmmmzzg3::gggg:;O@70",
"mmmmkgzzzzg,gzmmzzzggzmmzzmzg:OO;278PWSCMmmVCCxxmmzggkzzmVmmzzmmzzg,,,,ggzzzzkkg:;O;:2qwkMmVmmzgzzmmzggggggzmVVmzgg3:,gggg:;O@70",
"zzmmzzmmmzg33gmmmmzggzmmmmzg,;OO:27r!{{_MzmCSSMmzzkg,kxmVmzzzzzzmxk,,,,3,ggggkk,:;;;3323KYMmVmzzmmmmzgggggggmVmmzgg33ggggg:;O@80",
"zzmmzzmmmzg3ggmmmmzggzmVVmzg:;OO:28t_{{_MgzCSSCmzzk,,kxmmmzzzzzzmmkgggg,,,,,,,4,;;;;3323YWSCMmzzmVVmzzzzzzggmVmmzgggzzzzgg;OO@80",
"mmmmmmmmzggggzmmzzzggzmVVmzg:;OO:28rW{{ScgzmMCVmmxzggkzzzzmmmmmmmmzgkkg,,,,,,,,,;%O;,2qe!{{_MzgzmVVmmmmmmnzzmVVmzggznmmmz3;Oo@70",
"mmmmmVVmzggggzzzzggzzzmVmmzg:;OO:28rESSMgggzmmmmmmzzg,gggzmmmmmmmmzgggg,ggg,,,,,;%oO3e8t'}{_MggzmmmmmmmVVmzzmVVmzzzzmVVmz3;Oo@79",
"zzzzmVVmzggggggggggzmmmmmmzg3:OO:27wbCMcgggzmmzzmVmzg,gggzmmzzzzmmzggg,ggggg,,g,:;O;ge8t'{SMgggzzzggzzmVVmmmmVVmmmmmmVVmzg:OO@79",
"ggkzmmmzgg3333333ggzxmmmmmzzg3;&:28rbmkggggzmmzkmmmzggggzzmmzzzzmmzggggggzzzkgkg:;O;gt8rWFSmgggggggggzmVmmmmVVVVVVVmmmmmz3:OO@-8",
"ggkzkkgg,:::3g3333ggkzmmVmmmcg:;O<8uKmzgggkzxzggzzzzgggzmmzzmmmmzzgggggggzmmzggg:;OO3e8wbSVmzggggggggzmVVmVmVVmmVVVmzzzzg3;OO#12",
",,,,,>>:;;;;::::3333,fzmmmmzg,;Oo@qibzgg3gkkkkgggkzzzzgzmmzcMCCMzzggzzzzgzmmzgg,:;OO:28rkmmmzggggggggzmmmVVmmmmmmmzzggg33:Ooo;,g",
"g,>;&OOOOOOOOOO;:::::,ggkzzg;OXXo#1ekg,:3ggkkggggzkzmmzzzzmMSSSSCzggzmmmzgzzzgk,;%oO:err5zmVmzk,ggggzzznmVVmzzzzkf,,:::;;O%%;>3g",
"k,>;&OOOOOOOOOoOO;;;;:::>,,:OX.Xo:3gg3:;:33,,>>3gg,kzzgggzmMCSCCMzggmVmmzggggg,>*$oO:3ttycmmmxk,,,gg3,ggzzzf,,,,,:;;;;;OOo$*>>22",
"Kk,1:::::::::OOoOOOO;;;OO&OoX. X1gggg,;OO;::;;&;::;;>,:>,kzcMcccgggzmmzzzgggg3>;*$oO:33eHczkkkj,>::;;;;:,:;&&OOO&OOO%%oOoo$*>2q8",
"KHee222222e2<<@@@@@<<<;OOOOoXXX*3K3233;OOO;;%ooOO;%%;;;;>,,,,,:::33gzzggg33:::;;%%o;,gggKKg,,,,>;;;;OOO;;&ooOOOOOOO&;;;;O&;>2w79",
"getr888888rr877777887-<:::::;;:1geqq233:::OoooooOOooOOOO;;;OOOOOO;::>,33,:;OOOOOoo&:3gggKK3;;**;OO%%ooOOOOo*::;;::::13gg33gew779",
"gHiur8888ruurrrrwrrrrw3gggg3,>,32w7q2gggg3;;;;OOOOOOOO@@;:;OOOOOOO#;;;::;OOoooOOO;::223gKg3;;**%%&;;&O@@@*;>,g33ggggggKG3etew779",
"YWWWbkkkkbbKEWWEbk55kkKKKKKH3,32q7w23ggggggggg3::::::<--13::::::;OOOOO**OOooo%:::,32qq2ggg3:;;;;;>>1><-7673kKKKKYYKKKKg3q88www79",
"!_[DCVVVmmmVSSSSVngzmCYYYYYKg3,2782gggg32eKKYKKggggggewreggggg32<<;;O&;;&OO;;>22222w782gg3221::>,3ghc3w88tHYYYYY!!YYKKg2q78q33q8",
"MS{{SmVmzzmVCCCCzgggmCWWMMYKg,,2782gggg2qwIKKYY!!YKKKKIIYYKKKHw77-2g3:11:::33eq78887982gg277echkHKYWCCbkkbMMYYMC__CMchgg22223gGy",
"mC{{Cmmxkkxmmmmzkg,gzMWWCMKc3>>>7q3g2233teKYYY!'''!YYYKY!!YKKHw77qeKggggggghKKtrw8888q23227weKKKYYW_SSCmmVVCYYMMCCMzgggg33332eKY",
"mC]]Cmzzkkkkggggg,,ggcMCVmcg3;&;<3Keq72hW'_CMC__{{_CCMccMCMMcg33223gKKKKKKKK^(WEbk33223277eegghcMC__CMzzmCSSCMzgccczggg3:::<7wIY",
"mMCCMxkggggggggggggggzzmmzg3:#O;3gHewq3M`}{_SCS]{{_SCmzzmmmmzzzzggggKYKKYYYY!'[SCmggggg278HKcgzzmCSSCmzzmCSSmz33ggggggg3:;;>-qeK",
"zzCCbzkggggggggggzzzzggggg,:OOO:gHtryKCS{}|}[SCSS]SCVmzzmVmmmmmmmzgcMMbbMMMC_[{{Sz,:3gg278kMYYMmmVCCVmmmmVCVz,::,gkg,3,3:;;:>23g",
"ggzmxzkkzzzzzggggzmmzggg,3;OOO;1eertK__[{}|}[CMMCCmmmmzzmmmmVVVmmmzzmmxxmmmMCS{_Cz,:,3327wkCWWMmmmmmmmmmmmmxk,>>,,jggg,3:::;;>22",
"3gkzxmmmmmmmzggggczzzkggg,;OoO:2wriKMCW_{{{[SMzzczkkzzmmxxmVVVVmzzmmmmzzmmzzcMCCng,,:::<7wkVCMcgggzzggkkzzkj,,gg,fggggg3g3:;O*-8",
"3,,kxmmVVmmmzgggggggkkzzk,&oo&:2wtW_SCW_`{SCMmzgggg,gzmmxxmVVVVmzzmmmmzzznzggzxxzkk,:;;<7wkVVmggggzzg3,gggggkkzzkkzzzggggg:;O@-8",
"3,,kkzmVVmzzzgggggggggzmz,&oo;>geKW_{`__SCCMzzggggg,,gzzmmmVmVVmggmmzzggzzggggkkgzmz:;O@7rbVVmzgggzzg33,gggzxmmmmmmmcggggg:;%*22",
"33,kkzmmmzgggggggg,3ggmmc,Oo*>2eKY_[{{_CMmmmzgggggggggzzmmmmmmmzggmmzggggggg3,gggzzz;OO@-qcVVmzggzmzg3gg3ggzmVVVVVVmzzggkg:;%*1g",
"::gzmmmmzzggggggggg3gzmmh,OO:2ttIY_[{{SCmmmmzggggznmmmmmmmzgggzzggmmzgg33gggggggggg3;OoO<1zVVmzgggzzgggggggzmVVVVVVmmmzggg:;%;1g",
";:gcmVVmzgg33gzzzzggzzmzg:OO:2rrIY_[{_Cmmmmmzggggzzmmmmmmzg333gg3gmmzgggggggggggggg:&ooo;,zMMmzzgggggggggggzmmmmmmmmmmzggg:;%;>,",
";:gzmVVmzgg33gzmmmmmmmzg,;OO;<8rHCSSSCVmzzzzzgggggggggzzggg3::::3gmmzgggznzgggggggg1;XXX:gcYMmmmzggg3ggggggzzzkkzzzzxzggg3:;O&>>",
":,gzmVVmzg333gzmmVVVVmzg>;OO;<77kCSSCmmmzggzzzzgg3333gggg3g3:;;:3gmmzzzzmmzgggggggg3;$XX:gKYMmVmzggg33gggggggggggggkkkg,g3:;O&>>",
"ggzmmVmmzg::::gzmVVVVmzg,:OO:277kCSSCmmmzggzmmzgg3333ggggggg,,;:3gmmzzmmzzgg3gggggg,:;$*1gKYMmVmxkg333::::::3gggggggkk,gg3:;OO;>",
"ccMCCCVmzg::::gzmmmmmmzzk,OO:277bCSCMmmmzggzzzzgggggggzzggggk,>:3gzmzzmmzgg33ggzzzzg:;*;1gKYMVVmzkggg3:;;;;:3gzzzzggg,,ggg:;OO;>",
"KYCSSSCmzg333gzmmmzzzzMMz,&O:27rESCMzzmmzggggggggggzzmmmggggg,33ggzzgzzzgg3ggznmmmzg:;*>3KKYMmVmzggggg,>;;;:,kxmmzgg,,,ggg:;OO:3",
"KY_SSSmxzgg,,gmVVmzggzMmz,&O:28rWSCmkkxxzgg333,ggzzzmmmmzgggg,ggzzzzgggggggggzmVVmzg:;%;gKIHMVCMzgggzzk,>:;:,kmmMzg3333ggg:;OO:3",
"KY_SCmkkkgg,,kmVVmzgggmmk,&O:28rWSCmggkkgg333,,ggzmmmmzzgggg,,gzmmmmzggggggznmmVVmzg:;O;gIttkVSCbkgzmmzg3:::,zmmcg::333gg3:;OO;>",
"YY_SCzg,,,,,gkzmmmzzggzzk>OO:27rESCmg,,,,,gggggggzmmmzzggggggkzzmVVmzzgggzzzmmmmmmz3;OO;gHrtkVSCbkkzmmzgg3:,gzmzg3::33ggg3:;O%;>",
"MCSSMgg,,,,gggggczMzggggg>OO:277bVVmzg,,,ggggggggzmmzzgggggggzmmmVVmmmzggzmmmmzzmmz,;OO:3gHHMVCMzkgzzzkg,3ggnMzzgg3333gggg:;%%>>",
"mCSCcgggggkkzgg3gcmzg33,g,&&:277kVCCczkkgggggggggzmmzzgg3ggggznmmmmmmmzczzmVVmzzmmk>OO;:23KYMmmzzgggggg,,gczmmzgggggggzzzg:;$*=2",
"mVCMzggggzxmmzg3ggzzg,,gf,;;;<77kVSSMmmxzggggg,ggzzxmmzgg3ggggzzzzzzzzMMmmmVVmzzmmg>OO:2qwIYMmzzgggggkg,,gzmmmzggg3gzmmmzg:;X+7r",
"mmmmzggggzmmmzgg3gggg,,,,,:;;<78kCSSCmmmzgggg,,ggzzxmmzg33333ggggggggzmCmmmmmmzzmzg:&&,288IYCMzgg33gggg,ggmVVmzggggzmmmmz3:*X+70",
"mmmmzggggzzzzzgg,3,g,,,3>:;;O@78kCSSMzzzggggg,,ggzmmmmg3::::3ggggggggkmMzzzzzzzzzzg1;;1288K!_Ccgg333gg,ggzmVVmzgggzmmmzzg3;$.+69",
"CCCMzgggggggggggggg,,,,3:;;&O@7rbCSCzgggggzzkkggzzmVmzg3:;::3gzzgg,,,kxxzggggggggg3>**>28rK'_Ccggg33gggggznmmmzgggzmmzzg3:*X.+-7",
"SSSCcggggggggggzbcz,,,33:;OOo@7rESCmkggggzmmmzzzmmmmzgg3:::3gzmmzgg,,gkkkgggggggg3:;**>20uKC_Wcggggggggggzzzzzggggzzggg3:;X.o#2t",
"SSSCMzzzzgggggzzmmzg,>33:;ooo@-wECMzk,,gzzmmmmzzmmmmzgg3::3gzzmmzggg,,,,,gggggg,,3;;%*>2tiKCWMg3ggggzzzgggggggggggggg33>:*XXo:gY",
"CCCCmmmmzgggzmmmmmzg,,,3;$XXo#<3bbkgg,,kxmmmzzzzzzmmmmzg,,gzmmmmzgggg,,,,kkggg,gg,&oo;,HIKWWCn,:3ggzmmzggggggg3gggggg3::;$$*:3KK",
"mmCCVmmzzggzmmmmmmzzgg3>*$X.X;,gkg3333,fmVVmzggggzmmmmzzkggzmmmmzgzzkkggg,4g,,,,k,&oo;gKKYYWMz,:3ggzzzzgggggggggzzzgg3:;%$$;3gKK",
"mCWWCmzzggggzzxxmmmmcg,:*$XX%>3gg3:::::,nVVmzggggzmmzzmmzggzmmzzgzmmmxzgg,,,,,,,g,&ooO3gKKcccg33,ggggggggggggggzmmzkg3:;Ooo;gKgg",
"mCWWCmzg,,ggggkzmmmxg3;;%XXX>33ge2:;;;;;fnmzzggggzxzggxmzggzmmzzzzmmmmzzg,,,,,,,g3&ooO3GIHgggggggggggggzkkkzzzzznbzg3:;#OOO:gKg3",
"VMCCCmkgggggggkzzzzf,:OOooo#3KKItw<;OOOO;,ggkk,gkkkf,,fkkgggzzmmmmzzmCmzg,,,33,gg:OoX@3Iit1:gggggggggggzkkkzmmzgggg3:;OOoO:3KKg3",
"mmzzzzf,,ggg33gg,,,;;#OOOOO:gKKItt1;OOOOO;:>,>>>,,,:;;>,,,33gzxmVmzzmmmzgggggg3gg:Oo.@3Ir8<:gghhgggggggggggkzzg33>1>:;OoO;3gheg3",
"zg,,,::>3gg,>:::;;&OOOO;:::3gggg333:;;;OOOOOO&&&&&&&%**;;:::3gzzmmzzzzzzggggggg3g:Oo.X1e8723gghgggggg3::::::,,::;&;;*%oO#:33ww2g",
"cg,:;;;;:>>;;;;*$XoOO;::2222e3332222<<<<;OOOOOOOOOO&%%%%;;;;:33gzzzgggggggggggggg:OoXX:27-2g333,,:::::;;;;;;;;;;OoX$$XoO;12wqq22",
"Kcg::;OOOOOOOoXXXXO:3g31q888rt32q7777777<:::;;>::::>>=%%oOOO*;::,,ggggggggggkgggg:OooO:32233:;;OOOOOOOOo%******%ooX.XXX;:2q72288",
"KKe2:;;OOOOOOoXXX@<2eyew7978rtew808rrrrteg2222222222>>=*;;O&%*;;;;:3gggzzzzz,,g,3:&oO;3gg321:;OOOOOOOOO&;>;**;*;;OXXXX*>2w77ww79",
"KIwq13,:::;;::;;:<77888797w23eq70uPWWWKKYKw77788877712-72g3>>;*%OOO;,ggzmmmz,:::;*%%;:3gg2q72:;;::::::;>,3111111::::::>1q7997799",
"YItwee22222231223etrrrr87q232w80riWSSS__'/irrr88887q3ettIKe22=*%OOO&:,,gzznf;;;;%$*;:122getteg33gGGggg35KYggggggggggg33ww8rrwwrr",
"WYIttr88877-22-7eKWWWEb32<33q80rekcMCS{{[_WWWK5333kkKK~~KHw77->;::;;;:::,,,;OO%*$%=>geqrK^~~^YYY^((YKKHKWWKKKKYYKGggg2qweIKEbbEW",
"__YKirr8888q33qqHW_]SSVz:::270uykggzmC_{]SSSSCmzzzmMYY!'WHt88w2<22<;:::;;;;;Oo%**>>2eewtK'(!(((((((!YYYY!WYKKY!!WKg32w78HW_SCCS_",
"{`CbkykHHyyHKKkbCSSSCCmk:::<78PWcggzmVCSSSCCCCmmzzzcMC___Ckeettr877-1::;OO%%oo;>>2778reHYCCCCWCYMMYCMMMMCCMMccMC_Cg2q797kCSSCCW_",
"}{SmzzmMYYYYKYMCSSSSCmx,:;:<7rWSMggzmmmCSSCmmmmmzggzmCSD]SMcKIu0096723:;Oo%%oO;>,28998IYMmmmmmVmzzmmmmmmmVVMzzmCSCc28967kCSSCCWW"
};
