/* XPM */
static const char *wall57_4[] = {
/* columns rows colors chars-per-pixel */
"128 128 156 2 ",
"   c #000000",
".  c #060A05",
"X  c #080B07",
"o  c #0C0C0C",
"O  c #071006",
"+  c #0B1807",
"@  c #0E130B",
"#  c #0D1B09",
"$  c #11130C",
"%  c #101C0A",
"&  c #141514",
"*  c #161A14",
"=  c #191B16",
"-  c #1C1D1C",
";  c #13230C",
":  c #1D230F",
">  c #152B0D",
",  c #192F0F",
"<  c #17320F",
"1  c #18300F",
"2  c #172312",
"3  c #182315",
"4  c #172D10",
"5  c #1A2D13",
"6  c #1D221B",
"7  c #1E2A1B",
"8  c #173110",
"9  c #193412",
"0  c #1C3C14",
"q  c #1F3B18",
"w  c #212713",
"e  c #232C12",
"r  c #20221D",
"t  c #252C1D",
"y  c #292F1E",
"u  c #233212",
"i  c #213D15",
"p  c #2F361F",
"a  c #223D19",
"s  c #2D3A1E",
"d  c #30381F",
"f  c #242423",
"g  c #262823",
"h  c #292B25",
"j  c #292929",
"k  c #263122",
"l  c #2C3220",
"z  c #2C3320",
"x  c #2D3421",
"c  c #2F3720",
"v  c #2E3422",
"b  c #2E3129",
"n  c #2D3E29",
"m  c #303721",
"M  c #303625",
"N  c #303820",
"B  c #343C23",
"V  c #333B24",
"C  c #353C25",
"Z  c #353C26",
"A  c #353D26",
"S  c #373F27",
"D  c #383F27",
"F  c #383F28",
"G  c #353535",
"H  c #383A37",
"J  c #383838",
"K  c #1F4217",
"L  c #1F4118",
"P  c #224917",
"I  c #214419",
"U  c #2D411F",
"Y  c #244C1A",
"T  c #294C1D",
"R  c #27521B",
"E  c #29561D",
"W  c #2A5A1E",
"Q  c #2F4220",
"!  c #344325",
"~  c #394127",
"^  c #344924",
"/  c #394D27",
"(  c #384028",
")  c #3B4328",
"_  c #3C4429",
"`  c #3F472B",
"'  c #3E442E",
"]  c #3E492A",
"[  c #2D5622",
"{  c #2D5E21",
"}  c #315A24",
"|  c #3C512B",
" . c #355F28",
".. c #2E6222",
"X. c #306624",
"o. c #336A26",
"O. c #3B662C",
"+. c #356E29",
"@. c #3A6B2C",
"#. c #36722A",
"$. c #39762B",
"%. c #3B7B2D",
"&. c #3F6732",
"*. c #3F6C31",
"=. c #40472B",
"-. c #40482C",
";. c #444B2F",
":. c #40512E",
">. c #444C31",
",. c #454D31",
"<. c #484F33",
"1. c #474D3B",
"2. c #435631",
"3. c #4B5336",
"4. c #4D5337",
"5. c #4E5337",
"6. c #445B31",
"7. c #4A5C35",
"8. c #4D533C",
"9. c #505539",
"0. c #406637",
"q. c #4C6036",
"w. c #406937",
"e. c #436A3A",
"r. c #51643F",
"t. c #427630",
"y. c #47743D",
"u. c #487639",
"i. c #454545",
"p. c #4A4A4A",
"a. c #565E41",
"s. c #555C43",
"d. c #535353",
"f. c #5C5C5C",
"g. c #4B7B41",
"h. c #606F4B",
"j. c #616D5F",
"k. c #687659",
"l. c #646562",
"z. c #656A61",
"x. c #686963",
"c. c #686768",
"v. c #696969",
"b. c #647261",
"n. c #687566",
"m. c #6C7769",
"M. c #6E7B6B",
"N. c #707F6C",
"B. c #3E822F",
"V. c #3E8531",
"C. c #3F8833",
"Z. c #408731",
"A. c #418C34",
"S. c #439236",
"D. c #449538",
"F. c #4E8042",
/* pixels */
"` ` ` ` -.-.-.=.=.-.-.-.-.-.-.-.-.-.-.` ) ) ) ) ` -.-.-.-.` ) ) ` ` ) ) ` -.-.-.-.` ) ) ` -.-.-.-.` ) ) ` ` ) ) ) ) ` ` ) ) ` =.-.=.=.=.=.=.=.=.=.-.-.-.-.-.-.-.-.-.-.` ) ) ) ) ` -.-.-.-.` ) ) ` ` ) ) ) ) ` -.-.-.-.-.-.-.-.-.-.=.-.-.-.-.-.` ) ) ) ) ` ` ) ) ",
",.,.,.,.,.,.,.,.,.<.4.9.9.9.9.4.<.,.,.,.,.,.,.,.4.9.9.9.9.4.<.,.,.,.,.,.,.,.,.<.4.4.<.,.,.<.4.4.<.<.4.9.9.9.9.4.,.,.,.,.,.,.,.,.,.,.,.,.,.,.,.,.,.<.4.9.9.9.9.4.<.,.,.,.,.,.,.<.4.9.9.4.<.,.,.,.,.,.,.,.,.,.,.<.4.4.<.,.,.<.4.4.<.<.4.9.9.9.9.4.<.,.,.,.,.,.,.,.",
"N N N N N N N N N N N N N N N N N N N m m N N N A ) ) ) ) A N N N N N N N N N N A A N N N N N N N B ` ` ) ) F A N x N N N N N N N N N N N N N N N N N N N N N N N N N m m m N N A A N N N N N N N N N N N N N N A A N N N N N N N B ` ` ) ) F A N m N N A ) A A ",
"p p p p p p p p p z g f f j j h x x h f f j z N ) ) N p p p p p p p p p p p p x N N N d d d p p p N A A N x h j j h z p p p p p p p p p p p p p p z g f f j f h x x h f f j z N ) ) N p p p p p p p p p p p p N N N x p p p p p p N A A N x h j j h z N A A N p ",
"d p p p d N N d p p p z h j j h x x h f f j z N A A N p p p p p p N A A A A A A A A A A A A A A A A A A N N A A A V N p p p p d p p p p N N N d d p p z h j j h x x h f f j z N A V h j j h x p p N A A A A A A A A A A A A A A A A A A N N A A A V N N A A N p ",
"A V m N ~ ) A A A V m m V A A A A V x p p x V A A V m p p m V A A A A A A A A A A A A A A A A A A A A A A V N p p m V A A A A A A V x N ) ) A A A V N m V A A A A V x p p x V A A V x x V A A A A A A A A A A A A A A A A A A A A A A A A V m p p m V A A A A A ",
"- - f f f f - - f f f f - - - - - - - - - - - - - - - - - - - - - - - - - - - 6 f f - - - - - 6 f f - - - - - - - - - - - 6 f f - - f f f f - - f f f f - - - - - - - - - - - - - - - - - - - - - - - - - - - 6 f f 6 - - - - 6 f f - - - - - - - - - - - - - - ",
"f f f f f f f f f f f f f f - - - - f f - - - - f f f f f f f f - - f f f f f f f f f f f f f f f f f f f f - - - - - - f j z p f f f f f f f f f f f f f f - - - - f f - - - - f f - - f f f f - - f f f f f f f f f f f f f f f f f f f f - - - - - - f f f f ",
"& & & & & & & & & & - - - - - - - - - - & & & & & & & & & & & & & & & & & & & & & & @ @ & & & & & & & & & & & & & & & & & & & & & & & & & & & & & & - - - - - - - - - - & & & & & & & & & & & & & & & & & & & & & & @ @ & & & & & & & & & & & & & & & & & & & & ",
"- - f f f f - - f f f f f f f f - - f f f f - - - - f f - - - - - - - - - - - - - - - - - - - - - - f f f f - - - - & & - - - - - - f f f f - - f f f f f f f f - - f f f f - - - - - - - - - - - - - - - - - - - - - - - - - - - - f f f f - - - - & & - - - - ",
"f f f j z z j f f j z N A V N m V A A M j f - 6 y p p p p p p p p p p p p z f f f f - - f f f f f j z p p z f f f f - - f f f f f f f j z z j f f j z N A A N m V A A M j f - 6 y p p p p p p p p p p p p z f f f f - - f f j f f j z p p z f f f f - - f f f f ",
"f f f h x p p N A A N N A A N p p N A V h f - r y x p p p p p p p p p x h f f g z z j f f j z p p p p p p z g f f f f f z z j f f f f h z p p N A A N N A A N p p N A V h f - r y p p p p p p p p p p x h f f g z z j f f j z p p x p p p z g f f f f f f f f f ",
"f f z p p N A A N N p N N N p z h j j f f f f f f j j j j h x x h h x p p p p z j j z p p p x x p p p x h f f f - - - - f f f f f g z p p N A A N N p p N N d z h j j f f f f f f h x p p p p x h h z p p x p z j j z x p p p p p p p z h f f f - - - - f f f f ",
"f g z p p N A ) ` ` ~ ) ` ) B N x z j f f f - r p z j j z p p p x x p p p x j f f f j h x N A A N N p z g f f f f f - - f f f f f g z p p N A ) ` ` ~ ) ` ) B N x z j f f f - r y p p p p p p p x x p p p z j f f j j h x N A A N p p z g f f f f f - - f g z p ",
"f g z N A A A A A F ` -.,.3.9.4.` M r - f f - r p p p z h h x x j j z p d p r - f j z N ) ;.4.3.;.F h f f f f f f f - - f j j f f g z N A A A A A ~ ` -.,.3.9.4.` M r - f f - r y p p p x p p z j j z p d p r - f j z N ) ;.3.3.;.F h f f f f f f f - - f f f j ",
"x x p p p p p z j j z A -.3.a.a.3.' b f - & - f f j z p p p p z j j z p d p r - f f f b ` 3.a.a.3.` b f - & - f f f - r y x p x p p p d d d p z j j z A -.3.a.a.3.' b f - & - f f f f f f h x x h j z p d p r - f f f b ` 3.a.a.3.` b f - = - f f f - - f f f f ",
"j h V A N p p x j f f g z ~ <.<.D x p t = & - - f f j h x p p p p p p p d p r - f f - r M ` ,.-.A N x t = & - f f f f f f h x x h h V A N p d x h f f g z ~ <.<.D x p t = & - - f f f f f h x p p p p p p p r - f f - r M ` ,.-.A p x t = & - f f f f f f g z p ",
"p m A A A A A V h f - - f g z x j f - - - - - r y p p p p p p p p z j h x z g f f f - - f g z p p p g f - - - - f f f f f h x p p m A A A A ) V h f - - f g z z j f - - - - - r p p x x x p p p p z j h x p g f f f - - f g z p p p g f - - - - f f f f f g z p ",
"f j V A ) A A A N z g f - - & & & & - - - - - r p d p p p p p x h j f h z z g f f f f - - & & & & & - - f f f f f f f h z x d z g j V ) ) A A A N z g f - - & & & & - - - - - r p N A A N p p z h j j h z z g f f f f - - & & & & & - - f f f f f f j f f j z p ",
"f g z N A A ) A N p p z g f - - - - f f f f f f z p p p p p p p p p x z j f f g z z g f f f - - - - f f f f f f f j z x p d d z f f z N A A A A N p z z g f - - - - f f f f f f z p d z h h z p p p p z j f f g z z g f f f - - - - f f f f f f f j z z h j j j ",
"f g z p x N A A A A A A m p p z j f f h z z f f z p p p p p p p p x h f f j z p p x x x x x p p p p p p p z j f f j z p x p p z g g z p x N A A A A A A m p p z j f f j z z f f z z h h z p p p p z h f f j z p p p p p x x p p p p p x x z j f f j z p p z j f ",
"f f j j j j j j j h x z g g z d p p p p p z j f f f f f j h x p p z j f f f f g z z g f f h x p p z h h x z g f f f f f f f f f f f j j j j j j j h x z g g z p p p p p p z j f f g z z h h z p p z j f f f f g z z g f f h z d p z h h x z g f f f f f f f f f ",
"x x x x z m m m x m N x h h x N N N d d d d m z h h z x x m N x h j f g z x x N d x h j j h x N d N m m N N x x x z h f f f j h x p x x x x m m m N d x h h x d d N d d N N N z h h x d N m d x h j f g z m x N d x h j j h x N d N m m N N m m p z h j j j f f ",
"` ] ` ` ` ` ` ` ` ` ` ` ` ` ` =.` ` ` ` ` ` ` ` ` ` ` ` ` ` ) ) ` ` ) A A ) ` ` ` ` ` ` ` ` ` ` ` ` ` =.` ` ` ` ) A A A A ) ` ` ` ` ` ` ` ` ` ` ` ` ` ` ` ` ` ` ` ` ` ` ` ` ` ` ` ` ` ` ` ` ) ) =.=.) A A ) ` ` ` ` ` ` ` ` ` ` ` ` ` ` ` ` =.` ) A A ) ` ` ) A ",
",.,.,.,.,.,.,.,.,.,.,.<.4.9.9.9.9.9.9.9.9.9.9.4.<.<.4.9.9.4.<.,.,.,.,.,.,.,.,.<.4.4.3.,.,.<.4.4.<.<.4.9.9.9.9.4.<.,.,.,.,.,.,.,.,.,.,.,.,.,.,.,.,.,.,.3.4.9.9.9.9.9.9.9.9.9.9.4.<.<.4.4.<.,.,.,.,.,.,.,.,.,.,.<.4.4.<.,.,.<.4.4.<.<.4.9.9.9.9.4.<.,.,.,.,.,.,.,.",
"N N N N N N N N N N A A N N A A N N N N A ) ) ) ) ) ` ` ) A N N N N N N N N N N A A N N N N N N N B ` ` ) ) F A N N N N N N N N N N N N N N N N N N A A N N A A N N N N A ) ) ) ) A N N N N N N N N N N N N N N A A N N N N N N N B ` ` ) ) F A N N N N A ) ~ ~ ",
"p p p p p d p z h h V V h h x p p N A A N p p N A ) ` F h f f h x N A A N p p d N N N p d d d p p N A A N x h j j h x p p p p p p p p p p p p z h h V V h h x d p N A A N p p N A V h j z x h h z N A A N p p d N N N N d d d p p N A A N x h j j h z N A A N p ",
"p d p p d N d p x N A A N p p p p N A A N p p d N N N N p p p p p N A A N N A A A A A A A A A A A A A A N N A A A A N N p d d d m p p p d N N p x N A A N x p d p N A A N p p d d x j j z p p p p N A A N N A A A A A A A A A A A A A A N N A A A A N N A A N p ",
"A V N N ~ ) A A A A A A A A A A A A A A A A A A A A A V m p p m V A A A A A A A A A A A A A A A A A A A A V N p p N V A A A A A A V m N ~ ) A A A A A A A A A A A A A A A A A A A V x p p p p m V A A A A A A A A A A A A A A A A A A A A V N p p N V A A A A A ",
"- - f f f f 6 - - - - 6 f f - - - - - - - - - - - - - - - - - - - - - - - - - 6 f f - - - - - 6 f f - - - - - - - - - - - 6 f f 6 - f f f f 6 - - - - 6 f f 6 - - - - - - - - - - - - - - - - - - - - - - - - 6 f f - - - - - 6 f f 6 - - - - - - - - - - - - - ",
"f f f f f f f f - - f f f f f f f f - - f f f f f f p z g f f f - - f f - - f j j f f f f f f f f f f f f f - - - - - - f j z z g f f f f f f f - - f f f f f f f f - - f f f f f f - - f f f f - - f f - - f j j f f f f f f f f f f f f f - - - - - - f f f f ",
"x x x x m m m x x x x m m x x x m x p p x m m z j h x x h h z z g f f j j h z N N x h j j h z x x m x x x x x p p z h f f f j h x m m m m m m x x x x m x x x x x x p p x m m x h j j f f g z z g f f j j j z N N x h j j h x x x x x x p p p p p z h j j f f f ",
"` ` ` ` ` ` ` ` ` ` ` ` ` ` ` ` ` ` ` ` ` ` ` ` ` ` ` ` ) A A A A ) ` ` ) ) ` ` ` ` ` ` ` ` ` ` ` ` ` ` ) ) ` ` ` ` ` ` ) ) ` ` ` ` ` ` ` ` ` ` ` ` ` ` ` ` ` =.=.=.` ` ` =.=.` ` ` ) ) ` ` ) A A ) ` ` ) ) ` ` ` ` ` ` ` ` ` ` ` ` ` ` ) ) ` ` ` ` ` ` ) ) ` ` ",
",.,.,.<.4.4.<.,.,.,.,.<.4.9.9.9.9.9.9.9.9.9.9.4.<.<.4.4.<.,.,.,.,.,.,.,.,.,.,.<.4.4.<.,.,.<.4.4.<.,.,.,.,.<.4.4.<.,.,.,.,.,.,.,.,.,.,.3.4.4.<.,.,.,.,.3.4.9.9.9.9.9.9.9.9.9.9.4.3.,.,.,.,.,.,.,.,.,.,.,.,.,.,.<.4.4.<.,.,.<.4.4.<.,.,.,.,.<.4.4.<.,.,.,.,.,.,.,.",
"N N N N A A N N N N A A N N A A N N N N A ) ) ~ ) ) ` ) b j j h V ~ ~ A N N N N A A N N N N N N N N N N N N A A N N N N N N N N N N N N A A N N m N A A N N A A N N N N A ) ) ) ) A h h x x h h V ~ ~ A N N N N A A N N N N N N N N N N N N A A N N N N N N N N ",
"p p p p p d p z h h V V h h x p p N A A N p p N A ) ` ) N p p p x N N N p p p x N N N p d d p p p p p p p p N N N p p p p p p p p p p p p p p z h h V V h h z p p N A A N p p N A A N p p p p p p x N N N N m N N N N d d d p p p p d p d N d d N N p p p p p p ",
"d p p p p p p p x N A A N p p p p N A A N p p d m N N x d p p p p N A A A A A A A A A A A A A A A A A A A A A A A A A A N p p p p p p p m N d p x N A A N x p p p N A A N p p N d x h j j h z p p N A A A A A A A A A A A A A A A A A A A A A A A A A A A A N p ",
"A V m m V A A A A A A A A A A A A V N p p x V A A V x x V A A A A A A A A A A A A A A A A A A A A A A A A A A A A A A A A A A A A V x x V A A A A A A A A A A A A V m p p m V A A V x x V A A A A A A A A A A A A A A A A A A A A A A A A A A A A A A A A A A A ",
"- - f f - - - - - - - - f f - - - - - - - - - - - - - - - - - - - - - - - - - 6 f f 6 - - - - - - - - - - - f f - - - - - 6 f f - - f f - - - - - - - 6 f f - - - - - - - - - - - - - - - - - - - - - - - - - 6 f f - - - - - - - - - - - - f f - - - - - - - - ",
"f f f f f f - - - - f f f f f f f f f f - - - - f f f f f f - - - - f f f f f f f f f f f f f f f f f f f f - - - - - - f j z p f f f f f f - - - - f f f f f f f f f f - - - - f f - - - - - - - - f f f f f f f f f f f f f f f f f f f f - - - - - - f f f f ",
"& & & & & & & & & & & & & & - - & & - - & & & & & & & & & & & & & & & & & & & & & & @ @ & & & & & & & & & & & & & & & & & & & & & & & & & & & & & & & & & & - - & & - - & & & & & & & & & & & & & & & & & & & & & & @ # & & & & & & & & & & & & & & & & & & & & ",
"- - f f f f - - f f f f f f f f - - f f f f - - - - f f - - & & - - - - & & - - - - - - - - - - - - f f f f - - - - & & - - - - - - f f f f - - f f f f f f f f - - f f f f - - - - - - - - & & - - - - & & - - - - - - - - - - - - f f f f - - - - & & - - - - ",
"f f f j z z j f f j z N A A m m V A A M j f - 6 y p p p p y 6 - f f f f f f f f f f - - f f f f f j z p p z f f f f - - f f f f f f f j z z j f f j z N A A N m V A A M j f - 6 y z f f f f - - f f f f f f f f f f - - f f f f f j z p p z f f f f - - f f f f ",
"f f f j z p p N A A N N A A N p p N A V h f - r y p p z j f f f f f f f f f f f z z j f f j z x p p p p p z f f f f f f z z j f f f f h z p p N A A N N A A N p p N A V h f - r p z f f f f f f f f f f f f f f z z j f f j z p p p p p p z g f f f f f f f f f ",
"f g z p p N A A N d p p N N p x h j j f f f f f f j j j j f - - - - f f - - - - f j z x p p m d p p p x h f f f - - - - f f f f f g z p p N A A N N p d N N d z h j j f f f f f f f - - f f - - - - f f - - - - f j z x x x x p p p p z j f f f - - - - f f f f ",
"f g z p p N A ) ` ` ~ ) ` ) B N x z j f f f - r p z j j z y 6 - f f - - - - f f f f j h x N A A N d p z g f f f f f - - f f f f f g z p p N A ) ` ` ~ ) ` ) B N x z j f f f - r p p 6 - f f - - f f - - - - f f f j j h x N A A N p p z g f f f f f - - f g z p ",
"f g z N A A A A A ) ` -.,.3.9.4.` M r - f f - r p p x z j f - - f f f f - 6 y z j j z N ~ ;.4.3.;.F h f f f f f f f - - f j j f f g z N A A A A A ~ ` -.,.3.9.4.` M r - f f - r p p r - f f - - f f f f - 6 y z j j z N ) ;.4.4.;.A h f f f f f f f - - f f f j ",
"x p p d d d d x h j z A -.3.a.a.3.' b f - & - f f h z z g f - - f f f f - - f f f f f b ` 3.a.a.3.` b f - = f f - r y p x x p x p p p d d d p z j j z A -.3.a.a.3.' b f - & - f f f - - - - - - f f f f - - f f f f f b ` 3.a.a.3.` b f - & - f - r y p p z j f ",
"j h V A N d d x h f f g z ~ 3.<.~ x x t = & - - f f j f - - - - f f f f - - f f f f - r M ` ,.-.A N x t = & - f f g z x h h x x h h V A N p d x h f f g z ~ 3.<.D x p t = & - - f f - - - - - - f f f f - - f f f f - r M ` ,.-.A N x t = & - f f g z p p z j f ",
"p m A A A A A V h f - - f g z x h f - - - - - r y p p z f f f f f j j f f f f f f f - - f g z p p p g f - - - - f j x x h h z p p m A A A A ) V h f - - f g z z j f - - - - - r p p r - f f f f f f j f f f f f f f - - f g z p p p g f - - - - f j x x j j z p ",
"f j V A A A A A N z g f - - & & & & - - - - - r p p p z f f f f z p x z h j f f f f f - - & & & & & - - f f f f f j z p p p p z g j V ) ) A A A N z g f - - & & & & - - - - - r p z g f f f f f z x p z h j f f f f f - - & & & & & - - f f f f f j x x h j j j ",
"f g z N A A A A N d x z g f - - - - f f f f f g z p p p r - f f f g z d p z j j z z g f f f - - - - f f f f f f f g z d p p p z f f z N A A A A N p z z g f - - - - f f f f f g z z g f f f f f f g z p p z j j z z g f f f - - - - f f f f f f f g z p p p p p ",
"f g z p p N A A A A A A m p p z j f f j z z f f z p p p r - f f f f z p p p x p p x x x x x p p p p p p p z j j z p p p p p p z g g z p x N A A A A A A m p p z j f f j z z f f z y r - f f f f f g z p p p x p p p p p p x p p p p x p p z j j z p p p p p p p ",
"f f j j j j j j j h x z g f f f f f f f f f - - f h x p r - - - - - f f f f f g z z g f f h x p p z h h x z g f f h x z g f f f f f j j j j j j j h x z g f f f f f f j f f - - f f - - - - - - - - f f f f f g z z g f f j z p p z h h x z g f f h x x h j j j ",
"x x x x m m x x x m N x h j j h x m N N x z j j z N d z g g z z g f f j j h z d d x h j j h x N d N m m N N x x x m N z g f f h x p x x x x m m m N d x h j j h z m m m x z j j x p r - f g z z g f f j j j z p d x h j j h x d d N N N N N x x x N N z g f f j ",
"` ` ` ` ` ` ` ` ` ` ` ` ` ` ` ` ` ` ` ] ) A N V ) =.` ` ) A A A A ) ` ` ) A A ) ` ` ` ` ` ` ` ` ` ` ` =.` ` ` ` ` ` ` ` ) ) ` ` ` ` ` ` ` ` ` ` ` ` ` ` ` ` ` ` ` ` ` ` ) A N V ` ) N m A F ) A A ) ` ` ) A A ) ` ` ` ` ` ` ` ` ` ` ` ` ` ` ` ` ` ` ` ` ) ) ` ` ",
",.,.,.,.,.,.,.,.,.<.4.9.9.9.9.4.<.,.,.,.,.,.,.,.4.9.9.4.,.,.,.,.,.,.,.,.,.,.,.<.4.4.<.,.,.<.4.4.<.<.4.9.9.9.9.4.<.,.,.,.,.,.,.,.,.,.,.,.,.,.,.,.,.<.4.9.9.9.9.4.<.,.,.,.,.,.,.<.4.4.-.` ,.,.,.,.,.,.,.,.,.,.,.,.4.4.<.,.,.<.4.4.<.<.3.9.9.9.9.4.<.,.,.,.,.,.,.,.",
"N N N N N N N N N N N N N N N N N N N N N N N N A ) ) A h j j h x N A A N N N N A A N N N N N N N B ` ` ) ) ) A N N N N N N N N N N N N N N N N N N N N N N N N N N N m N N N N A V h f j j j h x N A A N N m N A A N N N N N N N B ` ` ) ) F A N N N N N N N N ",
"p p p p p p p d p z g f f j j h x x h f f j z N ) ) B z g f f j z N A A N x h j j h x N A A N p p N A A N x h h x d d d p p p p p p p p p p p p p z g f f j j h x x h f f j z B ) F h f f f f j z N A A N x h j j h x N A A N p p N A A N x h h x d d d p p p p ",
"d p p p d N N N d p p z h j j h x x h j f h x N A A N z j j z p p N A A N N A A A A N N A A A A A A A A N N A A A A A A N p p p p p p p d N d p d p p z h j j h x x h f f h x N A V j f f j z p p N A A N N V A A A N N A A A A A A ) A N N A A A A A A A A N p ",
"A V m N ~ ) A A A V m m V A A A A V N p p x A A A A N p p p p p p N A A A A N p p N A A A ) ) A A ) ) ) ) A N N A ) ) ) ) ) ) A N p p B ) ` ) A A A N N A A A A ) A N p p N A ) ) A N z j h x p p N A A A B N p p N V A A A A A A A A A A V N N V A A A A A A A ",
"- - f f f f 6 6 f f f f - - - 6 w e e e 9 9 9 9 0 0 9 9 0 I I L L L I I I I L L L L L I I I I L I I Y T T T T T T T T T T T T T T T T T T T I L L I Y Y I I Y T T T T Y I L I I I I L 0 0 0 L 0 9 9 9 9 9 9 e w 6 - - - - 6 f f - - - - - - - - - - - - - - - - ",
"f f f f f f f f j f f f f f - - - - f f 6 - - 6 f f 6 - - - - - & & & & & & & & & & & & & & & & & & & & & & @ @ & & & & - - - - & & & & & & & & & & & & & & & & & & - - & & & & - - & & & & = - - - - - - - - - - - f f f f f f f f f f f f - - f f f f f f - - ",
"x x x x x x x x m m m z h j j h z p x x p p p x x m x p r - & o .         X - j G G j - X                                 X - j G G j - X                                 X - j G G j - X         . & & - - f f f g z z h h z m x x x m m x x x m N N z g f f j ",
"` ` ` ` ` ` ` ` =.=.=.` ` ] =.=.=.` ` ` ) A A ) =.=.) A N p r & .         X f J p.p.J f X                                 X f J p.p.J f X                                 X f J p.p.J f X         X - f f j z N A F F ) ` ` ` ` ` ` ` ` ` ` ` ` ` ` ` ` ) ) ` ` ",
",.,.,.,.,.,.,.,.,.<.4.9.9.9.9.4.<.,.,.,.,.,.,.<.4.9.9.4.-.A j - X         o j i.f.f.p.G o                                 o j i.f.f.p.G o                                 o j i.f.f.p.G o         X - h M ) -.<.4.9.9.9.9.4.3.,.,.<.4.9.9.9.9.4.<.,.,.,.,.,.,.,.",
"N N N N N N N N N N N m N N N N N N N N x x N N A ) ) V h f - o .         o j i.f.f.d.G &                                 o j i.f.f.d.G &                                 o j i.f.f.d.G &         . & - f g z N A F ) ) ` ` B N p B ` ` ) ) F A N N N N N N N N ",
"` ~ N p p p p p p z g f f j f h x x h f j h z B ) ) B z j f - & .         o j i.f.f.d.G &                                 o j i.f.f.d.G &                                 o j i.f.f.d.G &         . & - f f j j j h x N A A N p p N A A N x h h x d p p N p p p ",
"N d p z h h x d p p p z j j j h x x h f f j x N A A N z j f - & .         o j i.f.f.d.G &                                 o j i.f.f.d.G &                                 o j i.f.f.d.G &         . & - f h V A A A N N A A A A A A A A N N A A A A A A A A N p ",
"A V x p p x A A A B x x A A A A A A x p p N A ) ) A N p p y r & .         o j i.l.c.d.G &                                 o j i.l.c.d.G &                                 o j i.l.c.d.G &         . & r p p p p p N A A A A A A A A A A A B N N V A A A A A A A ",
"- 6 5 9 9 9 9 9 0 I I I I I I I I I I I Y T T R R T I 0 9 , ; # .         o j p.v.v.d.G &                                 o j p.v.v.d.G &                                 o j p.v.v.d.G &         . # > 0 L I I I I I I I I I I I I I 0 9 9 9 5 6 - - - - - - - ",
"f r - - - - - - r f f f f f - - - - f f - - - 6 f j f r - = & o .         o j p.v.v.d.G &                                 o j p.v.v.d.G &                                 o j p.v.v.d.G &         . o & & & - - - - r f f f f f f f f f f 6 - - f f f f f f - - ",
"& & & & & & & & & & - - - - - - - - - - & & & & & & & & o X X .           o j i.l.c.d.G &                                 o j i.c.v.d.G &                                 o j i.c.v.d.G &           . X X @ @ # # # # @ & & & & & & & & & & & & o o & & & & & & ",
"- - - - - - f f f f f f f f f f - - f f f 6 2 ; 1 9 e : $ X               o j i.l.c.d.G &                                 o j i.l.v.d.G &                                 o j i.l.v.d.G &             . # > , , > ; = - - - - - - - f f f f - - - - - - - - - - ",
"f f - - f g z z j j z N A A N m V A A M j 6 5 0 P T P 0 * o               o j i.l.c.d.G &                                 o j i.l.v.d.G &                                 o j i.l.v.d.G &             O 8 L L L L i e e f f j j f j z p p z f f f f - - f f f f ",
"p y r - f g z N A V N N A A N p p N A M j 6 5 0 Y R P 0 * o .             o j i.l.c.d.G &                                 o j i.l.v.d.G &                                 @ p 8.z.x.a.V $             O 8 I I K K a g f f j z p p p p p p z f f f f f f f f f f ",
"f f f f f g z p N N d p N N p x h j j f f r 5 0 P R P 0 * o .             @ x 8.z.c.d.G &                                 o j p.c.c.d.G &                                 @ p 8.z.x.a.V $             O 8 P R T P a s x x x p d p p p z h f f f - - - - f f f f ",
"f f - - f g z N ~ ` ~ ~ ` ) B N x z j f f g 5 0 P E R I 3 o .             @ p 8.z.c.d.G &                                 o j i.l.c.d.G & .                               o y 1.l.x.a.V $             O 8 P R T P I s p m N A A N N p z g f f f f f - - f g z x ",
"f f - - f f z N A ) ` -.,.3.4.4.` x 5 2 6 r 5 0 Y E E I 3 o .             @ p 8.z.c.d.G &                                 o j i.l.c.d.H 3 .                               @ p 8.z.x.a.V $             O 8 P P K L I s N ` ;.3.3.;.F h f f f f f f f - - f f f j ",
"f f f f - - f f f h z A -.3.a.a.3.] T 9 * * 4 0 P R E I 3 o .             @ p 8.z.c.d.G &                                 o j i.l.c.d.G & .                               @ p 8.z.c.d.G &             O 8 K K L K a g n  .w.r.a.4.` b f - & - f f f - - f f f f ",
"f f - - f f f f f f f f z ~ 3.3.~ U T I 3 * 4 9 L P R I 3 o .             @ p 8.z.c.d.G &                                 o j p.c.c.d.G &                                 + P w.j.c.d.G &             O 8 P K L K i u i E X.2.-.A x x t = & - f f f f f f g z p ",
"p y 6 - f f f f f f - - f g T R R P 0 5 3 3 4 0 P R R I 3 o .             @ p 8.z.x.a.V $                                 @ x 8.z.c.d.G &                                 + P w.j.x.a.V $             O 8 I I K K i u u i P { [ P a g f - - - - f f f f f g z d ",
"f f - - f f f h z z g f - - & & & & - - - 3 5 0 P E E I 3 o .             @ p 8.z.x.a.A $                                 @ p 8.x.c.d.G &                                 + P w.j.x.a.V $             O 8 P T T I i u 3 * & & & & & - - f f f f f f j f f j z p ",
"f f - - f g z x p p x z g f - - - - f f f t a P T R R I 7 & .             + P 0.j.b.y.[ #                                 + P w.j.x.a.A &                                 + P w.j.x.a.V $             O 9 I I K K i u w r f - - - - f f f f f f f j z z h j j j ",
"f f - - f f f h V A A A m p p z j f f j z s a P T R E I 3 o               + P w.j.b.y.E #                                 + P w.j.x.a.A $                                 + P w.j.x.a.A $             + 0 R R T I a s p p p p p p p p p p z j f f j z p p z j f ",
"- - - - - - f f j h x z g f f f f f f f f t 9 0 Y W ..[ 3 o               + P w.j.b.y.E #                                 + P w.j.b.y.E #                                 + P w.j.b.y.E #             + 0 R P K L i u e g j z p p z h h x z g f f f f f f f f f ",
"f f f f f f f g z N N x h j j h z x x x x s a I T E ..[ t & .             + P w.z.b.y.E #                                 + P w.z.b.y.E #                                 + P w.z.b.y.E #             O 9 I I P P a t f f h x N N N N N N N x p x x h j j f f f ",
"A A N N A A A ) ` ` ` =.` ` ` ` ` ` ] ` ) A N B ` ] ` ) N s 9 ; .         + P e.m.M.g.W #                                 + P e.m.M.g.E #                                 + P e.m.M.g.E #         . ; 0 Y E { ....} ^ ) ` ` ` ` ` ` ` ` =.=.) ) ) ) A A A A A A ",
"` ` ` ` ` ` ~ ) -.<.4.9.9.9.9.4.<.,.,.,.,.,.,.,.,.2.O.o.X.{ E 0 O         + P w.z.n.F...#                                 + Y w.z.b.y.W #               . X O O X .       + P w.z.b.y.W #         O 0 E { X.+.#.#.@.7.4.<.,.,.,.,.,.,.<.4.9.9.4.<.-.` ` ` ` ` ` ",
"N N N N d N p N N N N N N N N N N N N N N m N N A ) ` ^ T K I 9 O         + P w.j.b.y.W #           . . . .               # E y.b.b.y.W #       O + + + + + + + + + + .   + P w.j.b.y.W #         + L E E R R R ^ ) ~ ) ` ` B N N N N N A ) ) A N N N N N N d d ",
"p p p p p p p p p z g f f j j h x x h f f j z N A ) ` ^ T P R 0 +   O # + , R w.j.b.y.{ ; . O # ; ; # # # # ; ; # + + O   + Y w.j.b.y.W #   O # ; > 1 9 9 1 > > 1 , # + + > R w.j.b.y...9 % # + + > R ..W R R T s m m N A A N p p p p p d x h h x p p p p p p p ",
"x p N N p p p p d d p z h j j h x x h f f h x d N s T T I I R Y 0 0 E { E W o.y.b.b.y.{ , # > 0 0 L K P R R P L 0 9 9 , # > R w.j.b.y.{ , # > 0 P E { ........{ E P 0 > # > R 0.j.b.y...K 9 0 0 9 0 W ..W E { } ^ A N N A A A A A A A A N N A A A A N N A A N p ",
"A A A A A A A A A V m N V A A A A V x p p x V A A ) ` ^ I P W ....o.V.A.V.%.#.y.b.b.y...L 0 P E { o.%.V.A.A.V.%.$.o.W P 0 0 E 0.j.b.y...L 0 P E { X.+.$.C.A.Z.$.o.{ E P 0 0 E 0.j.n.g.%.o.....{ E W o.+.X.{ E T s m V A A A A A A A A A A V N p p m V A A V m p ",
"- - - - - - - 6 f f f f - - - - - - - - - - - 6 w u i L L P { o.$.Z.S.S.Z.%.#.y.j.b.y.o.W E { o.$.Z.A.S.S.A.Z.B.B.B.B.%.o.....0.j.b.y.o.W E { ....o.$.Z.S.D.S.Z.$.+.X.{ P P W &.j.n.g.B.B.B.B.$.W E { { T K K i u w 6 - - - f f - - - - - - - - - - - - - - - - ",
"f f f f f f f j j f f f f f - - - - - - - - & & # # ; > 1 L E +.C.D.D.A.Z.%.o.w.k.k.u.o.W E { o.%.B.B.B.B.B.B.B.B.B.$.#.X.X.o.y.n.n.y.o.W E { ....#.C.D.D.S.Z.%.$.$.%.$.o.....w.m.N.F.B.B.B.$.o.R P R R P L 0 9 > 2 - - - - - - - - - - f f - - - - - - f f f f ",
"m x x x x x x m x x x z h j j h z p p x p p p p p s I I T R R ..V.D.D.V.#.....&.h.h.&.....X.+.#.$.$.#.$.%.B.B.B.B.%.$.#.#.+.X.0.j.j.0.........o.$.Z.S.D.D.A.$.#.#.$.B.B.%.+.X.0.j.j.&.o.%.Z.B.$.o.........} | -.` ` ,.-.) A A A A A N p x x x p p z j j j j f f ",
"` ` ` ` ` ` ` ` ` ` ` ` ` ` ` ` ` ` ` ` ` ` ` -.,.:. .X.......+.C.S.Z.$.o..... .2.2. .....o.#.#.#.+.X.o.%.Z.B.B.B.%.$.#.#.@.6.3.3.<.-.|  .....+.V.D.D.S.Z.$.o.X.+.$.%.B.B.t.6.<.3.2. .o.V.A.Z.%.$.+.o. .| -.,.3.<.<.,.,.,.,.,.,.,.,.-.` ` =.` ` ) A A ) ` ` ) A ",
",.,.,.,.,.,.,.,.,.<.4.9.9.9.9.4.<.,.,.,.,.,.,.<.4.9.9.7.@.#.#.$.Z.A.$.#.#.+.+.*.r.r.*.#.#.#.#.+.X.....o.%.Z.A.A.Z.%.$.#.%.t.7.9.9.9.9.7.@.o.X.+.V.D.S.A.Z.$.{ W o.$.B.B.B.t.q.9.9.7.@.#.#.$.$.#.#.#.#.@.7.9.9.9.9.9.9.9.9.9.9.4.3.,.,.<.4.9.9.4.<.,.,.,.,.,.,.,.",
"N N N N N N N N N N N N N N N N N N N m m N N N A ^ [ E E E E ..%.%.+.{ Y I s N A ^ T W ..X.X.X...{ E E ..#.C.A.%.o.W W ..} ! N N N N ! [ ....o.%.B.$.#.o...E W o.$.B.%.+.{ T T ! ^ T W o.$.B.%.+...W T U N N N A F ) ) ` ` A N N N N N A ) F A N m N N A A N N ",
"p p p p p p p p p z g f f j f h x x h f f j z N A ^ } { E E { X.#.#.o.{ P I s m m p I Y { ........{ E E { +.%.%.+.{ E W ..[ Q p p p p s T R R W +.#.o.....{ E W o.$.$.+.{ R R R R T I T X.%.A.V.+.{ E T s z h j j h x N A A N N d d d d d x h j j h z N A A N p ",
"p p p p d d N d d p p z j j j h x x h f f h z d m s T R R E { X.#.#.X.{ E T ! A N s T E { ......W E R E { #.C.C.+.{ E E ..[ Q p p s a I T R R E ..X.......{ E W o.$.$.o.W R R E { { P T X.$.B.%.o.{ E T s N A A A A N N A A A A A A A A N N A A A A N N A A N p ",
"A V m N ~ ) A A A A N m V A A A A V x p p x V A A A ` ~ N U [ o.#.#.X.} ^ V m s a I T E { ........{ E W o.%.A.V...R R E { } ^ V m s a P T R R E { ....{ W R I T X.#.#.o.W T ! ^ } [ s U [ o.#.#.X.} ^ A A V N p p N V A A A A A A A A A A V m p p N V A A A A A ",
"- - f f f f - - f f f f 6 - - - - - - - - - - - - 6 9 5 3 t [ o.#.o.W I 7 - - 3 5 0 Y R E W { { W E R W o.$.B.%...P 0 0 L q 7 - - 3 5 0 L P R R R E E E R R R E { ....{ Y q 7 - 6 - - 7 I W ....W I 7 - - - - - - - 6 - - 6 f f 6 - - - - - - - - - - - - - - - ",
"f f f f f f f f f f f r w w 5 8 8 9 9 8 8 8 8 4 , 0 P P 0 0 P W ....W P 0 1 1 9 0 P T E { { W W { ....X.+.$.B.%.o.W P 0 9 0 P Y I 0 0 P T R R R R E { { E R R R R R R R R P 0 1 8 8 1 0 P W ....E T I 0 9 9 0 0 0 0 0 0 9 5 5 w w 5 , 5 6 r - - - - - - f f - - ",
"& & & & & & & & & & - - - - - - - - - - & & & & & 3 0 0 , > 0 T { ....E L , > > 1 0 L Y { ......X.X...X.+.$.B.%.+.E 9 > 1 1 > ; * & & * 4 0 T R R E ....E R R R R Y 0 0 L L 0 < < , ; , P W ....W P 1 ; ; ; # # & & # # & & & & & & & & & & & & & & & & & & & & ",
"- - f f f f - - f f f f f f f f - - f f f f - - - 7 I Y u e 0 R o.#.o.{ P 0 9 1 < 9 0 P W X.+.#.#.#.o.....#.C.A.%...L 0 Y I 7 - - - - - w u Y R R E ....W R R R R R I L L L L 0 0 1 1 0 P W ......W 0 1 1 5 3 - - - - - - - - - - - f f f f - - - - & & - - - - ",
"f f f j z z j f f j z N A V N m V A A V j f - 6 y U [ [ U s a R #.%.o.{ E T P L L L L I T W o.$.B.%.$.+.X.+.V.A.%.o.W W $.@.n f f f f j z s T R R W o.+.X.{ E E { { E T I L L L L L L P T E ..o.#.X.T L L q t f f f - - f f f f f j z p p z f f f f - - f j z p ",
"p z j h z p p N A A N N A A N p p N A V h f - r y s I P T T P T o.#.X.{ E T I L L L L P T { $.B.Z.B.B.$.o.o.$.Z.A.V.o.o.%.@.^ p p z j j z s T E { X.#.#.X.....{ W E R T P L L K K K L I T E { o.#.o.T L L a g g z z j f f j z p p x p p p z g f f f f f f g z p ",
"p p p p p N A A N N p N N d p z h j j f f f f f f h x s I L L P { ..W E R R I L L L K L L R #.Z.A.A.Z.$.o.o.%.B.B.B.B.%.+.[ x j z p p p p s T W { o.%.$.o.X.+.+.X.{ Y i u u 0 I T T P P T E { o.%.#.E L L I s z j j z x p p p d p p p z h f f f - - - - f f j j ",
"p p p p p N A ) ` ` ~ ) ` ) B N m z j j f f - r y m d s I L L P { ........{ P L L I T T I P { +.%.V.B.$.{ W o.$.%.$.o.+.%.@.n j z p p p p Q [ ....+.%.$.{ W o.#.o.{ E T P L L I T T P P T E { o.%.%.{ T P a g f f f j h x N A A N p p z g f f f f f - - f g z x ",
"p p p N A A A A A F ` -.,.3.9.4.` B u 5 r f - r p x p s a I T E { ....o.%.#.R L L I R R I P T W o.$.$.o.W E ....X.o.+.$.B.#.^ p p p p s T W o.$.%.$.+.....X.+.#.#.o.W T P L L L K L L P T E { o.%.%.{ T I q 6 - f j z N ) ;.4.3.;.F h f f f f f f f - - f f f f ",
"p p p p p p p z j j z A -.3.a.a.3.` B t = & - f f j z p p s I P W X.+.$.B.#.R L L P { { P P T W ..o.#.o.W E ....W W o.#.o...E T s p d s I R o.$.B.%.o.....X.+.#.#.o.W P 1 , 0 I s s a K T E { o.%.%...T I 0 0 9 r f f b ` 3.a.a.3.` b f - = - f f f - - f f f f ",
"p N A A N d d x j f f g z ~ <.<.D p p y = & - - f f j h x s I P T ..%.B.$.o.T L L I R T I I T W ........E E { { E E ..X...[ Q p p N A ! T W o.%.A.C.#.{ E E { o.#.#.X.E 0 9 0 a g g 9 0 Y E { o.%.%...T s s Y T k f - r M ` ,.-.A p x t = & - f f f f f f f f j ",
"p N A A A A A V h f - - f g x x h g a q 6 - - r p p p p p s I P T ..V.C.#...E T I L L I s s T E { ....{ E E { ..W E ......[ Q s T T ) ! T { $.Z.S.C.#.{ P P { o.#.+.{ P 0 < < 0 s s T R R E { o.%.%.{ T s s I a g f - - f g T R R T g f - - - - f f f f f g z x ",
"p N A A A A ) A N z g f - 3 5 9 9 5 3 - - - - r p p p p p s a P T ..V.A.$.o.W T I I s s 9 0 L Y { ......E E ..............{ P I s N A ^ } o.$.Z.S.C.+.{ E E { o.$.$.{ T P L L a s s T R R E { o.%.%.{ T s s I a g f f - - & & * ; 2 - - f f f f f f j j j j j j ",
"p p p N A A ) A N p p z g f - - - - f f f f f f z p p p p s a P T ..V.C.#.{ W T s p p s I P T E { o.#.o.W W o.#.o.........{ E T s p p Q [ o.%.B.B.$.o.{ E W o.#.#.o.W T I L L a s s I P R W ..+.%.%.{ T s p p p p z g f f f - - - - f f f f f f f j z z h h z x ",
"p p p p x N A A A A A A m p p z j f f j z z f f z s T T s s a I T ..%.%.o.....W P a s s I I T W o.$.$.+.X.X.+.#.#.+.X.{ E R R T s x x s T W ..X.X.X...{ E W o.#.o.{ E R R Y u e s s I P W X.+.$.B.%...T s p p p p p p p x x p p p p p x p z j f f j z p p x p p ",
"f f j j j j j j j h x z g f f f f f f j f f - - f h x s I I L I T ..%.%.o.{ W R R P 0 9 L T { o.$.B.B.$.o.....o.#.o.W T I P R T k f f z T E { ........{ E E ....W R P K K q 6 6 q I L I R W o.$.B.%.{ T s p e e p z g f f h x d p z h h x z g f f f f f f f f j ",
"x x x x m m m m x N N x h j j h x x x x p z j j z m N s T R P I T { $.$.o.....{ Y K L P W X.+.$.%.B.B.B.B.$.o.......W T I P R T s z m x p U T R R R R R R E { { E T I K K a g g a I I P R { o.$.B.%...T I I s d d x h j j h x N d N m m N N m x x z h j j j j j ",
"` ` ` ` ` ` ` ` ` ` ` ` ` ` ` ` ` ` ] ` ) A N B ) ] ] | @.o.W R R W ..X...............{ W ..%.B.$.$.B.Z.S.C.#...........W W .. .| ] ] ` ` ^ R R R R R T I I R R P P R R R T s Q [ ........X.+.$.B.%.o...W E / ] ] ] ] ] ] ] ] ] ] ] ] ] ] ] ] ` ) A A ) ` ` ` ` ",
",.,.,.,.,.,.,.,.,.<.4.9.9.4.<.,.,.:.O.O.2.:.} X.o.+.+.$.V.V.$.+.#.#.#.+.X.o.%.B.B.B.B.%.$.$.%.%.$.$.Z.S.D.A.$.+.X.o.$.%.%.B.Z.A.A.A.V.%.%.$.X.....{ W T I P R R I P W X.o.+.+.#.$.%.%.%.$.#.#.$.Z.A.B.%.%.%.%.%.%.%.%.%.#.+.+.+.+.+.@.@.@.+.+.O.:.,.,.,.,.,.,.,.",
"~ A N N N N N N N N N N N N N N N N N N N x p B ) ) ) ^ E E E W ..o.%.$.o...X.X.X.X.X.+.%.B.B.%.o.o.%.Z.S.A.%.o.W R P I s U R W ..} ! s I P I T { ....{ E E { { P P R R P I I P R E E ..$.%.$.$.A.V...R P I s B ) ) B N N U T E R E / ] ` ) ) A N N N N N N N N ",
"p p p p p p p p p z g f j j j h x x h j j h z N ) ) N p p U T E { o.%.%.o.........o.$.B.Z.%.o.....o.$.Z.S.A.%.o.W R R E { { E E { { E E { { E E ......{ E E ....E R R R R R R E { { Y R o.#.o.+.%.%.{ T s N A A N p p N A A N U T W ..} ! z h j j h z N A A N p ",
"p d d d N N x p d p p s I L L I p m x p p p p N A A N s I P R W ..o.#.o.W E { X.+.$.%.B.Z.$...E { X.#.%.A.A.%.o.W E { X.X...W R P I I P R W ..o.#.#.o.{ E W +.#.o.....{ Y P R W ........X.X.X.o.#.+.W T ! ^ T T ^ ^ T E { { E E { ....} ^ A A A A A N N A A N p ",
"A A A ) ` ` A A A ! T R R R R T ! A A ! T T ! A A ^ T E { ....X.+.#.$.+.{ W { X.+.$.%.%.$.#.X.{ E ..$.B.Z.B.$.o.W W o.$.B.$.o.X.+.$.%.%.o.X.+.$.%.$.o.....o.V.A.Z.$.o.{ E E { ....o.$.%.$.#.#.$.%.$.o.{ E E { ..X.....................{ E T s p p N A A A A A A ",
"e u i I I L 0 0 L I I P P I I I I I I Y R E E E E E E W o.+.o.X.+.$.B.%.$.+.X.o.%.%.$.#.#.+.o.....X.+.$.A.S.S.C.$.#.#.$.A.A.Z.%.$.$.$.#.#.$.%.%.$.#.X.....+.C.D.S.V.+.............o.$.%.$.#.#.$.B.%...E R W ..X.X...W E E R P I I I I P R E E R P I I L 0 9 6 - ",
"u u I P P I I P R E E R R W o.$.%.B.B.V.A.S.S.S.A.C.$.#.#.#.#.#.#.%.A.A.$.$.%.%.+.X.X.o.#.$.#.#.#.#.$.$.$.$.$.#.o.o.+.#.#.$.C.S.S.Z.V.B.B.B.B.B.$.#.o.....#.C.S.Z.B.$.+.X.........o.#.$.%.%.$.$.%.B.B.%.o.X.#.#.o.o.#.+.X...........W W ..o.#.+.X.......W R P I ",
"A.A.A.A.A.A.A.C.$.#.#.$.%.V.A.S.S.S.S.S.S.S.D.S.Z.B.B.$.o.X.+.$.A.S.D.A.$.+.X.o.+.#.#.$.%.B.B.$.o.+.V.A.$.+.X.X.+.+.o.....X.X.X.X.X.X.+.%.B.B.B.B.B.B.B.B.V.A.S.Z.%.$.+.X.....X.+.#.#.#.$.#.#.$.B.B.$.$.%.V.A.S.S.S.S.A.V.B.B.V.A.S.S.S.S.S.S.A.V.B.B.B.B.B.%.%."
};
