/* XPM */
static const char *wla128_1[] = {
/* columns rows colors chars-per-pixel */
"128 128 57 1 ",
"  c #0E0E0E",
". c #0F170C",
"X c #151514",
"o c #191B16",
"O c #1C1D1C",
"+ c #1F201D",
"@ c #20221D",
"# c #272C1C",
"$ c #292F1E",
"% c #2F361F",
"& c #2F381F",
"* c #30381F",
"= c #242423",
"- c #272823",
"; c #292B25",
": c #2A2B28",
"> c #2C3121",
", c #2C3320",
"< c #2F3621",
"1 c #2E3422",
"2 c #2E3029",
"3 c #303720",
"4 c #303721",
"5 c #303624",
"6 c #313820",
"7 c #333B22",
"8 c #333B23",
"9 c #343C23",
"0 c #333B24",
"q c #343B25",
"w c #343A27",
"e c #353D26",
"r c #393F27",
"t c #363E28",
"y c #383E29",
"u c #384027",
"i c #394127",
"p c #3B4328",
"a c #3B4329",
"s c #3C432B",
"d c #3F472B",
"f c #3F462C",
"g c #3D442E",
"h c #40472B",
"j c #40482C",
"k c #444B2F",
"l c #444C31",
"z c #454D32",
"x c #474F33",
"c c #484F33",
"v c #4A4F34",
"b c #4B5337",
"n c #4D5337",
"m c #4B5437",
"M c #4E5338",
"N c #505439",
"B c #565E41",
/* pixels */
"ddddjjfddjjjjjjjffjdaiiadjjjjdaaddaadddhjdaadjjjjdaaddaaaaddaaddhddddddddhjjjjjjjjjdattadjjjjdaaddataadjjjjddjjjjjjjjjjdaaiaddaa",
"zzzzzzzzzcnNNNNnczzzzzzznNNNNnzzzzzzzzzcnnczzcnnccnNNNNnzzzzzzzzzzzzzzzzzcnNNNNnvzzzzzzznNNnczzzzzzzzzzcnnczzcnnccnNNNNnzzzzzzzz",
"666666666666666666444666eaaaae6666666666ee66666669ddayye64666666666666666666666666644466ee66666666666666ee66666669ddaaye6466eaee",
"&&&&&&&&&,-==--;,<:==:,6aa6&&&&&&&&&&&&&666&&*&&&6ee6<;::;,&&&&&&&&&&&&&&,-==-=;<<;==:,6aa6&&&&&&&&&&&&666&&&&&&&6ee6<;::;,6ee6&",
"&&&&*6&&&&&,;::;<<;==:,6ee6&&&&&&6eeeeeeeeeeeeeeeeee66eeeq6&&&&&&&&&666<&&&,:--;<<;==;<6eq:-:;<&&6eeeeeeeeeeeeeeeeee66eeee66ee6&",
"e046iaeeeq4<0eeee0<&&<0eeq4&&40eeeeeeeeeeeeeeeeeeeeee06&%40eeeeee0<6aaeeeq440eeee0<&&<0ee0<<0eeeeeeeeeeeeeeeeeeeeeeee06&&40eeeee",
"OO====OO====OOOOOOOOOOOOOOOOOOOOOOOOOOO+==+OOOOO==OOOOOOOOOOO+==OO====OO====OOOOOOOOOOOOOOOOOOOOOOOOOOO+==+OOOOO==OOOOOOOOOOOOOO",
"==============OOOO==OOOO========OO====================OOOOOO=-,%==============OOOO==OOOO==OO+==+OO====================OOOOOO====",
"XXXXXXXXXXOOOOOOOOOOXXXXXXXXXXXXXXXXXXXXXX..XXXXXXXXXXXXXXXXXXXXXXXXXXXXXXOOOOOOOOOOXXXXXXXXXXXXXXXXXXXXXX..XXXXXXXXXXXXXXXXXXXX",
"OO====OO========OO====OOOO==OOOOOOOOOOOOOOOOOOOOOO====OOOOXXOOOOOO====OO========OO====OOOOOOOOOOOOOOOOOOOOOOOOOOOO====OOOOXXOOOO",
"===:,,:==:,6eq440ee5:=O+$&&&&&&&&&&&&,====OO=====:,&&,====OO=======:,,:==:,6ee640ee5:=O+$&&&&&&&&%&&&,====OO=====:,&&,====OO====",
"===;,&&6ee66ee6&&6e0;=O+$<&&&&&&&&&<;==-,,:==:,&&&&&&,-=====,,:====:,&&6ee66ee6&&6e0;=O@$&&&&&&&&&&<;==-,,:==:,&&<&&&,==========",
"==,&&6ee66&66*&,;:-======:---;<<;;,&&&&,::,<&<<&&&&,;===OOOO=====-,&&6ee66&&66&,;::======;<&&&&,::,&&<&,::,<&<<&&&&,;===OOOO====",
"=-,&&6eaddiada96<,:===O@$,::,<&&<&&&&,:===-;<6ee6*&,-=====OO=====-,&&6eaddiada96<,:===O@$&&&&&&&&&&&&,:===:;<6ee6&&,-=====OO==,<",
"=-,6eeeeerdjzbMnf5@O==O@%&&,:;,,::,&&%@O=:,6akMnky;=======OO=:-==-,6eeeeeisjzbMnf5@O==O@$&&&<&&,::,&*%@O=:,6akMMky;=======OO===-",
"<<&&&&&,::,ejbBBbf2=OXO==:,&&&&,::,&&%+O===2fmBBbf2=OXO===O@$<<<&&&&&*&,::,9jbBBbf2=OXO======;<,::,&&%@O===2fMBBbf2=OoO===OO====",
"-;0e6&&,:==-,rvvr<&#oXOO===;,&&&&&&&&%@O==O@<szje4<#oXO======;<<;:0e6**<:==-,rvvr<&#oXOO=====:,&&&&&&%@O==O@5szje&<#oXO======-,&",
"&4eeeee0;=OO=-,,:=OOOOO+$&&&&&&&&,::<,-===OO=-,&&%-=OOOO=====;<&&6eeeee0:=OO=-,,:=OOOOO@$&<<<&&&&,::,,-===OO=-,&&%-=OOOO=====-,&",
"=:0eeeee6,-=OOXXXXOOOOO@%&&&&&&<;:=:,,-====OOXXXXXOO=======;,<*,-:0eieee6,-=OOXXXXOOOOO@%6ee6&&,;-=:,,-====OOXXXXXOO======-==:,<",
"=-,6eeee6&&,-=OOOO======,&&&&&&&&&<,:==-,,-===OOOO=======:,<&&*,==,6eeee6&&,-=OOOO======,&<,;;,&&&&,:==-,,-===OOOO=======:,,;:::",
"==,&<6eeeeee4&&,:==;,,==,&&&&&&&&,:==:,&&<<<<<&&&&&&&,:==:,%<&&,==,&<6eeeeee4&&,:==:,,==,,;:,&&&&,;==:,&&&&&<&&&&&&<&,:==:,&&,:=",
"===::::::;<,--,&&&&&&,:=====-;<&&,:====-,,-==;,&&,;;<,-============::::::;<,--,&&&&&&,:==-,,;;,&&,:====-,,-==;,&&,;;<,-=========",
"<<<<<444<46<;;<6*66**64,::,<<<6<;-=-,<<<6<;::;<**64464<<<,;====;,&<<<<<<<4*<;;<6*6**666,;;<*<<&<;:=-,<<46<;::;<6*64444<<&,;::-==",
"dddddddddddddfddddddddddddddddaaddaeeaddddddddddddddddddaetttaddddddddddddddddddddddddddddddddaaddateaddddddddddddddddddaeeaddae",
"zzzzzzzzzzzcnNNNNNNNNNNncvnNNnzzzzzzzzzcnnczzcnnccnNNNNnczzzzzzzzzzzzzzzzzzbnNNNNNNNNNNnccnnczzzzzzzzzzcnnvzzcnnccnNNNNnzzzzzzzz",
"6666666666ee66ee6666eaaaaaddae6466666666ee66666669ddaaye666666666666666666ee66ee6666eaaaae66666666666666ee66666669ddaaye6466eaie",
"&&&&&&&,;:qq:;<&&6ee6&&6eady;==;<6ee6&&&666<6**&&6ee6<;::;<&&&&&&&&&&&&,;:qq:;<&&6ee6&&6e0;:,<;;,6ee6&&6666&**&&&6ee6<;::;,6ee6&",
"&&&&***&<6ee6&&&&6ee6&&&4666&&&&<6ee66eeeeeeeeeeeeee66eeee64&&&&&&&&*6&&<6ee6<&&&6ee6&&**<::,&&&&6ee66eeeeeeeeeeeeee66eeee66ee6&",
"e046iaeeeeeeeeeeeeeeeeeeeee0<&&40eeeeeeeeeeeeeeeeeeee04&&60eeeeee046iaeeeeeeeeeeeeeeeeeee0<&&&&<0eeeeeeeeeeeeeeeeeeee06&&60eeeee",
"OO====OOOOO+==OOOOOOOOOOOOOOOOOOOOOOOOO+==OOOOOO==OOOOOOOOOOO+==+O====+OOOO+==OOOOOOOOOOOOOOOOOOOOOOOOO+==OOOOOO==OOOOOOOOOOOOOO",
"========OO========OO======%%====OO==OO=--=============OOOOOO=:,,-=======OO========OO======OO====OO==OO=--=============OOOOOO====",
"<<<<<<<<<<<<<<<<<<&&<<<,:;<<;:,,-==:-:,66<;::;,<<<<<<<<&&,;===-;<<<<<4<<&&<<<<<<<<&&<<<,;:===-,,-==:-:,46<;::;,<<<<<&&&&&,;::===",
"ddddddddddddddddddddddddjjhhaeeeeaddaaddddddddddddddaaddddddaaddddddddddddddddddddddddddddaaffaeeaddaaddddddddddddddaadddddsaadd",
"zzzcnnczzzzvnNNNNNNNNNNncbMMzzzzzzzzzzzcnnczzcnnczzzzcnnczzzzzzzzzzcnnczzzzvnNNNNNNNNNNnvzzzzzzzzzzzzzzcnnczzcnnczzzzcnnczzzzzzz",
"6666ee6666ee66ee6666eairyada2:::qiie6466ee666666666666ee666666666666ee6646ee66ee6666eaaaaq:;<<;:qiie6666ee666666666666ee66666666",
"&&&&&&&,;:qq:;,&&6ee6&&6eada6&&&<666&&&&666&**&&&&&&&&66&&&&&&&&&&&&&&&,;;00;;,&&6ee6&&6ee4&&&&&&&666&<6666&&&&&&&&&*6*&<&&&&&&&",
"&&&&&&&&<6ee6&&&&6ee6&&&<66%&&&&&6eeeeeeeeeeeeeeeeeeeeeeeeee6&&&&&&&<<&&<6ee6<&&&6ee6&&**<;-:;,&&6eeeeeeeeeeeeeeeeeeeeeeeeeeee6&",
"e0440eeeeeeeeeeeeq4&&<0ee0<<0eeeeeeeeeeeeeeeeeeeeeeeeeeeeeeeeeeee0<<0eeeeeeeeeeee04&&40ee0<<0eeeeeeeeeeeeeeeeeeeeeeeeeeeeeeeeeee",
"OO==OOOOOOOO==OOOOOOOOOOOOOOOOOOOOOOOOO+==+OOOOOOOOOOO==OOOOOO==OO==OOOOOOOO==OOOOOOOOOOOOOOOOOOOOOOOOO+==OOOOOOOOOOOO==OOOOOOOO",
"======OOOO==========OOOO======OOOO====================OOOOOO=-,%======OOOO==========OOOO==OOOOOOOO====================OOOOOO====",
"XXXXXXXXXXXXXXOOXXOOXXXXXXXXXXXXXXXXXXXXXX..XXXXXXXXXXXXXXXXXXXXXXXXXXXXXXXXXXOOXXOOXXXXXXXXXXXXXXXXXXXXXX..XXXXXXXXXXXXXXXXXXXX",
"OO====OO========OO====OOOO==OOXXOOOOXXOOOOOOOOOOOO====OOOOXXOOOOOO====OO========OO====OOOOOOOOXXOOOOXXOOOOOOOOOOOO====OOOOXXOOOO",
"===:,,:==:,6eq440ee5:=O+$&&<&$+O==========OO=====:,&&,====OO=======:,,:==:,6ee640ee5:=O+$,====OO==========OO=====:,&&,====OO====",
"===:,&&6qe66ee6&&6e0;=O@$<&,:===========,,:==:,&&&&&&,======,,:====:,&&6ee66ee6&&6e0;=O@%,==============,,:==:,&&&&&&,-=========",
"=-,&&6ee6*&&66&,;::======:-::=OOOO==OOOO=:,<<&<&&&&,;===OOOO=====-,&&6ee66&&66&,;::=======OO==OOOO==OOOO=:,<<<&&&&&,:===OOOO====",
"=-,&&6eaddiafa96<,:===O@%,::,$+O==OOOO====-;<6ee6*&,-=====OO=====-,&&6eaddiada96<,:===O@%%+O==OO==OOOO====:;<6ee6&&,======OO=-,&",
"=-,6eeeeeadjzbNnf5@O==O@%&&,:=OO====O+$,::,6akMnky;=======OO=:-==-,6eeeeeiajzbMnf5@O==O@%%@O==OO====O+$,::,6aknnkt;=======OO===-",
"<<&&&**,;:,ejbBBbf2=OXO==;,,-=OO====OO=====2fmBBbf2=Oo+=O@$&<<&<&&&&&*&,::,9jbBBbf2=OXO===OOOOOO====OO=====2fbBBbf2=OXO=O@$&&,:=",
"-;0e6&&<:==-,ibvi<<#oXOO==-=OOOO====OO====O@<szje4<#oXO==-,,::<<;;0e6&*<:==-,ibvr<&#oXOO==OOOOOO====OO====O@5dzje<<#oXO==-,&&,:=",
"&4eeeee0:=OO=-,,:=OOOOO@$&&,=====::=======OO=-,&&%-=OOOO=:<<::,&&6eeeee0:=OO=-,,:=OOOOO@%%@O======-=======OO=-,&&%-=OOOO=:<<::,&",
"=:0eeeee6,-=OOXXXXOOOOO@%&&,====,<<,:======OOXXXXXOO=====:,&&&&,-:0eieee6,-=OOXXXXOOOOO@%,-=====,<&,:======OOXXXXXOO=====:<<;:::",
"=-,6eeee6*<,-=OOOO======,&&%@O===-,&&,::,,-===OOOO=======-,&&&&,-=,6eeee6&<,-=OOOO=====-,,-======-,&&,::,,-===OOOO=======-,&&&&<",
"==,&&6eeeeee4&&,:==:,,==,&&%@O====,&&&<&&<<<<&&&&&&&&,::,&&%&&&,==,&&6eeeeee4&&,-==:,,==,$@O======,&&&<&&&&&<&&&&&&&&,::,&&&&&<<",
"===::::::;<,-=========OO=;<%@OOOOO=====-,,-==;,&&,;;<,-==;<,-======::::::;<,-=========OO==OOOOOOOO=====-,,-==:,&&,;;<,-==;<<;===",
"<<<<<<<<<<6<;::;<<64<,::,4*,--,,-==:::,&*<;::;<**64464<<<46,-==;,<<<<<<<<6*<;::;<4<<<,::,%@O=-,,-==:::,&*<;::;<**6<<66<<<<6,-==:",
"ddddddddddddddfdfddjae66afddaeeeeafdaeeadddfddddddddddddddddaadddddddddddddddffdddddae66sa64eyaeeaddaeeaddddddddddddddddddddaasd",
"zzzzzzzzzcnNNNNnczzzzzzznNNnzzzzzzzzzzzcnnczzcnnccnNNNNnczzzzzzzzzzzzzzzzcnNNNNnczzzzzzznnjdzzzzzzzzzzzcnnczzcnnccnNNNNnczzzzzzz",
"666666666666666666644466eaaq:::;<6ee6666ee66666669ddaaye66666666666666666666666666444466eq;=-::;<6ee6646ee66666669ddaaye66666666",
"&&&&&&&&&,-==--;<<;==:,6aa9,-==:,6ee6<;::;,6ee6&&6ee6<;;<&*&&&&&&&&&&&&&&,-==--;<<;==:,9ay;====:,6ee6,;::;,6ee6&&6ee6<;;<*&&&&&&",
"&&&&*666&&&,:::;<<;==:,6ee6,::,&&6ee66eeee66eeeeeeee66eeeeee6&&&&&&&*6&&&&&,:::;<<;==:<6e0:==:,&&6ee66eeeq66eeeeeeee66eeeeeeee6&",
"e046iaeeeq640eeee0<&&<0eeq4&&&&&&40ee04&&60eeeeeeeeeeq66qeeeeeeee046aaeeeq440eeee0<&&<0ee0<,::,&&4qee04&&60eeeeeeeeee066qeeeeeee",
"OO====++====OOOOOOOOOOOOOOOOOOOOOOOOOOOOOOOOOO==OOOOOOOOOOOOO+==OO====+O====OOOOOOOOOOOOOOOOOOOOOOOOOOOOOOOOOO==OOOOOOOOOOOOOOOO",
"==============OOOO==OOOO======OOOO==OOOOOO============OO=====:,,-=======-=====OOOO==OOOO==OOOOOOOO==OOOOOO============OO======OO",
"<<<<<<<<444,;:=:,&<<&&&&<46,--,,-==:-:,&&&<<<<<<<<<<<<<<<44,-=-;<44444<<<<<,;:=:,&<<<&&&<,-==-,,-==:-:,&&&<<<<<<<<<<<<<<<44,-==-",
"dddddddddddddfffddddaeeadhdfaeeeeaddaeeaddddddddddddddddddddaasddddddddddddddfffddddaeeaddaeeeeeeaddaeeaddddddddddddddddddddaasd",
"zzzzzzzzzcnNNNNnczzzzzzcnNNnzzzzzzzzzzzznNNNNnczzcnNNNNnczzzzzzzzzzzzzzzzcnNNNNnczzzzzzcnnjfzzzzzzzzzzzznNNNNnczzcnNNNNnczzzzzzz",
"666666666664666666664466eaaq:::;<6ee66<6eyaadd96*9ddaaye66666666666666666664666666664466iq;=-::;<6ee66<6eyaadd96*9ddaaye66666666",
"di6&&&&&&,-==-=;<<;==:,6aa6,-==:,6ee6,;::;<6ee6&&6ee6<;;<**&&&&6ii6&&&&&&,-==-=;<<;==:,6ay;====:,6ee6,;::;<6ee6&&6ee6<;;<**&&&&&",
"66&,;;,&&&&,:--;<<:==:<6ee6,::,&&6ee66eeee66eeeeeeee66eeeeee6&&666&,;;<&&&&,:--;<<:==:<6e0:==;,&&6ee66eeee66eeeeeeee66eeeeeeee6&",
"e04&&<0ee0<<0eqee0<&&<0ee0<<004&&40ee04&&40eeeeeeeeee046qeeeeeeee0<&&<0ee0<<0eqee0<&&<0ee0<&%&&&&40ee04&&40eeeeeeeeee046qeeeeeee",
"OOOOOOOO====OOOOOOOOOOOOOOOOOOOOOOOOOOOOOOOOOO==OOOOOOOOOOOOOO==OOOOOOOO====OOOOOOOOOOOOOOOOOOOOOOOOOOOOOOOOOO==OOOOOOOOOOOOOOOO",
"==OOOOOO======OOOO==OOOO======OOOO==OOOOOO@==========+OO=====-,%=+OOOOOO======OOOO==OOOO==OOOOOOOO==OOOOOO@==========+OO======OO",
"XXXXXXXXXXOOOOOOOOOOXXXXXXXXXX  XXXXXXXXXX..XXXXXXXXXXXX  XXXXXXXXXXXXXXXXOOOOOOOOOOXXXXXX      XXXXXXXXXX..XXXXXXXXXXXX  XXXXXX",
"OOOOOO==========OO====OOOO==OOOOOOOOOOOOOOOOOOOOOO====OOOOOOOOOOOOOOOO==========OO====OOOOOOXXOOOOOOOOOOOOOOOOOOOO====OOOOOOOOOO",
"==OO=-,,::,6ee440ee5:=O+$&&&&%=====:,,====OO=====:,&&,====OO======OO=-,,::,6ee440ee5:=O+$,=========:,,====OO=====:,&&,====OO====",
"&$@O=-,6eq66ee6&<6e0;=O@%&&&&,::,&&,;==-,,:==:,&&&&&&,======,,::,$@O=-,6eq66ee6&<6e0;=O@%,:====:,&&,;==-,,:==:,&&&&&&,==========",
"=====-,&66&&66&,;::======::;,,:==-,&&<<,::,&<<&&&&&,:===OOOO=========-,&66&&66&,;::======::-=====-,&&<<,::,&<<&&&&&,:===OOOO====",
"==OO=-,6idiida96<,:===O@%,;==:,,::,&&,:===-;<6ee66&,-=====OO======OO=-,6idiida96<,:===O@%<:-=:,,::,&&,:===-;<6ee66&,-=====OO=-,<",
"==OO==,6eadjzbMnf5@O==O@%<&,:=-==-,**%@O=:,6iknnky;=======OO=::-==OO==,6eadjzbMnf5@O==O@%,:======-,**%@O=:,6iknnky;=======OO===-",
"====OO===:,9jbBBbf2=oXO==:,&&,:==-,**%@O===2fbBBbf2=OXO===O+$<<,:===OO===:,9jbBBbf2=oXO==========-,**%@O===2fbBBbf2=OXO===OO====",
"==OO=======-,rvvr<<#oXOO===;<,-==:,46%@O==O@<azje6<#oXO======;<,-=OO=======-,rvvr<<#oXOO=========:,46%@O==O@<azje6<#oXO======-,&",
"&$+O======OO=-,<:=OOOOO@$&&&&,:=--:;<,====OO=-,&&%-=OOOO=====;,&&$+O======OO=-,<:=OOOOO@$&&&&,:=--:;<,====OO=-,&&%-=OOOO=====-,&",
"==OO===;,,-=OOXXXXOOOOO@%&&&&,:=-==-,,-====OOXXXXXOO=======:,&&,-=OO===;,,-=OOXXXXOOOOO@%&&,:=---==-,,-====OOXXXXXOO=====-===:,&",
"==OO=-,<&&<,-=OOOO======,&&&&&<,:-==:==-,,-===OOOO=======:,&%&&,-=OO=-,<&&<,-=OOOO=====-%,:===,,:===:==-,,-===OOOO======-:,,:=-:",
"==OO===;0eee4&&,:==:,,==,&&&&,::,,:-=:,&&<&<<&&&&&&<&,:==:,<&&&,==OO===;0eee4&&,:==:,,==,,-====;,,:-=:,&&<&<<&&&&&&<&,:=-:,<&,:=",
"OOOOOO==-;<,-======-==OO=;<<;-==-:==-==-,,-==;,&&,;;<,-=========OOOOOO==-;<,-======-==OO=-======-:==-==-,,-==;,&&,;;<,-=========",
"=======-,66<;::;,<<<<,::,4666,-==-=-,<<46<;::;<*66<466<<<,;===-:-======-,66<;::;,<<<<,::,66<;===--=-,<<46<;::;<*66<466<<<,;::===",
"ee66eeeadddfffffddddae66adddddatttteeadddffffdddddddddaaaatteaddae66eeeadddfffffddddae66adaattttttteeadddffffdddddddddaayttteeee",
"ddddddiajcnNNNNnczzzzzzzzvMnvzzzzzzzzzzcnNNNNnczzzzcnNNncjffjzzzjdddddiajcnNNNNnczzzzzzzzzzzzzzzzzzzzzzcnNNNNnczzzzcnNNnzjfddddd",
"6666**&&6666666666644466eada2:::qiae6646eyaadd966666eaae666666666666*6&&6666666666664466eq:;<<;:qiae6646eyaadd966666eaae666666**",
"&&&&&&&&&,-==--;<<;==:,6eady;==:<6ee6,;::;<6ee6&&&&&*<;;<&&&&&&&&&&&&&&&&,-==--;<<;==:,6e0;:,,;:,6ee6,;::;<6ee6&&&&&*<;;<&&&&&&&",
"&&<<&&&&6&&,;::;<<;==;<*6666&&&&&6ee66eeee66eeeeeeee66eeee6&&<66&&&<&&&&6&&,;::;<<;==;<*6<::,&&&&6ee66eeee66eeeeeeee66eeee66ee6&",
"eeeeeeeeeq440eeee0<&&<0eeee0<&&40eeee04&&60eeeeeeeeee06&&60eeeeeeeeeeeeeeq440eeee0<&&<0ee0<&&&&40eeee04&&60eeeeeeeeee06&&40ee04&",
"OOOOOOOO====OOOOOOOOOOOOOOOOOOOOOOOOOOOOOOOOOO==OOOOOOOOOOOOOO==+OOOOOOO====OOOOOOOOOOOOOOOOOOOOOOOOOOOOOOOOOO==OOOOOOOOOOOOOOOO",
"========-=====OOOO==OOOO=-,%====OO==OOOOOO============OOOOOO=:,,-=======-=====OOOO==OOOO==OO====OO==OOOOOO============OOOOOO====",
"<<<<<<<<<<<,;:-:,&<<&&&,:;<<;:,,-==:=:,&&&<<<<<<<,;;,<&&&,:===-;<&<<<<<<<<<,;:-:,&<<&&&,;:-==-,,-==:=:,&&&<<<<<<<,;;,<&&&,:-:-==",
"dddddddddddddffdddddaeeaddddaeeeeahhaeeaddddddddddddddddaeeeeadddddddddddddddffdddddaeeaddaaddaeeaddaeeaddddddddddddddddaeeaddae",
"zzzzzzzzzcnNNNNnczzzzzzzzbMnzzzzzzzzzzzznNNNNnczzzzcnNNnczzzzzzzzzzzzzzzzcnNNNNnczzzzzzzzzzzzzzzzzzzzzzznNNNNnczzzzcnNNnczzzzzzz",
"666666666666666666444466eada2:::qiae66<6eyyadd966666eaye64666666666666666666666666444466eq:;<<;:qiae66<6eyyadd966666eaye6466ee66",
"&&&&&&&&&,-==-=;,<:==:,6eady;==:<6ee6,;::;<6ee6&&&&&&<;::;<&&&&&&&&&&&&&&,-==-=;,<:==:,6e0;:,,::,6ee6,;::;<6ee6&&&&&&<;::;,6ee6&",
"&&&&**&&&&&,:::;<<;==;,*&666&&&&&6ee66eeeq66eeeeeeee66eeee6&&&&&&&&&*6&&&&&,:::;<<;==;,**<::,&&&&6ee66eeeq66eeeeeeee66eeee66ee6&",
"e046iaeeeq4<0eeee0<&&<0eeee04&&<0eeee04&&40eeeeeeeeee06&&60eeeeee046iaeeeq4<0eeee0<&&<0ee0<&&&&<0eeee04&&40eeeeeeeeee06&&60eeeee",
"OO====OO====OOOOOOOOOOOOOOOOOOOOOOOOOOOOOOOOOO==OOOOOOOOOOOOO+==OO====OO====OOOOOOOOOOOOOOOOOOOOOOOOOOOOOOOOOO==OOOOOOOOOOOOOOOO",
"==============OOOO==OOOO+=$$===OOO==OOOOOO@===========OOOOOO=-,%==============OOOO==OOOO==OOOOOOOO==OOOOOO@===========OOOOOO==OO",
"XXXXXXXXXXOOOOOOOOOOXXXXXXXXXX  XXXX..XXXX..XXXXXXXXXXXXXXXXXXXXXXXXXXXXXXOOOOOOOOOOXXXXXXXX    XXXX..XXXX..XXXXXXXXXXXXXXXXXXXX",
"OO====OO========OO====OOOO==OOOOOOOOOOOOOOOOOOOOOO====OOOOXXOOOOOO====OO========OO====OOOOOOOOOOOOOOOOOOOOOOOOOOOO====OOOOXXOOOO",
"===:,,:==:,6eq440ee5:=O+$%&&&,======,,====OO=====:,&&,====OO=======:,,:==:,6eq440ee5:=O+$%&&&,-=====,,====OO=====:,&&,====OO=:,&",
"&,::,&&6ee66ee6&&6e0;=O+$<&&&,:=====:-=-,,:==:,&&<&&&,======,&<<&,::,&&6ee66ee6&<6e0;=O+$&&&&,:=====:-=-,,:==:,&&<&&&,=======-,<",
"&&&&&6ee66&66*&,;:-======:-;<<:====:,<&,::,<&&<&&&&,;===OOOO===;,&&&&6ee66&66*&,;:-======;,&&,:====:,<&,::,<&&<&&&&,;===OOOO===:",
"&&&&&6eaddiada96<,:===O@%,::,,:===,&&,:===:;<6ee6&&,-=====OO===:,&&&&6eaddiada96<,:===O@$&&&&,:===,&&,:===:;<6ee6&&,-=====OO=-,<",
"&&&6eeeeerdjzbMnf5@O==O@$&&,;:==OO=::=OO=:,6akMMky;=======OO=;,&&&&6eeeeerdjzbMnf5@O==O@%&&,:===OO=::=OO=:,6akMMky;=======OO====",
"&&&&&&&,::,ejbBBbf2=OXO==:,&&,-=====:=OO===2fMBBbf2=OoO===O+$<&&&&&&&&&,::,ejbBBbf2=OXO=============:=OO===2fMBBbf2=OoO===OO====",
"&6ee6&&<:==-,rvvr<&#oXOO===;<,-====:,%@O==O@5szje&<#oXO======;<&&6ee6&&<:==-,rvvr<&#oXOO===========:,%@O==O@5szje&<#oXO========:",
"&6eeeee0;=OO=-,,:=OOOOO+$&&&&,:====-,,====OO=-,&&%-=OOOO=====;<&&6eeeee0;=OO=-,,:=OOOOO+$&<&&,:====-,,====OO=-,&&%-=OOOO=====-,<",
"&6eeeeee6,-=OOXXXXOOOOO@%&&&&,;====-,,-====OOXXXXXOO=======;,<4&&6eeeeee6,-=OOXXXXOOOOO@%6ee6,:====-,,-====OOXXXXXOO======--=:::",
"&&&6eeee6&&,-=OOOO======,&&&&&<,=======-,,-===OOOO=======:,&66<<&&&6eeee6&&,-=OOOO======,&<,::,,-======-,,-===OOOO=======:,,;;,<",
"&&&&<6eeeeee4&&,:==:,,==,&&&&,:======:,&&&&&<&&&&&&<&,:==:,&&&&&&&&&<6eeeeee4&&,:==:,,==,,;;,,:======:,&&&&&<&&&&&&<&,:==:,&&<&&",
"==-::::::;<,-======-==OO=;<<;:=========-,,-==;,&&,;;<,-===========-::::::;<,-======-==OO=;,,;-=========-,,-==;,&&,;;<,-========-",
"<<<<<444<66<;::;,<<<&,::,6666,-======;,66<;::;<6*64444<<<,;====;,<<<<444<46<;::;,<<<&,::,6666,-======;,66<;::;<6*64444<<<,:=::::",
"ddddddddddddffffddddae66sjhdjdaeeetttaddddddddddddddddddattttaddddddddddddddffffddddae66sjjdddaeeetttaddddddddddddddddddaetadddd",
"zzzzzzzzzcnNNNNnczzzzzzznNNNNncjffjzzzzcnnczzcnnccnNNNNnczzzzzzzzzzzzzzzzcnNNNNnczzzzzzznNNnczzjffjzzzzcnnczzcnnccnNNNNnczzzzzzz",
"666666666666666666666666eaaaae6466666666ee66666669ddayye66666666666666666666666666664466ee66666466666666ee66666669ddayye66666666",
"&&&&&&&&&,-====;<<;==:,6aa6&&<;;<&&6<6&6666&&&&&&6ee6<;::;<&&&&&&&&&&&&&&,-==--;<<;==:,6aa6&&,:;<&&6<6&&666&&&&&&6ee6,;::;<6ee6&",
"&&&&666&&&&,:=:;<<;==;<6ee6&&<<<&6eeeeeeeeeeeeeeeeee66qeee6&&&&&&&&&666&&&&,:::;<<;==:,6eq::-;,&&6eeeeeeeeeeeeeeeeee66qeee66ee6&",
"e046iaeeeq440eeee0<&&<0eeq4<0eeeeeeeeeeeeeeeeeeeeeeee04&&40eeeeee046iaeeeq440eeee0<&&<0eeq<<0eeeeeeeeeeeeeeeeeeeeeeee04&&40eeeee",
"OO====OO====OOOOOOOOOOOOOOOOOOOOOOOOOOO+==OOOOOO==OOOOOOOOOOOO==OO====OO====OOOOOOOOOOOOOOOOOOOOOOOOOOO+==OOOOOO==OOOOOOOOOOOOOO",
"==============OOOO==OOOO========OO====================OOOOOO=:,,==============OOOO==OOOO========OO====================OOOOOO==OO",
"=====================:,,-=============OOOO==OOOO====OOOO==OO============OO====================OOOOOO==OO============OOOOOOOO===="
};
