/* XPM */
static const char *mwall5_1[] = {
/* columns rows colors chars-per-pixel */
"128 128 50 1 ",
"  c #070707",
". c #0B0B0B",
"X c #170F07",
"o c #0F1700",
"O c #0B1707",
"+ c #171F07",
"@ c #1F170B",
"# c #131313",
"$ c #1B1B1B",
"% c #2F1B0B",
"& c #13230B",
"* c #2B230F",
"= c #232B0F",
"- c #372313",
"; c #332B13",
": c #3F2F17",
"> c #3F2B1B",
", c #2F371F",
"< c #232323",
"1 c #272727",
"2 c #373F27",
"3 c #43331B",
"4 c #4B371B",
"5 c #533F1F",
"6 c #473323",
"7 c #4F3B23",
"8 c #4F3B27",
"9 c #4F3B2B",
"0 c #533F2F",
"q c #3F472B",
"w c #5F4323",
"e c #474F33",
"r c #574333",
"t c #5F4B37",
"y c #53573B",
"u c #6B4727",
"i c #675333",
"p c #67533F",
"a c #775F3F",
"s c #6F5743",
"d c #5B6347",
"f c #676B4F",
"g c #6F7357",
"h c #7B7F63",
"j c #836B57",
"k c #937B63",
"l c #9B7F6B",
"z c #9F876F",
"x c #A78F77",
"c c #8B8B8B",
/* pixels */
"+=======,,,,,2222e22q====,,,XXXXXX@=,2,====,,,,,,,,,,=;====@@X@@=====@====@*===@@@@@X@XXOXXXX@@@@=,,,,,22,,,,,,,,=,=,,222,====XX",
"@dgdyeddddggfghhhihggggfggfg22**;qdghhgdggffgghghggfddffddydeeeydfdddedfhd0fhhgfyye6:;,,2,,2eee0qdfggggggfddfdghffgfgghghhfddy*X",
"=fdyq,2edyyydddfffdeefdyddye;;;;,eddffgyydyddyyfdfdd2yqeyee22qqeyeddy2qdfeedyydyee6=@,::*@@%;:qq3,qeqqeddeyyyfgfdddyfffffgeyeq@X",
"@dy,;@,qghifgyyddyqqqqyqey2***,qqdddddfyeeeyyeyyyddf2y22yye2eyeyydffd2eyfe2yefhfy2,;@,22*X@@,,q,;;7qeeydyeyyyddfyyyydddddyyqeq@X",
"@de,,;,edddgghyeyd2qeef22q-X@*qyedddddfd2qqyyyyyyyed,eq2q,,qqeyyqq22qqqedeyydfhgdqqq,,q6*@@+=2ee2:eyddyyeydydfddyeeyyddfyyeqe,XX",
"@yeq222yddddfhhyyy22qyyq,,@XX*eyyydyddyyqq,eeyyeeeqe=,,,,,,2qe,,,<,22222eqeeeddff2qq,:2:;;@@*2qde,qedyeeeydffffyydyeeydyy22q,,XX",
"Xyee,eqyddddffhdyfdqqdyq;%@XX=eyyyddeeddde2qeeeq22,,====,<,,q<$,1<,<,q2,,,22eyyddq2,,;,,*@@@$,qeqqeqeddyyeydddddydfyyeyqq;qq;,@X",
"@yeq@22ydyddfffhyyeeeqye;%XXX*qyyyyfeyfyyyqqqqq2,,,1$<$$$<<,$$$&##$$<<,1,,,22qqeqqqq22,3;*;**;,2:qyyeeeedggfdghddffdyyyee,yy,2@X",
"Xeq;X,;yddyyyydydfyeqeqyq*@X@,qyyyddeeeeeeeqqee,,,$$$$<$$$$$$$&&##&&$$$$<<1,2222qqqqee22,262*;;qq22yfgghhghhggffddfddfedeqydyd=@",
"X:;@X,*yyyyyydddydygqeeee*@@,2eyyfdy,qq2eee222,1<$=$$$$$###$&&#######&$&&$<,<,,,,222eq22qee2,22qqydddddddggggggdddyfffeed2qeee=X",
"X;;@X;*eeeqeeyyyeeyydyqqq,,,qyyydyyy,,2qq22,11<<$$$$$&$&#####.......#$#$&$$<<,,,,,,22,2eqqeqq2qqeeddyyyddgggffgfdfddhkyqdqggdy,@",
"X,;@X@+qqqqeeeeyeqeyeq,,,2222eeeeeeeq2q222,,,111$$$$$##$#############&##.##&$<,,,,,,222q2qqeq22eeeyyyyeddgggggdddgfdhzfeyqdgfgq=",
"@2*XXX@,yyyee2yyeeeye,=,,,q22222qq2222,,,,,<<<$$$<$$##$$#&##$=<$$$$<<=+##.###$$<,,,<,1q2qqqqq22qeeyyydddffffffghffffhxkey2yyddq+",
"+;@**@*,eyyeq,2qeeeeeq,,232e2,2qq2,222,,,21$$&$,$$=<$$=$$1$$<1,=##$<=$$$=$&$&&$$<121<,,,q2q2222qqqeyyeyyyyddggggfffdfaked,eydd,@",
"X;@@***;2qq2;;;,2eeqe2,,,,,2,,2,,,,,,,,,,,1<$$$$,,1,,,,,2,,,<,,,$=,2,<,,,,,1<<=$<<$$=,,,,,222,<,,qyeyyeeyyddffgffdgdfgfqd22yyy,o",
"X,*@@**,,q22,,;;;2q2q,,,,,2,=1=$<,,,,,,,<$$$$11<<1,,,,,,2,,,1,,,=<,,,1,2,,,,111<$$$<<$<<=1,,,,,,,,22ee222yyfddddfdyddyyydq2yyd,@",
"X;*@X*;,,q:e2:,;*;2,q222,,,,,,$<<1<<<1,,<&$,,$=,,,,,222222,,,<$,,,,=<,2,22,,,,,<<<=$$<1$$,,,,,,,222qeq2eeeyffddyfgddyeydyyeyye;X",
"X;*@X@*2q:q2e2,;*,,,2e221,,,,$$<,,<<<<<<<,22,1,,,,qq22,,22,,,,<,,,,=22,,22,,,,,,<<1<$<,,,11,1,,222qq21qyeqeyddyddddyefydyyyfg2=X",
"X;*@@@;2eyqq2,,2*@@*,2q2,,,,$$<,,<<<<$$<=,q,<,2qqeeyyqqye2,,,,,2,22qq,,qqeeeqeeq2222,$1,1=<11,,,,1,,2qeeeyyeeqqeedfddfhzfgyygf=X",
"X,*X@*qdyyq:::,*,*@@*e222,=,$$<<<<<<<<,,11,,,22qyyyyeydyeeq,2,2eq2e2q2,2qeeyeqeeeq22,,=$$<,1,,,<,,,222qqqqqeeqqeeqydiighdhqdye=X",
"X,*X*3edeeyqq22;*,,@;eyee,,<$<$$$$<<<$22,,22q22eyeeyedyeee2222eeeeyde22,2qqeeqeqqeeq,,,,11,,<,,,<<,,,2222eeeeeq2qyyfhhhgfgydyy=@",
"Xq=@*;,q2q2eee2,,,e,,eyqq,,1<<$$$&$<<<,22qeyeqeydeyyyeeeqeqqeeeeeeyeq,2222eyeeeeeye2qqq2,1,1$<,1<1,,2q2qq222qe2qqyfdfghhhyeydd,+",
"@y;*@@*,,222ede:q,2y,ee,2q,,1<<=$&$<$1,,2yyyyeyddeeyqqeeqqeeeeyydyyy2;,226eeeyeeeeeqqeeeq,<<<=<$$<,,2222eydyeyq2eyydffffgyyydd,o",
"@e,*@@*;*,,,qyd2e:2yqee,22,,<$$$$#$$1,<2eyddyyydfeeeqqqeqqeeeyyyddye,,;;,qqqeeeeeeyyeyyye2,$<$$$$,,222,;2yyeede2qeyydyddyyyyyy+O",
"X2,,,+=;;,,22yqee,qqeye,,2,=&####$<&qqeyeeyyyyydyeqeq82e2eyeyyyyyyeq,2,;qqeyyeqeeqqyyeeyeqq2,,&$$=,edd2;3qeeffdqeeyyyyfgdyyeqe@X",
"@e,2e,,,,2222q2qeqyyeyfyqq2,$#O#.#$2eqyyeydddeyyye2yq2q8qeyyyyyyyeq22,;,qqeeeydfy,6eeyddyqe2,,<#&$2qqdq;2qqydazghhddhfydydyqe2@X",
"@e,qyyeq,2,eq22eeefhffdfy21$$$.#&$=22q2eeddddydd2eeeqq22qqeyyyyedy2q2,,2qqqqydyyy,2qyyyygyeq2$<&==<,,,2,2qeygxxlfshdfxifdyqq,2@X",
";eq2eydy2eqyydeyyeydgdydee,$#..$$,2222qeyddddydfdyydeq2qqeeeeeeeqq2,,**;2q2qqeeqe2qeqeyjhfyqq<<<$=,226qq22edgazlgfgdghxdqqqe,q=@",
",yeqeyye,qqeeyeyeyyyyyydy21$###&$1,222eyyyydddydedyeye2,2eqqe2qeqqq,2$**;,2qeee,qq2qyefrffyeq,$$$$=*;*,2qqqdgiisgfhdfddf22q2qy=@",
"2geyyeyq,,22qyydeyeqdyyeq,=####$<=,,,qeeeyydddyddddyyyq*q23,,qqqyqeq2*;***22q23,qqqeydd990dqe,=<$$$+=*>,,qyepkhhhddyyydfyqeye2,@",
"qhyeyey2,*,,qqyydeqdyeee2,=#.##$2qqydyeeeydffdyydyyyyye;qee2qyyyyyeeq;,2,,2,;,,;;,eegdgjfddeee21,1$$=,=,2yeee5ghhgdyeydddydy2y,@",
"2gdeeye,,=;,qqeyyeyyyeqq2,$###&<,edddyeqqddfddyyfdyyyye2qqq2qyddddydq,*2ee22,,,22qyedfftfffdyeq2,$$$$,,2qeeyyyyfhggfddyeee2yed2*",
"qhyyeee;;*,2qeyqqeeeeeyyq,##&$=,2eyyddyyeddffdyyyydyyyq,,,,2qqyddddde2,26q22q222qqeydgffgffddde2,<$$==,,qeyyteyedhffddeeq2qyyd,+",
"2hyyeye;=*,,qq2,eqqqqeee2<$$$$,ydydydyyyqyyddyydyfdyeeq;*,,2qqeeeeeyeqqeeeeqq2,2qqeedfjfyddfdyeq,q2$$=,2qeyewyeqqffdyyedd22qee,+",
",gfdeye,*===2q,e8>;qqyq2,$<$,2eyeyydyyyeeydddyyydffyqe22,,qeeeyeeyyyyqqyeqeq2222eqeedftdqeeyyeqq2,2,,<,222eyqq==,,yyee2ed2,2ye=@",
";ddyyy2*@@@;,=00;*>q2qq,=$$<,2qeeyyyyeeeqeydyyyddffdqy2q,,2qeyyyffdyye2qqq22,,2qeyeyydfeq22qqeqq2,,1<<1,,2qee22,222yee2qy,,2ee=O",
"=ddyey;@@@@=,2e;*662q,<=&$$<2eyeeeyyyyyye2qqeeydfgdfqe222,222eydffyyeqqq222,**,qeeeyddd222qq2q22,,,2,,$=$=,,,qqq,2,,eq2ey=,qd,=X",
",dgdyy,,,@@=,y23,622,,,<&#,qqe2qqqqeqeyeeqqqeyyddfdyqyeqq2qqqqeeyeyeqqqq2,,,,*;2eyyyyye2,,22,,,,,,<<,,,<#$1,,,eqq,=,qeeee,2;ye=o",
",fdeqq2,2@@,2q2q6,2,=,,$#&,,22,2222,,2q2qqeydggdddddeyyeeqeeyeyy2,qeqqqe2,,,,2;,eeyddyeq,,,,1$$=<11&$$<$##$1,,q,,,q,,ye3;qeyyy,+",
",fy2,;**:@@;q2qq2,2,<<$$&$<$$==,221$&#<,,,qedeefdfdyeeeq22qeyeeyeeeqeyeq,,,,,qe,qyyyeeq2<$$$.##$,==####$&&$$<,,qeqq2,ede=eeee2,+",
",de2,@:*;:*,2qqq,2,11,<&$$1,22dde2$$$##O#<22yyddydydyeq222qyq2qq,,qeqeeq2,,,,qe2eeyeee,,$####$&$,22q<1$$#&#$<,eeyee22eye=ee2ee,@",
",d22,@,;@,=22eeq,2,1,,$&$#=2q2eye<$$&&###$<2qefyeyydyye2q22,,222,2qqq2222q,qqyydyyydq,,$$$#&$$$$=222<,1$#$#$<2eyqeq2q2de;qeqee2+",
",f2e,@;,@;3qqee21,,,,$###&<<,2eq2<<$######&$2eeqydyyyyyqqq,,2q22,,2,2qq2qe,eydddfdeq2,&&#$####$$$,,,<$######=,eqdeyey,qe,q2qee,+",
"2yeye;;;**822eq,2<,,,$&#$<===,21$$$$&#######$,2dgdffdddeq2222222222,2qe2qeedffgfddq,1&&#$$#&&$&#&$$,<$$&$$.#$2qyyeeyee,e2e;e2q=o",
",deey7,;,;,,qyq,,$<$<<&&<,,2eeq2q<########$###,qyfdfffdyeqqqq2e2q2,eqeeeqyefgggdyq2<###$&###&$##$,<,,,<$<$##<2edddeyy,,q,q;eee=O",
"=fyqeye:q239yee22$,11$&&=1,,qeeq2<&##....####&#<qdggffddyeee22q2ee2qqqeeeyydddfde,$$$####...##&$$1,,,,<$<$##$2yddfeee2,=;*2eee=X",
"@yeqqqe:e7eeeyeye1,,,$&&$=,22,2ee1,$#......####&$2dhgddfdeqe2,,,,,,,,2eqqeddyddq,$$##OO....O#$$<$,21=1<$$&##<qyydddqe2,,@@22,q=@",
"=dyeffdyeeqeddee2<$,,$&&#$11,qyyy21#$#........##&$2yeyddde22yq2,,,2qed22eyyyyeq,$##O......###$$<,222,<$$&###<2dydfdee2,>X@;,;,=@",
"*deqyfdeqqqyfeeeq22,<##&$,,2e222q,<1=$#........###$2dgggfdq2qyq22qqey2,2ydddde,###O.......#&<<<<,2,,,,1<$$##$qeyddyqeq,%X@,,=,=O",
"=fy2eyyeqeqdyee21122,$#$,q22qqq21,,21<&O........O##,yfhggdyq,,,,2q2,1<2qyddfy2$##....##...#$<,,,,<,,,,<1,1$#<qeddfyqeq,=@@,,;2*X",
"*gyqeyy,qqyddq,&$1222,#<qeyydghgeeyq<1$#..........##,dgffddy,1<<,,<<<2eydyddq$O.....###..#&$,12q22yyeq222,$#,2ydhfdqe22=;;,2,,@O",
"=heqedd2eqydy2,222q2,22qeeeedgfdyfg2q2$#...........#$edyfdye22,,1,,,,eeydyeq,#.....O##...#$$,2,eeeqeyq2,,2,,2qddffdqeq,,,,*,,,XX",
"@dqqyefyq2yye,qeeeq22qeqqeqedyyeghdyy,$&#..........##12eddyyeeqqeeqq22qeeyq<$O......#...O&$&,qqeddqeeeq,2,,2qeeygdd,;e,=,2,;2,XX",
"=fdedyqeeqqeyqeeq222q2,2eeyyeydghhgd2,1$##.........###,qeyyeeyeqqqeyq2qqqq,$##........O###&=12eydfyy2,22,2,,qq2yyyy,2q2,eeq2qe@X",
"@fdyfdqyyeqfy2eqq2222<1edddfgghchgfyee2$&#..........##,eeeyydyyqqeyyq2,2qq,$#O.......OO###$,2qeydfdeeeqqqe2,22qddfq222,;ydq22q*X",
"@fyeeqeyyeygdeyeeq2,1<<<,2qqddhzhgfddy,,<&#O........#&$qeyeeeeeeeee2,1,2q2,&O.........###=,2qeyyydddqq,,,,2,22edgfreeeqqgfq2q2@X",
"@dyqqeyededfyqee2,,,,1=$<,2yfhhgggggfyyyq,<$#........#&,ydyyyyyyeee2,qqqe2$##.......#$<,2yydydfdffffyq2,1,1,22qefyfqyeeqghy23e*X",
"@e2,qeyeqedfee22e,<,,<=<,2yhhghfdhhgfffde22<$#O......##$eeyyyyeeeqeq22qeq,##......##=<<,2eyddffghdfgyyyq,<,,2eeddfqdqeqyfd2e2q*X",
"@e::2,qeyddyedeqq,=$1$$$=1d2eygddfghgggffde2<$#O......##,,yfde2qyye2qyfy,$O......##$$1qyydddddgggdfd22,q<=,,2qeygege,,2ygdq,,:*X",
"@dq22qyeeeydyyq,,<=<,,<$$#<2yyqqedghgfgggye2,,$&#.....O#<egdyyeyyyyqeyyy,&O.....#$<$,,2qyfffddffffdy22,=$,,,ee2yefd222,eey2;,q=X",
"=32qeqyyyyqdyeq,2,,,,,,2=$<,$$&<2yddyyggdyeeq2<$$$######,dfffde2eq,qedye2$#####&$$<<22qeeyddyddddy2,=@<=$,eqe2yeyyqeq2:2eyq;2qXX",
",yqqyeyyyqqeqy2qq,,<,,1,21$&##<<,qeeqdffyfdfdq2,<,$$$&$$,yygdeyyq2222yfe2=$$$$$$<<,,qeyyyeeyeeeye22,=@=<2e22e22eqq,qq,,2eqe,qe@X",
"=deqeeeyyqqqeyee,,1$,,1$<2$#&$,,,2qyydfgghddddq2,,,<$$<$$qdgyeyyeqeqedfe,$$=$$$,,2qqyyyeyeeqqq6qq,2,=&&,d22qy2eqe2,ye2,;,,,*eq=O",
"@3qeeeeeeqq2ydy2,,1$<$<<$$<,<1,21<,qyeyffgfgdded222,y<<&#<eygdydeeq,edy2$&$$$21,2eeqeydydee2,,2,,=,===2,22eeqe2eq2,q,,2***;@22XX",
"@7eyydyefd2deddeq,<$$$=<$#$<1,2q,,<2yyddddddgfgfdde12$&$&,eydfeyqq22eeq2=$<&$,<qeyydddyyyyeq3:,,,=;==<1,,eyqqqqq2,<2,,2,;*:,2,@X",
"=ddyyydyyyyedyqe22,1$$$$$$#$,,,,,<$,eydfdyddfggdfye,1$$$<2yfdeeq,222qeeq,$$$<,2eyyyddyyddyeee2,,,===,,22yyyee22,,,<yqq2,,22qq2=O",
",fdyyedyyyye;fye2,,<1$&##$$$<$<,,,#<2ydfydfggffydee2,qye,,yyeee2;<,q2qeq,<2qq2qeeyyddddddyyeeq,=1<1,,2qyddeeqq,,<<<q2q2,qeyeyy=X",
",fyyyyeeyyyyy,2q2,==<$$$,<<$$$$,,<$$qddfddfffdyyeeeq2qee,1yfdyeq,,2qeeeq12qq22yyeeyddfdfdyyeye,<=1,2eyddfdde22,2,$$,q22qdddyyd,@",
"=dyeyyqqqqqyyq2,,===1=$$<<<$$$,22,<$qydfdddfddyyeee,2qee21edeeeydddyqqe2,2qq22qqeyfddffffdyyyq,,,2eydfffdyy22,,<<=,qq,qeddddyy,O",
"=deeeyqq=,2qqeyq2=*,=,$<<<<1<$$,2,$<2eeyyydeyyyyyyq2yyyeq,2q222eyyyqqeq2qqqeeeeydfddfffddyyeq21$,qeydffffq2,,,11,2qqqeddffdyyq=O",
"=deeyyeq;;,qyeeee,=,==<=$$<<,,<$,,<$,222eydyyydyeeeeeeq2q2qeqqeyyyyeyeeeyeqqeeydddfgfffddyq22,$=,eyyddfy2,2,2,,2eeydyfffdfdyye=X",
"=dyyydye2,,2eeee2,,2=,,,==$#$<$$<,1#$<2eeydyyyeee2qeyeq2q2qdeqqqqeeeeeeqeeedddyyydffdddddye2,$#=,eydddy2qqeeqq2qddfgffggfdydyq=X",
"=ddyffde2,*2qq2,22qe,,22,<$##$$&&<<##<2eeeyyyeeeq222eyeqeeeyq2q2qeeeeeeyyeedddyydddddfddyee2=##=,qeyddfffffyeqeeeydffgfffddyyq=X",
"=dyyydfdeq;,2,::qqe2,,2ee2<$# .##$&#.$,2eyyeyyyyeeeeeeeeyeqqq2,22qqeqeeeyyyeyyddddfffdyeeq21$..$,2qdddfdffdeq,222qydfgfddeeeyy,@",
"qihhdeeydd2,::qq2,222dyyeq,$#...#$&###,2eyeeeyyqeeyyeddyyyeqq2qq,,qeyyeeyyyyeydddydddyq22,,<#..$2eydddddfdyq>;;;::,qeyyyee,2qd2=",
",hfyddyyeqqyyeyeq2q2yfdddye,=$###$$##$2eyeqeeyyyyyydyyyeeyeeqeyqq2qeeeyeeqeyddddddddyq:;,22,#.#=,qyyyddddde:,-*==,2,q2q,22eqqd,+",
",fydghyyeeqeyeyq22,72yddfdeq,$&######$22yeeyydyyyyyyeeeeeeqeeyeqeyeeyyyeqeqeyyydyddye3,,,2,1#.#=,2edddddyeeqe,;@@,qeye2@;;eqed,&",
",gdddfyydfdfddhdqy454rddffye21=$####.#$2,,eee2qyeeeyyeeqeeeyeeeqeeqqeyyeqqqeqddyyyyqeqq2=$<#..$,q26ddyddddyeeq,*;2eeede*@=qeqd2&",
",hdydddeydfddfggee5eryddffyye2<=####..$2,2eeqyddddyeeeeeeeqeeyee22qqyyyqeyee2yyyyyydy2q2,<1#.#<2qqeeyddeqqeeeq,;,eyddde;@;eqefq+",
",fyyyye2qyydddffyyeeeyyddddde2,1&&###..$<,,2,eq2eeeeeeyyeqqddyeeeeeeyey2eyddeeyyyeq2e2,,<$#.#$1qyyyddydq2qe22q,;qedddfq,*;eqed2+",
",fyeeeyeqeyddddddyyeyeeedddfdq2,1$#####<,,1,2q2qeqqqqqeeqqedyeeyddyeeeyyyyyyeeyqee,2q2==$$$##$,yfgfddyye2eye22,qeydfde,,@*q2ee;+",
"=fyyyddeyydddddfdydyyeqedddddqqq,=$$##&<<#&$=<,,2yqqe2,,22eeeqeyeeyyeyddeee2eey2eq,22<$#.&$#$1qddddgfddqqeqqeqqeeydde2-:@;q2qe=@",
"=fyyyygdyddyydddddddydeyeddddyyeq,,=&##$&&&<$1,222qqe222,,22,,,,,,,,,2qq2qqeeeeqqq22,=$###&#$,eydddddfde22efyyyyyyyeq;;,=;e;,,=O",
"@ffyyydddyfddyddfdddyyydyyydyyyqee,=$.##&$<<,22qq,2qq22q,,,2,,21,,,,,,2,222qqe22,222,<$$##&$=,qeydyydydyfdyyddeeeee2e>*;;,q;;=XX",
"@fdedddyedddfyfdfddddyddddydeeyyye2,<<$##<,<,q,222qeyyeqq2q2qqq2qqqqqqeq2,,q2222,,2,,$$$$#&=,2qydghhgdfdddyydy,q2q,,2-**=,,,,@XX",
"@ddyyddyddeyyyydfddffyyyyddddqeyye,,,1<.#$#$1,2qqqqeqeeeeeyydy2eyyqqeyyeqeeeeee222,,<$#.###,2qqdddddfdyyyddde2222e2,%**@*,2q2*XX",
"@fdyyygdfhyyeeeyyyddyyyeyeyyyeydyq,,,=$$###&<,,,qqqqeyyddyyyeqeyyeeqqeeeeyyyeye22,,1<&###O&=,qeeeeyyedddeeee2-**:q,;,;*@;qeq2*XX",
";ddeyddddddhgeeeyyyeyyeeey22yeqqy:22,,<$.##<,2,,2qqqeeedfyyyeqey22e22qeyyyyeeq22,,,<<<&##@=,qqqqqqeqqq22qqqq,-***;,,ee,=;eyq2*XX",
";gyeeyddddffhdqeeyyeqyeeeyqqyfffdddqqq21##$,,=,22qqeeyffdyy22,qeye22,,qyeeyyeqq22,,$$==@@@,,2,2,22,,,2,,,==,*=,:*,2eyy;=;qyqq@XX",
"=gyeeyydyydffgyqeeqeq2,,,,2eeddddqeqe222$###$=<,,,qqqeyyeqeeqeeqq,,,,2eeq2eeq22q2,=$&$$&<,,23:,,,,=****@@XX@@*2qqeqdfd==;qyq;XXX",
"=geeeeeyeyddddy2eqeq2**;;,,eeydyd22yy2q2,$#$$$<1<,2qqeee,$2yyeeeq22qqey2=,qeeqq2,=$&$<,,2,,,22,,;,*@@@@XXXXX@*,eyeeydy=;,2eq**XX",
";fyyeeqqyyddddd,eyee;@;;;*2eqeyyy:qy72q2<$&#$<<<,222eyyy2=&2ye22qqqqyyq$$2eeyeq2,<$$$*,22,;,2,;,,=,,,=@@@@XX@,2eyddqeq=2q2e;;;XX",
"=fdeeeqeyeyyeydqeyydy*,,2;2qe2q,e@22qeeq2=&##1,,,2,,2qeeq,##qyeqeeeyy2$O,qqqqq2,,<=11=,q22,2,=@,2;;;,*@*;=X@;,2yde2e,,2qeq,*,*XX",
"=dyqeeqqdyyeeyeeeeddf,eq72eqe2,2;@2qeyeeq,11$$$$<1,,,qeqq,$$.2eeyeyy2##$,2qe2,,,<$&=,2qey,;;,@@;q2*;**@@,<@X=qqeyyeq*;22e2@*;;XX",
"@yeeqe2qeyyeeeyeqeeddyddyydyy;;2;;,2eeqqe2,,<<2,,1,2eyyeq1$&&<2eeeeq,#&$<2qeqq,1<<=,,2eey6,,=o@=22,;@@=@**=X*,qqeyde*,,22q@;,,XX",
"@de,eyyqeyeqqeq2qeyyyfghfgdfd;,:;,,,,2,qqq2q,2ye,&,qydye,<<$$$2eqqye,$$<=,qeyyq1#$,22,qyy2;,,*+,22:;*=@@@@@@@;,2eyyy,=22q,=;22XX",
"@e2qeeeeyye2,2q,2eydyffgdgddde22,2:,,q,2qqyq<$$$$,,2eyqq2<$$$$,eeeq2<$$$<qeqeq,$$@=,,2eee;*:,=<2eq;*@@=@@*@@*;,2eyyqq=;2q,,2eq@X",
";fyq,eeeee2=*==@,2yydddfdyyydyyyeyeyeyyyeeey22<#$1<2q,,2221$=$,,eq,,<=$,qqq2,2,$$$$,2qeee,,22,;2q22;=,-@@@=*;;:,qe2qq=,2,,qqqe;@",
";gq2,edyye,XXX+@,;eydffgdfddeydddyyddyyyeey2,1<$$$$,,,2,,22,22,2,,2,qq2,q2,22,<&&$=,qeeeq=;2q,2qeyy22q,;*@*;;2,;222ee,:qq2eeye*@",
"*dyq2eyye*@XXXX@,;2dddffddddyyydyddyydfdffdeq,<<$#$<1,22eq2,qyq222qede222q222,<#$,22,2qe3*<2,,2qyddqq62,,+*==qq22,2;2,qqqeqeqq@X",
"*dyeeyye,XXXX@X+,,qeydyddddyydyydddffffffdfdy2,$$$<1,,22e,,1,2e22qqe2,,2,222,2,$$$=qeeee2;*,,,qyyddeeee,22=*;2eqq3eeeeee22eee,XX",
"*eeqeqey,X@*@;@==;222eydddyeydddddfffgffffddeqq$&$$$<,<<1,,,<2qqeqe2,=,2,,,<<$#$$<,eqqqqq,,;,2eyfyddeyyqqe2;=2qeyqyqeye222qyyq*@",
";y2qqqee2=@,;;==;,22,yydyydyddddfffffffffffdy22<$&&#&<$<,12,,2qeyee2,;,2,2,<$####<2qeeqeeq322eyydfdeeyyeee2,,2eyyqyqqqe2222eee=@",
"qh2eeyeeq,,:;,=,qq22,yedddyyyddffffffffffffdye2,1<#.##$$1222eeeqqqeeq32qq2$<#O.#$,,qeeeeqqeeeedddffdeyyyyeq2,eqee2q:2,22q,qyefe2",
"eiyeeyeye2qq:yeeydq,,eyddfdyyyddfgfddfddfffdyeq2,<&#&&&$<,,222qeeeeeqeeqq,,&##.#=,,2qeqeyeeeeyyydddeqyeeeqe2qq2qe22,2;:2eqqeed,,",
"qifyyyyyyeeyqyyydde,,qyddyyyyeydfgdyeeeeydfdyeq2,<$#&##<1<,2,,,222eqqqq2,2,#####$,22qqeeeeyeeeyyyyeq2eyeqqeeqqeqeeeeq2qqqyeyey,=",
",gfyydyyyyyy2eqyyyq,,,eqeyeeyeydye2:,2,2qedfdye2,$$$#.#$<<,1,,,,2q2qq2,2,,<# .##$,22eqeeyyeyeqeyee,,2qqeeeeyq22qyyyydeyyyyddey,=",
",hyqeyyyyyee,=,qeye,;,2eeyyyyeeeeqq2:,,,,qeyydeq,<&#...#$<<<<,2q22222,,,,<#. .O#==,eeyeqyeeeqqqqeq2,22eyyyeqq2,qqyydyfyddddgdf,+",
",g:qyeeeeq22==,qehf2,222yddyye2eeqeq,,;*;,22eyeq,<$#...##<1,,2eye2eq2,2,,$#. .#$1,22eeydyyyeeqq2,22,qeeyydydeeqqqqeydfeyyydgdg,=",
",geeeeqq,qe,;;,2ydgye2,,yddddeqye2ee22,**;,,2qq2,=$#.. .#$$1,222,22222,1<&# ..#$,qyyyeeyggdeeeqq222,qeyydffyyeeeqqeyyeydeeydfd2=",
",h2eeq2,qq2;*,,,qyedd,,;qddddyyyyye22,,**@;,,,,2,,,<$#....#$1,,,,,,,,,<$#.  ##$,qeydfyydffdeeeeqeq2,,qeyyddddeqeq2qyfdddqeyydy2=",
",gqeey,,22,=;22,2qede,,;,ydddyyddddeq=@@@@;,=,;,,,,<$&&##.#&$<=<<<<<<$##...##$<2eyyydyyeddyeeeqeee,**2qeyeeyyyeeeq2eydyyqqyydd2=",
",gqeee=;22,,,2,,qqqd2;,;=qyddyyyddddy;@XXX@@@;;222,,<$$$...#++$&&&$&### ..#$$<2qeyfdddeyydfdfdeqyeq*@;,2qeeeee2qq2,qqeeeeyyyyd,+",
",gyeey;,eeyeee2qyeyd,,,,=@qeyydyyeyde,;XXX@XX*,yeeq2,<$$&#. ##########..O#$$=,2eddyffddyedddydyeeee2;,;,2qqqe2;;q2,qqeqeyeeyee=+",
",gdeey,2ydyeqyyyyeyd2,2,=X*@2eyey2eqqq,@XX@@X;qdyey2,,,=$#...O##$&####..#$<1,2eyddydddfyeyyeyyyyeeq;,22,,,22,,%;42,qq2eeyyeeyd,X",
",gfyde2qeeeefdyyeeeye,,,@XXX@,2*,,22ey7:@**;@=eyddy2q22,=#OO..#O####....#=<,qqeydyyyyyyyeeeqeeeqqq;**,2q222,,%->43qe2qeyyydyyy,@",
",feyfdeqedgddyyyeeedyq22,=@XX@=@,,2qedye,,22=,eyyddyeqqq,=$$XO...#...O##&==22qdyyeeeeqeyyeyyeeeq3,,*@;*;,,,32;*3552e2eeeydeeyq=+",
";y:edyydddfdfyyfeyeyyq22,22@XX@=,,qye:q22,,,,2qyyyydyeeee2,=@X.....OO##+@==,2eeeyeeqyyyeyyeeyyeq2,,,;*;*,,22qq2qwu82qeyeyyeyyy=@",
"=y:qqyedydfdfdydeeyyeeeeeee,@;=,22yyqye,42,=;2eeyddyyddyeeyq,=#X...@+$@@==,,2qeeeeydddfyedyeyeeq2222;@*;;;2,qyqeerq,qqqeeeyyyy,=",
"=f:2eyeyyyfdfdydyeydyeyyyyee,2,22ydqee0;34:%%*2yyyddydfdyyyyq2,$XX#+*@@@,,,;2eeyyddfffggdeeyeqedde2q2-*;;;:,qyeee8ee,eyyeeyyey=X",
",gq,qeyyyyddfdydyeeeeeyyedfdqqeyeeyeyq>%---@@@*qddyyyddddyydyq,,==@*=@@=,*,22qyyddgffgghfyeyfgdyyy2eq2,,,,6,qdeyyddeeyydeyyqe2=X",
",gfe2qeeyyydfddfyyy2yqeyyyddyqqeqyyye,---;-@X@@*ydyyyddydydyeq;,,*@;;=*,,=,qqeyyfgffffdyeqqeedyyyeyyeqqqqeq2edeeeeqyeeydeyqq2e*X",
",hffeq2eeeyyddfgyyd2eqyyyyyd2qq2qeqq2;%%*;;*-:@*eddyddyyeyyyq,@;,=*;,*=,*,qeeedffffffgyq2qydeeyeqyddfdfdedyyeggdyydyeye;2,qye2=O",
"=gyeyfy22eydydddyd2qe2qeddeeq2ee,e22,*@%,,q,,23,qddyyyyeyddyq=;===*;,;,,,qeeyddddffffye,2eyeyeqq2eyyfghhfddeeffgfdyyeedyghdeq,=X",
"=ddydeyeqeyeyydyyq2qy,2qeyyee,34:,2,,*%*2qeeeqy,eydygffyqydyq,2@=;;,2,,qeyyyyeyyyfffdeq,qyeeqyyqqyyddfggghgdeyyydfdeey2eeydggd=O",
",hfdgfggydyeyydde2qeffee2eyq2*->>;;22;*,eyyyydf2eddddfddyyeeqqe,,2,,,222yyyyydyyddddy3,,,qeyyyqqeyydfgfgfghde2qeydfdeyqyeeeqyf2@",
"o==,,,,,,,2q2,,e2,,,2@@=@==XXXXXXXXX@@@@====,,,,,,,,,,,;,;==@X@==@@@=@@=,==;+==;=,,==@OXXOXX==,==,,222eeeqye,;=@@@=+======;;=,@@",
"XXXo@@+@@@++=+++=+@@=XXX+++XXXXXXXXXX@XXO@+++++++++++++@@@X@XXXX@XXX@XXXXO@OXXXXX@OXXXXXXXXX@#oX&@&+==,=&+=@@++XX@OOo+++@+XOXXXX"
};
