/* XPM */
static const char *wall51_1[] = {
/* columns rows colors chars-per-pixel */
"128 128 242 2 ",
"   c #030303",
".  c #0B0703",
"X  c #0B0906",
"o  c #0C0C0B",
"O  c #160E07",
"+  c #190806",
"@  c #190F07",
"#  c #130F09",
"$  c #0F1408",
"%  c #161206",
"&  c #191007",
"*  c #161B06",
"=  c #13110C",
"-  c #1B130A",
";  c #151C09",
":  c #1D1A0C",
">  c #0F0F10",
",  c #171711",
"<  c #141413",
"1  c #1B1B16",
"2  c #1C1C1A",
"3  c #250D06",
"4  c #270D08",
"5  c #2B0E08",
"6  c #360502",
"7  c #3C0603",
"8  c #3D0904",
"9  c #22150A",
"0  c #2B140A",
"q  c #221B0D",
"w  c #2C1B0C",
"e  c #341207",
"r  c #34140A",
"t  c #3A160A",
"y  c #331C0D",
"u  c #3C1A0D",
"i  c #221E11",
"p  c #271A14",
"a  c #351611",
"s  c #351D10",
"d  c #3B1B12",
"f  c #1D230B",
"g  c #18240D",
"h  c #1E2019",
"j  c #22250E",
"k  c #2A220F",
"l  c #23290F",
"z  c #33200F",
"x  c #39200F",
"c  c #242212",
"v  c #2C2511",
"b  c #252C12",
"n  c #2D2A14",
"m  c #23231D",
"M  c #29231E",
"N  c #262C1A",
"B  c #2A2E19",
"V  c #332412",
"C  c #3A2314",
"Z  c #322C15",
"A  c #3B2C16",
"S  c #3C2718",
"D  c #322F18",
"F  c #3B2C1A",
"G  c #273015",
"H  c #293116",
"J  c #2E351E",
"K  c #2F381F",
"L  c #393017",
"P  c #32341C",
"I  c #3D331B",
"U  c #30381F",
"Y  c #232322",
"T  c #272922",
"R  c #2A2B24",
"E  c #2B2A2A",
"W  c #3D2322",
"Q  c #2E3421",
"!  c #2F3820",
"~  c #313720",
"^  c #343C24",
"/  c #3A3B26",
"(  c #393D25",
")  c #3B3F28",
"_  c #383837",
"`  c #440302",
"'  c #4B0504",
"]  c #430906",
"[  c #490906",
"{  c #450C08",
"}  c #4B0D09",
"|  c #530606",
" . c #580707",
".. c #540B09",
"X. c #5A0C0B",
"o. c #48130C",
"O. c #421A0F",
"+. c #53110D",
"@. c #5C120E",
"#. c #451D12",
"$. c #471E13",
"%. c #5D1412",
"&. c #581911",
"*. c #630C0C",
"=. c #6A0E0E",
"-. c #64100F",
";. c #631413",
":. c #6D1313",
">. c #641915",
",. c #681A17",
"<. c #6B1D1A",
"1. c #731515",
"2. c #751817",
"3. c #741B1A",
"4. c #7B1B1B",
"5. c #452215",
"6. c #4A2115",
"7. c #432A16",
"8. c #422418",
"9. c #4C2519",
"0. c #422C1B",
"q. c #4C2B1B",
"w. c #51261A",
"e. c #532A1D",
"r. c #592E1E",
"t. c #42331C",
"y. c #4B321D",
"u. c #42381F",
"i. c #55371E",
"p. c #6B211B",
"a. c #72221D",
"s. c #7D201F",
"d. c #592D21",
"f. c #433523",
"g. c #4B3322",
"h. c #433A23",
"j. c #493D24",
"k. c #42322F",
"l. c #4B3D2A",
"z. c #5C3224",
"x. c #553927",
"c. c #5C3C22",
"v. c #6C2321",
"b. c #742522",
"n. c #7B2522",
"m. c #792B27",
"M. c #7B2B26",
"N. c #653925",
"B. c #763928",
"V. c #693F32",
"C. c #394027",
"Z. c #374028",
"A. c #3C442A",
"S. c #3F482C",
"D. c #41462B",
"F. c #47452C",
"G. c #40482C",
"H. c #424A2E",
"J. c #57442A",
"K. c #444B30",
"L. c #474F33",
"P. c #474A36",
"I. c #484F33",
"U. c #564A33",
"Y. c #475033",
"T. c #4A5135",
"R. c #4E5438",
"E. c #51563A",
"W. c #52563A",
"Q. c #57553B",
"!. c #54593D",
"~. c #684426",
"^. c #77462C",
"/. c #6F4C34",
"(. c #66563B",
"). c #494A47",
"_. c #4E504B",
"`. c #565D41",
"'. c #595E42",
"]. c #50514F",
"[. c #585857",
"{. c #695A44",
"}. c #5A6246",
"|. c #5E6549",
" X c #5F605E",
".X c #61664A",
"XX c #686749",
"oX c #656A4E",
"OX c #666A52",
"+X c #696D52",
"@X c #756A50",
"#X c #6D7256",
"$X c #6F7458",
"%X c #727559",
"&X c #78765B",
"*X c #767A5E",
"=X c #676766",
"-X c #777C60",
";X c #7A7E62",
":X c #777874",
">X c #821E1E",
",X c #81201F",
"<X c #842323",
"1X c #8A2525",
"2X c #862A27",
"3X c #832D2A",
"4X c #8D2B2B",
"5X c #932E2D",
"6X c #982F2F",
"7X c #83322C",
"8X c #8A352E",
"9X c #94302F",
"0X c #8B3532",
"qX c #893935",
"wX c #943332",
"eX c #9B3434",
"rX c #933C37",
"tX c #9A3837",
"yX c #9D3B3A",
"uX c #A23C3C",
"iX c #8B4F33",
"pX c #8A4936",
"aX c #98423A",
"sX c #A3403F",
"dX c #85613D",
"fX c #9A4842",
"gX c #9C5E41",
"hX c #A44342",
"jX c #AB4444",
"kX c #A94C4A",
"lX c #B55655",
"zX c #866F51",
"xX c #88765C",
"cX c #B4655F",
"vX c #847D63",
"bX c #957C66",
"nX c #D25D5D",
"mX c #8F856B",
"MX c #93836A",
"NX c #9A866D",
"BX c #A69279",
"VX c #B19981",
/* pixels */
"& & & & & & & - - - - & & & & & & & & & & & & & & & & & & & & & & & & & & & & & & & & & & & & & & & & & & & & & & & & & & & & & & & & & & & & & & & & & & & & & & & & & & & & & - - - - - - - - & & & & & & & & & & & & & & & & & & & & & & & & & & & & & & & O ",
"J ~ A.K.K.K.K.T.!.`.W.T.K.K.K.K.H.H.H.H.A.C.( ( ( A.S.K.T.I.D.A.H.H.A.( ~ J J ~ A.H.H.S.( ( C.A.A.A.( ( A.S.H.H.A.A.A.A.( ( A.S.H.K.K.K.K.K.K.H.A.A.A.A.A.A.H.K.K.K.K.K.K.K.T.T.K.K.T.W.W.W.`.!.T.H.A.A.A.A.A.A.( ~ ! J J J J J J J J J ~ ( ( ( A.A.A.A.A.P : O ",
"b H C.H.K.T.R.R.T.Y.Y.T.W.R.K.( D n J ~ ~ ~ ~ ! ! ~ ( A.A.A.A.( ~ ~ ~ J c : : q v v v k : : B ~ ( A.A.H.K.K.K.K.A.A.A.A.A.H.K.K.K.K.H.S.H.H.H.H.H.A.A.A.A.( ( A.A.H.H.S.H.H.K.T.Y.Y.K.T.W.!.!.R.K.A.A.S.A.A.^ ~ ( ( ~ J ! ! ! ! K K ! J b G J ~ ~ ~ ( ^ H j - O ",
"J ^ H.K.K.K.Y.K.H.H.K.T.W.R.K.( D n J ! J J ! ! ! J n v Z D P J ~ P n v q q q q v v v v k v Z P ^ A.H.K.K.K.H.A.A.( ( A.A.S.H.S.H.S.S.H.K.T.T.K.H.S.A.A.A.( ~ ^ A.H.H.H.K.K.K.K.K.K.K.T.`.`.R.K.H.H.K.K.A.A.A.C.~ ~ ~ ~ ( A.A.Z.Z.( ~ ~ ( ( ( ( ( Z.A.~ i & O O ",
"J ~ A.H.H.H.K.K.K.K.K.T.T.K.A.( ( ( ( ( ~ J J ~ ( ( ~ J n k k D ( S.A.A.A.A.( ( ( ( ~ P D n b b n P P ~ ( ( ^ ~ ~ ~ ( A.A.H.H.H.K.T.R.W.W.W.W.!.`.`.!.W.W.T.K.I.R.R.T.K.H.H.K.K.K.K.H.A.A.A.A.A.A.A.A.A.A.A.^ ~ ( A.H.T.R.R.T.K.H.A.A.A.A.A.A.A.A.A.K.A.H f - O ",
"J ~ A.S.A.A.A.H.K.T.R.W.W.I.( J J J ! ! ~ K J J J J K J n k k D D.T.W.R.T.K.A.( ~ ~ ~ ~ ~ P D D P ~ A.A.A.H.T.R.T.I.K.K.K.K.T.R.R.R.R.R.R.W.`.!.T.K.K.K.H.S.A.H.K.K.K.T.W.T.K.H.K.L.K.K.H.A.A.A.A.A.A.A.A.A.A.A.A.A.H.H.S.H.K.Y.Y.T.T.Y.K.K.H.A.A.S.S.^ i O O O ",
"k D ( A.A.( ( A.A.D.j.j.D.A.C.~ n n ^ Z.Z.( ~ P D D J J v k j H A.T.W.W.T.K.A.A.A.A.A.A.A.D.A.A.A.A.A.H.K.A.T < X X o = = = = = = > o > > o X X o < N ~ ( A.A.A.A.K.R.W.T.T.W.!.!.W.T.K.H.A.A.( ( A.K.K.H.A.H.H.H.S.A.A.A.F.T.!.`.}.}.`.!.W.W.T.F.A.A.~ i & O O ",
"k D A.K.A.( ( A.A.H.K.F.u.A w c P ( Z.Z.Z.( ~ J D Z v k q : : c ( H.K.K.K.K.I.T.T.T.T.T.R.R.T.R.`.`.`.P.R < o X X < Y E Y Y 2 2 2 2 < < < > X X X X < h ) K.T.T.K.K.T.W.`.`.`.}.|.|.W.T.T.K.H.A.A.A.A.H.K.T.R.R.T.K.H.H.K.K.K.K.K.K.H.H.H.H.K.K.K.K.H.A.~ N : O ",
"l b ~ A.Z.( ( A.K.Y.Y.F.u.A A D P ( A.A.A.( ~ H c q k k q : j H C.A.A.! 2 > X X X X X o o o o o o > < o X     X < 2 E E Y Y Y Y 2 < X X o < o o < < X X o > = o o X o o o o o o X X < T A.K.Y.Y.T.K.H.H.H.H.K.T.R.R.T.K.H.A.^ ~ ( Z.Z.( ( A.A.S.S.H.H.A.A.J : O ",
"O : J ( ( A.A.H.K.K.K.K.K.H.A.A.H.T.R.T.F.A.~ J D Z v k : j J ( ( Q 2 o X     X o < X X X o < < X o 2 2 X X 2 2 < X X X   o Y E 2 < X     X < 1 < < < < 1 2 < o X X X X > o X X X X   X < R T.}.}.`.R.T.R.R.T.K.H.H.A.A.A.A.~ J J ~ ( ( ( C.A.A.S.F.T.T.F.^ q O ",
"O & : c ~ A.K.K.A.C.A.A.A.A.( A.K.Y.T.K.H.A.^ J J J J P V V P N = X       X < h N N = o > o X             X < 2 > X   X o > X X X o < 1 < o X   X X X o < > X       X X X < B Q h < X X   X X h H.`.}.`.T.K.H.A.A.A.A.( ( ( ( ^ P D P ~ ( A.A.H.K.K.I.K.A.J : O ",
"O : J ( ( ( A.A.A.C.( A.A.H.K.K.K.K.K.K.H.A.A.A.~ J n k q q k q X   X X     X X o X X       X X       . 9 9 - = < > X             X o < < o X     X > < 2 < o X     X X < < < < o X           < P.}.R.K.A.C.Z.( ( ( ~ P D D P P D D D D P ^ A.A.S.H.K.K.A.J : O ",
"l H ~ ~ c q k D ( A.A.A.A.H.K.K.H.A.A.A.C.( ( ( I A v k q : q &   X 2 2 X         X o o X           # O X X # : m 2 X                     X X o o < Y Y o             X < < o X X X   X Y Y X < L.}.R.K.H.A.^ J b b v k k v Z P P J J ~ ( Z.( A.A.H.K.K.A.J : O ",
"J ~ ( ~ H b J ^ A.A.A.A.A.A.H.A.A.A.A.A.u.I P J P J n k q : & O X > 2 2 o X 2 Y 2 < < < 2 2 2 2 X X 9 w q & o o < 1 < < < < X       o < < < 2 Y E E E E E Y < X X X o < 2 2 2 2 Y 2 o X 1 2 < R '.oX!.K.K.K.H.^ v q j b n L ^ ( ( ( ( A.A.A.^ K ~ ~ ~ ~ U B : O ",
"J ~ ( A.( C.A.H.K.K.H.S.H.H.K.K.A.( Z.A.( ^ L Z Z Z Z Z Z v q i B ~ A.H.).)._._.).)._ _ _ ).OX=X[.).F w w w w 9 X                   X o : i R ).=X:X=X=X=X=X[.[.].].].[.=X=X[.[.[.].]._.P.K.K.T.`.}.}.`.T.K.K.F.u.A D P ^ ( Z.C.Z.A.K.K.H.A.~ J J ~ ! J b f - O ",
"Z P D.K.H.H.K.K.K.T.R.W.W.R.T.K.H.A.A.A.A.( ~ J n v Z Z v v k n ( H.K.R.`.}.}.`.R.L.K.I.R.W.R.L.K.( V w w S k._ E 2 < o X X X X X X X o 2 E _ ).=X:XOX'.!.R.S.A.A.A.A.A.A.A.A.A.S.S.A.S.K.K.K.L.T.K.S.A.A.H.H.D.A.A.( C.A.H.K.K.K.T.W.T.S.Z.( ( ( ( ~ B : O O O ",
"k D D.K.H.H.K.K.H.K.R.!.!.W.W.R.T.K.A.( ~ ! J ~ ( ( ~ J J J J ~ ( S.T.W.T.T.T.T.Y.K.K.T.W.R.K.A.A.~ V w w V D.T.).].[.[.[.[.]._.).]. X=X=X=X=XOX`.W.T.H.( ~ ( ( ( ( ( A.A.A.A.A.A.A.A.A.A.H.K.T.R.R.T.K.K.K.K.H.A.( ( A.K.K.H.F.T.W.W.R.F.A.A.A.A.S.S.^ c : & O ",
": c ( A.A.( C.A.K.R.`.}.}.`.R.Y.Y.K.A.( ( ( ( A.A.A.A.( ( A.A.H.K.K.K.T.W.W.W.W.T.K.I.T.W.R.H.A.~ J v w w A F.T.K.S.A.A.S.K.L.L.I.K.A.~ n n b b b b b c q q k n ~ Z.Z.( ( Z.Z.Z.( ( ( Z.Z.A.A.H.K.K.K.K.T.K.A.A.( A.A.S.K.L.K.K.K.Y.T.T.K.K.K.K.K.K.H.A.L v : O ",
"O i ^ A.^ ( H.T.W.W.W.!.}.}.!.R.T.K.A.( ~ ~ ( A.A.A.A.S.K.K.K.K.T.T.K.T.R.W.W.W.W.W.W.W.W.T.F.A.~ B k w w V ( A.A.( ( A.A.H.S.A.A.( ~ B c q j b b j q q : i B J ! ~ ( Z.( ( ~ ~ ( ( ( A.A.A.A.Z.A.A.A.F.T.W.T.K.A.( ( A.K.K.L.K.H.H.K.K.Y.K.K.K.I.Y.Y.H.( B : O ",
"O i ) Y.K.I.R.!.}.`.R.K.K.K.K.K.H.A.A.( ~ ~ ( A.A.A.A.A.K.T.R.W.W.W.T.K.K.T.W.W.T.K.K.Y.T.K.A.( L Z y w w y V P ^ ( ( C.A.A.A.( ~ J b b H J J J J J J J n n J ~ ! ~ ( ( ( ( ( A.A.A.A.A.A.A.A.A.A.A.A.H.K.T.Y.K.A.( ( A.A.H.K.K.H.A.A.A.A.H.K.T.W.W.T.H.( B : O ",
"l H A.K.H.F.T.!.}.`.K.A.~ ^ A.H.S.A.^ ! J ~ ( ( ( A.A.H.K.T.T.T.W.W.T.K.K.T.W.R.K.A.A.H.K.T.R.T.H.( V y y w - : B J b b J ~ ( ( ~ K J J K ~ ( A.A.A.A.H.K.K.H.C.~ J n n ~ Z.Z.( Z.( ( ( ( ( Z.A.A.A.A.Z.A.A.A.A.A.( ( A.A.A.A.A.A.A.A.A.S.H.K.T.W.W.T.D.P q & O ",
": n A.K.H.H.T.!.}.`.K.A.~ ~ ( A.Z.( ~ ~ ( ( ~ ~ ( ( ( A.K.Y.Y.T.W.W.T.Y.Y.T.W.R.H.A.A.A.K.K.H.A.F u 8 8 r w - & : q : q b b v n ~ A.A.A.A.H.T.W.W.W.W.W.W.T.F.A.L D J J J ~ ( ) Z.( ~ ~ ( ( Z.( ( A.A.A.A.Z.Z.( ~ ~ ( ( ( ( Z.( ~ ~ ( A.A.A.S.K.T.W.T.H.^ n : O ",
"J ^ H.K.H.H.K.T.T.K.H.A.A.( ( ( ( ( ! ~ ( ( ~ J K ~ ( A.A.H.K.L.K.T.R.W.W.W.W.T.F.A.A.H.K.K.H.D.f.0.s e 8 7 0 : & - f b H H b b J ~ A.A.A.H.K.T.T.K.H.A.A.A.A.H.K.H.( J J ~ ( Z.Z.( ~ ~ ( ( ( ( ~ ~ ( A.A.A.A.( ~ ~ ( ( ~ ^ A.A.^ ! ~ ~ ~ ~ ( A.A.H.K.A.J f - O ",
"J ^ H.K.K.K.K.Y.Y.K.A.Z.( A.A.A.^ J n v v n ~ ( Z.A.A.H.K.Y.L.K.H.H.K.K.Y.T.T.K.A.( ~ ( H.K.A.( f.F q - 0 w k q q q j l l l k k l b ~ A.K.R.`.}.!.R.T.K.H.H.K.K.Y.K.A.~ n n ~ Z.Z.( ( ( ~ J J ~ ( ( ( ( ( ( ( ( ~ J b H ~ A.A.A.A.( ( ( ( ( ~ ~ ( ( ^ B : & O O ",
"k n ^ A.A.H.K.T.W.R.T.K.H.H.K.K.A.~ c i B ~ ( A.K.K.H.H.K.Y.L.K.H.A.H.H.K.K.H.A.A.( ~ ( H.H.^ ( J.c.w & : : : q j l l j - & : : & : q L K.!.}.}.!.W.W.W.T.K.K.Y.Y.K.H.A.C.( ~ ~ ( ( ) ( ~ J J J J ~ ( ( A.( ~ ! K J J ~ ( A.K.K.A.( ( ( ( ( ( A.K.K.A.~ c : & O ",
"q c P ^ ~ ^ H.K.K.K.H.H.K.K.K.K.A.( J J J ~ C.H.T.W.T.K.K.K.K.K.K.K.K.K.K.K.A.( ( ^ ! ! ( ^ ~ j./.^.7.9 - & : : : : j f - & : q j l k n ~ A.K.T.R.W.W.W.W.W.W.R.T.K.H.A.A.A.~ ~ C.A.A.A.C.( ~ J J ! ^ C.A.C.~ J J ~ ( ( ( A.A.A.A.( ~ ~ ( ( ( A.A.A.A.A.C.J : O ",
"J B i : & : q n ^ ( ( ( A.A.A.A.( J : & & : q D A.K.K.K.K.H.A.( A.A.A.A.A.( n k v q : % % 0 >.<X6Xm.a : V V 9 # o o o o # O O - j j - & : c B ~ ( ( ( ( ( ( ( C.A.A.( ( ( ^ ~ B i i B J J B c : & : q v b b k v J J J ! ^ ^ ~ ~ ^ ^ ! J J J J J J ~ ^ ( ( J : O ",
"& & & & & & & & - - - - - : : - - & & & & & & - : : : : : - & & - - : : : - - & & & & & % 4 ] ,.wX7Xd & 0 w - # o o o o % & & & & & & & & & & - - - - & & & - - - - - - & & & & & & & & & & & % % & & & & & & & & - - - - - - - - - - & - & & & - - - : - - & & ",
"b b k n ( C.~ J J J J ~ C.A.A.A.( ^ ~ ~ ^ ( ( A.H.K.K.K.H.~ q : J ( A.A.A.A.C.( ( ( ( ( ( P i d b.b.a 4 { } 4 = 1 h c l l b J J J J J J J J J J J H b j q c B ~ ( ( ~ B c q v v : : : q q q q q c H ~ ( ( ( ~ J J J J J J J J J J J J J J J D D ~ A.H.H.S.C.~ J ",
"( ( ( A.A.K.T.R.T.K.S.A.A.H.K.K.H.A.A.A.A.A.A.H.K.T.W.W.T.) i - B C.I.W.W.W.W.W.`.}.}.!.K.( Z V C #.} ,.eXqX8.: N H b b H ~ C.A.A.A.C.C.A.S.K.H.A.( ( C.A.S.K.K.H.A.A.A.A.H.T.W.W.W.W.W.W.W.W.T.K.K.K.T.R.R.T.K.K.K.H.A.A.A.A.( ~ J J J J J J J J ( H.K.K.K.H.A.",
"! ( H.T.R.W.W.W.T.K.A.( ~ ^ A.H.S.A.A.A.A.A.A.A.A.H.K.T.W.D.c - N ^ H.T.W.T.K.H.H.H.K.K.H.l.v.3.X.X.:.>X5Xm.a % f b b b J ~ ~ ~ ( A.A.Z.Z.A.A.S.A.A.A.A.K.K.H.H.K.K.K.K.K.T.W.W.W.!.}.}.}.}.!.W.T.T.W.W.T.T.T.T.Y.K.H.A.A.A.A.A.^ J n k l b J J J ~ ( Z.A.A.A.A.",
"A.H.K.K.K.T.W.W.W.T.H.A.A.H.K.K.H.A.A.( ~ ^ A.A.A.H.K.T.T.A.i @ : c ~ A.A.A.A.H.K.K.K.K.H.) A 6.a.<X4X1X2...3 $ f b J ~ ( ( ( A.A.A.A.A.A.A.S.A.A.( ) A.K.K.H.S.H.H.K.K.A.S.T.!.}.|.oXoX|.}.!.W.W.!.}.}.!.!.}.`.R.K.H.A.A.A.A.A.A.~ n k k v Z D P J J ~ ( A.A.H.",
"W.W.T.K.K.T.W.T.K.S.A.H.K.K.H.A.A.A.A.A.A.( ~ ( H.T.W.W.T.) i O : c J ~ U ~ ( A.A.S.H.H.K.A.n : & d 7X3Xa X # : i T Q ~ ( A.A.S.H.A.A.H.K.K.H.A.A.A.H.K.Y.Y.K.K.K.K.K.K.H.H.T.!.}.|.oXOXoXoX|.}.}.}.|.}.}..X+X#X#XoX'.T.F.S.H.A.^ ~ P B i q v Z Z D P J J ( H.K.",
"(.(.Q.W.T.T.T.K.A.A.K.Y.K.K.H.A.A.A.A.( ( C.A.H.K.T.W.R.K.^ q - f H C.A.~ J J ~ ( A.K.K.H.( c - O a m.3X6.w y y v n ~ A.A.H.K.K.K.K.K.K.Y.F.h.h.D.S.S.H.K.T.T.T.Y.K.H.A.A.A.K.R.`..X+X+XoX|.oXoXoXoXoX+X#X%X;X;X%X#X+X|.R.T.W.R.H.A.I A w q q q k n J P D P ^ A.",
"bXbX&X+X'.W.W.W.W.W.T.T.T.K.H.A.A.A.A.A.^ ^ A.H.K.T.W.R.K.^ : - N ^ H.H.( ~ ( A.K.K.K.T.W.F.n - O a b.<X-.X.2.v.W R ^ A.A.H.K.K.H.A.A.H.K.K.H.H.K.K.H.H.T.W.W.W.T.T.W.W.T.K.H.H.K.R.`..X+X#X+X+X#X#X#X#X#X%X;X;X%X%X*X#XR.K.`.`.K.A.A.( I A V k q q n n b b J ~ ",
"oX&XNXMXXXW.W.!..XoXoXoX|.`.R.K.H.A.A.H.K.K.H.S.H.H.K.K.H.^ q & q P D.K.A.C.A.H.K.K.K.I.T.A.n 9 w t } ....-.4.b.0.T Q ! ! ^ A.A.A.A.A.K.`.`.R.T.W.W.T.K.H.H.K.T.W.W.W.W.W.T.F.H.K.T.W.'..X+X#X#X#X%X;X;X;X;X;X;X%X#X+X|.R.T.W.W.T.Y.T.F.h.I P P J J J U ~ ~ ~ ~ ",
"}.+XMXbX'.K.K.T.W.'.+X#X+XoX|.!.K.H.K.K.H.H.K.K.K.K.I.K.H.^ q : N ~ A.A.A.A.A.A.A.H.F.K.Y.A.n 0 7 8 e s F d.n.a.8.c T R Q ( H.K.K.H.A.K.`.|.}.}.}.}.!.R.T.K.K.K.K.T.Y.T.K.Y.K.K.K.T.R.!.}.|.oX#X*X;X;X;X;X;X;X;X%X+X.X`.K.F.T.W.W.!..X.X!.T.T.K.H.A.A.K.!.`.T.K.",
"#X&XMXMX%X|.!.T.T.R.}.|.`.!.!.!.}.`.R.K.H.H.K.K.K.T.W.T.S.J : : n ^ H.K.A.( ( ( ~ P n D A.D.F s 0 9 0 w : 0 @.@.u v B ! J ( H.K.H.F.T.`..XoX|.}.}.}.!.W.W.R.T.K.K.K.Y.T.K.T.W.W.T.K.H.H.R.'..X#X*X;X;X;X;X;X;X-X%XoX'.W.T.K.K.T.W.W.T.T.W.!.W.T.H.A.( A.T.W.W.W.",
"|.oX%X;X;XvXMXMXvX-X;X*X+X.X|.|.oX.XW.K.H.H.K.T.Y.T.W.T.( B : & q D C.S.S.A.A.A.K.A.n c ~ / t.9.,.%.r 9 0 w y w 0 i Y R Q J ~ ( H.R.`.}.}.|.oXoX|.`.K.H.K.T.Y.K.K.T.W.W.W.W.W.W.W.T.H.K.!.}.|.oX#X#X+XoXoX+X#XoX!.T.W.W.T.K.K.K.K.I.R.!..X.X'.T.C.P I I A.S.H.H.",
"oXoXoXoX|.oX*X;X%X%X;X*XOX|.}..X+X+X'.R.T.K.T.T.W.W.T.H.( B : : B ( H.K.H.A.A.A.K.F./ 8.o.....X.:.4.<Xv.a 4 ] [ r w 1 h J ~ ( A.K.R.`.}.!.!.!.!.!.W.W.W.W.W.T.T.W.W.T.T.T.T.W.W.T.T.W.W.W.`..XoXoX.X'.!.}.}.}.`.R.K.K.K.K.A.D v v P I.!.!.!.}.`.R.D.I D P ~ ( A.",
"oXoX|.}.!.!.}.|.oX%XbXMXvX%XoX|.oXoX|.}.!.!.`..X@X@X{.T.C.B : : B ( H.K.H.A.A.A.K.T.I.D.F #.+.} 5 9 0 #.<.:...] t w - : B ~ ~ ( H.R.`.|.|.}.!.!.W.W.T.T.W.W.T.T.W.W.T.T.R.!.}.`.R.R.|..X`.W.W.W.T.T.W.W.T.K.K.K.K.H.A.^ Z k q c P A.T.W.W.W.W.W.T.F.h.I P ~ ( A.",
"}.}.}.}.}.}.}.|.oX+X*X;X;X%XoX|.+X#X#X+X|.}.}.|.+X#X#X.XT.~ : : B ( H.K.H.A.A.H.K.Y.T.T.T.(.aXm.a + 6 7 4 r >.4.4.%.r c ! A.A.D.K.R.`.|.oX+X#XoX'.W.W.'..X|.R.T.`.'.!.W.W.!.'.'.!.W.T.T.W.T.F.H.K.H.A.( ~ P P P D V z y y w k k v P I.W.T.I.K.K.K.K.H.D.A.H.K.K.",
"W.!.!.!.}.|.oXoX|.|.|..XoXoX|.|.|.|.|.|.}.}.!.W.!.`.}.`.K.^ q : N ( H.T.K.K.K.K.K.T.R.T.A.x.7Xm.a : V V = + 6 | *.%.p h Q ( ) A.K.T.W.!.}.}.}.'.!.!.}.}.|.'.!.W.W.W.T.T.T.T.H.D.K.T.T.T.I.D.^ P D Z v k q q w u } .. . . .} 0 c P H.!.}.!.T.F.H.K.Y.K.K.K.T.W.!.",
"W.W.W.!.}.|.|.|.oX+X#X#X#X#X#X+X.X|.oX.X'.W.W.W.W.!.!.T.S.J : : B C.T.R.K.A.A.A.K.K.H.( V u ;.X.5 w i.y.& . 7 |  .} 9 1 N ~ A.H.K.K.K.K.H.A.L I F.!.'.`.R.T.T.T.I.K.H.( D k q c J P Z V C V w q k V C 6.>.2.2.:.*.X.6.S y y V I I.!.}.}.!.W.W.R.T.T.R.W.W.!.}.}.",
"T.T.W.!.}.|.oX+X#X#X#X#X#X#X%X#X+XoX|.`.R.T.W.W.W.W.T.D.P q & : J S.T.T.K.A.A.A.A.^ n k w t } | ` 6 4 - - & @ 5 X...5 : m R ^ A.A.H.K.D.I Z v k v v v D ^ ^ n v Z v q & 9 9 9 9 q 8.7XwX4.:.:.1.3.2XyXyX<X4.4.2.:.1.2.>.y c C.T.R.W.W.W.W.W.T.T.W.W.T.T.R.W.W.!.",
"}.}.}.|.oXoXoX+X#X#X#X#X#X%X*X*X%X+X.X}.!.W.W.W.T.K.K.H.( B : : J A.K.K.K.K.K.K.H.^ c q V 5.....t 0 & r v.v.9 + ..X.5 = 2 T ^ ( ( A.H.A.n 9 q q n Z v w q q q : - - - 0 { | ..%.B.iXkXyX,.{ t y C e.3X7Xz.x.^.pX2X3.#.V B ~ ( A.A.H.K.Y.T.T.T.T.T.T.K.K.K.T.W.!.",
"}.|.oXoXoXoXoXoX|.|.|.|.oXoX|.|.oXoX|.'.!.W.T.T.I.K.H.A.A.J : : B ( H.K.K.Y.T.T.Y.H.( J b y } | ` 7 0 0 } } 0 0 { { 4 % : i H ~ ~ J c q 9 n ) H.A.F O.` | } y n P N = + 8 ;.<XwXwX2X,.} 5 9 0 u @.:.1.%.y a ;.1.2.p.F J J J K ! K ^ A.F.T.R.T.K.K.K.I.I.L.R.`.}.",
"|.|.|.|.oX.X!.!.}.}.!.W.!.!.}.}.!.W.W.W.T.T.R.W.W.R.T.H.A.J : : B ( H.K.K.T.R.W.W.T.S.~ c r .. .` 8 r t } } d s y 0 < < # : B ! J J v k V D ^ ~ V t .. .` { 8.z.qX7X6.0 - 4 8 8 5 r @.:.2.<.X.} ..{ 0 i m W <.p.0.J b l l b J J J ~ ( A.A.A.^ ( H.T.R.!.`.`.!.W.",
"oXOX+X|.K.S.K.T.W.W.W.W.W.W.T.T.Y.Y.I.K.H.H.K.T.T.K.A.~ H j - - j H ^ A.A.H.K.K.K.T.W.F.A t @.@.r 0 7 ' *.*.| 7 3 % < < % - 1 i c y 8 8 y k q 0 } { 4 - 0 t } ....-.2.,.a 9 w y V s w q k n M m N l l b J ~ ~ P b b l l l b J ! J J J ! ~ ! J ~ ( A.K.Y.T.K.H.S.",
"+X+XoX|.W.T.R.T.I.K.K.K.L.Y.L.K.K.K.H.H.K.K.K.K.H.A.A.~ H j - & : c ~ A.A.A.A.H.K.T.R.I.f.8...{ 4 5 ..1.2.>X1Xv.0 X # & # # & - w r 8 7 0 0 { |  .' + # w u } | | } 5.C q & o # q v J J J J J J J J J J J J J H b f - : N J J J J J J J J J J J J ~ ( A.A.A.A.( ",
": : q q : & & q B ~ ( ( A.D.K.S.^ ~ C.A.H.D.( J b b H J b q & : J ( ( ^ ~ J J ~ ^ ( A.A.( F { 6 3 0 %.2.>X1XeXm.a & 9 9 # o $ & 6 8 e t }  .*.*. .{ 4 3 7 8 0 : & & & & & & : : : i m m b l l l l b H H b j - & & & & O % : B J J J J J J B i q j b v n J J J J ",
"& & & & & & & & & & - - : : : : : : - - - - - - - - - & & & O O & & & - & & & - - - & - - 0 ] ' ` ` | =.2.2...] r 0 - @ @ # # + 6 ` | ;.n.1X4.1.*. .| | | ] 4 O O % & & & & & & & % # o o # % & & - & & & & & & & & & & & & & - - - - - - - & & & & & - - & & & ",
"J J b j : - : q k D ( H.K.I.T.R.R.I.H.C.~ ~ C.A.( ^ ~ B c : & & & - j l b b J J ! J n n J N q 9 w t ..*.1.,.O.t [ ] 4 4 [ ..d u } *.n.4X4X4X4X<X2.=.*.} 4 @ O O % - j b J J J J J J b j : - j H C.A.^ J J J J ~ ^ ( A.A.( ^ ~ ~ ^ ^ ~ ~ ^ ( ( ( ( ( ( ( A.~ q O ",
"A.H.K.K.K.K.K.I.T.!.'.'.!.R.T.K.H.A.A.C.~ ~ ( A.A.A.A.( ! ~ C.( L v v D A.K.K.K.K.K.K.D.L v w C c.N.,.*. .' ` ` ` ` ' ] 4 4 [ | ` ..4.4X4X<X1.1.1.a.B.i.w O O - j b J ~ ( A.K.K.K.K.K.K.D.H.T.!.'.'.!.W.W.R.I.K.S.A.A.H.K.K.H.A.C.A.A.S.K.K.K.K.H.A.A.A.A.^ i O ",
"K.I.R.R.T.K.K.T.W.!.}.`.T.H.A.^ L D P J J ~ ( ( ( ( ~ J J J ! J J J J ~ ( A.A.H.K.K.H.^ i - 0 6.3X5X2.@.O.t ] ` ` ` ` 7 3 - w r 8 ' *.=.=.:.4.<X6X8Xz.F q O O : B ~ ( C.A.F.T.W.W.W.W.W.W.!.}.}.}.}.}.'.!.T.H.A.A.( ( Z.A.A.Z.( ~ ~ ( A.A.H.K.Y.K.T.R.R.K.^ q O ",
"( A.K.I.K.T.R.W.W.W.T.F.h.F V v k k k v Z Z Z D P J J P D P P ! ! ~ ( ( ( ( ( A.A.( n : & 4 ..:.4.>X2.1.2.2.:.*...' ` ` ` 8 r t } |  . . .} 9.z.7X8X^.i.C 9 & : B ! ! ~ A.H.T.W.W.W.W.!.`.}.}.}.!.!.!.W.T.T.I.K.A.( ( ( ( ( ~ ! ! ~ ( A.K.T.W.W.W.!.}.`.H.J : O ",
"( A.H.K.K.K.K.K.Y.D.I D v k q 9 : : : 9 q 9 9 q v D D L ( A.A.( ( ( ( Z.Z.( ( Z.( J : 3 6 '  .*.=.:.1.1.1.2.:.@.t y y y y t 8 8 u u ] ] u d { 7 5 9 q 9 & : q c m Y Y R ! ~ ( Z.A.A.A.H.K.T.W.!.W.W.T.T.W.W.W.T.H.A.A.Z.( ( ( ( ( A.H.K.K.T.W.!.W.!.}.W.( v : O ",
": c ~ A.A.C.C.A.A.A.A.( D k q : : : : : : : : q v D P ~ ( A.K.H.A.A.A.A.A.A.A.( D v V 7.i.~.~.N.3.1.:.*.X... .| ` 7 r #.b.b.#.0 - 9 V F P J P D v w - & & - 1 2 2 2 Y T N b b G J ~ ( A.A.F.T.W.W.!.'.}.}.}.!.W.T.K.H.A.A.A.A.S.A.H.K.T.R.W.W.W.W.W.!.T.A.J : O ",
": c ~ Z.( ( ( ( I I ( ^ D k f * : : q q : q w k k v Z L ^ A.A.F.T.R.T.K.A.( ~ P J J J A o.X.-.:.4.4.2.<.z.g.7.s 9 5 ..:.4.a.w.V : : B ~ ! P D D P Q T m b c h 2 Y T Q J b H ~ ( ~ ( A.A.A.A.K.T.W.!.}.|.|.}.!.W.T.K.K.K.K.K.K.T.W.W.T.Y.T.T.W.W.T.T.W.K.L q & O ",
"O : B ~ ~ ~ ( ^ D v q q q q : q j b n n f : k k Z L ( A.A.A.A.A.H.H.S.A.^ P F F A Z Z D P P P P P P C S y.z.a.<.5.5.<.4.1.=. .{ 4 : B J J / l.U.F.A.~ J J ~ ( ( ~ ~ ( ( ~ ~ ( S.T.W.!.R.F.H.K.K.I.W.|.oXoX.X'.W.T.K.Y.T.W.W.W.!.}.}.!.!.`.}.}.`.R.K.H.( D q & O ",
"O 9 A I P P P n q q q : : q j H ~ ( ~ P D n v v Z L ^ C.A.A.A.A.A.A.A.C.~ J D Z v v v v Z D P J K Q T m i q q q w u >.4.1X<X1.@.u w k n ^ A.A.I.(.(.F.( ( A.I.W.W.W.W.R.T.K.S.H.K.R.`.}.!.R.T.T.R.W.!.`.}.}.!.R.T.T.`.}.}.'.!.!.'.'.!.R.T.T.R.R.T.H.( J i : & O ",
"O i ( K.H.A.~ P I A v k : j J ( ( ( I I P J J ~ C.A.A.A.A.C.~ J J J J J n k l b J P I A V n J ~ ! J ! ~ ( ( ~ J b k V w.3XeXeX7Xz.A 9 : J Z.Z.K.{.{.K.( ( A.K.W.|.oX|.`.!.T.K.H.K.K.T.R.`.`.R.K.K.R.`.}.}.`.R.T.W.W.W.!.!.W.T.K.H.A.A.( C.( ~ ~ ( A.A.^ c : & O ",
": n A.T.Y.K.A.( ( ( ~ J V V P J J J J P D L ^ ( ~ ~ ( ( ~ J n k q q : q : q k b J ~ ( C.A.A.A.A.~ ( H.K.H.H.A.^ H l V #.,.1.1.4.<Xv.a q B ~ ^ F.{.{.Q.W.W.R.K.I.W.!.R.T.W.!.}.`.R.K.K.T.W.W.T.T.W.!.!.!.!.!.W.W.W.W.!.!.!.R.K.A.A.^ L D P ! J P D L A.A.~ N : O ",
"J ( I.R.T.K.K.H.( J n k q q k k k k k v Z D P P I I P P D Z v k q : & & : q k n J ^ A.H.K.K.I.H.A.C.D.I.(.U.F.( V w V 6.a.4.1.*.| 8 3 & : q w V 0.c.iXiXhXkXlXcXbXxX@XXX|.|.oX|.R.K.K.K.Y.K.K.R.`.}.}.|.oXoX|.'.!.!..X.X'.R.K.D.I A V n J J J J v v J ~ ~ B : O ",
"A.H.K.K.H.A.A.A.u.F V k q : : : 9 9 : q k k k k l b n Z v k k k q : & : q n ~ ( ( C.A.H.H.F.J.l.t.z.aXuX1X3...8 r w V 9.7X1X:...| ] 4 & : q w y y u } @.:.s.4XyXkXlXgXdXXX|.oX.X'.R.T.Y.T.T.!.!.!.!.!.'..XoX|.'.!.!..XoXoX.X'.T.S.( I A D D D v q q v P P B : O ",
"( A.H.F.u.A D D P J n k q : & & : : : 9 q q : q k k k v Z n b j q : : q Z I ( ( ( C.A.F.J.x.&.X.:.4.4.:.X. .*.@.#.C A y.c.B.7Xm.r.S w : : q w 6.m.m.6.y y y w w C 7.0.j.T.!.}.}.!.W.W.!.|.%XNXNX&XXX'.!.!.!.W.W.T.T.T.W.}.|.}.'.!.W.W.T.F.C.~ P I I P ^ A.^ q O ",
"q c J P D v q q k k k k Z v q : : 9 q 9 : : q q q q 9 c B J n k k k k n J ^ C.C.^ ~ f.0.V r 8 ] r t } } d #.@.=.=.%.9.A V V F y.c.c.7.s y u %.;.O.y w y y y y y C S 0.f.F.R.`.}.}.'.!.!..X%XNXBXVXBX;XoX'.W.T.!.oX%X*X&X@X(.W.R.W.!.!.W.T.H.A.( ( ( ( A.K.) i O ",
"k n ~ ^ n k q : & & : q k k k k k v v k q q k k l l k v Z D Z D J J D D A I P ~ ( ( ~ D z y y C S #.{ ] t r ] | :.<.w.7.S A P P F 9.%.*. .;.wXqXq.w w #.<.<X4XwXtXyXhXfXiX/.U.K.L.R.`.}.}..X#XvXNXNXxXzXxXxX%X+XOX#XxXbXNXNXmX#X}.!.'.`.R.K.K.H.( ~ ( A.K.) i O ",
": i B U P J n k l b n Z v n J P J J J J D Z Z D D D D D P U U P ~ ~ ( ( ( ^ L Z D Z v y 8 '  . ...@.2.<X2X3...` ' ..:.s.4Xm.5.w V #.@.X.t y u u ] %.3XtXwXwXwXm.6.t ] { u V V I F.Y.Y.R.`..X+X%X;XvXbXbXvX*X#XoXoX+X+X#X*X;X%XoX'.R.T.K.H.A.A.D.u.I P ( H.) i O ",
": q v D P J J J J ~ ( C.A.A.A.A.A.( ~ J J ~ ( A.A.A.C.A.A.H.K.H.A.C.A.H.H.A.L Z y r 8 ..3.1X4Xm.9.V y u }  .*.3.4X7Xd.S S C y w w t } } x q.m.eXuXrXz.0.0.7.C s C C C C C S 0.f.D.D.A.K.`.|.}.}.|..XoX+X#X#X+XoXoX+X*X*X%XOX'.T.F.H.K.F.u.A D D P J J ( H.) i O ",
": c B U ~ ~ J P D L A.H.K.K.H.H.D.A.A.C.A.H.K.K.I.K.K.K.K.I.I.K.H.H.K.K.K.K.H.f.O.` ` ] u C V V V V 7.7.C V y y y y y u } } t w w r ] ] d w.3X3Xd.7.S C S 7.g.x.U./.rXuXyXm.6.V 0.h.D.H.T.W.W.'..XoX|..X+X+X.X}.|.|.|.'.R.T.T.K.A.( ~ P D v q q v D P ~ ( P : O ",
"J P ( Z.( ( ~ ~ ( C.A.H.K.T.W.W.W.T.H.A.A.F.T.W.W.W.W.W.W.W.W.W.T.K.K.T.R.W.W.F.A r 8 8 y A A w.m.9XeXuXhXaX^.c.g.g.g.g.y.0.A v 9 r ;.<XuXfXV.g.g.x.c.N.m.wXyXhXyXwX<X<.#.C 0.f.D.A.A.A.A.H.T.!.}.|.}.|.|.|.}.}.}.}.!.W.W.T.F.A.~ ~ ( ^ L v q q k n J ~ J B : O ",
"v P D.H.( J b H ~ A.A.H.T.W.W.W.!.W.T.K.K.Y.T.T.T.T.W.W.W.W.W.W.W.R.T.K.K.T.T.H.^ B y e 8 8 r e.aXhX4X2.*...| ;.3XyXyXaXiX^.y.#.>.6XnXnX6X4.wXyXhXyX4X<X,Xa.w.F C y y y C A P ~ ( ( ( C.A.H.T.!.}.}.}.}.}.}.!.W.T.T.I.K.H.A.C.( ~ J D D A A v b J ~ ( ~ c : & O ",
"( C.A.A.^ J J ~ ( A.K.T.W.!.W.W.W.W.T.T.R.W.W.W.W.W.T.T.W.W.T.K.T.T.K.K.K.K.H.( D y 8 8 r w.qXsXeXm.6.r 8 ` ` ] t y y C 0.0.V z.nXnXeX%.r 4 8 { u y w w y y y V F g.x.J.~.i.C v J J J ~ ( A.K.T.W.!.}.}.!.W.T.K.K.I.I.H.^ J n v b b n L ^ ( ~ ~ ~ ^ ~ J v q & O ",
"( A.A.A.A.( ( A.A.H.K.R.`.}.!.!.!.!.W.W.T.T.R.!.'.`.R.T.T.T.Y.T.W.T.H.H.H.A.P z 8 8 r 6.m.tXuXrXN.g.F A V V y y y y y y V v 9 d 7XjXlXhX<.' t y C C y y C q.c.^.rXyXyX7Xw.V y w k n J ~ ( A.A.H.K.L.Y.K.H.H.K.K.K.F.u.L b b n D P J J ~ ( ( ~ J c q q q q : & O ",
"( A.A.A.A.A.A.H.K.Y.K.T.W.!.}.}.}.}.!.W.T.K.K.K.I.R.`.}.}.`.!.W.W.W.T.K.H.( A y w y 7.N.fXkXyXwXwXwXyXyXtXtXyXyXtXeXwXeXhXkXkXqXW a ,.5XhXuX<X:.2.2.<X4XyXhXsX4X;.{ t y V V y w w w V L C.S.S.S.A.H.K.K.H.S.A.( ~ ^ A.C.~ J J P J J ! K J ~ ( ( ~ B i : & O O O ",
"( A.K.K.A.C.A.F.T.R.T.T.W.!.}.}.}.}.!.T.F.H.K.K.H.S.H.H.K.T.W.W.T.T.T.K.H.A.A.( V r 8 ` ' { t O.%.%.O.y C 6.,.,.6.C y t { ' ' %.qXhXuXuXjXeX;.' | ........} u y y y y y y y w w w w l H ~ A.K.H.A.A.H.T.`.`.!.I.h.t.u.I D D D D P ~ ( ^ P P ^ ( ( ~ H j - O O O ",
"I u.D.H.A.A.A.A.A.H.T.W.W.W.W.W.!.R.F.A.A.A.H.H.A.A.A.A.A.H.K.T.W.W.W.W.T.H.( D z y y y V V w w y y q 0 7 ` ` 8 0 : & 3 6 ` ` ` ..3.yXeX;.` ` 8 r y y y y y w w w y C 7.i.i.C w 9 i B J K ~ ~ ~ ( A.S.H.K.T.T.K.A.( ( ^ D Z Z D J ~ ^ ~ P J J J J J J N : O O O ",
"A.( D k q q q q j b J ~ C.A.A.H.K.H.A.( ( A.H.K.H.A.A.A.~ ( l.U.W.R.T.K.K.D.F y 8 %.0XhXhXaX^.~.~.c.g.0.C t { ] 0 q q 0 8 ` ` %.rXjX6X<.r 9 w y y y y y y y y y C d.qX0X%.8 r w q : j b J ~ ~ ( S.T.!.`.`.`.W.I.( J b k q : & & : : - & & - j j q : & & & O O O ",
"b l f * & O O & & & * * * * : q b j : & : c B J J J J J J ~ S.F.D.A.A.C.~ B v y y 0 9 5 8 | X.:.n.4XwXwXwXwXeXeXwX4X<X,.' 7 7 >.kXkX,.` ] %.rXhXeX4X4X1X2X2X4XeXyXwX,.| ` 8 0 : g g 1 2 c j : % ; ; - : v v v k : & & & & & & O & & O O O O & & O O O O O O O O ",
"- - & & & & & & & & & & - - - - - & & & & - - - - - - - - : : : : : : - & : w r ] 8 4 - - 9 9 9 9 9 9 9 - 5 8 '  .X. .{ 4 3 6 8 0 d <.5XkXfX>.` ` 8 5 - - - - 9 y O...X.=...0 & & # o o o = % & O % & & & & - - & & & & & & & & & & & & & & & & & & & & & & & & ",
"A.C.~ J J J J ~ S.K.K.K.T.W.W.I.D.A.A.A.H.H.A.A.( A.I.W.W.T.K.K.F.D.f.F s y V w.m.1X1X7X^./.~.c.g.0.C t ] ` ` 8 t y y y y r ] ;.fXlXkXrXd.C d u u y y y y y V w.7XeXtX5X4.;.u w w k B J J H b f & : J A.D.K.K.D.A.( A.A.A.A.A.A.A.A.( A.H.K.K.H.A.( ( ( A.H.I.W.",
"~ ~ ~ ~ ~ ~ ( A.K.K.I.R.`.}.!.T.S.( ~ ~ A.H.H.A.C.S.T.!.!.T.F.) F V y y V w.3XwX5X<X;.} d 6.,.p.e.N.aXfXiX~.i.q.g.c.~.^.^.pX8X1X,X>.r #.qXkXlXlXkXhXhXuXyXtXwXn.X.{ #.C y y y y y y Z D P B : O O : ! ( ~ ( A.A.A.( A.A.K.K.T.K.A.A.A.F.T.T.F.H.K.K.H.A.A.A.K.T.",
"( C.A.A.A.H.K.K.K.T.W.!.}.`.R.K.K.H.( ~ ( A.A.Z.( S.T.!.!.I.I V y w y #.b.5XtXtX5Xm.6.s y w y t } } u y y 9.7XyXyXyXyXeX2X2XeXtX1X2.X.[ ' ' | | ' ` ` ' ' { t y V 6.p.p.q.q.p.<.O.w V D P B i & O : ! A.Z.A.A.A.A.H.K.K.K.T.W.T.F.A.S.S.H.H.K.K.K.K.H.A.H.H.K.Y.",
"! ~ ( A.K.K.K.T.W.W.W.!.}.`.R.K.H.A.A.A.A.( ( A.K.T.W.W.W.R.J.f.V u >.4.1X6XeX7Xd.S s w w w w w k v V V A y.N.N.y.d.0XrX^.^.rXeX<X,.#.V V s y w p 1 : : k v V V V C 7.8.C y C C y y w V J N < X # : J A.A.A.A.H.K.T.W.W.W.W.T.T.R.T.H.H.K.T.W.W.T.Y.K.T.R.R.T.K.",
"Z.Z.A.A.A.H.K.T.W.!.!.W.T.K.H.H.H.H.S.A.A.A.A.H.K.K.I.T.W.T.l.0.C 9.m.6XeXeX5Xm.9.V m m c l l c 2 m J J b b b N m R f.N.0X6X1X4.;.+.6.S M 2 2 2 2 1 : f l N T T n 7.p.s.<X<X>Xa.w.F C V i 1 ; * & : J A.A.S.S.H.K.T.W.W.W.W.W.R.T.K.H.H.K.T.R.!.'.!.K.K.R.W.T.K.",
"K.T.R.T.F.H.K.T.W.!.!.W.W.W.T.T.R.R.T.K.K.Y.K.K.H.H.K.T.W.I.f.7.0.x.^.pXaXqXN.f.P J m 2 2 h c b m T Q K J J J J D t.c.^.aXuXuXuXyXeX5Xm.9.V y w k v V V A F P J J P F d.7XwX5X7XN.i.C p m m b f - : J A.K.K.K.T.R.W.W.W.W.W.T.K.Y.K.K.K.K.T.T.T.T.R.`.}.!.W.W.W.",
"W.W.W.R.T.T.W.W.W.W.W.W.W.W.T.K.Y.Y.K.T.W.W.T.K.K.T.R.W.W.I.F 7.c.^.8XwXeX7Xg.K K Q T Y Y Y Y R Q ~ ( ( ~ ! ! P V w.7XrX^.^.0XeXeXwX5X4X4Xm.e.S z y V D P ~ ~ ~ ( ( ~ ~ f.N.qXtXwXb.#.v B J K N = = N ^ A.H.K.K.K.T.W.W.T.K.H.H.K.K.K.T.R.W.W.W.W.!.}.`.R.K.H.A.",
"W.W.T.T.T.T.W.!.!.!.W.W.T.T.Y.I.K.K.K.T.W.W.W.R.T.K.K.T.T.D.F 7.N.N.y.y.N.J.( ~ ( ( ~ J b b J ~ ( C.Z.Z.Z.( ~ B V V y.N.7X3Xz.g.q.c.^.pX8X4X5Xm.9.y y V P C.A.A.H.A.A.( ~ h.~.pXyX0Xw.V Z D P N = = N ~ ( A.A.S.A.H.H.H.A.A.A.A.A.A.A.A.A.F.T.W.W.W.T.T.T.K.S.A.",
"W.W.W.W.W.W.W.!.}.}.!.W.W.W.W.W.T.K.K.T.W.W.T.K.K.K.H.H.K.D.F 9.a.<.a v f.l.( ~ ^ ( ~ J J ~ ( A.K.K.H.A.A.) F C F 0.y.N.8XeX5X4XwXtXuXqXz.w.<.2.X.} u w w A D.T.R.W.W.T.K.K.F.V.rX0Xd.C y w w w & : B ~ ( ( Z.( C.A.A.A.A.A.A.C.H b J ~ ( A.A.H.H.H.K.R.`.}.}.}.",
"K.T.W.W.W.W.W.W.!.!.W.W.W.W.W.W.T.T.W.W.T.T.K.K.T.K.H.H.K.I.J.N.7Xb.a c P ( ~ J b b b b J ( H.K.K.K.A.~ V V S 0.0.z.7XtXuXuXyXuXjXjXjXsXwXm.e.d.7X8XN.y.V V ( H.K.K.H.H.H.H.K.U.qX5X,X>.O.w 0 - o < J Z.C.( ~ ^ A.A.H.H.A.A.A.^ L D D D P ~ A.F.T.R.T.K.T.T.T.T.",
"K.T.W.W.W.W.W.W.!.W.T.T.W.W.W.W.W.W.!.!.!.R.H.F.T.R.T.K.S.F.J.B.7Xb.a c H J H G J J K J J ( H.K.K.K.H.( V #.b.4X9XeXsXjXuX0Xz.r.m.wXtXuXuXuXuXsXjXjXuX7X9.V P ^ A.A.A.H.K.K.H.F.U./.7X4X4Xb.d % o < N ~ ( ( f.h.D.H.K.I.Y.K.H.A.C.( ~ J J ~ ( A.K.Y.K.K.K.K.K.K.",
"W.W.T.T.W.W.W.W.W.W.W.W.W.W.T.T.W.!.}.}.!.R.T.K.K.K.H.A.^ P A C C V v n ( A.Z.( ( A.H.D.f.I ( A.A.A.^ J k #.m.3Xd.q.0.e.a.>X4.<.e.d.m.1X<X<X5XuXjXjXeXn.#.w V D P ~ ( Z.A.A.A.H.H.D.j.N.3Xb.d % o < 2 T ^ A.H.T.R.W.W.W.W.R.K.A.A.( ~ J n n ^ A.A.A.A.A.A.( ~ U ",
"T.T.W.W.T.T.T.T.K.T.W.W.T.Y.Y.T.W.!.!.W.T.K.Y.K.H.A.^ ~ A.D.t.C w q v D P ! ! ~ ( A.A.H.K.T.T.K.A.( ~ J k 6.3X6X1Xp.#.y y #.3.<X4Xm.w.C y O.,.<XtXtX1X<.O.w V A P ~ ( A.H.T.R.R.T.F.F.z.n.<.a - o = f b J ^ A.H.K.K.K.R.`.'.!.R.T.K.H.A.L D J ~ ( ( ~ P I I I I ",
"W.W.T.T.R.R.T.K.K.T.W.W.T.T.R.W.W.W.T.K.H.H.K.F.h.I P ~ / z.7Xm.#.k B J J J J ( S.K.K.R.oX+X|.'.!.T.H.( V #.m.tXjXuXwXm.9.w.m.eXeX6X1Xp.6.w.m.6XeX6X<X<.O.w V D J ! J ~ ( A.A.H.K.J.m.>X4.>.O.0 & - f b J ( H.K.K.K.K.K.H.H.K.T.R.!.`.!.S.( ~ U I t.I I D.D.D.D.",
"W.W.T.K.H.H.K.K.K.K.Y.I.I.T.W.W.W.T.F.A.A.( ~ U P P J ~ h.N.0X3X6.w l G J ! ! ! ~ ( A.H.K.R.`.}.}.!.K.( V #.b.6XuXjXjXjXuXyXuXuXuXuXuXtXeX9X5X4X1Xn.e.S z p m Y Y T J ~ ( ( ( A.A.J.m.1X4.>.O.0 - - j b J ~ ( C.( A.K.K.H.A.A.A.S.A.A.A.A.H.T.W.W.T.I.I.R.R.T.K.",
"W.W.W.W.T.K.H.H.K.T.Y.T.W.W.T.T.R.T.H.A.~ P D D J J J P A w.3X3X6.k B ~ ( ( ( A.H.K.K.T.W.!.!.W.T.K.H.( V u @.2.<XwXyXhXjXjXjXjXjXjXuXtX5X1X<X>X>Xa.6.V v c 2 2 c b b b J J J ^ S.U.B.m.r.S y w 9 q j l l b J P I h.F.K.H.A.A.A.A.A.A.A.A.A.K.T.W.W.T.T.W.W.K.H.",
"T.T.W.W.T.K.H.H.K.T.R.W.W.W.T.K.H.A.^ K J J J J b b n Z V 9.m.m.8.b J ~ ( ( ( A.K.T.R.!.}.}.!.T.S.) Z.^ L V y O.>.a.B.^.aXjXjXjXuXtX4X>X4.1.1.1.1.>.O.w i 2 < < 2 h b b l b J ~ ( x.7X3Xw.V V V y w j l l b J J P P ~ ~ ~ ~ ( A.H.T.R.W.W.!.`.`.!.W.W.'.oXoX'.W.",
"}.`.R.K.K.K.K.K.K.Y.Y.T.W.W.T.K.S.C.~ J J ~ ( ( ~ J D V w z 7.y.g.t.D P ^ Z.( A.K.K.K.R.`.}.}.!.l.f.( Z.( ~ V y y u @.1.<XwXyXuXuXuXuXeX5X<X4.;.O.y w w : ; 1 2 c b m m b b J ^ l.N.0X3X6.w w y V V b j q q j b v n J K ! K K ~ ( A.A.H.K.K.T.T.T.T.W.!.}.}.}.}.",
"|.`.K.A.A.H.K.K.Y.Y.K.K.T.K.H.A.^ P D L ^ ( Z.( ~ P D v q : q p C A V n ~ Z.( A.A.H.K.T.W.!.!.T.S.( ( Z.Z./ I A z w y y C 7.y.r.p.4.4.2.X.} t y w w q : 1 2 2 2 b b J ~ ^ ( ( A.F.U.~.c.V 9 w y V V A Z q : * f H J K ~ ( ( ~ ! ! ^ A.S.S.H.K.K.T.T.K.T.W.W.W.W.",
"}.`.R.K.H.A.A.H.K.K.Y.K.K.K.H.A.^ P D L ^ Z.Z.A.K.A.n : & - : q q q : i J ~ K ~ A.H.K.R.`.'.!.T.S.Z.A.A.A.A.A.C.~ J n k w y y y y y y y y w 0 : < < < < ; f l b J J K ~ ( A.K.Y.I.K.l.F p 9 w y V 0.c.c.A k l b J ~ ( A.H.K.H.A.C.A.A.H.K.K.K.T.W.W.T.K.K.K.H.A.",
"L.K.K.K.A.( Z.A.A.K.T.T.F.H.K.K.A.( ~ ~ A.H.K.K.K.H.A.( ( ^ ~ J J B i i B K J ~ ( A.A.A.A.A.K.K.A.( ( Z.Z.Z.Z.( ~ P J J J P D Z v v i 1 : : * ; ; ; ; : 1 1 c b J ~ C.A.A.H.K.Y.I.K.H.( V w y y w V 0.I n c m m b b J ~ ( Z.Z.( ( ( ( ( ( ( ( A.I.T.I.H.D.C.~ J ",
"Z.( ( ( ~ ~ C.H.K.K.K.K.S.A.C.( ( ( ~ ~ C.A.A.A.A.A.C.C.A.C.~ J J J J J J J J J J ~ C.A.( A.H.H.A.A.( ( ( ( ( ( C.C.( ~ ! J J J J B m 2 1 : & & 1 1 : : * f f b J J J ~ ( A.A.H.K.K.A.^ D x } { 0 : & & % % ; ; * f j b J J ! ! ! J b j q : & & & & & : : : f g ",
"J B : & : c B ~ A.A.~ H c q k v Z v q : q q v L ^ ( ~ B c : & - j b H H b f * % & & & & & & & & & & & : j j : & & & & & & - * f j N m Y Y h : * & # & & & % * f l j q i B J J J ! J n q : 4 { { 4 # o X X X o o $ * & - j b H H b j - % & & O O O & : : & O O & ",
"q q q q q q q q q q q q q q q q q q q q q q q q q q q q q : : : : : - - - - - - & & & & & & & & & & & & & & & & & & & & & & - - - - - & & & & & & & & & & & & & - - & & - - - - - - : - & & & & & # o o o o o o % & & & & - - - - - - & & & & & & & - - & & & & ",
"A.H.T.I.A.( ( ( ( C.A.A.C.C.A.A.A.A.A.A.A.A.H.K.K.H.A.C.~ B : & : c P A.H.I.T.T.H.A.H.K.K.H.A.A.( ~ J J J J J ~ C.A.A.A.A.A.H.I.T.I.A.( ( A.H.H.A.( ( ( ( ( ( A.H.F.D.A.( ( ( A.H.I.T.T.H.C.~ J v k l b b b b b b H ~ ( ( ( ( A.H.K.K.H.A.A.H.K.K.K.T.T.K.K.K.K.",
"H.H.K.K.H.H.K.K.K.K.K.K.K.T.W.W.T.K.H.A.A.A.A.A.A.A.A.A.^ B : & : c ~ A.K.K.Y.K.K.K.K.K.H.A.A.( ~ J K K ! J J ~ ( A.K.T.R.W.W.W.W.T.H.A.A.H.K.K.L.K.H.H.T.!.`.`.!.W.T.K.K.K.K.K.K.K.K.K.K.K.H.A.C.( ( ( ( C.A.A.A.H.T.R.T.K.H.A.S.H.H.S.A.A.A.A.A.A.A.A.A.H.H.H.",
"W.W.W.W.W.R.T.I.T.K.H.H.K.T.W.W.T.K.H.A.A.( ~ ~ ~ ^ A.A.~ B : & - c ^ A.A.A.A.A.A.H.K.K.H.A.^ J J ~ ( ( ~ J n D ( A.H.H.H.H.K.I.Y.K.D.A.A.A.A.A.L.K.H.H.T.!.}.}.}.`.R.K.K.K.H.H.H.A.^ ~ ( A.A.S.K.K.H.H.A.A.C.S.T.W.W.!.}.`.K.A.A.S.H.A.A.C.A.A.C.A.A.A.A.H.K.K.",
"W.W.W.W.W.W.W.W.W.W.W.!.'.'.!.T.H.A.A.( ( ( ( ( ~ ~ ( ( ~ B i : : c ~ ( ~ J K ~ ( A.A.H.K.H.( J n n ^ ^ n n ~ C.A.A.A.A.A.H.K.K.A.^ n n ^ ( ~ ( T.T.S.A.K.T.W.!.!.W.T.K.K.K.K.K.A.A.A.H.T.!.'.|.oXoX|.`.R.K.H.K.!.}.|.|.|.`.K.A.A.H.K.K.H.A.A.A.A.A.D.H.H.H.H.H.",
"!.!.}.}.!.!.}.}.!.W.!.!.!.R.K.H.S.A.C.( ~ ! ! ~ ( ( ( ( ~ J b j : i B ~ K J J ~ ( A.H.H.A.( ~ J J J J J J ~ ( A.A.A.A.A.A.A.^ P J J D n b b l J I.R.F.H.K.T.W.!.!.T.C.~ A.H.H.H.K.K.K.R.`.}.}.|.+X%X*X%X|.R.T.Y.R.|.#X;X;X#X!.K.K.K.K.K.H.A.A.H.K.K.K.K.K.K.K.K.",
"}.}.}.}.!.!.}.}.}.}.}.'.!.W.W.T.H.A.~ ~ ( ( ~ J K ! ! ~ ( ~ b j : i B J J J J ~ ( ( ~ ~ ! ! K J n v b b J ~ ( A.A.A.A.A.~ P D v q & : q j b H ^ H.K.H.H.K.R.`.}.|.!.H.A.H.K.H.H.K.T.R.W.W.!.!.!.!.}.+X#X+X|.T.H.K.R.}.OX*X*XoX}.!.W.T.Y.K.Y.K.K.K.K.H.H.K.K.K.K.",
"}.}.}.}.}.}.}.}.!.W.T.T.T.K.H.A.C.( ~ J D D L I P ! ! ~ ~ B : & : i B J G b J ! ! ! J J J J J J b b ~ ( ( ( C.C.C.C.( ^ n n J J n q : & & : j J C.H.H.H.R.W.T.R.|..X!.T.S.Z.( ( ( A.A.H.K.T.W.W.W.'.OX#X+XoX|.`.!.!..X#X*X*X#X.X'.W.T.T.W.W.T.Y.Y.K.A.A.A.H.K.T.",
"W.!.}.}.}.}.!.W.T.K.K.K.K.H.( J n v b b n L ) A.A.( ( ( ~ H f * : c ^ A.C.^ ~ J K ~ ( ~ H b b G J J J ~ A.A.A.A.C.( I I / ~ c c J J n k j b H A.!.`.R.R.`.}.!.T.K.H.K.K.H.A.( ~ J ~ A.K.T.W.W.W.W.!.}.}.!.!.!.!.'.|.oX#X*X*XoX|.oX.X`.W.T.K.K.T.T.K.H.A.A.K.`.|.",
"I.T.W.W.T.K.H.H.K.K.K.F.h.L b b n D J J J P ( ( ( ( ( ( ~ B : & : c ( A.A.( ( ( Z.Z.Z.( ( ( ( ( ( ( ~ ~ ( ( ( ( ~ ~ ( C.A.A.( A.H.H.( J n n J A.!.}.!.!..XoX|.!.K.H.T.!.}.`.R.H.( ( I.W.T.T.K.K.K.K.T.T.W.!.}.}.!.!.}..X#X#X.X}.}.}.}.`.R.K.K.R.`.}.!.T.S.K.|.+X",
"T.I.K.Y.T.K.H.H.H.A.^ ^ A.) L n l l k k k v Z D P ~ ( ( ~ N ; * - n A.K.A.A.A.H.K.K.A.( ( ( ( A.A.A.A.( ~ ! ! ! J ~ ( A.A.A.A.H.K.K.H.A.A.A.C.S.T.W.T.Y.T.K.H.H.K.T.W.W.W.!.}.`.T.I.R.W.!.T.S.A.A.H.K.T.W.!.}.}.}.'.!.'..XoX|.}.}.}.}.}.!.W.T.R.`.`.R.T.R.'.+X#X",
"W.T.F.H.T.!.|..X|.W.j.t.t.A Z k q : : : : q v Z D D P ~ ! B : & : c ( H.S.H.K.I.Y.K.A.( ( Z.Z.Z.Z.Z.Z.( ( ( ( ( ( ( ( C.A.A.A.H.K.K.H.A.A.A.H.T.R.T.H.A.A.H.K.K.K.K.K.T.W.W.T.T.I.K.K.R.`.`.R.K.K.T.W.W.W.W.W.!.!.!.}.}.!.!.}.'.!.W.W.W.W.W.W.T.K.K.T.!.}.|.oXoX",
"H.H.H.H.H.K.T.R.!.W.K.A.C.^ n k q : & & : q k n J J J K K B : O - n A.Y.K.T.W.W.T.K.H.A.A.A.S.S.A.A.A.A.A.Z.Z.~ c c J K J ~ A.A.A.A.A.A.A.A.K.K.A.( ~ ~ A.A.A.H.K.K.H.A.H.H.K.T.W.W.T.T.W.!.!.W.T.T.W.!.W.W.W.W.W.W.W.!.}.`.R.T.K.K.K.T.W.W.T.K.K.T.W.!.}.|.|.|.",
"}..X$X*X-X*X-X;X;X%XoX!.J.j.) ~ n w q : q q k n J ~ ~ J G j - & : n A.T.Y.T.W.W.T.Y.K.K.K.K.K.K.K.K.K.H.A.( ~ J n v J J n n J ^ A.A.A.A.A.A.A.A.I I F I ( ( ~ ~ ( A.A.H.K.T.R.W.W.R.T.T.W.!.!.W.T.T.W.W.W.W.W.W.!.W.!.!.}.}.!.T.H.A.A.S.K.R.W.R.K.F.T.!.}.|.oXoX",
"!.'..X+X#X%X$X#X#X#X+XoX|.!.J.f.A Z Z Z Z D I u.A.A.A.A.^ B i : : n A.T.T.K.K.T.W.R.K.A.A.A.A.H.S.A.A.( ~ J J J D v q c B J J ~ A.H.K.K.H.A.^ ~ ( ( ( ( ( A.A.H.K.K.H.A.A.A.H.H.A.H.K.T.R.W.W.W.W.R.T.T.T.R.`.}.}.}.}.|.oXoXoXoXoX.X|.}.}.|.oX.X!.W.W.!.'.|.oXoX",
"oX.X'.'..X+X+XoX|.|.|.|.oX'.J.u.( ( ~ P I u.( A.K.K.K.K.A.( ~ B q c A.T.Y.K.K.T.W.W.T.H.A.( Z.A.A.A.A.( ! J n n J J b b J ~ ( C.A.H.K.K.K.K.K.K.H.A.A.A.A.A.A.K.R.T.S.Z.( A.A.A.A.A.K.K.I.Y.T.T.I.K.I.R.`.}.}.}.}.}.}.|.oXoX|.}.}.}.}.}.}.}.}.}.!.W.W.W.W.!.}.}.",
"#X#XoXoX#X#X+XoX|.|.oX.X'.T.l.h.D.D.h.f.) A.A.H.K.K.Y.K.A.( ~ B q c ^ H.S.A.S.S.S.S.S.A.S.S.S.A.A.( ~ J b b J J J J D D J J ! ~ ( A.H.K.K.K.K.K.K.K.A.Z.( A.H.T.W.W.T.K.H.H.K.K.H.A.H.H.K.Y.T.Y.K.T.R.!.}.}.!.W.W.!.'.|.oX.X'.W.W.!.}.}.}.}.!.!.'.'.!.W.W.W.!.W.",
"+XoX|.|.|.oX+X+X.X}.}.}.!.T.F.H.K.K.K.K.K.K.H.H.A.H.K.K.H.A.~ B q c ^ A.A.A.A.A.A.A.A.H.K.K.K.K.H.A.A.( ~ J K ! J J J J J J J J J ~ ( S.T.W.W.R.T.K.H.A.A.( ( A.K.Y.T.K.K.K.K.K.H.H.K.K.K.K.T.K.H.H.K.T.W.!.W.W.W.W.W.`..X.X'.W.W.W.W.W.T.T.W.!.!.!.W.W.!.!.!.!.",
";X*X+XOX#X#X#X+X|.'.!.T.K.H.S.H.K.T.W.W.W.W.T.K.H.S.H.H.S.C.H j : n A.K.H.A.A.( ( A.A.H.K.Y.T.K.H.A.A.( ~ ~ ( ( ~ ~ ~ ~ ! P D D J ~ ( A.A.D.H.S.H.H.H.A.~ J J ^ A.F.T.W.T.Y.K.K.H.A.S.H.K.K.K.K.H.H.T.W.!.!.!.R.K.H.K.T.T.T.T.K.H.H.K.T.K.T.W.!.'.`.T.R.|.oX+X#X",
"|.|.oXoX|.|.oX.XW.K.H.H.K.K.K.T.W.!.'.}.!.W.T.K.K.K.H.A.A.~ : & - n F.R.K.A.A.A.A.A.A.H.K.Y.Y.K.H.H.K.K.H.A.C.Z.A.A.A.A.A.( ~ J J J J ~ ( ( ( A.A.A.A.( ~ ~ ( ( ( A.K.T.R.R.I.H.A.A.A.H.K.K.K.K.H.A.A.K.`.}.}.'.!.W.W.R.T.K.K.T.R.R.T.T.Y.T.T.T.T.T.K.T.W.!.!.!.",
"}.'.!.W.W.!.}.`.T.K.H.H.K.T.R.W.W.W.W.!.'.`.T.K.K.K.K.K.A.J : O - n A.T.I.K.H.A.A.H.K.K.H.H.H.H.K.K.H.A.A.( ~ ~ ( C.Z.( ( ( ~ ! ! ! J J J ~ ( ( ~ ~ ( ( ~ J ! ~ ( A.A.H.H.C.D n J ^ A.A.A.H.K.K.H.A.A.F.R.!.W.R.T.K.K.K.H.H.K.T.T.T.W.W.W.W.W.R.T.K.H.H.K.I.I.I.",
"T.K.H.D.H.H.H.A.A.A.A.H.T.R.T.K.K.K.H.A.H.S.A.A.A.A.A.J i & O & - n F.W.T.K.K.K.K.K.K.K.K.K.K.K.H.A.A.A.A.( ~ ~ ( ( ( ( ( ( ( ( ( ^ ~ J v v Z D J ~ C.C.~ ~ ( C.A.H.K.K.S.C.P U C.A.A.A.C.^ ~ ~ C.H.K.K.K.K.A.A.A.A.^ ~ A.H.T.W.W.W.W.W.T.K.K.K.H.A.^ ^ A.H.K.K.",
"A.A.( ( A.A.A.C.~ ^ S.K.H.A.C.( ~ J J J J B : & : : - & O O O & : c ^ A.C.( ( A.A.H.K.K.K.K.H.A.A.A.A.( ~ J J ~ ( ( ~ J J B c : & - : : & & & & : c B J J J J ~ ( ( ( J i % $ ; j n J H c : q c B J J J J ~ ( ( ~ J J P ~ A.H.K.K.K.K.K.H.A.A.A.A.A.I I A.D.H.K.",
"& & & & & & & : j b b b q q l j : & & % ; $ % O & & O O O O O & : q b c q c H ~ ( A.A.( ~ ~ ~ ~ ! ! ~ B : & : q v k : & % % % & : : & & O O O & : : & & : c J B : & & & : : & % $ ; f j - & : : ; ; % & & & & % * * : : * * b L ( A.A.^ n v v v q : & : k k : & "
};
