/* XPM */
static const char *wall58_1[] = {
/* columns rows colors chars-per-pixel */
"128 128 223 2 ",
"   c #0D0100",
".  c #0C0B09",
"X  c #180705",
"o  c #160E06",
"O  c #0F1507",
"+  c #161107",
"@  c #181007",
"#  c #121A05",
"$  c #141409",
"%  c #1B140A",
"&  c #131B09",
"*  c #1E190D",
"=  c #171511",
"-  c #1B1611",
";  c #1D1A15",
":  c #1E1E1A",
">  c #310000",
",  c #221202",
"<  c #22160A",
"1  c #2C140A",
"2  c #221B0D",
"3  c #281F0E",
"4  c #35160A",
"5  c #3C1A0D",
"6  c #221E10",
"7  c #281F10",
"8  c #201E1B",
"9  c #3E1C10",
"0  c #331918",
"q  c #14210A",
"w  c #1D220C",
"e  c #1D2118",
"r  c #23240E",
"t  c #29220F",
"y  c #24290F",
"u  c #252112",
"i  c #2C2511",
"p  c #262C12",
"a  c #2D2A14",
"s  c #24241E",
"d  c #2B2618",
"f  c #272B18",
"g  c #2A2D19",
"h  c #322512",
"j  c #3A2313",
"k  c #322C15",
"l  c #3A2D16",
"z  c #3E2718",
"x  c #322E18",
"c  c #3C2C19",
"v  c #293016",
"b  c #2E341D",
"n  c #2F381F",
"m  c #32341C",
"M  c #39321A",
"N  c #3C331B",
"B  c #30381F",
"V  c #252423",
"C  c #282622",
"Z  c #262823",
"A  c #2B2B25",
"S  c #2B2B29",
"D  c #372929",
"F  c #2E3421",
"G  c #2F3820",
"H  c #2F322A",
"J  c #313620",
"K  c #3F3420",
"L  c #343C23",
"P  c #393E25",
"I  c #32322D",
"U  c #363D29",
"Y  c #3A3F29",
"T  c #323330",
"R  c #393A35",
"E  c #3C3D37",
"W  c #450000",
"Q  c #4C0000",
"!  c #470C07",
"~  c #4C0E0A",
"^  c #540101",
"/  c #5B0101",
"(  c #510A06",
")  c #5C0B06",
"_  c #530A08",
"`  c #5B0909",
"'  c #47130D",
"]  c #4D120C",
"[  c #54120B",
"{  c #5B120C",
"}  c #471A10",
"|  c #551A13",
" . c #5D1C14",
".. c #640101",
"X. c #6B0101",
"o. c #660B07",
"O. c #640A0A",
"+. c #6B0C0C",
"@. c #730101",
"#. c #7B0101",
"$. c #720D0C",
"%. c #63120C",
"&. c #6B120E",
"*. c #641712",
"=. c #6C1211",
"-. c #641A13",
";. c #6A1C17",
":. c #731514",
">. c #7C1313",
",. c #452415",
"<. c #4B2315",
"1. c #432D1B",
"2. c #4D281A",
"3. c #572C18",
"4. c #42331D",
"5. c #4B341B",
"6. c #41381F",
"7. c #483C1F",
"8. c #52391E",
"9. c #66201A",
"0. c #6C241D",
"q. c #61341D",
"w. c #6B311B",
"e. c #522F22",
"r. c #453521",
"t. c #4A3621",
"y. c #443A22",
"u. c #4B3B25",
"i. c #4C3D29",
"p. c #593625",
"a. c #523C25",
"s. c #523F2A",
"d. c #613E2E",
"f. c #374027",
"g. c #3A4127",
"h. c #374028",
"j. c #3C442A",
"k. c #3F482C",
"l. c #3F4530",
"z. c #424127",
"x. c #42462C",
"c. c #4D422B",
"v. c #40482C",
"b. c #41492D",
"n. c #424A2E",
"m. c #444B2F",
"M. c #48492F",
"N. c #53422B",
"B. c #5A442B",
"V. c #5F4528",
"C. c #434B30",
"Z. c #444B30",
"A. c #474833",
"S. c #464D32",
"D. c #464E32",
"F. c #474F33",
"G. c #494E33",
"H. c #41433C",
"J. c #544432",
"K. c #534C35",
"L. c #5A4A34",
"P. c #5D4A35",
"I. c #475033",
"U. c #4A5135",
"Y. c #4D5237",
"T. c #4E5438",
"R. c #535136",
"E. c #51563A",
"W. c #52563A",
"Q. c #54593D",
"!. c #5A593D",
"~. c #604128",
"^. c #624734",
"/. c #695A3D",
"(. c #454740",
"). c #565D41",
"_. c #595E43",
"`. c #5B5E49",
"'. c #6A5A44",
"]. c #725F40",
"[. c #566043",
"{. c #5A6246",
"}. c #5E6549",
"|. c #646446",
" X c #62664A",
".X c #65694D",
"XX c #696A4E",
"oX c #776749",
"OX c #676C50",
"+X c #696D51",
"@X c #706D52",
"#X c #7D6D53",
"$X c #6D7155",
"%X c #747256",
"&X c #717559",
"*X c #79755B",
"=X c #75795D",
"-X c #7A7A5E",
";X c #777C60",
":X c #7A7D61",
">X c #830202",
",X c #8A0000",
"<X c #940000",
"1X c #9B0000",
"2X c #970A06",
"3X c #811009",
"4X c #801515",
"5X c #A30000",
"6X c #AB0201",
"7X c #B60000",
"8X c #87765A",
"9X c #937B5A",
"0X c #827E63",
"qX c #8C7D64",
"wX c #907D64",
"eX c #848166",
"rX c #8C8369",
"tX c #94846B",
"yX c #9B876E",
"uX c #9C8C73",
"iX c #A38C73",
"pX c #A29279",
"aX c #AB9A81",
/* pixels */
"o @ @ @ @ @ @ @ @ @ @ @ @ @ @ @ @ @ @ @ @ @ @ @ @ @ @ @ @ @ @ @ @ @ @ @ @ % % % % % % @ @ @ @ % @ @ @ @ @ @ @ @ % % @ @ @ @ @ @ @ @ % % @ @ @ @ @ @ @ @ @ @ @ @ @ @ % % @ @ @ @ @ @ @ @ @ @ @ @ @ @ @ @ @ @ @ @ @ @ @ @ @ @ @ @ @ @ @ @ @ @ @ @ @ @ @ @ @ @ o o ",
"o 6 P Z.j.j.j.j.b.C.C.C.C.b.b.b.C.b.j.j.j.j.j.j.j.g.L L j.j.b.D.Y.Y.D.D.Y.E.)._.).).E.T.T.T.E.Y.D.b.j.j.L L j.b.G.E.T.T.T.T.T.T.T.E.).Q.U.Z.Z.D.D.D.D.D.Z.Z.C.D.Y.E.).).E.Y.Y.T.Y.Y.Y.Y.D.b.b.m.m.b.b.b.b.x.j.j.b.x.j.L L L L L j.b.U.Y.D.b.j.j.j.j.b.j.x 2 @ o ",
"o 6 Y D.b.g.J B B J J J J J J J B J L j.j.j.j.L J J n L j.b.D.D.b.b.D.T.).[.[.[.Q.E.U.I.D.D.D.D.b.j.j.j.j.j.j.j.b.b.D.D.U.U.U.Y.E.E.U.I.D.D.D.U.T.E.E.Y.m.j.j.j.j.j.k.b.D.D.b.k.j.j.x.g.L B x k k k i i k x B B J L j.j.k.k.b.b.D.D.I.D.b.x.j.j.j.j.j.L J f * o ",
"o 6 L x.y.N k i k x B J J J J n v v n J L j.j.j.j.L J J L j.j.b.j.b.D.I.U.U.U.D.D.D.D.D.b.j.j.j.j.b.D.D.b.j.j.j.j.j.j.j.j.D.Q._.Q.T.U.D.b.b.D.D.D.C.j.j.h.P 6.N P L L j.j.L L L J v a t i i i i i t t t t i k x B J L j.Z.U.E.E.U.D.D.D.b.x.b.j.L J L j.L b * o ",
"o 6 L j.L B n n n J L j.j.k.j.g.J J j.j.j.j.C.D.D.D.D.D.b.j.j.j.j.j.j.b.b.j.j.j.j.b.b.j.j.L L j.j.b.D.D.D.C.j.j.j.j.j.j.j.b.D.D.b.b.D.C.j.f.f.j.j.L J J L j.P L J B B B B n n m x i 2 * * * * * 2 2 * 2 i x m J j.j.j.b.D.U.E.E.E.E.U.D.D.D.b.j.j.j.j.P x 2 * o ",
"o u x.Y.k.L J J L j.j.b.D.D.b.j.J J j.j.j.b.D.D.b.b.D.D.b.j.b.b.j.j.j.j.j.j.j.j.j.j.j.j.j.L J J j.x.x.b.D.D.D.C.j.L J J j.b.b.b.b.k.b.j.j.L J G G J L L L L f.h.L P N k p r 2 2 < < < * @ o o @ * * * 2 t a L j.j.b.D.U.U.D.b.D.E.E.U.U.D.D.D.D.b.j.j.P x 2 * o ",
"o u G.).D.j.j.b.D.D.b.m.T.T.m.g.J n n J L L j.j.j.m.Y.T.U.U.T.E.U.D.D.D.b.b.b.b.b.k.j.j.j.j.j.P N y.g.j.k.b.D.D.j.L J J g.b.Y.T.U.D.b.j.L n G G n J L L J J L L J v a t t t 2 * @ @ * * @ o o o @ @ * 2 i m L j.C.U.E._. X.X}.}..X.X}.).T.D.b.j.j.j.j.j.J f * o ",
"o u G.[.T.D.b.b.D.D.D.U.E.Y.k.L J v a a v n B L j.b.b.D.Y.E.E.E.Q.E.U.D.D.U.T.T.U.D.b.j.k.j.J J L L L L L j.Z.D.b.j.J J L j.C.U.T.Y.b.g.J n G J L L L L J n n v a t t t 2 * * * * * * * @ o o o o @ * 6 g L j.m.Y.Q._.[.[.}..X.X}.{.}.).T.D.D.C.j.L j.L J f * o ",
"o d U.{.Q.Y.m.b.D.U.T.E.U.b.L n n v p y a x B L j.j.j.b.D.U.E.Q._._.Q.E.E.E.U.I.I.D.b.b.b.j.L G n B B n n J j.b.D.C.j.L L L j.j.j.L J J G J L f.L L J B x i 2 2 < < < < < 2 r r 2 * @ @ * * @ o o @ * u J j.C.U.E.E.E.Q.[.}..X.X}.[.}.[.Q.E.U.D.D.D.b.j.L f * o ",
"o d E..X_.E.E.E.U.D.D.U.U.x.M k k k t i v J L g.j.b.D.U.T.E.U.D.D.D.D.D.D.D.D.U.E.E.U.D.D.C.j.L J n n n n J L j.j.k.j.j.L L j.j.j.j.j.L L L L L L L L L J g 2 * * 2 r p y y t t < * * * * < < < 2 u g L j.b.D.D.I.U.E._. XOX$XOX.X}.}.[.Q.E.U.D.I.Z.j.g.L b * o ",
"o d E. XQ.U.E.E.U.U.T.E.U.x.M a p y t a v n n J g.j.k.b.x.j.L J B B B J g.j.j.b.D.D.D.D.D.x.M k i i k i 2 u J j.j.b.b.j.j.j.j.j.j.L J J L L J J L j.P g.j.J u 2 * u v B x i 2 * @ * i i 2 2 i m P b.D.D.D.D.D.U.E.E.E._. X.X}. XOXOX X[.[._.Q.E.U.D.b.j.L f * o ",
"o u G.}.}.[.[.).T.U.E.E.U.b.L v i t y y y y p v J j.j.j.L B B B x k i i k x B L j.b.D.C.j.L J v a i k x B J j.b.D.D.D.D.D.D.b.b.j.j.J J L j.j.j.j.j.j.b.D.D.b.g.J n n n B g u < * u J J u 6 f L b.U.T.E.E.E.E.Q._.[.[._.Q.Q.[.{.{.{.[.[.Q.Q.Q.T.D.j.L J n f * o ",
"o u x.).[.[.Q.E.E.E.E.Y.k.L a t < < * * * 2 i x B J L L m x x i 2 * * 2 t a v J L j.j.j.j.L J J g.j.g.j.b.U.T.T.U.D.D.U.T.E.E.Y.m.j.g.L L j.C.C.j.j.C.U.T.E.E.D.L v i a v m x x L g.j.j.J n n L j.b.D.U.E.E.E.E.E.Q.Q.E.E.Q.[.[.Q.Q.[.[.[._.Q.E.E.Y.b.L u * @ o ",
"o 6 x.).[.[.Q.E.U.U.E.G.N i 2 2 2 < * * * 2 r p b J L L J v a 2 * @ * 2 t t t a L j.D.D.b.j.j.j.j.b.D.U.E.E.U.D.D.U.E.E.U.U.T.Y.m.j.g.L L j.j.m.Y.T.U.D.D.D.j.L a t 2 2 i x B J L P g.j.j.b.Z.D.D.U.E.E.E.E.U.U.E.E.E.E.E.Q.Q.Q.Q.E.U.U.U.U.E.E.U.D.D.j.b w % o ",
"o u x._. X.X}._.Q.E.E.D.P n n n n f 6 * * * r p b J L j.f.L m i 2 * * 2 t t t x x.U.E.E.U.D.b.b.D.U.E.Q.[.).T.C.j.k.Y.E.U.D.b.j.j.L J J L g.j.j.j.j.j.j.j.j.L v 6 * * 2 r p v J j.j.j.j.b.b.j.j.j.D.Q._.Q.E.E.E.E.E.E.E.E.Q._._.Q.E.U.D.D.D.I.I.D.D.b.j.J f * o ",
"o u G.[.).E.U.D.b.j.j.j.P L J J L B u * * * r p b L j.j.j.L J v a t t t t t t m D.Q.Q.Q.E.E.U.U.E.E.E.Q._.[.Q.G.P L b.U.U.m.y.6.4.N m b p f n J J b a h l N m g 6 * * 2 t t k m P b.D.D.D.b.L J j.b.D.U.E.E.Y.U.D.U.E.E.U.D.U.U.D.U.E.T.U.D.D.D.b.b.b.j.L f * o ",
"o u G.[.Q.U.k.L J B x k i i i h l l 3 < * * * u f L j.j.j.j.j.j.L n n v i i v P U.Q.[.[.[.[.Q.E.E.E.U.U.D.T.).E.y.N x.U.E.Y.k.L m x B n n B M N N l h h l 4.N l k t t t w & * u v L b.D.j.L J J j.j.j.k.Y.E.E.T.U.D.b.j.j.j.x.x.x.b.D.I.D.D.D.D.D.D.I.b.L f * o ",
"o u x.E.D.j.j.L J f 6 3 l l h i k k l l 2 * * u v J L j.D.I.I.D.b.j.L v i a P m.Y.Q.[.[.[._.Q.E.E.Q.).Q.D.b.D.x.M k L b.).Q.b.L J J L L J L j.x.x.j.L L j.b.D.b.j.J v y t t y p b J j.j.J b p v J L L j.C.U.D.I.U.b.L B M N N N g.b.D.D.D.U.T.T.U.U.E.Y.k.b * o ",
"o u x.T.k.U Y L J f 2 2 g B x i 2 2 g b p y y p b J j.m.Y.E.U.D.D.D.b.g.m m x.D.U.U.E.E.Y.U.U.D.D.D.b.b.j.b.D.x.M k l y.G.T.D.j.j.b.D.U.T.T.U.U.T.T.D.D.T.Y.m.j.j.L J n n b p p b B x a p y t a v n n J L j.j.b.D.b.L m x m L P P j.j.b.D.D.U.U.D.U.E.U.g.f * o ",
"o d G.).C.j.C.b.L v 6 2 i x B f 2 2 i k k x v n n L b.I.U.I.D.U.E.E.U.b.j.j.C.U.U.U.E.E.E.T.U.D.b.j.j.j.j.b.D.b.L B B L j.m.Y.E.E.E.E.E.E.E.E.E.U.U.U.U.U.U.D.U.E.G.L J L J v p b v a t y y w & * 2 i x B J L j.Z.m.6.c c N P j.j.b.D.D.b.m.Y.E.E.E.U.D.j.b * o ",
"o u x.E.U.U.T.T.U.x.M k k k x k i t 2 2 i x b n n L b.D.D.D.D.U.E.E.U.D.b.b.D.U.)._.Q.E.U.U.D.D.b.j.j.j.D.U.E.T.U.D.D.D.b.j.j.j.D.D.b.b.b.b.b.D.Q.[.[._.Q.T.U.U.E.D.L J L J v p b g 6 2 t t t t t t y p b J J J L L J L g.j.j.b.D.U.E.E.U.U.E.E.E.E.E.Y.k.b * o ",
"o u x.E.U.D.D.U.E.R.N.y.L B x x B v u 2 r y y v J j.j.b.D.D.D.U.E.E.U.D.b.j.j.j.D.U.E.E.E.T.U.U.T.E.E.Q.).).T.U.D.U.U.Z.j.j.j.j.j.D.Y.Q._.[.[.).Q.E.Q.E.U.U.D.D.b.j.J n J v a t t i i i i i t t y y t a v J L L L j.j.j.j.b.D.U.E.E.U.U.E.E.U.D.D.U.E.Y.Z.L 2 o ",
"o u x.Q.E.Y.m.b.D.U.Y.Y.D.x.6.N g.j.g.L m x k x B J J L j.b.D.U.E.E.U.U.U.b.L J j.D.T.E.U.U.T.E.E.E.U.U.U.T.)._.Q.E.E.E.E.T.G.D.D.U.T.E.E.E.E.E.E.E.E.E.E.E.U.Z.j.L J n n B x k k x B n n v a t t t t i k x n n n J j.j.j.j.Z.U.U.I.D.D.D.D.b.j.k.x.b.j.j.b * o ",
"o 6 Y U.U.D.b.b.b.j.j.j.j.z.N N g.x.i.c.M.b.j.P L L L j.C.D.b.D.Q.[.[.[.[.).D.b.D.U.T.E.E.T.U.D.D.U.T.Q._.[.[.[.Q.E.E.E.E.Y.m.j.j.j.j.b.D.U.U.I.D.U.E.E.E.E.U.D.b.j.J J L L L L J J L L f.L J B B v a i y r 2 u v L j.b.j.b.D.I.D.D.b.j.j.j.j.j.k.k.k.j.L f * o ",
"o 6 Y U.U.D.D.U.T.T.U.D.D.D.b.x.D.D.D.D.D.D.D.D.D.D.b.j.j.b.D.D.U.U.E.Q.[.{.[.[.Q.Y.m.b.b.b.b.b.D.U.E.E.E.Q.[.).T.D.U.D.b.b.k.j.j.L L j.C.D.D.D.D.D.D.D.D.D.D.D.b.j.J J L L f.j.j.j.j.j.j.j.j.j.j.j.g.L a a v J j.b.D.D.D.D.D.D.b.j.j.j.j.j.j.j.C.D.b.j.j.b * o ",
"o 6 P D.D.D.D.D.b.b.D.D.b.j.j.j.j.j.j.j.b.b.k.j.j.L L L L L j.b.D.D.b.D.Q.[.[.[.[.Q.D.k.C.D.D.D.D.D.D.D.b.m.Y.E.U.D.D.D.D.b.j.L J J L j.j.b.D.D.D.D.b.j.j.j.j.j.j.j.g.L J J g.j.j.j.Z.D.D.D.D.m.b.j.j.j.j.j.j.b.D.D.D.D.D.C.j.j.j.j.j.j.j.b.D.D.D.D.D.b.L f * o ",
"o * f J L g.j.j.P L J n n n n J L L J J g.j.P L L b 6 + O q n L L L L P j.b.D.C.j.L J n n n n J L P j.j.j.j.P L J v a i i 2 * * f J L P j.j.P L J n n n n n n n n v a i p r % % & w v n f p i a J L L P j.j.P L L P j.j.g.L L L J n n J L L j.j.j.j.P L J f * o ",
"@ @ @ @ @ @ @ @ @ @ @ @ @ @ @ @ % % @ @ @ @ @ @ @ @ @ o @ @ @ @ @ @ @ @ @ @ % % % @ @ @ @ @ @ @ @ @ @ @ % % % % @ @ @ @ @ @ @ @ @ % % % % % % % @ @ @ @ @ @ @ @ @ @ @ @ @ @ @ @ @ @ @ @ @ % % % % % % % @ @ @ @ % % % % % @ @ @ @ @ @ @ @ % % % % % @ @ @ @ + o ",
"n J L J a t 2 * @ % r p p p y p v n n v a i i i 2 * @ @ * * @ @ 2 t i t 2 u J L J g u * % @ @ @ @ @ @ * f n n n n n n n n v a a v n n n n n n v p r 2 u f v a i p p p r 2 2 t t * @ * u f J g.j.P L J f * * 2 a v n G n p r % @ # # q w y p n J J b a t 2 * @ @ ",
"j.b.D.D.j.j.j.j.L L L g.j.j.f.L L g.j.j.b.D.Y.G.j.L L b * o o @ * u L j.j.x.D.D.D.D.x.j.j.j.P L L L L P j.b.D.D.D.D.D.D.D.D.D.D.D.b.k.j.j.j.g.L J B J L j.j.m.b.j.J n J g.j.j.g.J n J P j.j.j.j.j.j.g.L L L L g.j.b.D.D.k.j.L J n n J j.b.D.Y.E.E.T.D.k.L n J L ",
"j.j.j.j.L J J J n J j.j.j.f.L f.j.L J J L j.k.j.j.h.j.J ; o o * f L b.D.j.j.j.b.D.U.T.E.E.Y.Z.b.D.D.b.j.j.k.b.b.D.D.D.D.D.D.D.C.j.L L L J B n n B B x x m J g.j.g.J a x P k.k.j.L n n L j.j.j.L J J J B x m L j.j.j.D.D.b.j.j.j.J J L j.j.j.j.j.D.U.U.D.j.L J J ",
"j.j.k.j.j.L L L J J L j.f.j.j.j.b.j.j.L L j.j.j.j.j.j.j.J f * * f P G.E.E.Y.k.j.j.D.T._. X X_.E.U.I.D.D.D.D.D.D.D.G.D.D.D.D.U.b.L G J b a a b B M l h t t i k k x k i x P j.g.L L L L g.j.j.j.j.j.L m k l N g.m.Y.E.E.Y.m.j.j.j.L L b.D.b.j.j.j.C.U.E.E.E.U.k.j.",
"j.j.j.j.j.h.j.L J J L L L j.j.m.T.T.m.j.j.j.j.j.L L j.j.J f * @ 2 m D.Q.E.E.E.E.E.Q.[. X$X$X X_.Q.E.E.E.E.E.U.U.T.Y.m.j.j.b.D.D.j.h.j.L m m L L J b p r 2 2 i k i t t a L L a t i i i a L j.j.g.J J L L P j.b.U.T.E.E.Y.m.b.D.D.b.b.Y.E.U.Z.j.j.D.Y.E.Q.[.[.[.[.",
"L j.b.D.D.D.D.b.L n n J j.b.D.T.).).T.U.D.Z.j.L L j.j.L u * @ % r m D.E.Y.U.U.T.).}..X$X=X=X.X}..X.X}.[.Q.T.U.D.U.D.b.j.j.D.).).T.D.U.D.b.j.L m N N k i 2 3 l l 3 2 2 2 a a 2 * * * < 6 g B B n B J L j.j.j.j.b.D.D.D.D.b.b.D.D.b.b.D.U.E.E.E.E.E.Q.[.{.[.[.[.[.",
"j.j.k.b.D.D.I.C.j.L J L b.U.E.E.E.Q.[.[.Q.Y.m.j.j.f.j.J 2 o o * f L b.U.E.Q.[.[.Q.Q.[..X$X$X X[.[.}.}.).T.D.D.T.).[.Q.U.k.Z.{..X}.[.[.[.Q.T.U.D.D.x.6.c c N x.x.N M B n n f 2 * @ @ * 2 i k i h l M B n n L j.j.j.j.j.j.j.j.Z.Z.j.k.Y.Q.[.[.{.[.Q.E.Q._.[.}.}.[.",
"D.D.D.D.b.b.D.C.j.L L k.Y.E.E.E.E.E.E.E.E.E.U.C.j.j.j.g.v w % * f L b.U.E.Q.[.[.[._.Q._. X.X}.[.[.[.[.[.Q.T.U.T.).).T.U.T._.OX$X$X$X$XOX}._.Q.T.U.m.x.g.P j.b.b.L J L L a t * @ @ @ * * < 2 3 i k a a y y v J P P L L L L j.C.U.T.T.U.T.).}..X.X}.}..XOX$X$XOX.X",
"Q.E.Y.D.j.j.D.D.j.j.C.D.D.U.E.E.Q.Y.D.D.T.E.U.D.b.j.b.j.L f * @ 2 m D.Q.Q.E.Q.Q.Q.Q.[.[.Q.Q.[.[.Q.E.E.E.E.E.E.Y.D.D.Y.Q.[.}..X+X=X:X:X$X).Y.E.Y.g.m N 4.N N P L L L J J L L a t 2 * * 2 < < * 2 t t 2 2 t i k k k x B B B L b.U.T.E.E.E.Q.Q.[.}.}.{.{.}..XOXOX.X",
"[.[.{.).Y.U.E.E.U.D.b.j.j.m.Y.E.E.E.U.U.E.E.U.D.D.D.D.b.L f * @ 2 m D.Q.Q.E.E.E.E.E.Q.Q.[.).T.U.D.D.D.U.E.E.U.D.D.U.E.Q.[.}.}.}.}. X.XOX.X.X.X[.C.Y u.u.Y L J J L P N y.G.Y.m.P v p v v a t 2 * * < 2 2 < 2 i k N N k k c M B L j.Z.Y.E.E._. X.X.X.X}.[.}.}..X.X",
"}.}..X.X}._.Q.T.U.b.j.j.j.m.Y.E.U.U.E.Q.[._.Q.E.E.T.U.b.L f * % r m D.Q.E.E.Q.Q.Q.Q.Q.Q.[.[.Q.Y.b.j.j.k.D.Y.E.T.D.m.Y.Q.[.}..X.X X}.}.[.[..X$X.XU.D.Q.).U.x.6.6.m.D.b.D.Q.).U.x.N M P P N l 2 * * 6 v f u 6 g L b.D.b.j.j.L a a L j.C.U.E.Q.Q.).[.}.[.[.}.}.}.}.",
".X.X}.[.[.).U.b.L G G L j.b.D.D.D.T.).[.Q.E.U.D.D.U.E.G.P f * * f L b.U.U.T.).[.[.[.[.}..X.X.X.X.X X}.[.[.}..X XQ.E.E.Q._.}..X+X=X&X.X[.[..X=X$XQ.U.E.T.m.b.m.Y.).Q.D.j.j.j.j.j.g.P j.j.L v a i k m L L J m N y.m.D.D.D.U.m.y.6.P j.j.m.T.Q.[.[.[.[.[.[.}.}.}.[.",
"Q.T.D.j.j.g.J J n J L L J m N 6.x.U.E.E.U.D.D.D.b.b.D.b.L f * o o u x.Q.[.[.[.[.[.[.[.}..X.X}.[.{.}.}.}.[.[.[.[.Q.E.E.E.E.Q.[.}..X.X}.}..X.X}.[.Q.E.E.Y.k.k.Y.Y.D.j.j.j.C.D.b.j.J J g.j.j.j.L J L g.j.j.j.j.g.j.D.Y.E.Q.E.E.E.Y.m.b.D.U.E.E.Y.Y.E.Q.[.}.}.}.[.[.",
"b.j.j.j.b.D.b.j.j.L J J j.j.j.L a m x.U.U.b.L L j.b.b.j.L f * % w m T.{.}.[.Q.E.Q.Q.[.}..X X_.E.E.Q.[.[.[._.Q.Q._._.Q.E.E.E.E.Q.[.[.[. XOX.XY.D.Q.).T.U.T.E.Q.G.P J L j.Z.D.b.g.m x B J L j.C.D.b.k.b.b.b.x.j.m.Y.Q.[.[.Q.E.U.U.E.E.E.E.Q.E.E.E.Q.Q.[.}.{.}.[.[.",
"j.g.L j.j.b.D.D.b.j.j.j.C.C.j.L J L b.U.E.E.U.D.D.D.U.b.L f * % w b D.).[.[.Q.E.E.E.E._. X XQ.E.E.E.E.E.U.U.E.Q.Q.Q.E.E.Q.Q.Q.Q.E.E.E.E.Q.Q.E.Y.D.D.Y.Q.[.[.Q.G.L G L j.C.U.E.Y.j.L J J L j.j.m.Y.E.E.E.E.T.U.T.).[.Q.Q.Q.E.U.U.E.Q.[.[.{.[.Q.Q.[.{.[.[.[.[.[.[.",
"j.j.j.b.D.D.D.D.b.b.D.D.b.j.j.j.j.k.D.U.T.E.E.T.U.U.E.Y.k.b * % f j.Q.}.}.[.Q.E.D.m.D.U.U.U.U.D.b.b.D.U.D.U.E.Q._.).U.T.{.OX$X XY.b.b.b.D.U.D.D.D.U.).[.Q.Q.Q.G.P n n L b.U.E.E.U.D.b.j.x.b.D.U.E.E.E.Q._._.Q.Q.[.[.[.[.[.[.Q.E.E._. X.X.X.X.X.X}.{.{.{.}.[.Q.Q.",
"j.b.D.U.E.E.U.D.b.k.b.b.k.k.k.j.j.L J L b.D.U.D.D.U.E.Y.k.b * * b k.Y._. X.X.X X{.).Q.T.U.D.D.U.T.T.U.D.D.U.U.U.U.D.D.U.E.Q.Q.Q._.Q.D.b.D.D.b.b.D.D.D.T.{..X}.Q.Z.j.j.m.Y.Q.[._.Q.E.E.Q.[.{.[.[.[._.Q.E.U.U.D.T.).[.[.[.[.[.[.}..XOX$X$XOX.X}.[.[.}..X.X}.[.Q.E.",
"D.U.E.E.Q.E.E.T.U.D.D.D.D.C.j.j.L L J J L j.C.D.b.m.Y.T.D.L 2 * L m.T.Q.[.{.[.).T.G.D.D.b.b.D.U.U.U.E.E.E.E.E.T.U.D.b.j.x.b.D.D.D.D.D.D.b.j.J J j.b.D.D.D.U.U.x.M M D.Q._.[.Q.T.D.I.). X#X8X@X X).Q.)._.Q.T.U.D.U.U.E.Q.Q.Q.[.[.{.{.{.}..X.X}.[.[.[.[.{.{.[.Q.Q.",
"E.E.E.Q.[.).T.D.b.j.j.j.b.b.D.b.L J L L J J L L L j.C.U.I.P 6 * L m.Y.E.E.Y.D.b.x.j.L J j.m.Y.E.E.E.E.E.U.D.D.D.b.j.L J L j.j.j.L J L j.j.P x i v J L P N N P j.j.b.D.U.U.U.E._. X X}.}.}.XX#XoXE.D.D.U.E.Y.m.b.D.U.E.Q._._.Q.E.E.Q.Q.Q.Q.).[.[.).Q.Q.).[.}.[.[.",
"j.b.D.U.E.Y.m.j.j.j.j.b.D.D.I.D.b.j.J G n n n n n J j.j.j.b * 2 L b.b.j.j.j.P L J B n J j.m.Y.E.E.E.E.Y.m.j.j.b.D.x.6.N P j.j.L m k k M g.P i 2 i k N N N N P j.j.b.b.D.Y._. X X/./. X.X.X.X.X{.T.D.b.j.j.j.j.b.D.D.U.U.U.U.U.U.G.T.).[.[. XOX$X$X$X$X$XOX.X}.}.",
"L g.j.j.j.b.j.j.j.j.j.b.D.D.b.j.j.L L L J G G b a a L L x 2 @ 6 Y D.m.k.j.L J B x x B J L j.j.D.Y.Y.D.b.D.C.j.j.D.D.j.j.C.D.D.D.D.x.6.N g.P x i v L j.j.g.L L j.C.T.).[.[.}..X.X.X.X}.).T.U.U.D.b.j.j.L J n n L j.b.D.U.T.E.E.T.U.Y.).[.[.[.[.}.}.{.{.}..X.X.X.X",
"L L L L L L L L J J g.j.j.j.j.g.J n n J L L L J B n n n n d * u x.Q._.).Q.Y.b.g.N N P f.h.j.j.j.j.j.j.j.j.j.C.U.T.E.E.E.E.T.U.D.D.C.j.P j.L m k N 6.P L J J g.j.b.D.Y.E.).).E.Q.).).Q.E.J.c.j.L J B B B x x v n n J g.j.j.k.b.D.D.D.D.D.D.D.D.U.E.E.E.E.E.Q. X.X",
"n n n v p r % @ @ % r p b B x k i i y p p r % @ * % & & t 2 @ 6 x.T.G.D.D.b.j.P g.j.j.j.b.Z.D.b.j.j.L j.b.b.j.j.P L L L L P j.k.b.Z.Z.C.Z.x.P L g.j.j.P a 2 * * r r * @ @ * 2 u b B x l l x b v x k i t 2 * * 2 2 * % @ @ $ & & * 2 i t 2 u J j.j.j.j.L J B J J ",
"@ @ @ @ @ @ @ @ @ % % @ @ @ @ @ @ @ @ @ @ @ @ @ @ @ + + @ @ @ @ % * % % @ % @ % % % % % % % * * % % % % % * % % % % % @ @ @ @ @ @ @ % % @ @ @ @ % % % % @ @ @ @ @ @ @ @ @ @ @ % % % % @ @ @ @ @ @ @ @ @ @ @ @ @ @ @ @ @ @ @ @ @ @ @ @ @ @ % % % % % % % @ @ @ @ ",
"o * 2 a J L L j.G.U.k.J u 2 r p v n n n n n n n n f 6 * * * @ * f b a i t a v n n n n J L P j.j.P L J J L L L L J n n f u * % @ @ * r r * @ * u f n n n n n n n n n n J g.j.b.b.j.L L L J J L L J n n n n v p r w w r p J L j.j.b.b.j.j.b.b.j.g.L L L J a 2 * o ",
"o 2 J b.D.G.T.Q._._.Q.Y.b.j.j.g.L J B n n n n n n n n b b n J L j.j.b.b.j.g.P P j.j.j.j.j.j.j.b.D.D.D.G.Y.Q.).).Q.Y.D.D.D.Z.Z.x.Y j.b.D.D.x.j.L J L b.Z.k.j.j.j.j.b.D.D.b.b.D.D.D.D.D.D.x.x.m.D.D.Z.b.j.j.j.g.L n n n J L L j.L J B B B x x B B x x B J L b * o ",
"o * b g.P j.Z.U.U.U.D.b.L v a i y y y p a k i i i 2 * @ @ @ * 2 t i i i i a k m L j.j.j.j.b.b.D.D.D.D.D.D.D.D.D.D.C.b.j.j.j.j.j.U j.j.k.j.j.L P j.j.j.L J J g.j.g.j.j.b.j.j.J J L j.j.j.g.P N 6.Y k.b.b.x.g.J m x x b J L L J B x x B B B b p p v J L j.j.L 2 o ",
"o * i m B J j.j.k.j.L B J n p r 2 2 r p p p 2 2 2 2 2 2 @ @ @ @ * 2 2 a P P m x B J j.b.b.P u u k m B J L J s : : V I R R R Y Y R R R I V : 6 u J L J B x a u u a M x.b.L G n n n J J b u 2 * @ % * 6 6 6 2 2 d I I V 8 d i p p 2 u g J L L m k k x B J L B * o ",
"o 6 P x.x a v J L L a a L L J v p p b L b.b.j.j.b.Y.).T.j.L j.Y x 2 * * 2 a v n n J P j.j.b.b.k.L v i t 2 u b J L L J L Z.T.E.E.E.Z.L J L L J b u 2 t i v L j.D.D.x.m x L L J n n J L L a a L L J k.{..X_.G.j.j.C.b.L F A Z Z S S A x m g.j.j.L m x m J L b * o ",
"o * J L J v a i k k t a J L J v a m M.E.E.Y.U.T.{. X).{.$X0XtX8X!.b.x.L 6 @ * u J Z._.{.T.k.L v a t 2 2 f P T.Q.k.J a t 2 i x x i 2 t a J C._.).j.d 2 2 t a v L x.U.Q.T.j.b u * @ 6 J j.j.G.OX=X$XOX}. XOX.XT.D.T.E.E.M.m d s Z Z A L L L U Y L J B x k i 2 * o ",
"o * J L a i k k i 3 2 6 g B m x B P D.Y.m.b.m.D.T.Q.).XX8X9X%X*XyXtXOXZ.u 6 m C._._.C.J u 2 2 u i i 2 * * u J P M k 2 u L D._._.D.L u u b L j.P u * * 2 k k k i i a L C._._.C.B u u P Q.OX$X{._..X.X_.T.U.D.D.Z.b.m.Y.D.P m x x C Z F J L j.j.P N N m g u * @ o ",
"o u x.G.P m M l 3 < * 2 i M x.D.b.g.L J L L m m B j.U.Q.[.}. X.X XT.x u g P D.Y.k.J u 2 2 m Y.).Q.M.m t 2 2 t m M.Y.b.j.j.j.x.x.j.j.j.b.Y.M.m t 2 2 2 P  X:X:X.Xy.i 2 u J C.Q.T.j.g u u j.U.E.T.U.D.b.j.L B m m L L J L g.b.m.b.R T S H k.D.b.g.m k k k p w % o ",
"o 6 j.m.6.N g.g.N M B v a x L j.j.j.J J L L J L x.D.b.j.L L g.L x i i m D.U.k.J u 2 a x B g.G.E.E.U.j.L L L J L j.j.L v u u B B u u v J L P m l N N g.D.{.OXOX[.Z.P m i 2 u J k.Y.D.m i i a m B m m B J j.g.J J L L J J g.j.j.L x a b L j.j.j.j.g.P 6.l i * @ o ",
"o 6 L j.L L j.j.L J L g.j.j.j.j.L v a a v n n J L L J L j.P x t 2 u Y Z.b.L u 2 f P T._._.T.k.L P j.j.j.j.Z._._.C.L J L k._.8X8X_.x.M m B g.T.E.j.P x.m.D.D.x.D._. X[.T.L f 6 u L b.D.j.u < 2 a L J v v J L J n n v a a v J j.j.j.l.H.(.D.U.E.E.E.Y.m.j.P b * o ",
"o 6 L z.K N P f.L L J J L j.j.g.m k i t 2 2 2 2 i x v L b.P 6 * f J L m 6 @ * 2 2 u k k k i 2 2 i M Y.}.OX XY.j.g.D.OX$X_._..X.X_.)..X{.k.J L R.8X9X8XoXN.l 7 2 i k k k u 2 * * @ 6 B L J f * 2 L g.m k k i 2 2 2 2 t i k m g.j.j.U R E Y.Q.[.[.Q.E.U.x.m 2 * o ",
"o 6 L j.j.L J J L P N M B J L L x x v v i 2 2 * < 2 t i k i 2 2 f f u * @ @ * u J j.j.P x i i i 6 6 i x g.x.j.k.D.E. X{.U.P d u J b.).).T.b.j.x.N.N.4.k i i l k k a B J J g 6 * @ @ * u f f 2 2 i k i t 2 < * 2 3 i v v x x L L J J T E T.Q.[.[.Q.E.U.Z.j.b * o ",
"o * b j.j.g.N 6.x.D.b.g.J n n g u < 2 2 < < * * * 2 3 t 2 < < < < * @ * i k i m D.|.qXqXXX}..X&X-X+XG.J u 2 2 d x.E.Q.G.m x x.x.m x x.T.E.x.a 2 2 l u./.wXyX9X#X|. X&X$XQ.z.x i k i * @ * < < < < 2 t t 2 * * * < < 2 2 2 u g B n J T H.`. X_.Q.E.E.E.U.k.b * o ",
"o * b j.j.j.j.m.Y.Y.b.P x t i i k k k i 2 * * * * * < < * 2 t 2 % @ % 2 f j.{..X}..X&X:X:X=X;XrXpXpX:XOX}.T.m i h u..XXXc.l l x v x..X.Xz.k i y.].8X-XrXaXaXrX=X$X$X$X.X_.Q.{.Q.j.f 2 * @ * 2 t 2 * * * * * * * * 2 i k k k i t t d I H.). X.X X_.T.D.j.j.b * o ",
"o * f B J L j.b.b.j.j.L a i k i 2 < < * @ o @ @ * 2 < * * 2 i t * @ * 2 t m x.E.{. XQ.Q._.[.[.[.{..X&X&XOX XQ.x.a 2 i x B v 6 2 i x k i i m Y..X&X0XtXqX+X[.[._.Q.T.G.U.).Q.D.g.x t 2 * @ * t i 2 * < 2 2 * @ @ o @ * < < 2 i k t d I H.).}..X.X}.).U.C.j.b * o ",
"o * 2 x P b.D.C.j.L h.L a i k i 2 * @ o o @ * u J L x 2 * @ * * @ @ * i P D.D.b.L m a i 2 2 2 2 2 2 i x L Z._._.x.J m m L b * * b L m m P G. X XY.Y x i 2 2 2 2 2 2 2 2 i m Y j.j.L u * @ @ * * @ * 3 x L J u * @ o o @ * 2 i k t d I H.).}.{.[.Q.T.D.j.L f * o ",
"o * b L g.j.j.j.j.L L j.j.P x t < * @ o o @ 2 x j.U.T.x.d * * * * 2 t i i i i t * @ @ @ @ @ * * @ @ @ @ * 2 k x b j.T.Q.b.B u u m x.Q.T.j.n J b u * @ @ @ @ * * @ @ @ o @ * t i i i i t 2 * * * * d x.T.U.j.x 2 @ o o @ * 2 t t t a b P U.Q.Q.E.U.D.D.b.L f * o ",
"o * f J L j.C.D.b.j.j.j.j.L a t 2 < * * @ @ * 6 v L j.j.P b * @ * u L j.g.B u * @ o @ * 2 i i i i t 2 * @ @ @ @ * u P j.L B x x m L j.P d * @ @ @ @ * 2 t i i i i t * + o % 2 a J j.b.Y u % @ * b P j.j.L v 6 * @ @ * < < 2 t t i a b L b.U.U.Z.j.L J b u * @ o ",
"o * b j.j.b.D.D.D.D.D.D.b.P x i k k i 3 2 * @ * f v u 2 r r 2 * * 2 a m B f 6 * * 2 f J g.j.P L B m x h t 2 2 * @ @ * 2 i M D.D.M i 2 * @ @ * 2 2 t i x v B L P j.g.J f 2 * * 6 v B m k 2 * * 2 i i 2 u g f * @ * 2 3 i k k t i s A L j.C.D.b.j.j.L f.b * o o o ",
"o 6 L b.b.b.D.D.b.j.j.j.j.L J n n v a i i 2 * @ * 2 i i 2 2 * 2 i m P L x t * @ @ @ * u v B B B x i 2 2 3 3 2 * * * @ * f L b.b.L f * @ * * * 2 3 2 2 2 i x m B J v u * @ @ @ * i M z.j.L f 2 * 2 2 i i 2 * @ * 2 i i a v v i a J U U L J J L L L L j.J u * @ o ",
"o 6 Y U.D.D.b.j.j.j.j.L L f.f.L m x v J j.L u * @ @ * u B m 6 6 m b._.[.D.g.L g 6 < 2 t i i i t 2 < * * @ @ * < < * @ * f L j.j.L f * @ * < * * @ @ * < < 2 t i i i t 2 2 u b L b.Q.$XOXY.L u 6 m B u * @ @ * u L j.J v a u : s J j.j.j.j.L L f.L j.j.g.m i * o ",
"o u x.E.D.k.j.b.D.D.b.j.j.j.b.P u u f L b.x.x i i t 2 2 i i 2 2 i M m.Y.E.Q.Q.D.N i 2 2 2 2 2 2 < < * * @ @ @ * 2 3 < u j.Q..X.XQ.j.u < 2 2 * @ @ @ * < < 2 2 2 2 2 2 u v x.}.$X&XOX{.G.N i 2 2 i i 2 2 t i i x x.b.L f 2 6 V H Y j.j.b.D.D.b.j.j.b.D.D.D.P 6 o ",
"o u G.).T.D.D.D.b.k.j.j.j.b.D.U.E.x.u 2 f L b.D.b.L u < < < * 2 f J g.U. X$XOX.X}._.Q.D.P B m k k i 2 2 < 2 3 t t t 2 d G..X=X=X.XG.d 2 t t t 2 2 < 2 2 k m B J J P G._.OX&X=XeXyXqX_.b.L f 2 * < < * u L b.D.b.L v 6 * * u J j.j.b.D.D.D.D.D.D.b.b.D.D.I.Y 6 o ",
"o 6 j.D.k.j.j.j.j.j.j.b.D.U.E.Q.Q.Z.a 2 f L x.D.b.P x t 2 * * 2 2 a J b.Q.[.}..X&X=X&XOX}.}.OX XE.m.j.P k i t i k m L k.T._..X.X_.U.P B x i 2 2 i k P b.Y._..XOXOXOX&XeXuXuX:X$XOX{.U.P a t 2 * * 2 t x P b.D.j.b r < * ; s L k.D.D.b.b.D.D.D.C.j.g.j.j.j.J * o ",
"o 6 Y U.D.D.b.P x x P b.D.U.E.Q.Q.T.m.L u 2 i m x.D.b.L i * @ @ * 6 g J L C._.OX$XOX X.X&X=XOX XQ.U.b.L u < 2 x x.E.).}.OX&X:X-X$X}.T.D.D.Y d * * u L b.Y.Q. X%XqXqX%XOX=X:X&X XU.j.L g 6 * @ @ * u L b.D.x.m t 2 2 2 a P D.Q.).T.D.b.j.j.k.b.j.j.L L j.j.b * o ",
"o 6 Y D.b.j.k.P v p B j.b.U.T.Q.[.).Y.D.x.g.B L D.T.U.b.L f * @ * 2 i x B L b.U.E.E.U.T.).).T.b.L v u * @ @ * 2 i P T. X&XeXtXtXeX$XQ.z.m i 2 * @ @ * u g P D._.OXXX_.Q.[._.T.b.L B x i 2 * @ * f L b.U.T.D.L f 6 6 s I Z.E.E.T.U.D.D.D.b.j.j.L J J g.j.j.b * o ",
"o 6 L j.j.L L b * * i m L g.j.x.Z.D.D.D.D.x.x a b j.U.T.m.J 2 @ * 2 t a J L L P j.P m x B J J v a 2 * @ * * @ @ @ @ * x E.%XwXqX+XY.d * @ @ @ @ * * @ * 2 a v J j.P m M g.j.j.L L J a t 2 * @ 2 L m.T.U.g.b i i s A L j.j.j.j.j.P L L L L L J f 6 * * u f f * o ",
"o % 2 a v f * @ * % & & w r 2 2 t x P j.j.k.b.j.J L G.Y.k.b * * C S s : u i i a L L a a v v u < < * < 2 t t 2 2 i i 2 6 v P Z.Z.P v u 2 t t 2 2 t t 2 * * * < u v B x x L L a t t u : V I I f p B k.Y.G.P f * * : s 6 * * @ @ @ @ @ @ @ @ % * * @ o o o @ @ @ o ",
"@ @ % % % % @ @ @ @ % % % % @ @ @ @ @ * = = * 2 t x g.g.x 2 * * V V - @ @ * t x g.L u 2 i k i 2 * * i k i i k m L L J b a i 2 2 i a b J L L m k t a v f * * 2 i k i 2 i L P x 3 2 * = e T I 6 * 2 x g.g.x t 2 * = = + - C V . . + @ @ @ @ @ @ @ @ @ @ @ @ @ @ @ ",
"E.Y.D.Z.Z.Z.Z.Z.Z.D.Y.Y.D.b.j.j.P J a 2 2 u Y x.L J L L a 2 < 6 V S J L g.j.b.b.j.L a i t t t t t a J m a x P b.D.G.Y.D.j.B x x B j.D.Y.U.D.b.P x a J J a t t t t t t a L J u 6 f P D.T.U.j.v r t a L L J v a t 2 2 t t p v j.D.Y.G.b.j.j.b.G.D.j.L L J G n n n ",
"E.Y.m.j.b.b.D.D.b.k.j.j.j.j.j.j.j.j.J v x k x m L L J f 6 * * 6 A H J B B J L j.j.j.P L k i 2 2 3 i k x v L Z.Y.D.x.M i 2 2 < < 2 2 i M x.D.Y.D.L v x k i 2 2 2 i x L J a d s A j.U.E.Q.Q.x.u < 2 i v J L L m k k x m f 6 u j.U.U.D.D.D.b.j.b.j.j.j.j.L J J L L ",
"U.D.b.b.D.U.T.Y.m.j.J J L j.j.k.b.P x i t i v J g.P a t 2 * < u b J J n n J L j.j.L a i k i 2 * * 6 g g u 2 2 2 2 2 < < < < % < < < 1 1 2 2 2 2 2 u g g 6 * * 2 i k i u s A L j.C.U.E.E.U.j.u * * 2 t a P g.J v i t t u C H b.U.I.D.b.b.b.b.j.b.D.D.b.j.j.j.L J ",
"U.U.D.D.D.D.b.b.b.j.j.j.j.b.D.D.D.D.b.P x i t t 2 2 2 * * 6 f J L L J J J J L j.P L J v u 2 2 * * 6 v f * @ % 1 ( X.#.>X#.#.#.>X,X1X6X5X,X..4 % @ * f v 6 * * < < 2 t x P b.Y.T.U.C.j.j.j.J * o o @ * 2 2 2 t i i u 8 s L b.D.I.D.D.D.D.D.D.D.U.T.T.U.D.D.D.b.j.",
"E.E.Q.T.D.b.k.j.k.b.D.m.y.y.m.D.b.b.D.D.D.j.u * @ * ; e p v J j.j.b.x.b.D.D.b.j.j.j.j.b.D.j.u 2 * 2 f J L J u 1 Q / Q Q ^ / ^ ^ ^ ^ Q ^ ..^ 4 u J L J g 6 * * 2 t x P m.Y.Y.D.b.b.x.j.j.j.b * o o % ; ; * @ @ - s A L j.j.b.D.D.U.U.U.U.U.U.U.D.b.b.D.D.D.D.D.D.",
"E.Q.[.).T.D.D.D.b.j.j.b.D.D.D.D.b.b.b.b.D.C.j.J x m j.D.D.D.T.E.E.E.E.E.U.U.U.G.D.U.T.E.U.U.T.x.d 2 t x P k.Z.u.{ / Q W W Q ^ / ^ Q Q ^ / { u.D.k.P x t 2 * < u J j.Z.D.D.D.D.D.b.k.j.L J v p w % * b L J n n L x.D.D.D.D.D.U.U.E.E.E.E.E.E.E.E.U.D.D.D.D.U.T.E.",
"D.T.).}.[.).T.D.b.j.j.j.j.j.j.D.Y.E.E.E.U.D.b.g.m k k M x.T.).[.Q.Q.[.[.[.[.Q.E.E.E.E.Q.Q.E.U.U.T.M.m t t m D.~.>.#./ Q Q / @.@./ Q Q ^ X.&.B.D.m i t t 2 6 A I b.U.E.Y.b.b.Y.Q.).).Q.D.M i 2 * @ * b L J J L j.Z.I.U.U.E.Q._.[.[.[.Q.Q._.[.Q.Q.E.Y.m.b.D.D.b.b.",
"E.Q._.}..X.X.X{.U.j.x.b.j.b.D.U.T.Q._.).T.U.E.D.M k t x x.T.).[.[.}..X.X}.[.[.[.Q.Q.[.[.[._.Q.E.E.E.E.M.m a L 4.O.#.>X#.@.@.#.#.@.@.#.>X@.O.4.L a t t a J P j.j.x.b.b.b.b.b.b.D.U.U.U.D.j.J v w % * b j.L j.j.b.D.U.T.Q._._.Q._. X.X}.[.Q.Q.[.[.Q.E.U.D.D.D.D.D.",
"E.E.Q.Q.Q.).[.).T.U.E.Y.m.b.D.U.U.U.U.U.E.E.E.Y.m.g.J L b.T.).{.}.}..X.X}.{.}.[.Q.Q.[.[.Q.E.E.E.E.E.E.Q._.T.M 5 _ / Q Q Q ^ ....../ ^ ^ / _ 9 x k m g.g.m m L j.C.Y.)..X&X=X&X$X$XOXOX{.T.j.v w @ * b j.j.b.D.D.D.D.D.U.E.Q.E.Q.[.[.}.[.Q.Q.Q.Q.E.E.U.D.D.D.U.U.",
"E.Q.[.[.[.[.{.[.Q.Q.[.).D.m.Y.E.E.E.E.E.E.Y.m.b.Z.C.x.b.D.T.).}..X.X.X.X}.[.[.[.{.[.Q.Q.E.E.E.E.E.E.E.Q.[.[.Q.N.{ ^ Q W Q / X.X./ Q Q ^ .._ 0 s b g.U.U.g.L b.U.E.Q.Q._. XOX$X$XOX.X}.).T.j.u o o 6 L b.b.j.j.b.D.D.D.U.E.E.Y.U.U.T.).{.[.[.Q.E.U.U.U.D.D.U.E.E.",
"E.Q.[.[.[.[.[._.Q.Q.[.[.[.[.[.[.Q.E.E.T.U.C.j.L J L j.b.D.U.E.Q.[.[.[.[.[.[.[.[.[.[.Q.E.E.E.E.E.E.E.E.E.E.Q.Q.B.%./ Q W Q ^ ..X.X.../ / ..{ t.j.j.D.Q.[.[.[.[.}..X.X.X X_._. X.X}.[.Q.T.D.g.v w @ 6 x.E.U.C.j.j.j.j.D.U.I.U.E.E.E.E.E.Q.[.[.Q.E.U.U.E.E.E.E.Q.Q.",
"D.U.E.Q.Q.E.Y.Y.E.Q.Q.Q.[.[.[.{.}.E.P M g.j.L J L j.j.b.j.b.D.U.E.E.E.E.Q.Q.Q.Q.Q.E.Y.Y.E.E.E.E.E.E.Q.Q.E.E.U.a.&...Q W W ^ ..X.@.X.^ ^ ..%.u.I.I.U.E.Q.[.}..XOX$X$X$X$XOX.X.X.X}.[.Q.Y.m.L 6 o o 6 j.D.b.b.D.D.D.Y.).).E.U.U.Y.E.E.Q.Q.Q.Q.Q.E.E.E.Q.E.E.Q._.[.",
"D.U.E.E.E.!. X.X}.[.Q.Q.[.[.[.[.[.).U.D.D.b.L J L j.D.b.f.L j.D.E.E.U.U.E.E.E.E.E.E.E.E.E.E.U.U.E.Q.[.[.Q.Q.Q.B.%./ Q W Q / X.@.X./ Q Q / { t.Z.T.E.Q.Q.Q.Q.[..XOX$XOX.X}.{.}.}..X}.T.C.j.b * o o u x.T.D.b.D.U.T.E.L.'.8XqX%X X_._._.[.[.[.[.[.[.[.[._.Q.E.Q.Q.",
"D.D.I.D.D.T.).}.}.[.Q.Q._.[.{.Q.C.k.U.E.U.b.L n n P G.Q._.).Q.Q. X X_.Q.Q.Q.E.E.U.U.E.E.U.D.D.U.E.Q.[.[.Q.Q.[.P. .^ Q Q ^ / / / / / ^ ^ / { u.U.E.Q._.{. X.X.X.X.X$X=X&X.X}..X.X}.).T.b.L f * o o 6 Y U.D.D.D.U.G.U.E._.OX-XrXyXiXqX_.D.U.T.).[.Q.Q.Q.Q.Q.Q._.[.",
"j.b.D.D.D.U.E.Q.[.[.Q.E.E.E.E.E.U.D.b.b.D.C.j.L J L b.T.).{.[._.'.'.8X#X.X[.Q.E.U.U.E.E.U.U.E.E.Q.Q.Q.E.E.Q.[.P.*./ Q W Q ^ / / ....^ ^ X.&.B.T.U.D.U.U.E._.OX$XOX.XOX.X}.[.Q.Q.[.).C.L J f * o o * J j.j.m.Y.E.E.E.E.Q.[.}..X*XyXrX_.U.E.E.T.T.E.).[.}.}.[.Q.Q.",
"j.j.b.b.D.D.D.D.D.D.b.z.N 6.m.D.j.j.j.j.x.b.D.D.b.b.D.T.).[.[.[.{.}..XOX.X.X}.).T.D.D.U.I.U.E.Q.[.[.Q.E.U.I.I.u.[ ^ Q W Q ^ / / / ^ Q ^ @.&.t.j.j.k.U.E.E.Q.[.}..X.X.X X).E.E.E.E.Y.b.L v r % @ * u J j.h.j.D.U.E.E.E.E.E.Q.[..X=X&X{.Q.)..X&X=X&X&X=X=X&XOX}.[.",
"j.b.D.D.D.D.b.j.j.L L L L j.Z.b.L m N y.m.D.b.b.D.U.E.E.Q.Q.Q.Q.[.}.}.}.{.[.Q.E.U.D.D.U.E.E.U.U.E.E.E.Y.D.g.M j ! Q Q Q ^ / ....^ Q Q Q / _ z L j.j.k.b.D.U.E.Q.Q.E.U.U.D.D.b.j.j.L J b a t w & % u L j.j.j.C.U.U.U.E.E.E._. X.X.X}.T.T.).}..XOX$X$X.X[.Q._. X.X",
"D.D.D.D.b.j.j.L m m L j.j.x.u.c.M.b.j.g.j.b.D.D.D.T.).[.Q.Q._.[.[.[.[.[.Q.Q.E.E.E.E.E.E.Q.E.U.D.D.D.b.j.j.L L 1._ ^ Q Q ..X./ ^ / ^ Q Q ..{ t.b.D.b.j.g.j.b.D.U.U.D.b.b.b.b.D.C.j.L J n n f * @ * u J j.j.b.D.U.T.E.E.E.E.Q.[.).T.U.E.E.E.E.E._. X.X.X XQ.E.Q.Q.",
"D.D.b.b.b.j.j.L J J L j.j.j.j.b.D.D.b.j.j.j.C.D.D.T.).[.[._.Q.Q.Q.Q.Q.Q.[.[.Q.E.E.E.E.Q._.Q.D.j.j.j.j.g.J n n l ) / Q Q ^ / ^ ^ ....^ ^ ..{ t.j.j.L J J J L b.U.T.E.E.E.E.T.U.D.b.j.J n n f 2 * * u L k.j.j.j.b.D.D.D.U.E.E.Q.Y.k.k.Y.E.U.U.U.U.E.E.Y.U.G.U.E.E.",
"j.j.j.j.j.j.j.L J n n J L g.g.j.j.b.D.D.D.C.b.m.Y.Q.[.[.Q.E.E.E.E.Q._.[.[._.Q.E.E.E.E.E.U.D.b.j.j.L J b p p u 5 ) / Q W Q ^ ^ / ..../ ..X.%.t.j.j.j.j.j.j.j.j.j.j.j.j.b.b.j.j.h.g.j.L J v r % @ % u j.b.L J L g.j.j.j.b.D.U.E.Y.k.j.C.U.T.E.E.E.E.E.U.D.D.D.U.U.",
"L j.j.j.j.j.j.L J n n J L g.j.j.j.j.j.j.L L j.b.Y.E.E.E.E.E.E.T.U.U.E.E.U.D.D.D.D.U.E.E.U.D.b.j.L n p y t t 2 1 Q ^ Q W W Q Q ^ / / / ..@.$.a.Z.k.j.j.j.j.j.g.j.b.b.j.j.b.b.j.L L L L L J f 6 * * u B L J J L L J J L L L j.D.D.b.b.D.U.D.U.E.E.E.E.E.T.U.D.D.D.",
"L L L L L L L L J n n n n v a i i i 2 * @ @ * u v J J B J B B J L j.j.j.j.j.j.x.Z.D.D.D.x.j.P L L b * % w y r 4 ! Q Q Q Q ^ ^ Q Q Q ^ ..X.O.D H U L L L J n n J L L J n n b p r % * f J L b * @ * * @ @ * 6 f n n v a a v J g.j.j.b.D.D.D.D.D.D.D.D.D.D.D.D.b.b.",
"2 2 2 u f n n f 6 * 2 * % @ @ @ * < < * @ @ * * @ @ @ @ @ @ @ % * 2 i t * @ * u v J J v u * @ % & & # O @ @ * 1 W ^ ^ / ..../ ^ ^ ^ ^ / / Q , # * 2 2 * % @ * 2 r r % + & & + @ @ @ @ @ @ $ & & % * @ @ @ @ @ % r p v f * @ @ * f J L L L L J n n J L L L g.j.j.",
"2 2 2 2 2 2 2 2 2 2 2 2 2 2 2 2 2 2 2 2 2 2 2 2 2 2 < < * * * * * 2 2 2 2 2 2 2 2 2 2 2 2 2 2 * 2 2 2 2 2 2 2 1 W ^ ^ ^ / / Q Q Q ^ ^ ^ ^ W % $ * 2 2 2 2 2 2 2 2 2 2 2 * * 2 2 2 2 2 2 2 2 2 2 2 2 2 2 2 2 2 2 2 2 2 2 2 2 2 2 2 2 2 2 2 2 2 2 2 2 2 2 2 2 2 2 ",
"Z.D.Z.x.j.J n B J L g.g.L j.x.D.Y.Y.Y.D.j.J n n n n n v i 2 * @ * u P b.j.P J v p y y f J L J J L P j.j.j.k.Z.u.[ ^ ^ ^ / / / / / / ..X.X.=.P.).Q.Y.b.j.j.j.j.j.j.j.P L J J k.Z.Z.C.C.D.Y.E.E.Y.b.j.j.j.j.j.j.L L j.b.Z.x.x.Z.D.x.j.g.L L j.j.j.J n n J L L L L ",
"b.j.L G G n n n n B x x m n B J L L J B B v a a v v a i t t 2 * * u J L a i i a v n n n n J L L J J L j.C.I.I.u.] ^ ^ / ^ ^ / / ^ / @.#.X.*.P.[.Q.Y.m.j.j.j.g.j.j.j.j.L L L J J J J L j.j.D.E.Q.E.E.E.E.E.E.E.T.U.U.T.E.E.Q.[.[.Q.T.U.U.E.E.U.D.D.D.b.k.j.j.j.j.",
"j.j.J n n b p p v f 6 2 t i k k i i y p i i i i t a L L a 2 * @ * 2 t i i a v B J J n J L L L L L j.j.x.b.m.D.u.' Q ^ / ..../ ^ Q Q ..X.X.%.B.E.U.U.D.D.D.D.b.j.j.j.j.L f.j.j.j.j.j.j.b.D.U.E.Q.E.E.E.Q.Q.E.Q.E.E.E.E.Q._.[.}.}.{.{.[.[.[.[.[.).T.U.E.Y.m.b.D.I.",
"f.J v p a k t t 2 2 * * * * < 2 r r 2 2 f n n v i x P j.j.b * @ * * @ * d B L j.j.g.L J L L L j.j.j.j.m.Y.E.E.N.] ^ ....^ ^ ....^ / @.#.X.%.B.Q.Q.Q.Q.E.U.D.D.D.b.j.j.j.j.x.b.b.D.D.D.U.E.E.Q.Q.E.Q.[.[.[.[.Q.E.U.U.E.Q.[.}..XOX$X$XOX.X.X.X.X.X}.).T.D.b.D.Y.E.",
"J v u * < < < < < * @ @ * * * * * * * * 2 2 i x v L b.D.b.g.J f 2 * @ @ @ 6 B g.f.g.j.j.j.L J J g.j.j.b.D.D.I.u.] ^ ^ ^ ^ ..X.X.^ / @.@...[ u.T.).}..X X_.E.U.D.D.D.b.k.b.b.D.U.D.U.E.E.E.Q.[.{.[.[.[.[.{.[.Q.Q._.[.[.}..X.X.XOX$X$X$X$XOXOX$X$XOX X_.E.E.E.E.E.",
"N l 2 2 3 t 2 * * * @ o o o o @ * * @ * 2 t t a v L j.x.b.L u * * u m m u 6 v B B B B L j.P x a v J L P N N P 4.{ ..^ Q Q / X.X.X.X.@.X...[ r.D.T.).[..X&X$XQ.D.D.D.D.D.D.U.T.E.E.Q.[.[.[.[.[.{.{.{.[.[.{.{.[.[.[.}..X.X.X.X.X.X}.}.{.}..X.X}. XOX$XOX XQ.E.E.E.",
"k i 2 2 i a p r 2 * @ o o o o o o % r r 2 2 t i k x B J L J * @ % u J L L L J B m k x m g.P u 2 i k N N N N P N ~ ^ Q Q Q ^ ....^ ^ ....^ ~ c Z.[..X}.}..X}.T.D.D.D.D.D.D.D.D.T.).[.[.[.[.[.{.[.Q.Q.[.{.}.}.}.}.}.}.}.}..X X_.Q.[.[.Q.Q.Q.Q.[.[.[.[.[.[.Q.E.E.E.",
"k i 2 2 r p y p a i 2 * @ @ o @ O & % 2 t t t t i a b J J f * @ % u J j.j.b.D.D.D.x.6.N g.P x i v L g.j.g.L h.N ! Q W Q Q / X.X.^ Q / ../ [ r.U.}..X}.[.Q.E.U.D.D.D.D.D.D.D.D.T.).[.{.{.[.[.{.[.Q.E.E._. X.X.X.X.XXXXX{.D.k.D.U.E.E.E.E.E.E.U.U.U.U.E.E.U.D.D.D.",
"L J v r 2 2 r p p p t t 2 * @ @ * * * u f n n m x x B J J n p r * d j.D.D.D.D.D.D.C.j.L P L m k l N P L J L j.r.] Q Q W W Q ....^ ^ ..../ [ u.T.}..X}.[.Q.E.U.D.D.D.D.D.D.U.E.E.Q.Q.[.[.[.[.Q.Q.Q.Q.E.Q.[.}..XOX$X$XOX X_.E.Q.E.Y.U.U.D.D.D.D.D.D.D.b.b.D.D.D.D.",
"L L J v p p a x B v a i i t 2 * * u J L m m L P L L L L J f 2 * * u j.D.j.P j.L J J J B M c k x m J L L J B M <.) / Q W W Q / X...../ / / [ u.T.[.}.{.[.Q.E.U.D.D.D.D.D.U.U.E.Q.[.[.Q.Q.Q.Q.Q.Q.Q.E.E.Q.[.}..XOX$X$X$X$X$X$X$XOX X).T.D.b.b.b.b.x.x.j.j.j.m.Y.E.",
"L L J n n n n J L L L L J m x k k m x.U.).).Y.b.j.L L L J f * @ % u L j.j.j.j.j.j.L L L L L a a v B B b p v J 1._ / ^ Q Q ^ ..X.../ ^ ^ ^ ] r.D.).}.{.[.Q.E.U.D.D.D.D.U.E.Q.[.[.{.}.{.).T.U.E.Q.Q.Q.Q._. X.X}.}..XOX$X$XOX.X.X.X.X.X.X X{.).U.b.j.g.j.j.j.j.Z.D.",
"B v u < * * * u J j.j.g.J J L L L j.C.U.E.E.E.U.k.L L L J f * @ * 6 v L b.D.D.b.L J L L L L m k k x B B x x B l ~ Q W W Q ^ ....^ ^ ^ / ^ ! l k._..X}.[.Q.E.U.D.D.G.U.U.E.E.Q.Q.[.}.{.[.Q.E.E.E.E.Q.[.{.}.}.[.[.Q.Q.[.}.}.[.Q.Q.Q.E.Y.U.E.E.U.m.6.M B L j.j.b.b.",
"x i 2 * @ o o * f B B B B J L j.j.j.j.b.D.D.b.j.j.j.j.j.L f * @ * u J j.j.b.D.C.j.L L L J J L L m m L g.j.j.j.N _ ^ Q W W Q ^ / / / / / / ( l j.Q.}.}.[.Q.E.U.D.U.U.E.E.E.E.E.Q.[.[.Q.E.E.E.E.E.E.Q.[.}.{.[.Q.E.E.E.Q.Q.Q.E.E.E.E.E.U.D.b.D.Y.Y.m.g.m m L j.D.D.",
"B g 2 * @ @ * 2 h k i i l M B n n L j.j.j.j.j.j.j.j.j.j.L v 2 * * 6 v L b.D.D.b.L J L P L L L j.j.Y m m L j.j.r.[ ^ Q W W Q / ../ ^ Q Q / ) l j.Q.}.}.[.Q.E.U.U.E.E.E.E.E.Q.[.[.Q.E.E.E.E.E.E.E.E.Q.[.[.Q.E.E.E.E.E.E.E.U.D.D.U.E.Q._.).Q.Y.D.U.E.G.P L b.U.E.Q.",
"k i * @ * 2 i j ] ! 1 2 i h 2 2 h l m J L P P L J J j.j.j.L 6 @ % u J j.j.k.k.j.g.g.j.j.j.j.j.j.j.j.g.g.j.k.k.r.] Q W W W ^ @.@./ Q W Q ^ ( l j.Q.}.}.!.V.V.R.E.E.E.E.Q._.[.[.[.Q.R.V.p.8.5.5.u.K.E.Q.E.E.E.Q.Q.E.E.U.D.I.D.N.J.E.E.U.M.u.5.1.u.E.Q.J.J._..X.X.X",
"4.c h t t i j } ~ ~ 4 i k k h 9 ~ ] ,.N N M m n n J L P g.J u % o 6 L j.j.P P L J n B J L j.j.x.x.x.j.j.g.j.j.r.[ ^ Q Q ^ / / / / ^ Q Q ^ ( 0 I T.[.{.^.0.9.N.I.D.U.E.E.E.E.E.E.Q.L.0.:.=.O.` } y.b.D.Y.E.Q._.[.Q.E.U.D.D.M.u.a.M.D.b.u.-.O.` | i.Z.u.i.K.Q.[.{.",
"1.1.j j j 5 ~ _ _ ~ 5 j z z j 5 ~ [ ,.1.1.1.z c m B N 1.4.l 2 @ . = c u.4.1.c M B m c c 1.4.r.t.5.7.z.z.u.u.t.2.O./ Q Q ^ / / ..../ Q Q / X.#.+.1.P c.p.;.*.e.i.u.a.J.K.E.E.K.J.J.p.;.$.O.` _ ] 2.u.i.N.s.J.E.E.U.D.b.b.D.N.0.0.p.u.r.2.*.+.O.{ e.u.4.4.i.J.P.P.",
"1.,.[ _ _ ` O.O.O.O.` ( ( ( ( ` ..) <.,.] _ ` ~ 9 j z 1.j 0 2 @ . % l 5.1.z j j j j j j j j 1.1.5.5.5.3.*.*.2.<.) / Q W W ^ @.#.X./ Q Q / #.5X2X3.4.a.q.O.) <.1.1.5.t.N.R.R.V.~.~.w.3X>XX./ ^ ~ ,.4.5.5.t.N.K.R.N.u.Y j.j.u.-.*.3.5.1.| o.@.X.) <.,.] [ 2.5.u.a.",
"O.O.O.O.O.+.+.+.X.....` ` ` O.+.X...O.O.O...O.O.` ` ` ` _ ~ 4 <   X ~ O.` _ _ ( ( ( ( ( ( ` ` ` %.+.X.@.#.#.#.@...^ Q Q ^ / ....../ ^ ^ ..,X7X6X@.` %.+.X..._ ` ` ` O.9.d.~.0.:.:.>.>X>X@...^ Q ( ` ` O.O.-.p.a.u.5.1.4.u.3.$.#.+.&.O.O...X.X...` ` / / ` ` ` ( ",
"@.X.o.....X.X.X.X.......` ` O.O.......X.X.@.#.#.+.O.....` ( Q >   X ! ../ / ` ` _ _ _ _ ` ` ..X.$.$.@.@.#.>X,X#.../ / / ^ / ....../ ^ ^ ..@.<X1X>X@.X.../ / ` ........{ q.q.;.$.#.>X,X>X@...^ ^ ^ / ....X.%.q.q.-.+.&.=.=.+.#.#.@.@.@.@.+.O...............` _ ( ",
"..../ / ....O.O./ / ....O.O.O.` / / ..X.@.@.#.#.#.#.@.X.X./ Q >   X W / / / ......../ / ` o.@.#.4X>.$.@.@.@.#.#.X.X.X.@.#.>X>X>XX.../ / ..@.,X<X<X>X4X>.@.X./ / ..../ ..&.=.+.+.X.@.#.#.X...^ ^ ^ / ......o.+.+.@.@.+.+.+.+.@.@.@.@.@.X.+.O./ / / / ....+.O.^ Q ",
"^ ^ ^ ^ Q ^ ` ` ^ Q Q Q ( _ ( ( ^ ^ ..X.@.@.@.@.@.@.X.../ ^ Q >     > Q Q ^ ..../ / / ..+.$.@.X.X.../ / ..X.@.@.@.@.X.X.#.#.#.@.@.X./ / X.@.#.>X,X>X$.O.` ` ( _ / ^ Q Q O.O.` _ / ......^ Q Q Q Q Q ^ / / / O.+.X.X.X.........../ / ....` ` ^ ^ ^ / / / O.O.^ Q ",
"W W Q Q W W W W W W W W ( ( Q W Q ^ / ..X.@.+.+.@.@.X.../ ^ Q >     > W Q ^ ......../ ..:.=.` Q Q W Q ^ ` O.O.$.>X,X,X,X<X1X5X1X<X,X,X,X,X>X>.:.:.+.+.+.+.{ 5 4 Q Q W Q ^ ^ Q W Q ^ / / ^ Q Q Q Q Q Q ^ / / O.O.......X...../ / ^ ^ / / _ ( ^ Q Q ^ / / O.O.^ Q "
};
