/* XPM */
static const char *w108_1[] = {
/* columns rows colors chars-per-pixel */
"128 128 254 2 ",
"   c #080506",
".  c #0C0B0B",
"X  c #160E06",
"o  c #1A0A07",
"O  c #130D0B",
"+  c #0D140D",
"@  c #151707",
"#  c #191007",
"$  c #14140A",
"%  c #1B140A",
"&  c #1E190C",
"*  c #060619",
"=  c #141414",
"-  c #1A1614",
";  c #161916",
":  c #1C1A15",
">  c #1C1C1C",
",  c #260C0A",
"<  c #390605",
"1  c #21170B",
"2  c #291508",
"3  c #221B0D",
"4  c #2C1B0C",
"5  c #321D0D",
"6  c #3B190C",
"7  c #221E11",
"8  c #271A17",
"9  c #381915",
"0  c #1A250C",
"q  c #1C2315",
"w  c #1B3814",
"e  c #23240E",
"r  c #2A220F",
"t  c #242A0F",
"y  c #33210E",
"u  c #252112",
"i  c #2C2511",
"p  c #262C12",
"a  c #2D2A14",
"s  c #27251C",
"d  c #2A2E19",
"f  c #342412",
"g  c #3A2515",
"h  c #332C15",
"j  c #3A2C16",
"k  c #36261A",
"l  c #352C19",
"z  c #3C2B1A",
"x  c #293015",
"c  c #2E351D",
"v  c #283A19",
"b  c #3B3717",
"n  c #32341C",
"m  c #3D331C",
"M  c #31381F",
"N  c #0F0D31",
"B  c #320229",
"V  c #1F2020",
"C  c #242424",
"Z  c #2A2924",
"A  c #2C2C2C",
"S  c #352926",
"D  c #2D3621",
"F  c #323620",
"G  c #343C24",
"H  c #393D25",
"J  c #383629",
"K  c #2C2E33",
"L  c #343434",
"P  c #393835",
"I  c #3B3B3B",
"U  c #450302",
"Y  c #4B0303",
"T  c #450B09",
"R  c #4B0D0A",
"E  c #520606",
"W  c #580A0A",
"Q  c #48150D",
"!  c #57120D",
"~  c #4F0F10",
"^  c #471613",
"/  c #581714",
"(  c #630405",
")  c #640C0C",
"_  c #6A0E0E",
"`  c #65120D",
"'  c #6C1312",
"]  c #661916",
"[  c #761817",
"{  c #472416",
"}  c #412D1D",
"|  c #552E1A",
" . c #41331D",
".. c #43381D",
"X. c #672419",
"o. c #743316",
"O. c #4B1229",
"+. c #442A28",
"@. c #592726",
"#. c #443422",
"$. c #4A3524",
"%. c #443923",
"&. c #4B3A25",
"*. c #463729",
"=. c #4C3C2A",
"-. c #553927",
";. c #523E2C",
":. c #463A37",
">. c #543837",
",. c #692625",
"<. c #752929",
"1. c #723532",
"2. c #1F4817",
"3. c #2B4B1B",
"4. c #374027",
"5. c #3A4127",
"6. c #3C442A",
"7. c #3C452A",
"8. c #354E2D",
"9. c #366B2A",
"0. c #52461C",
"q. c #42452B",
"w. c #4B432C",
"e. c #41492D",
"r. c #54432C",
"t. c #4C5327",
"y. c #464D32",
"u. c #464E32",
"i. c #494E33",
"p. c #45453A",
"a. c #544432",
"s. c #544A35",
"d. c #594A38",
"f. c #475033",
"g. c #4A5135",
"h. c #4E5438",
"j. c #52563A",
"k. c #57553B",
"l. c #54593D",
"z. c #644B28",
"x. c #634B38",
"c. c #63533C",
"v. c #4F6D30",
"b. c #676E30",
"n. c #1A164F",
"m. c #0D0774",
"M. c #324545",
"N. c #434343",
"B. c #494944",
"V. c #4B4B4B",
"C. c #564848",
"Z. c #4F554A",
"A. c #565D41",
"S. c #595E43",
"D. c #545449",
"F. c #535353",
"G. c #595956",
"H. c #5C5C5C",
"J. c #665944",
"K. c #6F5450",
"L. c #655959",
"P. c #5A6246",
"I. c #5D6549",
"U. c #586D51",
"Y. c #62654A",
"T. c #666448",
"R. c #65694D",
"E. c #76694C",
"W. c #696D51",
"Q. c #64655A",
"!. c #6D7155",
"~. c #747659",
"^. c #5D5E61",
"/. c #646464",
"(. c #696665",
"). c #6C6C6C",
"_. c #756C6B",
"`. c #73726D",
"'. c #747474",
"]. c #797875",
"[. c #7C7C7C",
"{. c #841E1E",
"}. c #85381C",
"|. c #872625",
" X c #8A3534",
".X c #994F2C",
"XX c #977728",
"oX c #AD732F",
"OX c #934848",
"+X c #A45754",
"@X c #847258",
"#X c #8C776E",
"$X c #867876",
"%X c #AD7269",
"&X c #4E8B39",
"*X c #6D9A3D",
"=X c #6B9D51",
"-X c #58B34D",
";X c #6FDA66",
":X c #9C8931",
">X c #AF8D34",
",X c #A9A53C",
"<X c #C29935",
"1X c #CCAB3A",
"2X c #B59847",
"3X c #B5A746",
"4X c #BBAE51",
"5X c #94896F",
"6X c #83827C",
"7X c #A69075",
"8X c #A99870",
"9X c #CFB64C",
"0X c #CBB773",
"qX c #94ED67",
"wX c #D2CE51",
"eX c #E5D054",
"rX c #EFE45C",
"tX c #D4D069",
"yX c #D9E368",
"uX c #F7F268",
"iX c #030081",
"pX c #7F7F82",
"aX c #848383",
"sX c #8A8886",
"dX c #8C8C8C",
"fX c #958D8B",
"gX c #939393",
"hX c #9A9996",
"jX c #9C9C9C",
"kX c #AA9691",
"lX c #92A692",
"zX c #AFA793",
"xX c #A3A3A3",
"cX c #ACA0A1",
"vX c #A9A8A6",
"bX c #ACACAB",
"nX c #B4AFAD",
"mX c #B3B3B3",
"MX c #BAB8B5",
"NX c #BCBCBC",
"BX c #C1AF9E",
"VX c #C2B6B1",
"CX c #CAC5AF",
"ZX c #BFC1C1",
"AX c #C4C4C3",
"SX c #C7C8C7",
"DX c #CCCCCC",
"FX c #D2D0CD",
"GX c #D4D4D4",
"HX c #D9D8D6",
"JX c #DBDBDB",
"KX c #E3E3E3",
"LX c #ECECEC",
"PX c #F9F9F9",
/* pixels */
"X # # # # # # # # # # # # # # # % % # # # # # # # # # # # # # # % # # # # # % % % % % # # # % % # # # # # # # # % % # % # % % # # % % % # # # # # # # # # # # # # % % % % # # % # # # # # # # # # # # # # # # # # # # # # # # # # # # # # # # # # # # # # # X X ",
"X 7 H y.6.6.6.6.e.y.y.y.y.e.e.y.y.e.6.6.6.6.6.6.6.5.G G 5.6.e.i.h.h.y.y.h.j.A.S.S.A.j.h.h.h.j.h.y.e.6.5.G G 5.e.i.h.h.h.h.h.h.h.j.j.A.l.g.y.y.y.y.y.y.y.y.y.y.y.g.j.A.A.j.h.h.h.h.h.h.h.y.y.e.e.e.e.e.e.e.e.6.6.e.q.5.G G G G G 5.e.g.h.y.e.6.6.6.6.e.6.l 3 # X ",
"X 7 H y.e.5.F M M F F F F F F F F F G 5.6.6.5.G F F F F 5.e.y.y.e.e.y.h.A.P.P.P.l.j.g.f.y.y.y.y.e.6.5.5.6.6.6.6.6.e.y.g.i.i.g.h.j.j.g.f.y.y.y.g.h.j.j.h.e.6.5.5.5.5.6.e.y.y.e.q.6.6.q.6.G M h h h h i i h h M M F G 5.6.6.6.e.e.y.y.g.y.e.e.6.6.5.5.5.G F d & X ",
"X 7 G q.%.m h i h h M F F F F c x x c F G 5.6.6.5.G F F G 5.6.6.6.e.y.y.g.g.f.i.y.y.y.y.e.6.5.5.6.e.y.y.e.e.6.6.5.5.6.6.6.y.l.S.l.h.g.y.e.e.y.y.i.y.5.4.4.H ..m H G G 4.H G G G F x a r i i i i i i r r r i h h M F G 6.y.g.j.j.g.y.y.y.e.6.e.6.G F G 5.G c & X ",
"X 7 G 6.G M c c c F G 5.6.6.6.5.F F 5.6.5.5.y.y.y.y.y.y.e.6.6.6.5.5.6.e.e.6.5.5.6.e.e.6.5.G G 5.6.e.y.y.y.y.6.5.6.6.5.5.6.e.y.y.e.e.y.y.6.4.4.5.5.G F F G 5.5.G F M M M c c c n h i 3 & & & 1 1 3 3 & 3 i h n F 5.6.6.e.y.g.j.j.j.h.g.y.y.y.e.6.5.5.6.H h 3 & X ",
"X u q.h.6.G F F G 5.6.e.y.y.e.5.F F 5.6.6.e.y.y.e.e.y.y.e.6.e.e.e.6.6.6.6.6.6.6.6.6.6.6.5.G F F 6.q.e.e.y.y.y.y.6.G F F 5.e.e.e.6.6.6.6.5.G F F D F G G G G 4.4.G H m h p e 3 3 1 1 1 & # X X # & & & 3 r a G 5.6.e.y.g.g.y.e.y.j.j.g.g.y.y.y.y.e.6.6.H h 3 & X ",
"X u i.A.y.6.6.e.y.y.e.e.h.h.e.5.F c c F G G 5.5.6.e.h.h.g.g.h.j.g.y.y.y.e.6.e.e.e.e.6.6.6.6.4.H m %.5.6.6.e.y.y.6.G F F 5.e.h.h.g.y.e.6.G M F F c F G G F F G G F x a r r r 3 & # # & & # X X X # # & 3 i n G 6.y.g.j.A.Y.R.I.I.R.R.I.A.h.y.e.6.5.5.6.6.F d & X ",
"X u i.P.h.y.e.e.y.y.y.g.j.h.6.G F x a a x c F G 6.e.e.y.h.j.j.j.l.j.g.y.y.g.h.h.g.y.e.6.6.6.F F G G G G G 5.y.y.e.6.F F G 5.y.g.h.h.e.5.F c F F G G G G F c c x a r r r 3 3 3 & & & & & # X X X X # & 7 d G 5.e.h.l.S.P.P.I.R.R.I.P.P.A.h.y.y.y.6.5.5.G F d & X ",
"X u g.P.l.h.e.e.y.g.h.j.g.e.G c M x p p a h M G 5.6.6.e.y.g.j.l.S.S.l.j.j.j.g.f.g.y.e.q.e.6.G F F F F F c F 5.e.y.y.5.G G G 5.5.5.G F F F F G 4.4.G F M h i 3 & 1 1 1 1 1 3 e e 3 & # # & & # X X # & u F 6.y.g.j.j.j.l.P.I.R.R.I.P.P.P.l.h.g.y.y.y.e.5.G d & X ",
"X s j.R.S.j.j.h.g.y.g.g.g.q.m h h h r i x F G 5.6.e.y.g.h.h.g.y.y.y.y.y.y.y.y.g.h.h.g.y.y.y.5.G F c c c c F G 5.6.6.6.5.G G 5.6.6.6.5.G G G G 4.G 4.G G F d 3 & & 3 e p t t r r 3 & & & & & & 1 3 u d F 5.e.y.y.f.g.j.S.Y.W.!.W.Y.P.P.P.l.j.g.y.f.y.6.4.G c & X ",
"X s j.Y.l.g.j.j.g.g.j.j.g.q.m a p t r a x c c F 5.6.6.e.e.6.G F M M M G 6.6.6.e.y.y.y.y.y.q.m h i i h a 3 u F 5.6.e.e.6.6.6.5.5.4.G F F G G F F G 5.5.5.5.F u & & u x M h i 3 & # & i i 3 3 i n H e.y.y.y.y.y.g.j.j.j.S.Y.R.I.Y.W.W.Y.P.P.S.l.h.g.y.e.5.G d & X ",
"X u i.I.P.P.P.A.h.g.j.j.g.e.G x i r e t t t p x F 5.6.5.G c M M h h i i h h M F 5.e.y.y.6.G F x a i h h M F 5.e.y.y.y.y.i.y.e.q.6.5.G F G 5.6.6.6.6.6.e.y.y.e.5.F c c c M d u 1 & u F F u 7 d G e.g.h.j.j.j.j.l.S.P.P.S.l.l.P.P.P.P.P.P.l.l.l.h.y.6.G F c d & X ",
"X u q.A.P.P.l.j.j.j.j.h.6.G a r 3 & & & & 3 i h M F G G n h h i 3 & & 3 r a x F G 5.6.6.5.G F F 5.6.5.5.y.g.h.h.p.:.*.=.p.p.a.r.:.I I :.=.&.y.y.6.6.y.g.h.j.j.i.G x i a x M h h G H 6.5.F c M G 6.e.y.g.j.j.j.j.l.l.l.j.j.l.P.P.l.l.P.P.P.S.l.j.j.h.e.G u & # X ",
"X u q.A.P.P.l.j.g.g.j.i.m i 3 3 3 3 & & & 3 e p c F G G F x a 4 & # & 3 r r r a G 6.y.y.e.6.6.6.6.e.y.g.j.j.g.y.w.#.s s a h h a C Z Z Z h n 5.e.h.h.g.y.y.y.6.G a r 3 3 i h M F G H 5.5.6.e.y.y.y.g.j.j.j.j.g.g.j.j.j.j.j.j.l.l.l.j.g.g.f.g.j.j.g.y.y.6.c 0 % X ",
"X u q.S.Y.R.I.A.l.j.j.i.H c c c c d 7 & & 3 e p c F G 5.4.G n i 3 & & 3 r r r h q.g.j.j.g.y.e.e.y.g.h.l.P.A.h.y.w.#.h s J L L A Z s a h i h H 6.6.6.5.5.6.6.G x 7 & & 3 e p x F 5.6.6.6.e.e.6.6.6.y.l.S.l.j.j.j.j.j.j.j.j.l.S.S.l.h.g.y.y.y.f.i.y.y.e.6.F d & X ",
"X u i.P.A.j.g.y.e.6.6.6.5.G F F G M u & & & e p c G 6.6.5.G F x a r r r r r r n y.l.l.l.j.j.g.g.j.j.j.l.S.P.l.s.r.*.S A A A A C = > Z A A Z D M F c a f j m m d 7 & & 3 r r h n H e.y.y.y.e.G F 5.e.y.g.j.j.g.i.y.g.j.j.g.y.y.y.y.g.h.h.g.y.y.y.e.e.e.6.G d & X ",
"X u i.P.l.h.6.G F M h h i i i f j j 4 1 & & & u d G 5.6.6.6.6.5.F c c x i i x H i.l.P.P.P.S.l.j.j.j.g.g.y.h.A.l.a.*.J A Z 8 = .   = A I L S z m m j i f j m m j h r r r 0 & & u x G e.y.6.G F F 5.6.5.6.h.l.j.j.g.y.e.6.6.6.q.q.q.e.y.f.y.y.i.i.y.y.y.e.G d & X ",
"X u q.j.y.6.5.G F d 7 3 h j f i h h j h 3 & & u x F G 6.y.f.y.y.e.5.G x i h H e.h.l.P.P.P.S.l.j.j.l.A.l.y.e.y.y.w.#.h s Z S m #.J L L J s a H q.e.6.G G 6.e.y.e.5.F x t r r t p c F 5.5.G c p x F G G 5.y.g.g.g.g.e.G M m m m m 5.e.y.y.y.g.h.h.g.g.j.h.6.c & X ",
"X u q.h.6.H H G F d 3 3 d M h i 3 7 d c p t t p c F 6.y.h.j.g.y.y.y.e.5.n m q.f.y.g.j.j.h.g.g.i.y.y.e.e.6.e.y.q.h 4 - = = ; - - & - : = = : H g.j.h.g.g.h.h.e.6.5.G F c c c p p c M h a p t r a x c c F G 5.6.e.y.e.G n h n G H 5.5.6.e.y.y.g.g.i.g.j.g.5.d & X ",
"X u i.A.y.5.y.e.G x 7 3 i h M d 7 3 i h h h c c c G e.g.g.f.y.g.j.j.g.e.5.5.y.f.g.g.j.j.j.h.g.y.e.6.5.5.6.e.y.e.G c c G 6.I L L I p.g.h.h.h.j.h.g.g.g.g.g.i.y.g.j.i.G F G F x p c x a r t t 0 & & 3 i h M F G 6.y.e...j j m H 5.6.e.y.y.e.e.h.j.j.j.h.y.6.c & X ",
"X u q.j.g.g.h.j.g.q.m h h h h h i r 3 3 i h c c c G e.f.y.y.y.g.j.j.g.y.e.e.y.g.A.S.l.j.g.g.y.y.e.6.5.6.y.g.j.h.i.y.y.q.m J :.P > : G e.e.e.e.g.l.P.P.S.l.h.g.g.j.i.G F G F x p c d u 3 r r r r r r t p c c F F G G F G 5.6.6.e.y.g.j.j.g.g.h.j.j.j.j.h.6.c & X ",
"X u q.j.g.y.y.g.h.s.r.%.G M h h M x u 3 e t t x F 5.6.e.y.y.y.g.j.j.g.y.e.6.5.5.y.g.j.j.j.h.g.i.a.s.j.l.A.A.h.g.i.f.i.e.L :.J.c.$.#.y.l.A.P.P.S.l.j.l.j.g.g.y.y.e.6.F c F c a r i i i i i i r r t t r a x F G G G 5.6.6.6.e.y.g.j.j.g.g.h.h.g.y.y.g.j.h.y.G 3 X ",
"X u q.l.l.h.e.e.y.g.h.h.g.q. .m 5.6.5.G n h h h M F F G 6.e.y.g.j.j.g.g.g.e.G F 5.y.h.j.g.g.h.j.s.a.i.g.g.h.A.S.l.j.j.h.B.I L A F 6.g.j.j.j.l.l.j.j.j.j.j.j.g.y.6.G F c M M h h h h M c c x a i i i r i h h c c c G 5.6.5.5.y.g.g.y.y.y.y.y.e.6.6.e.e.6.5.c & X ",
"X 7 H g.g.y.e.6.e.6.5.6.6.q.m m 5.q.=.w.y.e.5.G G G G 5.y.y.e.y.l.P.P.P.P.l.y.e.y.g.h.j.j.h.g.y.=.r.s.l.A.P.P.P.l.j.j.i.H F L L A Z H e.y.g.g.f.y.g.h.j.j.j.g.y.e.5.F F G G G G F F G G 4.G F M M x a i t e 3 u x G 6.6.6.e.y.f.y.y.e.6.e.6.6.6.6.6.6.6.G d & X ",
"X 7 H g.g.y.y.g.h.h.g.y.y.y.e.e.y.y.y.y.y.y.y.y.y.y.e.6.6.e.y.y.f.g.j.l.P.P.P.P.l.h.y.e.e.e.e.q.%.=.s.j.j.l.P.A.h.y.y.i.B.B.V.N.L J G 5.y.y.i.y.y.y.y.y.y.y.y.y.e.6.F F G G 4.5.6.6.6.6.6.6.6.6.6.6.5.G a a x F 5.e.y.y.y.y.y.y.e.6.6.6.6.6.5.6.y.y.e.6.5.c & X ",
"X 7 H y.y.y.y.y.e.e.y.y.e.6.5.5.6.6.6.6.6.e.6.6.5.G G G G G 6.e.y.y.e.y.l.P.P.P.P.l.y.6.y.y.y.e.q.e.y.y.e.e.h.h.g.y.y.y.B.:.S z #.%.H 5.6.e.y.y.y.y.e.6.5.5.6.6.6.6.5.G F F 5.6.6.6.y.y.y.y.y.e.e.6.6.6.6.6.6.e.y.y.y.y.y.y.6.5.6.6.6.6.6.e.y.y.y.y.y.e.G d & X ",
"X & d F G 5.6.6.H G F c c c c F G G F F 5.6.H G G c 7 $ + 0 c G G G G G 6.e.y.y.5.G F c c c c c c F 5.6.6.5.5.G F x a s A L I L 8 > D H 5.5.G G F c c c c c c c c x a i p e & % & 0 x c d p i a F G G H 6.6.H G G H 6.6.5.G G G F c c F G G 6.6.6.5.H G F d & X ",
"# # # # % # # # # # # # # # # # % % # # % % # # # # # X X $ # # # # # # # # % % % # # # # # # # # # # # % % % % % # # 7 J :.N.p.L Z : # # # # # # # # # # % # # % % # # # # # # $ $ # # # # # % % % % % # # # # % % % % % # # # # # # # # % % % % % # # # # # X ",
"c F G G a r 3 & # & e p p p p p x c c c a i i i 3 & # # & & # # 3 r i r 3 u F G F d u & % # # # # # # & d c c c c c c H d.d.%.J P P c p u 3 & & e e & 3 d c a i p p p e 3 3 r r & # & u d F 5.5.H G F d & & 3 a x c D c p e & X @ @ 0 0 t p c F F c a r 3 & # # ",
"6.e.y.y.6.6.6.5.G G G 5.6.6.4.G G 5.6.6.e.i.h.i.6.G G c & X X # & u G 6.6.6.y.y.y.y.q.6.6.6.G G z z G 4.6.q.%.%.q.y.y.I.=XgXdXdXdXaX].).).G.Z # & & & 3 u G e.i.5.G F F 5.6.6.5.F c F G 6.6.6.6.6.6.5.G G G G H 6.e.y.y.e.5.H F c M G 5.e.y.h.j.j.h.i.6.F c F G ",
"5.5.6.6.G F F F c F 5.6.5.4.4.4.5.G F F G 5.6.6.5.4.5.F 7 X X & d G e.y.6.5.6.e.y.g.h.j.l.h.y.q.%.%.q.y.y.e.q.Z.).[.aXsXgXsX).'.gXjXgXdXdXaX'.).).).).'.aXdXdX].G.6.L L 6.e.e.6.G c F G 6.6.5.G F F F M h n G 5.5.6.y.y.e.6.6.5.F F G 5.6.6.5.6.y.g.g.y.6.G F F ",
"6.6.6.6.5.G G G F F G 4.4.5.6.6.e.6.5.G 4.5.6.6.5.5.6.5.F d & & d H i.j.j.g.6.5.6.y.h.l.I.!.'.[.$X6X6X[.].dXNXmX].).gXbXbXgX(.G././.G.V.V.G.[.jXxXxXgX[.H.).jXjX).F.N.N.N.V./.H.g.6.6.6.y.i.y.y.y.6.H m j m 5.e.h.j.j.h.e.6.6.5.G G e.y.e.6.5.5.y.g.j.j.j.g.6.5.",
"6.6.6.6.5.4.4.G F F G G G 5.6.y.h.h.e.6.6.6.6.5.F G 5.5.F d & # 3 n i.S.S.S.S.A.d.d.A.D.B.F./.[.hXvXmXmXmXNXGXNX].'.xXNXbXxXjXvXNXAXmXjXaX].[.gXvXbXxXdX[.[.gXdX]./.F.V.V.F.H.).aXhXjXvXmXmXmXNXAXAXmXdXD.6.i.h.A.S.A.j.y.e.y.y.e.e.h.j.g.y.6.6.y.g.j.l.P.P.P.P.",
"4.5.y.y.y.y.y.e.G c c F 5.e.y.h.A.A.h.g.y.y.6.G G 5.6.G u & # % e h.gXAXHXJXHXGXSXNXbXhX).N.> I xXSXbXxXxXbXNXAXNXNXNXNXMXNXDXHXJXJXKXJXAXbXdX[.[.dXmXmXjXsXaX[.'./.F.B.V.G./.].gXxXbXbXxXxXxXvXbXNXGXAXhXaXgXxXAXAXxX=XA.e.y.y.e.e.y.g.j.j.j.j.j.l.S.P.P.P.P.P.",
"6.6.6.e.y.y.y.y.5.G F G e.g.j.j.j.l.P.P.l.h.e.6.5.4.5.F 7 X X J ].jXjXmXJXPXPXPXKXDXNXjX'.V.C = C V.aXNXKXPXLXJXDXNXvXvXNXNXbXNXLXLXDXNXbXvXvXgX).'.bXNXxXsX].)./.F.N.N.V./.].sXjXxXxXjXdXaXgXaXG.N.L K L N./.gXSXHXNXjX).Z.h.y.5.6.g.l.P.P.P.P.l.j.l.A.P.I.I.I.",
"y.y.y.y.e.e.y.y.6.G G 6.g.j.j.j.j.j.j.j.j.j.g.y.5.5.6.G x c 6.G.'.].'.dXSXLXPXFX%XOX#XsXdXgXgX#X XOXcXJXPXPXLXKXJXDXNXmXNXbXjXxXAXDXmXxXjXxXbXAXJXJXmXgX].).'./.V.I P I F./.pXhXvXvXjXhXjXjXdX).L > = = > A V.[.NXGXNXjX].G.h.g.h.h.g.h.A.I.R.R.I.I.Y.W.!.!.W.R.",
"l.j.h.y.6.6.y.y.6.6.y.y.y.g.j.l.j.h.y.y.h.j.g.y.e.6.6.H J A L L I I I G.hXmXxX$X X XkXxX].K.<.OXkXMXNXDXKXLXLXGXvXdXdX[.).[.mXJXKXKXJXNXdX[.jXAXLXJXjX/.V.G.hXdXV.Z C K V.).gXvXmXvXjXgXhX].N.Z C Z J L A L G.dXAXJXSXxX].H.F.B.j.j.j.j.j.l.P.I.I.P.P.I.R.R.R.R.",
"P.P.P.A.h.g.j.j.g.y.e.6.6.e.h.j.j.h.g.g.j.j.g.g.g.6.Z > > > > > = = > I /.[.[.L.Z - L P A +.<.+XkXNXNXAXSXAXNXmXNXxX).).jXAXGXKXKXGXNXvXjXjXvXmXmXxXaX'.'.'.]./.N.A A L N.V.G.'.jXxX].H.G.F.N.N.G.].jXNXSXGXGXDXAXmXjXsX[.).G.B.p.e.h.j.j.A.Y.R.R.R.I.P.P.I.R.R.",
"P.I.R.R.I.S.l.h.g.e.5.5.6.e.h.h.g.g.j.l.P.S.l.j.j.g.P A C A N.I >   . 8 N.N.A L F.F.L Z A P C.K. X+XcXAXGXJXJXJXGXAXjXvXJXPXPXJXxX].'.).'.gXAXAXgXaXxXNXGXAXhX]./.G.N.I I I L N.'.).N.V.aXmXGXGXNXNXGXGXDXAXAXNXmXxXgXaX].).H.F.N.6.y.g.j.l.l.A.P.I.P.P.P.P.I.I.",
"R.R.I.P.P.A.g.e.G F F G 5.e.y.y.y.h.A.P.l.j.g.y.y.g.h.h.B.H.dXjXgX_.@.T S I V.G.G.V.A C Z +.1.|.|. X#XgXvXAXLXPXKXAXxXbXKXLXmXaX).N.- L hXAXNXjX'.'.jXSXLXGX].V.G.G.V.N.V.V.N.L L F.dXgX'./.).aXjXbXbXbXvXvXvXxXjXdX]./.F.V.V.V.N.p.e.e.h.l.S.P.P.P.P.P.P.P.P.P.",
"l.h.y.6.5.5.G F M F G G F m m ..q.g.j.j.g.y.y.y.e.e.y.i.B.N.N.:./ T o = L B.F.G.H.G.V.I C 8 Q ) [  X#XsXsXxXGXGXxXdXdXvXKXPXLXNX[.C.Q 1.kXSXMXbXxXgX].dXAXJXGXmX'.V.N.I L A A I H.).'.)./.(.].aXdXgXhXgXaX[.'.).H.F.N.I I N.V.V.K Z 6.h.j.j.g.g.j.l.P.P.P.P.P.P.",
"e.6.5.5.y.y.e.6.5.G F F 5.6.5.G a n q.g.g.e.G G 6.6.J I V.V.N.L > .   - L I L L L B.)./.L A I C. X+XcXAXSXDXGXAXxXhXjXmXLXPXPXGXaXC.,.OXkXDXJXNX].N.I H.xXNXxX].V.I P L A 8 > K G./.F.V.V.F.G.G.F.F.G.G.V.N.I L L P N.V.F.B.D u q Z y.l.l.j.j.j.j.l.P.P.P.P.P.P.",
"5.5.G 5.6.e.y.y.e.6.5.6.y.y.6.G F G e.g.j.j.g.y.y.y.y.Z.Q.dXAXNXaXC./ T 8 Z L L A I ).aXgXgX=XaXhXvXMXDXLXPXJXDXAXmXxXmXKXPXPXHXaXC.<.' ! OXFXJXsXC.Q @.$XaXV.A A A A A > = = > I V.V.V.F.F.V.V.B.B.B.N.N.B.V.F.F.F.F.V.N.L q q 6.l.P.P.P.P.l.l.P.P.P.P.P.P.P.P.",
"6.6.6.e.y.f.f.y.e.e.y.y.e.6.6.6.6.6.y.g.h.j.j.h.g.g.j.y.Z K F.^.F.C.<.<.C.C.<.] S L G.'.aX].G.F._.sXxXNXGXKXKXGXbXjXhXjXbXAXJXmXG.> . P gXDXFXDXAXfX,.@._.gXdX_.I > > > > > = > A I N.V.H.).].[.aXaX[.].'.).H.V.N.I I L D w 0 p y.S.Y.W.R.R.R.Y.I.P.P.I.P.P.l.j.",
"6.e.y.g.j.j.g.y.e.e.e.e.6.6.6.6.5.G F G e.i.g.y.y.g.j.e.s L ).hXjXbXSXBX+X|.` ^ S Z ; Z G./.N.*.,.OXfXmXNXSXJXKXGXmXaX'.aXhXxXdXV.L F.].bXGXLXSX).I N.G.).).V.P A > . . > A A Z C C Z A L I N.N.V.V.B.N.P 4.9.9.9.M.m.m.B ^ s.P.R.W.!.!.W.R.I.P.P.I.R.R.I.P.l.j.",
"y.g.h.j.j.j.j.h.g.y.y.y.y.y.6.5.4.G F F G 5.y.y.e.e.h.h.e.H A P F._.aX[.G.B.B.B.V.6.q q I ).xXkX+XOXfXbXNXNXAXGXLXPXJXAXmXbXmXmXmXnXbXvXbXhX).G.F.F.V.G.).L.,.W Y < o > V.).].).F.I A C q @ @ @ 0 0 w 2.3.2.w ; N N n.n.N N B.I.I.P.P.I.R.R.I.P.P.P.P.P.P.P.l.l.",
"j.j.j.l.P.A.h.y.e.6.6.6.e.e.y.e.G F G G F F G G G 5.y.i.y.e.5.z / W ] ] ! ^ S A L 8.9.9.w 8.gXfX1.` |.+XkXZXLXPXPXKXvX].G.).bXGXJXKXKXAXdX/.F.:.^ @._.(.P > > 8 < < o D (.gXxXgX).F.V.N.L Z > : @ @ @ 0 w w * * * * * N m.m.N.j.j.j.l.l.l.A.P.P.A.l.l.A.P.P.P.P.",
"6.e.y.g.j.h.e.6.6.6.6.e.y.y.y.y.e.5.G F c c c c c F 5.6.5.m Q Y Y Q 3.3.3.v p p p p 0 0 v 8.].[.G.>.,. X#XmXKXPXPXPXPXmXI V ).xXDXGXAXjX).F.F.'.nXnX).L = . = 8 R E Y X.@X5XsXaX).H.G.H.]./.A = = q L 8.8.w * * * *     * = H g.g.h.A.P.P.I.W.!.!.!.!.W.W.R.I.P.",
"G 5.5.5.6.e.6.6.5.5.6.e.y.y.e.6.5.G G G F F F c a a G G a 6 ! X.d.l.9.9.2.w 0 w 9.8.6 @.$XaXH.F.).L.@.,.$XxXjXmXLXLXmX_.@.< O I gXjXH.I I (.NXSXgXH.L C L *./ T o , W _ ) X.x.K.(.)._.).H.V.I A Z A V.Z.9.M.m.iXm.N < Y U Q w.h.g.g.A.P.P.P.P.P.P.P.P.I.R.R.R.R.",
"G G G G G G G G F F 5.6.6.6.6.5.F c c F G G G F c c c c c d & , R / v w 0 @ + w 9.9.0   O > L N.V.V.P B.].gXhXvXDXJXDXgXL 8 F.].aX[.H./.gXAXLXGX].I Z > > - O X & f X.|.|.[ [ ' W W E Y T U U < 8 A I ^.dX$X@.B m.m.B Y Y Q %.y.y.y.y.y.y.y.y.g.j.j.j.j.j.l.Y.R.",
"c c c x p e & # # & e p c M h h i i t p p e & % & & @ @ r 3 # 3 }  .t 0 0 0 2.3.v f R ,.$XnXSXDXNXaXL . . A /.jXGXLXLXKXDXAXNXNXNXfX@.1.nXGXjX[.].).L.:.- , ,.|.|.<.>.C.(.K.<._ W Y Y T 5 5 < Y ) O.m.m.O.B m.m.B U Y < , $ @ @ & 3 i r 3 u F 5.6.6.5.G F M F F ",
"# # # # # # # # # % % # # # # # # # # # # # # # # # $ $ # # X # # 0 3.3.6 6 t 2.9.v.o.OXcXFXGXAXxXsX[.G.d x Y.6XjXVXLXPXPXPXLXNX).N.I (.mXGXAXjX/.:./ ) [ [ W W ) ) E Y E ~ W E Y U U < , % # , < Y W R 2 N m.m.B < , o # # # # # # # # # % % % % % % % # # # # ",
"X & 3 a F G G 6.i.g.6.F u 3 e p x c c c c c c c c d 7 & & & # & v 3.2.3.9.9.2.w 3.3.x d.xXSXNXfX1.,.$X_.@.@.J.5X7XzXHXPXPXPXPXNXG.V.hXZXAXmXgX(.,.W Y W ) _ W < 2 2 E ) _ ) E U U < , : d F G z T Q 3.3.3.K m.m.* o R / #.G 5.6.e.e.6.6.e.e.6.5.G G G F a 3 & X ",
"X 7 F e.y.i.h.l.S.S.l.h.e.6.6.5.G G M c c c c c c c c c c n l { ~ W ' / ,     0 9.9.v 3 - > A +.! ! +.L A +./ 1.#XhXjXnXJXJXbX[.N.L N.H.aX[.V.K A C O , <.|.{.[ [ [ ' ( E Y Y < , = & u F 5.e.e.q.6.5.5.6.8.8.8.D c M G G H 4.G F M F M n h M M h h M F G c & X ",
"X & c 5.H 6.y.g.g.g.y.e.G x a i p p p p a h i i i r & # # % & 2 U W [ |.[ ' W | *X-X8.- & @ @ 4 R W W W ) ) ) ) ' 1.$XdXaX[.aX).N.A A L I I L C = o < E ) [ [ [ [ ' _ ( E Y Y < , = & 7 d m m %.H 5.6.6.e.6.G M h h M F G G F c h h M M M c p p x F G 5.6.G 7 X ",
"X & i n M F 5.6.6.5.G M F c p e 3 3 e t p p a h i r 3 1 3 r r i h { ! R , , T W ! Q y 5 W R 2 q Z +.! ( _ ' {.[ W T S P I :.I I :.I A Z Z 9 < U U ! |.|.{.[ ' ) E Y U Y W ) ) ~ , = = : d F 5.q.=.=.q.q.e.6.5.G F F G G F c p e 3 7 d F G G n h h h M F G D & X ",
"X 7 H q.l a x F G G a a G G F c p p a h M M h h h i 3 3 r i h h f { ] [ ' ! , O - 7 u 6 W T o o T W W ) ' ` W Y Y E W ) ) / S Z = = Z S T < o o W _ ' ' [ ' ' ( Y U Y < 2 & & 2 < < 8 ; + > q.k.a.;.;.a.j.i.H M h h h h M x e & & 3 i n 5.6.5.G n h n F G c & X ",
"X & F G F x a i h h r a F G F c c c c F G G G G F M h h h h  .#.$.{ R T j d $ . = : 3 1 o O . . @ u Z N.L._.).K.,.[ |.|.W Y Y Y Y Y Y Y Y < o o < W ' [ ' ) E Y U Y Y < 2 @ ; - 7 i 8 = . : q.k.s.a.a.s.k.s.=.J m c c c x 0 @ @ % 3 e x F 5.5.G F M h h i 3 & X ",
"X & F G a i h h i 4 3 7 x x u 3 & & & u F 5.6.5.F F G G G H %.$.&.&.$.k - . . + = 8 R W W T 8 ; 0 F G.).'.'._.K.,._ _ [ [ |.|.|.|.{.|.|.|.] ,   . , ! ' ' ' ' ` ~ @.L./.L > C C 8 8 s u - > D 6.=.;.a.s.k.h.6.G h h n M c x a r & 0 x F G 5.5.H m m m d u & # X ",
"X u q.i.H n m j 4 3 & 3 a a 3 & # X X & d M M M M F G 5.6.6.6.e.y.y.&.S s - $ $ = - & & % :.hXmXjXaX].].gXfX+X X|.[ _ W E T 4 & $ 9 [ {.' ) ( ' <.<.>.B./.sXvXVXAXkX1.1.nXFXvX#X,.X.K.G.C ; F q.%.$.=.w.y.q.m h i f / / z c p e 3 u F 6.e.y.e.5.n h h h p 0 % X ",
"X 7 5.e...m 5.5.m l n c c d 3 & # # & 3 i h i f j m M c c G 5.6.5.H H F a 3 # # & & - N.gXNXCXnXgX[.).'.aXhXbXkXOX[ ' ] >.:.^ < % 4 ! ) E U U E _ ,.>.G.'.gXmXDXKXJXNXNXGXHXSXkXOX] 9 > - 8 H q.y.e.q.e.y.e.G c c F G H H G F x h n G 5.6.6.5.5.5.H  .l i & # X ",
"X 7 G 6.G G 6.6.G F G G a r & # X # & & & 3 4 i h h p t p x F H G G F c s : & & & 3 k z l b.9XtXkX[.Q.D.B.L.7XBXMXkXOX[ ) / +.A = . O 9 <.X.4 # T / >.F.(.aXxXNXGXGXSXNXNXAXSXBX+X|.` W ) ' [ ' _ ] @.=.q.5.x t a n G 5.6.5.F F G 5.6.e.y.g.h.j.j.h.e.6.H c & X ",
"X 7 G q.H m H 4.G G F F G G a r 3 & & 3 1 & & 3 r r 3 3 r i h h h h M x a 4 3 3 3 4 3 1 3 s.jXNXjX].B.;. X+X7XzXnXkX X' W ^ S V = , ] [ ' ~ 2 @ & 3 < Y W <.#XnXSXDXAXMXzX%X+X.X>X>X.X|.' ` _ _ ( ) ' X.| m h r 3 u F G F F c F G 5.6.e.h.l.P.P.l.j.g.q.n 3 & X ",
"X 7 G 6.5.G F F G H m %.i.h.e.H x p x x a 4 1 & & 1 3 3 3 3 i h m j g k f f i r r i f 4 O L dXBX0X9X9X9XrXyX0XzXzXzXsX`.F.I Z k <..X<X9X9X>XX.R *.L - o < Y W ,.$XjXmXMXzX8X2X>X<X2X7XkX9X>X}.) W ! { #.H G n h i a x F F M F G 5.e.h.j.j.l.P.P.l.j.g.y.5.c & X ",
"X & c 5.6.5.m ..e.y.e.y.l.A.h.q.m m H H m h 3 & & u d d 7 7 d G e.q.#.z j i 1 # & 3 r 1 . I xXGXAXzXoXXXoX>X1X9X0XkXsX).V.*.,..X>X>X.X.XoXoXo._ ) / 9 > . o < / L.[.jXbXmXnXxXhXhXhXvXBXtX9X}.W ( / #.6.q.5.G M M M h h M F G 5.y.g.j.S.Y.Y.S.l.j.j.j.g.6.c & X ",
"X & c 5.6.6.6.e.h.h.e.6.5.6.6.6.5.5.6.6.G x a i h n G G F M m m 5.q.#.}  .j y 4 3 3 4 3 & P aXxXhX[.(.@X9XeX1X2X7XsX[.L.{ o.>X>X0.2 5 ^ ~ ! ' ' [ _ E < % = 8 L V./.[.hXbXmXbXvXbXzXtXrXuXwX}.W ( ' |.|.[ X.&.5.%. .H G 4.5.y.g.j.l.j.l.P.I.R.Y.S.h.y.6.5.c & X ",
"X & d M F G 6.e.e.6.5.5.y.y.e.5.F F 5.6.6.5.F F G 5.6.6.6.5.G G 6.q.=.;.;.=.} g g 4 1 J _.aX].).H.).dXvXSXCX2XoX.Xo./ @.C.5XyXeXoX|.[ [ _ ,.K.K.,.) ( Y 8 > > C L B.L.[.hXbXmXCXyXuXuXuXeX>X}.W W W ` X.&.q.e.e.y.y.y.y.y.y.y.h.A.P.P.P.P.I.R.R.I.A.h.y.5.c & X ",
"X % 3 h H e.y.y.5.G G 5.y.y.e.5.m m H 5.4.5.e.y.e.q.q.q.e.6.6.e.y.i.a.-.X.] { f 5 4 1 J ).aX]./.V.F.).gXMXDXGXGXFXFXDXbX'.5XtXuXeX9X<XoX}.<.C.B.k % O , T ~ ! ~ R T T @._.gXjXzX9X9X9X1X1X1X1X:Xm q G i.h.h.g.y.y.f.y.y.y.g.h.j.l.l.j.l.P.P.P.P.l.h.y.6.G d & X ",
"X & c G 5.5.6.6.5.G G 5.6.e.y.y.e.6.5.5.6.6.e.y.h.j.g.y.y.y.e.e.h.s.=.#.} { ~ R 6 4 2 a.jXAXmXdXG.I I G.gXxXgXaXaX].).).pXzXtX9XoX X|.[ _ / >.I C % < ^ :.H.].6X[.(.:.C > K H.].5X8X2X>X<X:Xv.&X;X-X8.- C L e.g.j.h.g.y.y.y.y.g.j.j.j.j.j.j.j.j.g.y.y.e.G d & X ",
"X & d F G 6.y.y.e.6.5.5.5.6.y.f.y.y.y.y.y.g.j.j.l.j.j.j.j.h.g.y.f.y.w.$.} { R R { z g J.cXGXGXAXxX[.G.V././.G.F.F./.].].H.~.tXtX@XV.I +.] _ E ^ S A =   . > L V./.'.[.).V.N.F./.].6X6X`.v.&X;X;X&X3.Z A B.D.D.h.g.g.h.h.g.y.e.e.y.g.j.j.g.y.y.y.6.G F c u & # X ",
"X & c 5.6.e.y.y.y.y.y.y.e.e.y.y.y.g.j.j.j.l.P.P.P.P.l.j.g.y.y.f.f.y.e.&./ ! ^ ^ / ] | J.sXxXxXvXbXxXaX).).].dXhXgXjXmXmXjX6XQ.V.p.I L S R Y Y T S Z = .   . > A N.G.).`.H.F.V.V./.).).].dX=XU.3.w ; q A I N.g.f.g.g.g.y.e.6.6.6.6.6.e.e.y.y.e.6.5.G 4.c & X X X ",
"X 7 G e.e.e.y.y.e.6.6.6.5.G F G 6.y.h.j.j.l.P.P.l.l.S.l.y.e.y.g.j.h.e.H z ^ / ' ' ] -.$.g *.(.aXaX].G.V.V.H.].aXaX].).).).).Q.H.H.H.F.:.Q U 6 f : = $ $ % & : q A I G././.G.I A L I N.G.).(.F.F.)./.L > C J i.l.l.j.g.y.y.y.e.6.6.6.5.G F F G G G G 5.F u & # X ",
"X 7 H g.f.y.e.6.6.6.5.5.4.G G 5.y.y.i.y.y.f.g.y.6.5.6.y.h.j.g.g.h.s.w.#.z g z { ~ ! { } f a.sXfXJ.=.s.B.:.I I I I I A I /.5X4X2XE.V.I S ~ E ^ l P J.2X:X..= = = > Z :.F.H.F.L Z J I N.G.[.aX].)./.V.Z = = Z S.!.Y.A.h.y.y.y.y.y.e.6.6.6.5.G G G G 5.6.5.n i & X ",
"X u q.h.y.6.6.e.y.y.e.6.6.6.6.e.y.g.y.y.e.e.y.y.e.6.6.e.h.h.e.6.5.G F n i 5 f f f g z a._.dXxXsXD.b.wX9X}.R 8 > > Z L I I P L P :.I L S < U 6 J V.K.OX<.z : = = > 8 < ^ :./.gXxXhXaX'.)./.H.V.N.P A C > : Z A.R.I.A.h.y.y.y.y.y.y.y.e.e.y.y.e.6.6.e.y.f.y.H 7 X ",
"X u i.A.h.y.y.y.e.e.6.6.6.e.y.g.j.h.e.e.y.y.g.g.y.y.y.y.y.y.6.5.5.H m g 3 3 4 4 4 #.Q.).V.I V.).xXkXOX' ! ^ S A A I F./.].).N.A C C A S T T g d.].).C h :X:X..+ = = $ - Z L N.G.).'.'./.F.N.L L I I A &.XX:XE.P.A.j.g.g.g.g.g.y.e.e.y.y.y.y.y.y.e.e.y.f.f.H 7 X ",
"X 7 6.y.6.5.5.5.6.6.6.e.y.g.h.j.j.j.g.y.y.g.j.j.j.h.e.6.e.e.y.g.j.s.=.} f 4 4 5 5 4 3 s p.G.'.sXkX#XP P `.6XH.I Z s C A P B.H.F.A C A N.L.L.V.:.J a - A Q.Q.F + + b :X:X%.; Z V.$XxXvXxXaX/.V.I A Z > Z i.l.P.I.R.R.I.I.Y.Y.I.A.h.y.e.e.y.y.y.y.6.5.5.5.5.F & X ",
"X 7 H g.y.y.e.H h h H e.y.g.j.l.l.h.y.6.6.e.h.l.l.j.g.g.h.j.j.l.P.l.=.} f r f f 5 4 4 =.$XhXaX[.[.[.pX5X4X2Xk.8.&X&Xo./ 8 q C +.1.|.[ ' ' X.:.I n g / }.>X9X<XXXb b XXXXr.C V A N.F.F.V.V.I A 8 - s e.h.g.h.A.P.P.P.P.S.l.l.P.A.h.y.e.6.6.6.e.6.5.G G 5.5.c & X ",
"X 7 H y.e.6.6.H x p F 5.y.g.h.l.S.A.g.y.e.e.h.l.P.A.h.y.y.y.y.g.j.i.*.} z z } } g y y =.).[.).`.gXgX_.(._.G.Z 5.:XeXrXyXqX-X-Xv.| W ( _ _ / S Z a 6 T { &X=X3XwXeX,X0.$ 8 Z L L L A C > - 8 T E Y ^ r.j.g.g.j.l.l.j.g.g.h.j.j.j.g.y.y.y.e.6.5.G F F 5.6.5.c & X ",
"X 7 G 6.5.G G c & & i n G 5.6.q.y.y.y.y.y.y.y.g.j.j.g.y.e.6.6.5.G d 7 3 4 5 g { ~ R 6 S :.N.L A L S ^ @.G.G.I T.tXuXrXwX1X,X*Xv.{ U U Y Y ^ S J i 5 g m 8.9.&X*X,X1X9X2X}.R 8 1 < R R R U o.>X:Xj = 6.j.g.y.y.y.y.e.6.6.6.6.6.6.H G G G G G F d 7 & & u d d & X ",
"X & 3 a x d & # & % @ @ 0 e 3 3 r h H 6.6.6.e.y.y.e.6.5.H G F d & # X # # # & 3 4 5 y k S L I F.].jXCXMXaXG.N.T.4XyXqX;X-X&X| Q , = O Z L./.I > % # & 4 Q ! ` ` ` '  X.XoXXXX./ C._.sX#X@.! |.<.4 @ c G F d u 3 3 3 3 & % # # # # # # # # % & & # X X $ # # X X ",
"# # # % % % # # # # % % % % # # # # % % & & & & & & % % % % % % # # # # # # # # # # # 7 Z I H.).).].gXlX;X;XlXaX$X`.Q.Z.N.K > > K +./ ,.C.N.A : % X X Z H.5X3X>XX.^ C.F.I P B.L.].5X4X9X<XXXX.X.:X:X..$ # & # # # # # % % % # # # # # # # # # # # # # # # # # # ",
"j.h.y.y.y.y.y.y.y.y.h.h.y.e.6.5.G G G H 5.6.e.y.y.e.6.6.e.y.y.e.6.H z z z z z z  ...q.H z 5 1 4  .$.S A L F.aXgX[./.V.I L L L L L V.[.[.F.P L S k 5 4 8 S I B.B.P P V.N.Z > Z K P V./.].6X6X`.F.D s L p.g.h.y.y.h.h.j.j.A.A.j.h.h.i.e.6.6.e.i.i.6.G G G D c c c ",
"j.h.e.6.e.e.y.y.e.6.6.6.q.6.5.5.6.e.y.y.e.6.6.6.5.5.6.e.y.y.e.6.G M h h i i f g g g h h 5 4 1 3 f d.6X].I V.vXDXbXdX]./.F.N.L B.].aX/.V.L L V.B.G f f k J I N.V.N.I L A A L N.V.V.F.F.F.V.N.N.N.I L A J i.h.e.6.6.y.h.l.l.j.g.y.f.f.y.y.e.6.e.6.5.5.5.G F F G G ",
"g.y.e.e.y.g.h.h.e.6.G F G 5.6.6.6.e.y.y.e.6.6.e.y.y.e.6.6.e.6.5.G M h h r i x n j z h i 3 7 8 C Z p.`.gXxXmXNXNXbXgX).V.I I V.H.].).L > = > Z Z h h f f Z A I V.H.).aXgXxXNXDXGXGXDXNXbXjXaX/.V.P J H e.y.y.e.6.6.y.A.P.l.h.g.y.y.y.e.e.e.6.6.e.y.y.e.6.6.5.G F ",
"g.i.y.y.y.y.e.e.e.6.5.5.6.e.y.y.y.y.e.6.5.5.G G G 5.6.6.e.6.5.5.4.G n f 5 5 f g g f h f 5 4 s A I N.I L L L L I I N.V./.].aXdX[./.N.A C > 8 a h h f 5 4 8 > Z A L B.H.].gXxXmXNXNXmXxXaX).V.L Z > s G e.y.y.e.6.5.6.h.j.g.y.y.y.y.y.y.y.y.y.y.g.h.h.g.y.y.y.e.6.",
"j.j.j.h.y.e.6.6.6.e.y.e.%.%.e.y.e.e.y.y.y.e.G c c F 5.e.y.y.y.y.e.q.%.#.} } } z g g z z g f 8 C A I V.H.).dXvXNXmXmXmXmXbXhX).F.N.I N.I A s z j h f R R 6 k S L L L I N.F./.).).).H.F.N.I L L A : 3 G e.y.y.e.6.6.q.e.e.e.e.y.y.g.g.g.g.g.g.g.y.e.e.y.f.y.y.y.y.",
"j.l.P.A.h.y.y.y.e.6.6.e.y.y.y.y.e.e.e.e.y.y.5.G h n q.y.y.g.j.j.j.s.a.;.$.$.$.#.#.$.;.;.#.k 3 & > C A I H.dXAXJXDXNXxXgX]./.G.G././.G.B.A Z k j h f 5 5 f k Z N.).aXdX].G.N.L A L N.G.).).H.N.A - & c G F F F G e.y.y.y.y.y.g.g.j.j.j.j.j.j.j.j.g.y.y.y.y.g.h.j.",
"i.h.A.I.P.A.h.y.e.6.6.6.5.5.6.e.h.j.j.j.g.y.e.5.n h h m q.h.A.P.l.j.a.-.] ] -.a.;.;.a.;.#.k 3 3 i u : > A N.).].).H.V.N.N.H.aXdXaX).V.L C s l j h f 5 5 g l Z L G.aXvXbXdX).N.N.).dXjXgX).N.s & # & c G F F G 5.y.y.y.g.j.l.S.P.P.P.l.l.P.P.l.l.j.h.e.e.y.y.e.e.",
"j.l.S.I.R.R.R.P.i.6.6.6.6.e.y.g.h.l.S.A.h.g.j.i.m h r l q.h.A.P.P.S.k.d.-.;.x.x.r.;.a.;.$.z i i j z z S A K L L Z A I ^.dXbXMXxX].F.L S $...j h h h f h n c C Z A V.[.jXjXdX/./.dXjXdX).I s p e % & c 5.G 5.6.e.y.g.h.l.S.S.l.S.Y.R.I.P.l.l.S.P.l.j.g.y.y.y.y.y.",
"j.j.l.l.l.A.P.A.h.g.j.h.e.e.y.g.g.g.g.g.j.j.j.h.e.5.F G e.h.A.P.P.I.R.T.d.d.A.l.r.;.x.d.&.j 3 3 4 a Z N.).'./.V.L N.).hXbXmXjX].V.L A S #.&...m h h z z h h s C > Z I G././.F.F.).).F.I A s p 0 % & c 5.6.e.y.y.y.y.y.g.j.j.j.l.P.P.P.P.l.j.l.l.j.j.g.y.y.y.g.g.",
"j.l.S.P.P.P.P.P.l.l.P.A.y.e.h.j.j.j.j.j.j.h.e.e.y.y.e.e.y.h.A.I.R.R.R.T.J.J.S.A.s.;.a.a.=.z 4 2 T T 8 C Z I G.G.I I G.'.].).V.I L A Z L F.G.a. .h h  .#.G F #.k : ; C A L L A L I I L J p.6.u X X 7 G e.e.6.6.e.y.y.y.g.j.j.g.f.g.h.A.P.P.P.l.j.g.y.i.i.y.g.j.j.",
"j.l.P.P.P.P.P.S.l.l.S.P.P.P.P.P.l.j.j.h.g.y.5.G F G 6.e.y.g.j.l.P.P.I.S.l.l.P.A.s.a.j.s.=.} f 6 R T 8 > > > > > . > I B.N.I A Z Z C > A F.[.vXgXp.3 #.a.A.I.Q.F.I A A Z A A A A L I V.H.[.`.6.& X u q.j.g.y.6.5.5.6.y.g.i.g.j.j.j.j.j.l.P.P.l.j.g.g.j.j.j.j.l.l.",
"y.g.j.l.l.j.h.h.j.l.l.l.P.P.P.P.I.j.H m 5.6.G F G 5.6.6.6.e.y.g.j.l.l.j.a.a.k.k.a.a.i.y.w.#.4 7 s C 8 > C C > > C Z A A A Z Z Z Z A A I F.'.dX].J 1 k d.$XjXmXmXxXdX).G.V.N.V.H.'.aXgXjXvXsX:.# X 7 6.f.e.e.y.y.y.h.A.A.j.g.g.h.j.j.j.l.l.l.l.j.j.j.j.j.j.l.S.P.",
"y.g.h.j.j.l.Y.R.I.S.l.l.P.P.P.P.P.A.g.y.y.e.G F G 5.y.e.4.G 6.y.j.j.g.i.a.s.k.k.s.s.j.s.=.k $ . > A P N.N.V.N.I L A A L N.F./.).).H.V.I I N.G.V.k 5 g a._.jXDXGXmXgX).V.P L N.G.].[./.'.xXmXxX'.S 7 q.h.y.e.y.g.h.k.d.J.@X#X~.T.S.l.S.P.P.P.P.P.P.P.P.S.l.j.l.l.",
"y.y.y.y.y.h.A.P.I.P.l.l.S.P.P.l.y.6.g.j.g.e.G c c H i.l.A.A.l.l.Y.Y.S.k.s.s.k.h.e.y.h.i. .4 O . > N.dXbXvXjXaX).G.I Z > > I '.dXaX'.G.I A A A Z k ^ ! 1.$XjXgXaX].H.I A V > Z L N.V.V.).mXSXvX'.S & H f.y.y.y.f.g.g.j.S.W.~.5X5X7X#XS.y.y.h.A.P.l.l.l.l.l.l.S.P.",
"6.e.y.y.y.g.j.l.P.P.l.j.j.j.j.h.g.y.e.e.y.y.6.G F G e.h.A.P.P.S.J.J.E.E.J.j.j.j.g.g.j.i.%.f $ + > I ).aXgXgXgX[.G.L C A V.).gXxXvXjX[.H.I A Z s f f g >._.jXDXDXvX].I > = = = = > V.jXGXJXGXmX].S & c 5.6.e.h.j.j.j.j.l.P.I.R.~.5X5XS.g.h.j.h.h.j.l.P.I.I.P.l.l.",
"6.6.e.e.y.f.f.g.g.y.e.5.m %.e.y.6.5.6.6.q.e.y.y.e.e.y.h.A.P.P.P.P.I.R.T.J.J.S.A.h.y.y.y.e.F ; > I /.dXjXdX].H.N.A C C I ].jXNXDXGXFXCXvX6XF.C . . : k d.6XhXjXjXgX].V.A > = = > A B.].gXjXbXAXjXp.3 c 4.4.6.y.g.j.j.j.j.j.l.P.R.~.~.P.l.A.R.~.~.~.~.~.~.~.W.I.P.",
"6.e.y.y.y.y.e.6.5.G G G H 6.y.e.G m m %.e.y.e.e.y.g.j.j.l.l.l.l.P.P.I.P.l.j.j.j.g.y.i.g.g.6.u 7 A V.'.aX[.).V.L Z > > L ).lX;XqXwXeXeXtXzX].A     O 8 z.,XtXCXGXJXGXAXhXR.q.#.;.L.aXvXNXCXMXxX].J e G 6.5.5.y.g.g.g.j.j.j.A.Y.R.W.I.h.h.A.I.R.W.!.!.R.P.l.S.Y.R.",
"y.y.y.y.e.6.5.G n n G 5.6.q.&.w.y.e.5.5.6.e.y.y.y.h.A.P.l.l.S.P.P.P.P.A.s.a.k.j.j.j.j.j.g.q.l 3 # J ].jXjXdX/.V.I A Z A N.U.;XqXwXrXuXyX5XF.>       2 t.-XqXyXeX1X9XCXbXQ.H #.d.'.5X2X9XeXtX7X/.S 3 M 5.6.e.y.g.h.j.j.j.j.l.P.A.h.g.h.j.j.j.j.S.Y.R.R.Y.l.j.l.l.",
"y.y.e.e.e.6.5.G F F G 5.6.6.q.e.y.y.e.6.5.6.y.y.y.h.A.P.P.P.l.l.l.l.l.k.c.c.k.j.j.j.j.l.S.l.6.n r k p.E.3X3Xc.p.V.N.A > C D 8.v.:X1XeX9XT.A - X X # 2 a 3.*XtXrX1X2X5X[.I.i.%.=.F.~.3XeXuXtX!.L 8 u G e.6.6.6.e.y.y.y.g.j.j.l.h.6.6.h.j.g.g.g.g.j.j.g.g.g.g.j.j.",
"5.5.6.6.6.6.5.G F c c F G 5.5.5.6.e.y.y.y.y.e.e.h.l.P.P.l.j.j.j.j.l.P.A.d.s.j.j.j.j.j.j.g.e.#.g 4 0.3XrXuXrX9XXXm = & 3 & 3 4 a 3.v.:X:X..X X # # 1 5 l H b.3X,Xb.8.D L 6.q. .k 8 4.&X=XwX4Xt.: & u 6.e.G F G 4.5.5.6.e.y.g.j.h.6.5.y.g.h.j.j.j.j.j.g.y.y.y.g.g.",
"G 5.6.6.6.6.5.G F c c F G 5.6.6.6.6.6.6.H G 5.e.h.j.j.j.j.j.j.h.g.g.j.h.e.e.y.y.i.g.j.j.g.q.#.g 4 0.3XrXuXuXrX3Xz.r 4 4 1 1 4 4 r 5.&X&Xv 1 r f 4 5 f z H v.&X&Xt.#.H 5.e.q.#.z F G 4.f.&X&Xv & & u F G F F G G F F G G G 6.y.y.e.e.y.f.f.g.j.j.j.j.j.h.g.y.y.y.",
"G G G G G G G G F c c c c x a i i i 3 & # # & u x F F c F c c F G 5.6.6.6.6.6.q.y.y.y.y.e.H m g 5 4 1 t.9XyXqX;X;X-Xt.5 4 4 4 4 3 3 r r 4 r d n k f f h n F D M z z n c c x p e % & d F 4.c & # & & # # & 7 d c c x a a x F 5.6.6.e.y.y.y.y.y.y.y.y.y.y.y.y.e.6.",
"3 3 3 u d c c d u 3 3 & % # # # & 3 1 & # # & & # # # # # # # % & 3 i r & # & u x F F x u & # # # $ $ $ % t.3X3X0.$ = - & 1 1 & # X O O X X @ @ & 1 1 & # # & 3 e e & $ @ @ $ # X # # # # $ + @ % & # X # # # & e p x d & # # & d F G G G G F c c F G G G 5.6.6.",
"3 3 3 3 3 3 3 3 3 3 3 3 3 3 3 3 3 3 3 3 3 3 3 3 3 3 3 1 & & & & & 3 3 3 3 3 3 3 3 3 3 3 3 3 3 & 1 3 3 3 1 3 4 4 3 1 1 1 1 1 1 1 1 3 3 3 3 3 3 3 1 1 1 3 3 3 3 3 3 3 3 3 & & 3 3 3 3 3 3 3 3 3 3 3 3 3 3 3 3 3 3 3 3 3 3 3 3 3 3 3 3 3 3 3 3 3 3 3 3 3 3 3 3 3 3 ",
"y.y.y.e.5.F c c F G 5.5.G 5.6.y.h.h.h.i.5.F c c c c c x i 3 & # & u H e.6.H F x p t t d F F h f l F 5.H z 6 R E E Q { { Q E E R { $.y.i.&.=.d.x.X.! ^ l H 5.G H #.#.H G F n J #.q.y.y.y.h.j.j.h.e.6.6.6.6.6.5.G G 5.e.y.q.q.y.y.q.6.5.G G 5.6.5.F c c F G G G G ",
"e.6.G F F M c c F M h h n c M F G G F M c x a a x x a i i r 3 & & u F G a i i a x c c c F n h f f l G J ^ R 6 f f g z z g ^ R W { m H H #.$.r.r.$.} g z H G F F #.%.H 4.H G h a n F G 5.6.y.h.j.j.j.j.j.j.j.j.h.g.g.h.j.j.l.P.P.l.h.g.g.j.j.g.i.y.y.e.6.6.6.6.6.",
"6.5.F c c c p p c d u 3 r i h h i i p p i i i i i a F G a 3 & # & 3 r i i a x M F F c F G G l g z m 5.H z ^ R R 6 5 f g z { ~ ~ { J q.q.#.#.;.a.;.$.} #.q.y.5.H z m H 5.4.H #.#.H 5.6.e.y.g.j.j.j.j.j.l.l.l.j.j.j.j.j.l.P.P.P.I.P.P.P.P.P.P.P.A.h.g.j.h.e.e.y.f.",
"4.F x p a h i r 3 3 & & & 1 1 3 e e 3 3 d c c x i h H 6.5.c & # & & # & d F G 5.6.5.F F G H z } #.%.q.%.^ E E R 6 k z { / ] {  .$.w.s.j.a.a.x.x.a.;.$.%.y.y.*.#.#.#.q.6.6.6.6.e.y.y.y.g.j.j.l.j.j.l.P.P.P.P.l.j.g.g.j.l.P.I.R.W.!.!.W.R.R.R.R.R.I.A.h.y.e.e.h.j.",
"F x u & 1 1 1 1 1 & # # & & & & & & & & 3 3 i h n G e.y.e.5.F d 3 & # # # 7 M 4.G 5.6.6.5.G a f } %.q.H z ^ R R 6 z $.;.;.&.&.&.q.i.A.Y.J.J.c.c.c.x.;.r.j.j.y.%. . .q.e.6.e.y.y.y.g.j.j.l.l.P.P.P.P.P.P.P.P.l.l.S.P.P.I.R.R.R.W.!.!.!.!.W.W.!.!.W.Y.S.j.j.j.j.j.",
"m h 3 3 4 r 3 & & & # X X X X # & & # & 3 r r a x F 5.6.6.G u & & u n n u 7 x F M M M G 6.H f 4 f n G m Q R 6 5 g } #.$.=.;.&.r.c.J.R.T.c.K.#X#XJ.r.=.d.W.W.d.&. .%.q.y.y.g.h.j.j.l.S.P.P.P.P.P.P.P.P.P.P.P.P.P.P.I.R.R.R.R.R.R.I.P.P.I.R.R.I.Y.W.!.W.Y.l.j.j.j.",
"h i 3 3 i a p e 3 & # X X X X X X % e e 3 3 r i h h M F G D & # % u F G G G F M n h h n 5.H i 3 f j j j 5 5 4 5 z } } #.=.r.z.z.z.c.!.~.J.E.#X5XE.x.a.s.T.Y.h.y.y.y.y.y.y.y.y.h.A.P.P.P.P.P.P.P.l.l.P.P.I.I.I.P.P.P.I.I.R.Y.A.l.P.P.l.j.l.l.P.P.P.P.P.P.l.j.j.j.",
"h i 3 3 e t t p a i 3 & # # X X + @ % 3 r r i r i a c F F d & # % u F 5.6.e.y.y.y.q. .m 5.H f 4 r h H H f 4 4 f } $.;.a.;.;.r.z.x.J.W.R.d.d.T.R.J.d.;.=.s.j.g.y.y.y.y.y.y.y.y.h.A.P.P.P.P.P.P.P.l.j.j.S.Y.R.R.R.R.R.R.P.y.6.y.g.j.j.j.j.j.j.g.g.g.g.j.j.g.f.i.f.",
"H F x e 3 3 e p p p r r 3 & # # & & & u d c c M h h M F F c p e & u 6.y.y.y.y.y.y.y.5.G H H l f f l H F f 5 5 z $.;.;.;.;.;.&.;.d.c.T.T.c.d.S.T.J.x.r.r.s.j.g.y.y.y.y.y.y.g.j.j.l.l.P.P.P.P.l.j.j.j.j.l.P.I.R.W.!.!.W.Y.S.j.l.j.h.g.i.y.y.y.y.y.y.y.e.e.y.y.i.f.",
"H G F x p p a h M x a i i r 3 & & u F G n n G G G G G G F x 7 & & u 6.y.6.5.5.G F F F M m j g f f l G G a r f g } $.;.;.;.&.$.=.d.J.W.W.J.J.T.T.d.a.;.a.k.j.g.y.y.y.y.y.f.g.j.l.P.P.l.l.j.j.j.j.j.j.j.l.P.I.R.W.!.!.!.!.!.!.!.W.Y.A.h.y.e.e.e.e.6.6.6.6.6.e.h.j.",
"G G F c c c c F G G G G F n h h h n q.g.A.A.h.e.5.G 4.G F d & # % u G 6.5.5.6.6.5.G G G 4.F f 5 f h M c a f j z } z g z } $...&.;.d.T.T.c.c.T.R.I.c.,.,.d.j.g.y.y.y.y.g.j.l.P.P.P.P.P.A.h.g.j.j.j.j.j.S.Y.R.I.I.R.W.!.!.W.R.R.R.R.R.R.Y.P.A.h.e.5.5.6.6.5.6.y.i.",
"M d u & & & & u F 5.6.5.F F G G G 5.y.g.j.j.j.g.6.G 4.G F d & X & 7 x G e.y.y.e.G F G 4.4.G l f f h n n h f h h k f i i f f f z =.d.Y.T.d.d.A.I.R.T.d.a.k.j.g.y.y.y.y.g.j.j.j.l.P.I.P.P.l.j.j.j.j.l.P.P.I.I.P.P.l.l.P.I.P.P.l.l.l.j.g.g.j.j.g.e...m M F 5.6.e.e.",
"h i 3 & # X X & d M M M c F G 5.6.6.6.e.y.y.e.6.5.5.6.6.F d & # & u F 5.6.e.y.y.5.G G G F m z z g z F H #.#.} j h h k f 5 5 f z &.s.S.A.r.r.l.P.P.P.P.S.l.j.g.y.y.g.j.j.j.j.j.l.P.P.l.j.j.j.j.j.j.l.P.P.P.P.l.j.j.j.l.l.j.j.j.j.j.j.g.y.e.y.h.h.e.5.n n G 6.y.g.",
"M d 7 & # # & 3 i h i i j m M c c G 5.6.5.5.6.6.5.5.6.6.G d 7 & & 7 x G e.y.f.e.G F G 5.G G H H %. .j h n F G H #.#.#.z 4 1 4 g $.s.A.S.J.J.S.P.P.P.P.P.l.j.g.g.j.j.j.j.j.l.P.P.l.l.j.j.j.j.j.j.j.l.P.P.l.j.j.j.j.j.j.j.g.i.f.g.j.l.S.S.l.h.g.g.j.g.H G e.g.j.l.",
"h i & # X # & & 1 3 r i h a a t p x F H G G G G F F 5.6.6.G 7 # & u F 5.6.e.6.6.5.5.6.6.5.5.6.q.%. .j j  .m H H m } } j h f 4 5 z $.;.d.S.P.P.P.P.P.l.l.j.j.j.j.j.j.j.l.S.P.P.S.l.j.j.j.j.j.j.j.j.j.j.j.j.j.j.l.j.j.g.y.y.g.h.j.j.j.j.j.g.y.e.y.l.P.P.P.P.I.R.R.",
"5.G a r 3 & 3 3 1 1 & 3 r r 3 3 r i h h h h M M M G 5.6.5.F u & & u G e.e.6.5.G F F G 5.6.6.6.q.%.#.F n z  .5.5.m } #.#.m l r 5 5 f F y.A.I.P.P.P.P.P.P.l.j.j.j.j.j.j.j.l.l.l.j.g.g.j.j.j.j.j.j.l.l.j.j.g.h.A.P.l.h.g.y.e.e.y.f.y.y.e.e.y.y.y.g.j.l.P.I.R.W.!.!.",
"j.h.e.H x p x x a r 3 & & 3 3 3 1 3 i h m m h h j z M M F d & # % u 6.y.e.5.F M M M F M h n 5.6.5.H %.#.#.#.F F M M M n z g 5 5 f z H y.A.P.P.I.R.R.I.P.P.P.P.P.l.j.j.j.j.j.j.j.j.j.j.j.g.g.j.l.P.P.l.j.j.l.l.h.e.6.5.5.y.y.e.6.5.4.G 5.6.e.h.j.j.j.l.l.P.Y.W.!.",
"P.A.h.q.m m H H m h 3 & & u d d u 7 d G e.e.5.G H G a a c d & X % u H 6.G M c c c M M c c F 5.6.6.q.%.$.&.&.H G a i i r 4 5 f k n F 5.e.h.l.l.l.P.I.R.R.R.R.I.P.P.P.l.l.j.j.g.g.j.j.g.y.f.g.h.l.S.S.l.l.S.P.l.i.%.j h n 5.6.5.G 4.4.G 5.6.e.h.j.j.l.S.P.P.I.R.R.",
"5.5.6.6.5.5.6.6.G c a i h n G G F M m m 5.e.e.6.e.q.%.m m d @ @ % u F G F c D F M F F x a a G 5.6.q.6.q.=.=.q.6.6.H h i f f f l F 5.6.e.h.l.S.P.P.P.l.S.Y.R.I.P.l.l.P.P.l.j.g.g.j.j.g.g.h.h.g.g.g.g.y.g.j.h.y.5.n h h h M F F G 6.6.6.6.6.e.y.y.e.e.y.h.A.P.I.I.",
"y.y.e.5.F F 5.6.6.5.F F G 5.6.6.6.5.G G 6.y.h.j.j.j.g.e.5.c : # & u F G F F G G F F F x a a G 6.y.y.e.e.y.y.y.y.y.y.e.H f 5 f l G 5.6.e.y.g.j.j.j.j.j.j.j.j.l.l.j.j.j.j.j.j.g.y.y.i.f.y.f.g.h.h.g.y.e.6.6.q.%. .H G F M M F G 5.y.y.e.6.5.5.5.5.6.e.y.g.h.l.S.P.",
"6.6.5.G n h M F G 5.e.y.e.e.e.e.e.6.6.e.y.h.A.S.l.h.g.e.5.G D d 3 3 d F G 5.6.6.6.5.G F G 5.e.y.y.y.e.6.6.e.y.g.h.g.6.G a r r a F G F F 5.e.y.y.e.6.6.6.6.e.h.j.j.j.g.y.y.y.y.y.y.g.h.h.g.y.e.e.y.y.e.6.5.G G 5.6.6.6.6.6.6.6.6.6.e.e.y.y.e.6.5.H 5.6.6.e.e.e.e.",
"G H 5.5.G F c D G G G 6.i.h.y.y.y.e.5.5.y.y.y.y.e.6.H G G F u & & 3 e p x F 5.6.6.6.6.6.6.6.6.6.H G F F G 5.6.6.6.5.F x a 4 3 & # & 3 i i a c M c F G H 5.6.6.q.e.y.y.e.6.6.6.6.6.6.6.6.5.G F c c F G G F F G 5.6.5.m m H F a a x c a i i r & & 3 a F 5.6.6.5.G ",
"# % & 3 % $ @ @ $ # # # # # # # # & d F G G F F F d & # # # # # & & # # # & r i 3 3 p x c c a r & # & 3 r i i i 3 3 r r 3 & # X X # # % e t p e & # # % & & % # # # # # # # # $ @ @ $ % & & % # # # # # # # & 3 p p p e & # # # # % & & # % e e % % e x c x u 3 "
};
