/* XPM */
static const char *wall58_2[] = {
/* columns rows colors chars-per-pixel */
"128 128 224 2 ",
"   c #0D0100",
".  c #0C0B09",
"X  c #160503",
"o  c #160E06",
"O  c #0F1507",
"+  c #161107",
"@  c #181007",
"#  c #121A05",
"$  c #141409",
"%  c #1B140A",
"&  c #131B09",
"*  c #1E190D",
"=  c #171511",
"-  c #1B1611",
";  c #1D1A15",
":  c #1E1E1A",
">  c #220C0A",
",  c #310000",
"<  c #251202",
"1  c #22160A",
"2  c #2A150A",
"3  c #221B0D",
"4  c #281F0E",
"5  c #35160A",
"6  c #3E1B0E",
"7  c #221E10",
"8  c #281F10",
"9  c #201E1B",
"0  c #331615",
"q  c #3E1C10",
"w  c #14210A",
"e  c #1D220C",
"r  c #1D2118",
"t  c #23240E",
"y  c #29220F",
"u  c #24290F",
"i  c #252112",
"p  c #2C2511",
"a  c #262C12",
"s  c #2D2A14",
"d  c #24241E",
"f  c #2B2618",
"g  c #272B18",
"h  c #2A2D19",
"j  c #322512",
"k  c #3A2313",
"l  c #322C15",
"z  c #3A2D16",
"x  c #3E2718",
"c  c #322E18",
"v  c #3D2C19",
"b  c #293016",
"n  c #2E341D",
"m  c #2F381F",
"M  c #32341C",
"N  c #39321A",
"B  c #3C331B",
"V  c #30381F",
"C  c #252423",
"Z  c #282622",
"A  c #262823",
"S  c #2B2B25",
"D  c #2B2B29",
"F  c #362929",
"G  c #2E3421",
"H  c #2F3820",
"J  c #2F322A",
"K  c #313620",
"L  c #3F3420",
"P  c #343C23",
"I  c #393E25",
"U  c #32322D",
"Y  c #363D29",
"T  c #3A3F29",
"R  c #323330",
"E  c #393A35",
"W  c #3C3D37",
"Q  c #450000",
"!  c #4C0000",
"~  c #460C07",
"^  c #4A0B05",
"/  c #4C0E0A",
"(  c #540101",
")  c #5C0101",
"_  c #520B07",
"`  c #5C0C07",
"'  c #530908",
"]  c #5B0A09",
"[  c #46120B",
"{  c #4D120C",
"}  c #54120B",
"|  c #5C130C",
" . c #471A10",
".. c #561912",
"X. c #5D1A13",
"o. c #640101",
"O. c #6B0101",
"+. c #640905",
"@. c #640A0A",
"#. c #6B0C0C",
"$. c #730101",
"%. c #7B0101",
"&. c #720D0C",
"*. c #7B0C0C",
"=. c #64120C",
"-. c #6A120E",
";. c #75120C",
":. c #6B1211",
">. c #651A14",
",. c #671A15",
"<. c #711313",
"1. c #791616",
"2. c #7C1919",
"3. c #442414",
"4. c #4B2215",
"5. c #432D1B",
"6. c #4D281A",
"7. c #572A19",
"8. c #42331D",
"9. c #4B341C",
"0. c #41381F",
"q. c #483C1F",
"w. c #52391E",
"e. c #66201A",
"r. c #6C241D",
"t. c #61341D",
"y. c #6B311B",
"u. c #522F22",
"i. c #443521",
"p. c #4A3621",
"a. c #443A22",
"s. c #4C3B25",
"d. c #4C3D29",
"f. c #593725",
"g. c #503C25",
"h. c #533F2A",
"j. c #613E2E",
"k. c #374027",
"l. c #3A4127",
"z. c #374028",
"x. c #3C442A",
"c. c #3F482C",
"v. c #3F4530",
"b. c #424127",
"n. c #42462C",
"m. c #4D422B",
"M. c #40482C",
"N. c #41492D",
"B. c #424A2E",
"V. c #444B2F",
"C. c #48492F",
"Z. c #53422B",
"A. c #5F4528",
"S. c #5C442B",
"D. c #434B30",
"F. c #474833",
"G. c #464D32",
"H. c #464E32",
"J. c #474F33",
"K. c #494E33",
"L. c #41433C",
"P. c #544432",
"I. c #544C35",
"U. c #5A4A34",
"Y. c #5B4A35",
"T. c #475033",
"R. c #4A5135",
"E. c #4D5237",
"W. c #4E5438",
"Q. c #535136",
"!. c #51563A",
"~. c #52563A",
"^. c #54593D",
"/. c #5A593D",
"(. c #604123",
"). c #624734",
"_. c #695A3D",
"`. c #454740",
"'. c #565D41",
"]. c #595E43",
"[. c #5B5E49",
"{. c #6A5A44",
"}. c #725F40",
"|. c #566043",
" X c #5A6246",
".X c #5D6549",
"XX c #646446",
"oX c #62664A",
"OX c #65694D",
"+X c #696A4E",
"@X c #776749",
"#X c #676C50",
"$X c #696D51",
"%X c #706D52",
"&X c #7D6D53",
"*X c #6D7155",
"=X c #747256",
"-X c #717559",
";X c #79755B",
":X c #75795D",
">X c #7A7A5E",
",X c #777C60",
"<X c #7A7D61",
"1X c #830000",
"2X c #8B0000",
"3X c #930101",
"4X c #9D0101",
"5X c #940808",
"6X c #811009",
"7X c #851515",
"8X c #A10101",
"9X c #87765A",
"0X c #937B5A",
"qX c #827E63",
"wX c #8C7D64",
"eX c #907D64",
"rX c #848166",
"tX c #8C8369",
"yX c #94846B",
"uX c #9B876E",
"iX c #9C8C73",
"pX c #A38C73",
"aX c #A29279",
"sX c #AB9A81",
/* pixels */
"o @ @ @ @ @ @ @ @ @ @ @ @ @ @ @ @ @ @ @ @ @ @ @ @ @ @ @ @ @ @ @ @ @ @ @ @ % % % % % % @ @ @ @ % @ @ @ @ @ @ @ @ % % @ @ @ @ @ @ @ @ % % @ @ @ @ @ @ @ @ @ @ @ @ @ @ % % @ @ @ @ @ @ @ @ @ @ @ @ @ @ @ @ @ @ @ @ @ @ @ @ @ @ @ @ @ @ @ @ @ @ @ @ @ @ @ @ @ @ o o ",
"o 7 I D.x.x.x.x.N.D.D.D.D.N.N.N.D.N.x.x.x.x.x.x.x.l.P P x.x.N.H.E.E.H.H.E.!.'.].'.'.!.W.W.W.!.E.H.N.x.x.P P x.N.K.!.W.W.W.W.W.W.W.!.'.^.R.D.D.H.H.H.H.H.D.D.D.H.E.!.'.'.!.E.E.W.E.E.E.E.H.N.N.V.V.N.N.N.N.n.x.x.N.n.x.P P P P P x.N.R.E.H.N.x.x.x.x.N.x.c 3 @ o ",
"o 7 T H.N.l.K V V K K K K K K K V K P x.x.x.x.P K K m P x.N.H.H.N.N.H.W.'.|.|.|.^.!.R.T.H.H.H.H.N.x.x.x.x.x.x.x.N.N.H.H.R.R.R.E.!.!.R.T.H.H.H.R.W.!.!.E.V.x.x.x.x.x.c.N.H.H.N.c.x.x.n.l.P V c l l l p p l c V V K P x.x.c.c.N.N.H.H.T.H.N.n.x.x.x.x.x.P K g * o ",
"o 7 P n.a.B l p l c V K K K K m b b m K P x.x.x.x.P K K P x.x.N.x.N.H.T.R.R.R.H.H.H.H.H.N.x.x.x.x.N.H.H.N.x.x.x.x.x.x.x.x.H.^.].^.W.R.H.N.N.H.H.H.D.x.x.z.I 0.B I P P x.x.P P P K b s y p p p p p y y y y p l c V K P x.D.R.!.!.R.H.H.H.N.n.N.x.P K P x.P n * o ",
"o 7 P x.P V m m m K P x.x.c.x.l.K K x.x.x.x.D.H.H.H.H.H.N.x.x.x.x.x.x.N.N.x.x.x.x.N.N.x.x.P P x.x.N.H.H.H.D.x.x.x.x.x.x.x.N.H.H.N.N.H.D.x.k.k.x.x.P K K P x.I P K V V V V m m M c p 3 * * * * * 3 3 * 3 p c M K x.x.x.N.H.R.!.!.!.!.R.H.H.H.N.x.x.x.x.I c 3 * o ",
"o i n.E.c.P K K P x.x.N.H.H.N.x.K K x.x.x.N.H.H.N.N.H.H.N.x.N.N.x.x.x.x.x.x.x.x.x.x.x.x.x.P K K x.n.n.N.H.H.H.D.x.P K K x.N.N.N.N.c.N.x.x.P K H H K P P P P k.z.P I B l a t 3 3 1 1 1 * @ o o @ * * * 3 y s P x.x.N.H.R.R.H.N.H.!.!.R.R.H.H.H.H.N.x.x.I c 3 * o ",
"o i K.'.H.x.x.N.H.H.N.V.W.W.V.l.K m m K P P x.x.x.V.E.W.R.R.W.!.R.H.H.H.N.N.N.N.N.c.x.x.x.x.x.I B a.l.x.c.N.H.H.x.P K K l.N.E.W.R.H.N.x.P m H H m K P P K K P P K b s y y y 3 * @ @ * * @ o o o @ @ * 3 p M P x.D.R.!.].oXOX.X.XOXOX.X'.W.H.N.x.x.x.x.x.K g * o ",
"o i K.|.W.H.N.N.H.H.H.R.!.E.c.P K b s s b m V P x.N.N.H.E.!.!.!.^.!.R.H.H.R.W.W.R.H.N.x.c.x.K K P P P P P x.D.H.N.x.K K P x.D.R.W.E.N.l.K m H K P P P P K m m b s y y y 3 * * * * * * * @ o o o o @ * 7 h P x.V.E.^.].|.|..XOXOX.X X.X'.W.H.H.D.x.P x.P K g * o ",
"o f R. X^.E.V.N.H.R.W.!.R.N.P m m b a u s c V P x.x.x.N.H.R.!.^.].].^.!.!.!.R.T.T.H.N.N.N.x.P H m V V m m K x.N.H.D.x.P P P x.x.x.P K K H K P k.P P K V c p 3 3 1 1 1 1 1 3 t t 3 * @ @ * * @ o o @ * i K x.D.R.!.!.!.^.|..XOXOX.X|..X|.^.!.R.H.H.H.N.x.P g * o ",
"o f !.OX].!.!.!.R.H.H.R.R.n.N l l l y p b K P l.x.N.H.R.W.!.R.H.H.H.H.H.H.H.H.R.!.!.R.H.H.D.x.P K m m m m K P x.x.c.x.x.P P x.x.x.x.x.P P P P P P P P P K h 3 * * 3 t a u u y y 1 * * * * 1 1 1 3 i h P x.N.H.H.T.R.!.].oX#X*X#XOX.X.X|.^.!.R.H.T.D.x.l.P n * o ",
"o f !.oX^.R.!.!.R.R.W.!.R.n.N s a u y s b m m K l.x.c.N.n.x.P K V V V K l.x.x.N.H.H.H.H.H.n.N l p p l p 3 i K x.x.N.N.x.x.x.x.x.x.P K K P P K K P x.I l.x.K i 3 * i b V c p 3 * @ * p p 3 3 p M I N.H.H.H.H.H.R.!.!.!.].oXOX.XoX#X#XoX|.|.].^.!.R.H.N.x.P g * o ",
"o i K..X.X|.|.'.W.R.!.!.R.N.P b p y u u u u a b K x.x.x.P V V V c l p p l c V P x.N.H.D.x.P K b s p l c V K x.N.H.H.H.H.H.H.N.N.x.x.K K P x.x.x.x.x.x.N.H.H.N.l.K m m m V h i 1 * i K K i 7 g P N.R.W.!.!.!.!.^.].|.|.].^.^.|.|. X X|.|.^.^.^.W.H.x.P K m g * o ",
"o i n.'.|.|.^.!.!.!.!.E.c.P s y 1 1 * * * 3 p c V K P P M c c p 3 * * 3 y s b K P x.x.x.x.P K K l.x.l.x.N.R.W.W.R.H.H.R.W.!.!.E.V.x.l.P P x.D.D.x.x.D.R.W.!.!.H.P b p s b M c c P l.x.x.K m m P x.N.H.R.!.!.!.!.!.^.^.!.!.^.|.|.^.^.|.|.|.].^.!.!.E.N.P i * @ o ",
"o 7 n.'.|.|.^.!.R.R.!.K.B p 3 3 3 1 * * * 3 t a n K P P K b s 3 * @ * 3 y y y s P x.H.H.N.x.x.x.x.N.H.R.!.!.R.H.H.R.!.!.R.R.W.E.V.x.l.P P x.x.V.E.W.R.H.H.H.x.P s y 3 3 p c V K P I l.x.x.N.D.H.H.R.!.!.!.!.R.R.!.!.!.!.!.^.^.^.^.!.R.R.R.R.!.!.R.H.H.x.n e % o ",
"o i n.].oXOX.X].^.!.!.H.I m m m m g 7 * * * t a n K P x.k.P M p 3 * * 3 y y y c n.R.!.!.R.H.N.N.H.R.!.^.|.'.W.D.x.c.E.!.R.H.N.x.x.P K K P l.x.x.x.x.x.x.x.x.P b 7 * * 3 t a b K x.x.x.x.N.N.x.x.x.H.^.].^.!.!.!.!.!.!.!.!.^.].].^.!.R.H.H.H.T.T.H.H.N.x.K g * o ",
"o i K.|.'.!.R.H.N.x.x.x.I P K K P V i * * * t a n P x.x.x.P K b s y y y y y y M H.^.^.^.!.!.R.R.!.!.!.^.].|.^.K.I P N.R.R.V.a.8.8.B M n a g m K K n s j z B M h 7 * * 3 y y l M I N.H.H.H.N.P K x.N.H.R.!.!.E.R.H.R.!.!.R.H.R.R.H.R.!.W.R.H.H.H.N.N.N.x.P g * o ",
"o i K.|.^.R.c.P K V c l p p p j z z 4 1 * * * i g P x.x.x.x.x.x.P m m b p p b I R.^.|.|.|.|.^.!.!.!.R.R.H.W.'.!.a.B n.R.!.E.c.P M c V m m V N B B z j j z 8.B z l y y y e & * i b P N.H.x.P K K x.x.x.c.E.!.!.W.R.H.N.x.x.x.n.n.n.N.H.T.H.H.H.H.H.H.H.N.P g * o ",
"o i n.!.H.x.x.P K g 7 4 z z j p l l z z 3 * * i b K P x.H.T.T.H.N.x.P b p s I V.E.^.|.|.|.].^.!.!.^.'.^.H.N.H.n.N l P N.'.^.N.P K K P P K P x.n.n.x.P P x.N.H.N.x.K b u y y u a n K x.x.K n a b K P P x.D.R.H.T.R.N.P V N B B B l.N.H.H.H.R.W.W.R.R.!.E.c.n * o ",
"o i n.W.c.Y T P K g 3 3 h V c p 3 3 h n a u u a n K x.V.E.!.R.H.H.H.N.l.M M n.H.R.R.!.!.E.R.R.H.H.H.N.N.x.N.H.n.N l z a.K.W.H.x.x.N.H.R.W.W.R.R.W.W.H.H.W.E.V.x.x.P K m m n a a n V c s a u y s b m m K P x.x.N.H.N.P M c M P I I x.x.N.H.H.R.R.T.R.!.R.l.g * o ",
"o f K.'.D.x.D.N.P b 7 3 p c V g 3 3 p l l c b m m P N.T.R.T.H.R.!.!.R.N.x.x.D.R.R.R.!.!.!.W.R.H.N.x.x.x.x.N.H.N.P V V P x.V.E.!.!.!.!.!.!.!.!.!.R.R.R.R.R.R.H.R.!.K.P K P K b a n b s y u u e & * 3 p c V K P x.D.V.0.z z B I x.x.N.H.H.N.V.E.!.!.!.R.H.x.n * o ",
"o i n.!.R.R.W.W.R.n.N l l l c l p y 3 3 p c n m m P N.H.H.H.H.R.!.!.R.H.N.N.H.R.'.].^.!.R.R.H.H.N.x.x.x.H.R.!.W.R.H.H.H.N.x.x.x.H.H.N.N.N.N.N.H.^.|.|.].^.W.R.R.!.H.P K P K b a n h 7 3 y y y y y y u a n K K K P P K P l.x.x.N.H.R.!.!.R.R.!.!.!.!.!.E.c.n * o ",
"o i n.!.R.H.H.R.!.Q.Z.a.P V c c V b i 3 t u u b K x.x.N.H.H.H.R.!.!.R.H.N.x.x.x.H.R.!.!.!.W.R.R.W.!.!.^.'.'.W.R.H.R.R.D.x.x.x.x.x.H.E.^.].|.|.'.^.!.^.!.R.R.H.H.N.x.K m K b s y y p p p p p y y u u y s b K P P P x.x.x.x.N.H.R.!.!.R.R.!.!.R.H.H.R.!.E.D.P 3 o ",
"o i n.^.!.E.V.N.H.R.E.E.H.n.8.B l.x.l.P M c l c V K K P x.N.H.R.!.!.R.R.R.N.P K x.H.W.!.R.R.W.!.!.!.R.R.R.W.'.].^.!.!.!.!.W.K.H.H.R.W.!.!.!.!.!.!.!.!.!.!.!.R.D.x.P K m m V c l l c V m m b s y y y y p l c m m m K x.x.x.x.D.R.R.T.H.H.H.H.N.x.c.n.N.x.x.n * o ",
"o 7 T R.R.H.N.N.N.x.x.x.x.b.B B l.n.d.m.C.N.x.I P P P x.D.H.N.H.^.|.|.|.|.'.H.N.H.R.W.!.!.W.R.H.H.R.W.^.].|.|.|.^.!.!.!.!.E.V.x.x.x.x.N.H.R.R.T.H.R.!.!.!.!.R.H.N.x.K K P P P P K K P P k.P K V V b s p u t 3 i b P x.N.x.N.H.T.H.H.N.x.x.x.x.x.c.c.c.x.P g * o ",
"o 7 T R.R.H.H.R.W.W.R.H.H.H.N.n.H.H.H.H.H.H.H.H.H.H.N.x.x.N.H.H.T.R.!.^.|. X|.|.^.E.V.N.N.N.N.N.H.R.!.!.!.^.|.'.W.H.R.H.N.N.c.x.x.P P x.D.H.H.H.H.H.H.H.H.H.H.H.N.x.K K P P k.x.x.x.x.x.x.x.x.x.x.x.l.P s s b K x.N.H.H.H.H.H.H.N.x.x.x.x.x.x.x.D.H.N.x.x.n * o ",
"o 7 I H.H.H.H.H.N.N.H.H.N.x.x.x.x.x.x.x.N.N.c.x.x.P P P P P x.N.H.H.N.H.^.|.|.|.|.^.H.c.D.H.H.H.H.H.H.H.N.V.E.!.R.H.H.H.H.N.x.P K K P x.x.N.H.H.H.H.N.x.x.x.x.x.x.x.l.P K K l.x.x.x.D.H.H.H.H.V.N.x.x.x.x.x.x.N.H.H.H.H.H.D.x.x.x.x.x.x.x.N.H.H.H.H.H.N.P g * o ",
"o * g K P l.x.x.I P K m m m m K P P K K l.x.I P P n 7 + O w m P P P P I x.N.H.D.x.P K m m m m K P I x.x.x.x.I P K b s p p 3 * * g K P I x.x.I P K m m m m m m m m b s p a t % % & e b m g a p s K P P I x.x.I P P I x.x.l.P P P K m m K P P x.x.x.x.I P K g * o ",
"@ @ @ @ @ @ @ @ @ @ @ @ @ @ @ @ % % @ @ @ @ @ @ @ @ @ o @ @ @ @ @ @ @ @ @ @ % % % @ @ @ @ @ @ @ @ @ @ @ % % % % @ @ @ @ @ @ @ @ @ % % % % % % % @ @ @ @ @ @ @ @ @ @ @ @ @ @ @ @ @ @ @ @ @ % % % % % % % @ @ @ @ % % % % % @ @ @ @ @ @ @ @ % % % % % @ @ @ @ + o ",
"m K P K s y 3 * @ % t a a a u a b m m b s p p p 3 * @ @ * * @ @ 3 y p y 3 i K P K h i * % @ @ @ @ @ @ * g m m m m m m m m b s s b m m m m m m b a t 3 i g b s p a a a t 3 3 y y * @ * i g K l.x.I P K g * * 3 s b m H m a t % @ # # w e u a m K K n s y 3 * @ @ ",
"x.N.H.H.x.x.x.x.P P P l.x.x.k.P P l.x.x.N.H.E.K.x.P P n * o o @ * i P x.x.n.H.H.H.H.n.x.x.x.I P P P P I x.N.H.H.H.H.H.H.H.H.H.H.H.N.c.x.x.x.l.P K V K P x.x.V.N.x.K m K l.x.x.l.K m K I x.x.x.x.x.x.l.P P P P l.x.N.H.H.c.x.P K m m K x.N.H.E.!.!.W.H.c.P m K P ",
"x.x.x.x.P K K K m K x.x.x.k.P k.x.P K K P x.c.x.x.z.x.K ; o o * g P N.H.x.x.x.N.H.R.W.!.!.E.D.N.H.H.N.x.x.c.N.N.H.H.H.H.H.H.H.D.x.P P P K V m m V V c c M K l.x.l.K s c I c.c.x.P m m P x.x.x.P K K K V c M P x.x.x.H.H.N.x.x.x.K K P x.x.x.x.x.H.R.R.H.x.P K K ",
"x.x.c.x.x.P P P K K P x.k.x.x.x.N.x.x.P P x.x.x.x.x.x.x.K g * * g I K.!.!.E.c.x.x.H.W.].oXoX].!.R.T.H.H.H.H.H.H.H.K.H.H.H.H.R.N.P H K n s s n V N z j y y p l l c l p c I x.l.P P P P l.x.x.x.x.x.P M l z B l.V.E.!.!.E.V.x.x.x.P P N.H.N.x.x.x.D.R.!.!.!.R.c.x.",
"x.x.x.x.x.z.x.P K K P P P x.x.V.W.W.H.x.x.x.x.x.P P x.x.K g * @ 3 M H.^.!.!.!.!.!.^.|.oX*X*XoX].^.!.!.!.!.!.R.R.W.E.V.x.x.N.H.H.x.z.x.P M M P P K n a t 3 3 p l p y y s P P s y p p p s P x.x.l.K K P P I x.N.R.!.!.!.E.V.N.H.H.N.N.E.!.R.D.x.x.H.E.!.^.|.|.|.|.",
"P x.N.H.H.H.H.N.P m m K x.N.H.W.'.'.W.R.H.D.x.P P x.x.P i * @ % t M H.!.E.R.R.W.'..XOX*X:X:XOX.XOXOX.X|.^.W.R.H.R.H.N.x.x.H.'.'.W.H.R.H.N.x.P M B B l p 3 4 z z 4 3 3 3 s s 3 * * * 1 7 h V V m V K P x.x.x.x.N.H.H.H.H.N.N.H.H.N.N.H.R.!.!.!.!.!.^.|. X|.|.|.|.",
"x.x.c.N.H.H.T.D.x.P K P N.R.!.!.!.^.|.|.^.E.V.x.x.k.x.K 3 o o * g P N.R.!.^.|.|.^.^.|.OX*X*XoX|.|..X.X'.W.H.H.W.'.|.^.R.c.D. XOX.X|.|.|.^.W.R.H.H.n.8.z z B n.n.8.N M m m g 3 * @ @ * 3 p l p j z N V m m P x.x.x.x.x.x.x.x.D.D.x.c.E.^.|.|. X|.^.!.^.'.|..X.X X",
"H.H.H.H.N.N.H.D.x.P P c.E.!.!.!.!.!.!.!.!.!.R.D.x.x.x.l.b e % * g P N.R.!.^.|.|.|.].^.].oXOX.X|.|.|.|.|.^.W.R.W.'.'.W.R.W.].#X*X*X*X*X#X.X].^.W.R.V.n.l.I x.N.N.P K P P s y * @ @ @ * * 1 3 4 p l s s u u b K I I P P P P x.D.R.W.W.R.W.'..XOXOX.X.XOX#X*X*X#XOX",
"^.!.E.H.x.x.H.H.x.x.D.H.H.R.!.!.^.E.V.H.W.!.R.H.N.x.N.x.P g * @ 3 M H.^.^.!.^.^.^.^.|.|.^.^.|.|.^.!.!.!.!.!.!.E.H.H.E.^.|..XOX$X:X<X<X*X'.E.!.E.l.M B 8.B B I k.P P K K P P s y 3 * * 3 1 1 * 3 y y 3 3 y p l l l c V V V P N.R.W.!.!.!.^.^.|..X.X X X.XOX#X#XOX",
"|.|.|.'.E.R.!.!.R.H.N.x.x.V.E.!.!.!.R.R.!.!.R.H.H.H.H.N.P g * @ 3 M H.^.^.!.!.!.!.!.^.^.|.'.W.R.H.H.H.R.!.!.R.H.H.R.!.^.|..X.X.X.XoXOX#XOXOXOX|.D.T s.s.T P K K P I B a.K.W.V.I b a b b s y 3 * * 1 3 3 1 3 p l B B l l z N V K x.D.E.!.!.].oXOXOXOX.X|..X.XOXOX",
".X.XOXOX.X].^.W.R.N.x.x.x.V.E.!.R.R.!.^.|.].^.!.!.W.R.N.P g * % t M H.^.!.!.^.^.^.^.^.^.|.|.^.E.N.x.x.c.H.E.!.W.H.V.E.^.|..XOXOXoX.X.X|.|.OX*XOXR.H.^.'.R.n.8.0.V.H.N.H.^.'.R.n.B N I I B z 3 * * 7 b g i 7 h P N.H.N.x.x.P s s P x.D.R.!.^.^.'.|..X|.|..X.X.X.X",
"OXOX.X|.|.'.R.N.P H H P x.N.H.H.H.W.'.|.^.!.R.H.H.R.!.K.I g * * g P N.R.R.W.'.|.|.|.|..XOXOXOXOXOXoX.X|.|..XOXoX^.!.!.^.]..XOX$X:X-XOX|.|.OX:X*X^.R.!.W.V.N.V.E.'.^.H.x.x.x.x.x.l.I x.x.P b s p l M P P K M B a.V.H.H.H.R.V.a.8.I x.x.D.W.^.|.|.|.|.|.|..X.X X|.",
"^.W.H.x.x.k.K K m K P P K M B 0.n.R.!.!.R.H.H.H.N.N.H.N.P g * o o i n.^.|.|.|.|.|.|.|..XOXOX.X|. X.X.X.X|.|.|.|.^.!.!.!.!.^.|..XOXOX.X.XOXOX.X|.^.!.!.E.c.c.E.E.H.x.x.x.D.H.N.x.K K l.x.x.x.P K P l.x.x.x.x.l.x.H.E.!.^.!.!.!.E.V.N.H.R.!.!.E.E.!.^.|..X.X.X|.|.",
"N.x.x.x.N.H.N.x.x.P K K x.x.x.P s M n.R.R.N.P P x.N.N.x.P g * % e M W. X.X|.^.!.^.^.|..XOXoX].!.!.^.|.|.|.].^.^.].].^.!.!.!.!.^.|.|.|.oX#XOXE.H.^.'.W.R.W.!.^.K.I K P x.D.H.N.l.M c V K P x.D.H.N.c.N.N.N.n.x.V.E.^.|.|.^.!.R.R.!.!.!.!.^.!.!.!.^.^.|..X.X.X|.|.",
"x.x.P x.x.N.H.H.N.x.x.x.D.D.x.P K P N.R.!.!.R.H.H.H.R.N.P g * % e n H.'.|.|.^.!.!.!.!.].oXoX^.!.!.!.!.!.R.R.!.^.^.^.!.!.^.^.^.^.!.!.!.!.^.^.!.E.H.H.E.^.|.|.^.K.P H P x.D.R.!.E.x.P K K P x.x.V.E.!.!.!.!.W.R.W.'.|.^.^.^.!.R.R.!.^.|.|. X|.^.^.|. X|.|. X|.|.|.",
"x.x.x.N.H.H.H.H.N.N.H.H.N.x.x.x.x.c.H.R.W.!.!.W.R.R.!.E.c.n * % g x.^..X.X|.^.!.H.V.H.R.R.R.R.H.N.N.H.R.H.R.!.^.].'.R.W. X#X*XoXE.N.N.N.H.R.H.H.H.R.'.|.^.^.^.K.I m m P N.R.!.!.R.H.N.x.n.N.H.R.!.!.!.^.].].^.^.|.|.|.|.|.|.^.!.!.].oXOXOXOXOXOX.X|. X X.X|.^.!.",
"x.N.H.R.!.!.R.H.N.c.N.N.c.c.c.x.x.P K P N.H.R.H.H.R.!.E.c.n * * n c.E.].oXOXOXoX X'.^.W.R.H.H.R.W.W.R.H.H.R.R.R.R.H.H.R.!.^.^.^.].^.H.N.H.H.N.N.H.H.H.W. XOX.X^.D.x.x.V.E.^.|.].^.!.!.^.|. X|.|.|.].^.!.R.R.H.W.'.|.|.|.|.|.|..XOX#X*X*X#XOX.X|.|..XOXOX.X|.^.!.",
"H.R.!.!.^.!.!.W.R.H.H.H.H.D.x.x.P P K K P x.D.H.N.V.E.W.H.P 3 * P V.W.^.|. X|.'.W.K.H.H.N.N.H.R.R.R.!.!.!.!.!.W.R.H.N.x.n.N.H.H.H.H.H.H.N.x.K K x.N.H.H.H.R.R.n.N N H.^.].|.^.W.H.T.'.oX&X9X%XoX'.^.'.].^.W.R.H.R.R.!.^.^.^.|.|. X X X.XOXOX.X|.|.|.|. X X|.^.^.",
"!.!.!.^.|.'.W.H.N.x.x.x.N.N.H.N.P K P P K K P P P x.D.R.T.I 7 * P V.E.!.!.E.H.N.n.x.P K x.V.E.!.!.!.!.!.R.H.H.H.N.x.P K P x.x.x.P K P x.x.I c p b K P I B B I x.x.N.H.R.R.R.!.].oXoX.X.X.X+X&X@X!.H.H.R.!.E.V.N.H.R.!.^.].].^.!.!.^.^.^.^.'.|.|.'.^.^.'.|..X|.|.",
"x.N.H.R.!.E.V.x.x.x.x.N.H.H.T.H.N.x.K H m m m m m K x.x.x.n * 3 P N.N.x.x.x.I P K V m K x.V.E.!.!.!.!.E.V.x.x.N.H.n.8.B I x.x.P M l l N l.I p 3 p l B B B B I x.x.N.N.H.E.].oXoX_._.oXOXOXOXOX XW.H.N.x.x.x.x.N.H.H.R.R.R.R.R.R.K.W.'.|.|.oX#X*X*X*X*X*X#XOX.X.X",
"P l.x.x.x.N.x.x.x.x.x.N.H.H.N.x.x.P P P K H H n s s P P c 3 @ 7 T H.V.c.x.P K V c c V K P x.x.H.E.E.H.N.H.D.x.x.H.H.x.x.D.H.H.H.H.n.8.B l.I c p b P x.x.l.P P x.D.W.'.|.|..XOXOXOXOX.X'.W.R.K.H.N.x.x.P K m m P x.N.H.R.W.!.!.W.R.E.'.|.|.|.|..X.X X X.XOXOXOXOX",
"P P P P P P P P K K l.x.x.x.x.l.K m m K P P P K V m m m m g * i n.^.].'.^.E.N.l.B B I k.z.x.x.x.x.x.x.x.x.x.D.R.W.!.!.!.!.W.R.H.H.D.x.I x.P M l B 0.I P K K l.x.N.H.E.!.'.'.!.^.'.'.^.!.P.m.x.P K V V V c c b m m K l.x.x.c.N.H.H.H.H.H.H.H.H.R.!.!.!.!.!.^.oXOX",
"m m m b a t % @ @ % t a n V c l p p u a a t % @ * % & & y 3 @ 7 n.W.K.H.H.N.x.I l.x.x.x.N.D.H.N.x.x.P x.N.N.x.x.I P P P P I x.c.N.D.D.D.D.n.I P l.x.x.I s 3 * * t t * @ @ * 3 i n V c z z c n b c l p y 3 * * 3 3 * % @ @ $ & & * 3 p y 3 i K x.x.x.x.P K V K K ",
"@ @ @ @ @ @ @ @ @ % % @ @ @ @ @ @ @ @ @ @ @ @ @ @ @ + + @ @ @ @ % * % % @ % @ % % % % % % % * * % % % % % * % % % % % @ @ @ @ @ @ @ % % @ @ @ @ % % % % @ @ @ @ @ @ @ @ @ @ @ % % % % @ @ @ @ % @ @ @ @ @ @ @ @ @ @ @ @ @ @ @ @ @ @ @ @ @ % % % % % % % @ @ @ @ ",
"o * 3 s K P P x.K.R.c.K i 3 t a b m m m m m m m m g 7 * * * @ * g n s p y s b m m m m K P I x.x.I P K K P P P P K m m g i * % @ @ * t t * @ * i g m m m m m m m m m m K l.x.N.N.x.P P P K K P P K m m m m b a t e e t a K P x.x.N.N.x.x.N.N.x.l.P P P K s 3 * o ",
"o 3 K N.H.K.W.^.].].^.E.N.x.x.l.P K V m m m m m m m m n n m K P x.x.N.N.x.l.I I x.x.x.x.x.x.x.N.H.H.H.K.E.^.'.'.^.E.H.H.H.D.D.n.T x.N.H.H.n.x.P K P N.H.c.x.x.x.x.N.H.H.N.N.H.H.H.H.H.H.c.n.V.H.H.D.N.x.x.x.l.P m m m K P P x.P K V V V c c V V c c V K P n * o ",
"o * n l.I x.D.R.R.R.H.N.P b s p u u u a s l p p p 3 * @ @ @ * 3 y p p p p s l M P x.x.x.x.N.N.H.H.H.H.H.H.H.H.H.H.D.N.x.x.x.x.x.Y x.x.c.x.x.P I x.x.x.P K K l.x.l.x.x.N.x.x.K K P x.x.x.l.I B 8.T c.N.N.n.l.K M c c n K P P K V c c V V V n a a b K P x.x.P 3 o ",
"o * p M V K x.x.c.x.P V K m a t 3 3 t a a a 3 3 3 3 3 3 @ @ @ @ * 3 3 s I I M c V K x.N.N.I i i l M V K P K d : : C U E E E T T E E E U C : 7 i K P K V c s i i s N n.N.P H m m m K K n i 3 * @ % * 7 7 7 3 3 f U U C 9 f p a a 3 i h K P P M l l c V K P V * o ",
"o 7 I n.c s b K P P s s P P K b a a n P N.N.x.x.N.E.'.W.x.P x.T c 3 * * 3 s b m m K I x.x.N.N.c.P b p y 3 i n K P P K P D.W.!.!.!.D.P K P P K n i 3 y p b P x.H.H.n.M c P P K m m K P P s s P P K c. XOX].K.x.x.D.N.P G S A A D D S c M l.x.x.P M c M K P n * o ",
"o * K P K b s p l l y s K P K b s M C.!.!.E.R.W. XoX'. X*XqXyX9X/.N.n.P 7 @ * i K D.]. XW.c.P b s y 3 3 g I W.^.c.K s y 3 p c c p 3 y s K D.].'.x.g 3 3 y s b P n.R.^.W.x.n i * @ 7 K x.x.K.#X:X*X#X.XoX#XOXW.H.W.!.!.C.M f d A A S P P P Y T P K V c l p 3 * o ",
"o * K P s p l l p 4 3 7 h V M c V I H.E.V.N.V.H.W.^.'.+X9X0X=X;XuXyX#XD.i 7 M D.].].D.K i 3 3 i p p 3 * * i K I N l 3 i P H.].].H.P i i n P x.I i * * 3 l l l p p s P D.].].D.V i i I ^.#X*X X].OXOX].W.R.H.H.V.N.V.E.H.I M c c Z A G K P x.x.I B B M h i * @ o ",
"o i n.K.I M N z 4 1 * 3 p N n.H.N.l.P K P P M M V x.R.^.|..XoXOXoXW.c i h I H.E.c.K i 3 3 M E.'.^.C.M y 3 3 y M C.E.N.x.x.x.n.n.x.x.x.N.E.C.M y 3 3 3 I oX<X<XOXa.p 3 i K D.^.W.x.h i i x.R.!.W.R.H.N.x.P V M M P P K P l.N.V.N.E R D J c.H.N.l.M l l l a e % o ",
"o 7 x.V.0.B l.l.B N V b s c P x.x.x.K K P P K P n.H.N.x.P P l.P c p p M H.R.c.K i 3 s c V l.K.!.!.R.x.P P P K P x.x.P b i i V V i i b K P I M z B B l.H. X#X#X|.D.P M p 3 i K c.E.H.M p p s M V M M V K x.l.K K P P K K l.x.x.P c s n P x.x.x.x.l.I 8.z p * @ o ",
"o 7 P x.P P x.x.P K P l.x.x.x.x.P b s s b m m K P P K P x.I c y 3 i T D.N.P i 7 g I W.].].W.c.P I x.x.x.x.D.].].D.P K P c.].9X9X].n.N M V l.W.!.x.I n.V.H.H.n.H.].oX|.W.P g 7 i P N.H.x.i 1 3 s P K b b K P K m m b s s b K x.x.x.v.L.`.H.R.W.!.!.E.V.x.I n * o ",
"o 7 P b.L B I k.P P K K P x.x.l.M l p y 3 3 3 3 p c b P N.I 7 * g K P M 7 @ * 3 3 i l l l p 3 3 p N E..X#XoXE.x.l.H.#X*X].].OXOX].'.OX Xc.K P Q.9X0X9X@XZ.z 8 3 p l l l i 3 * * @ 7 M P K g * 3 P l.M l l p 3 3 3 3 y p l M l.x.x.Y E W E.^.|.|.^.!.R.n.M 3 * o ",
"o 7 P x.x.P K K P I B N V K P P c c b b p 3 3 * 1 3 y p l p 3 3 g g i * @ @ * i K x.x.I c p p p 7 7 p c l.n.x.c.H.!.oX XR.I s i K N.'.'.W.N.x.n.Z.Z.8.l p p z l l s V K K h 7 * @ @ * i g g 3 3 p l p y 3 1 * 3 4 p b b c c P P K K R W W.^.|.|.^.!.R.H.x.n * o ",
"o * n x.x.l.B 8.n.H.N.l.K m m h i 1 3 3 1 1 * * * 3 4 y 3 1 1 1 1 * @ * p l p M H.XXwXwX+X.XOX-X>X$XK.K i 3 3 f n.!.^.K.M c n.n.M c n.W.!.n.s 3 3 z s._.eXuX0X&XXXoX-X*X^.b.c p l p * @ * 1 1 1 1 3 y 4 3 * * * 1 1 3 3 3 i h V m K R L.[.oX].^.!.!.!.R.c.n * o ",
"o * n x.x.x.x.V.E.E.N.I c y p p l l l p 3 * * * * * 1 1 * 3 y 3 % @ % 3 g x. XOX.XOX-X<X<X:X,XtXaXaX<X#X.XW.M p j s.OX+Xm.z z c b n.OXOXb.l p a.}.9X>XtXsXsXtX:X*X*X*XOX].^. X^.x.g 3 * @ * 3 y 3 * * * * * * * * 3 p l l l p y y f U L.'.oXOXoX].W.H.x.x.n * o ",
"o * g V K P x.N.N.x.x.P s p l p 3 1 1 * @ o @ @ * 3 1 * * 3 p y * @ * 3 y M n.!. XoX^.^.].|.|.|. XOX-X-X#XoX^.n.s 3 p c V b 7 3 p c l p p M E.OX-XqXyXwX$X|.|.].^.W.K.R.'.^.H.l.c y 3 * @ * y p 3 * 1 3 3 * @ @ o @ * 1 1 3 p l y f U L.'..XOXOX.X'.R.D.x.n * o ",
"o * 3 c I N.H.D.x.P z.P s p l p 3 * @ o o @ * i K P c 3 * @ * * @ @ * p I H.H.N.P M s p 3 3 3 3 3 3 p c P D.].].n.K M M P n * * n P M M I K.oXoXE.T c p 3 3 3 3 3 3 3 3 p M T x.x.P i * @ @ * * @ * 4 c P K i * @ o o @ * 3 p l y f U L.'..X.X|.^.W.H.x.P g * o ",
"o * n P l.x.x.x.x.P P x.x.I c y 1 * @ o o @ 3 c x.R.W.n.f * * * * 3 y p p p p y * @ @ @ @ @ * * @ @ @ @ * 3 l c n x.W.^.N.V i i M n.^.W.x.m K n i * @ @ @ @ * * @ @ @ o @ * y p p p p y 3 * * * * f n.W.R.x.c 3 @ o o @ * 3 y y y s n I K.^.^.!.R.H.H.N.P g * o ",
"o * g K P x.D.H.N.x.x.x.x.P s y 3 1 * * @ @ * 7 b P x.x.I n * @ * i P x.l.V i * @ o @ * 3 p p p p y 3 * @ @ @ @ * i I x.P V c c M P x.I f * @ @ @ @ * 3 y p p p p y * + o % 3 s K x.N.T i % @ * n I x.x.P b 7 * @ @ * 1 1 3 y y p s n P N.R.R.D.x.P K n i * @ o ",
"o * n x.x.N.H.H.H.H.H.H.N.I c p l l p 4 3 * @ * g b i 3 t t 3 * * 3 s M V g 7 * * 3 g K l.x.I P V M c j y 3 3 * @ @ * 3 p N H.H.N p 3 * @ @ * 3 3 y p l b V P I x.l.K g 3 * * 7 b V M l 3 * * 3 p p 3 i h g * @ * 3 4 p l l y p d S P x.D.H.N.x.x.P k.n * o o o ",
"o 7 P N.N.N.H.H.N.x.x.x.x.P K m m b s p p 3 * @ * 3 p p 3 3 * 3 p M I P c y * @ @ @ * i b V V V c p 3 3 4 4 3 * * * @ * g P N.N.P g * @ * * * 3 4 3 3 3 p c V V K b i * @ @ @ * p N b.x.P g 3 * 3 3 p p 3 * @ * 3 p p s b b p s K Y Y P K K P P P P x.K i * @ o ",
"o 7 T R.H.H.N.x.x.x.x.P P k.k.P M c b K x.P i * @ @ * i V M 7 7 M N.].|.H.l.P h 7 1 3 y p p p y 3 1 * * @ @ * 1 1 * @ * g P x.x.P g * @ * 1 * * @ @ * 1 1 3 y p p p y 3 3 i n P N.^.*X#XE.P i 7 M V i * @ @ * i P x.K b s i : d K x.x.x.x.P P k.P x.x.l.M p * o ",
"o i n.!.H.c.x.N.H.H.N.x.x.x.N.I i i g P N.n.c p p y 3 3 p p 3 3 p N V.E.!.^.^.H.B p 3 3 3 3 3 3 1 1 * * @ @ @ * 3 4 1 i x.^.OXOX^.x.i 1 3 3 * @ @ @ * 1 1 3 3 3 3 3 3 i b n..X*X-X#X XK.B p 3 3 p p 3 3 y p p c n.N.P g 3 7 C J T x.x.N.H.H.N.x.x.N.H.H.H.I 7 o ",
"o i K.'.W.H.H.H.N.c.x.x.x.N.H.R.!.n.i 3 g P N.H.N.P i 1 1 1 * 3 g K l.R.oX*X#XOX.X].^.H.I V M l l p 3 3 1 3 4 y y y 3 f K.OX:X:XOXK.f 3 y y y 3 3 1 3 3 j M V K K I K.].#X-X:XrXuXwX].N.P g 3 * 1 1 * i P N.H.N.P b 7 * * i K x.x.N.H.H.H.H.H.H.N.N.H.H.T.T 7 o ",
"o 7 x.H.c.x.x.x.x.x.x.N.H.R.!.^.^.D.s 3 g P n.H.N.I c y 3 * * 3 3 s K N.^.|..XOX-X:X-X#X.X.X#XoX!.V.x.I l p y p l M P c.W.].OXOX].R.I V c p 3 3 p l I N.E.].OX#X#X#X-XrXiXiX<X*X#X XR.I s y 3 * * 3 y c I N.H.x.n t 1 * ; d P c.H.H.N.N.H.H.H.D.x.l.x.x.x.K * o ",
"o 7 T R.H.H.N.I c c I N.H.R.!.^.^.W.V.P i 3 p M n.H.N.P p * @ @ * 7 h K P D.].#X*X#XoXOX-X:X#XoX^.R.N.P i 1 3 c n.!.'..X#X-X<X>X*X.XW.H.H.T f * * i P N.E.^.oX=XwXwX=X#X:X<X-XoXR.x.P h 7 * @ @ * i P N.H.n.M y 3 3 3 s I H.^.'.W.H.N.x.x.c.N.x.x.P P x.x.n * o ",
"o 7 T H.N.x.c.I b a V x.N.R.W.^.|.'.E.H.n.l.V P H.W.R.N.P g * @ * 3 p c V P N.R.!.!.R.W.'.'.W.N.P b i * @ @ * 3 p I W.oX-XrXyXyXrX*X^.b.M p 3 * @ @ * i h I H.].#X+X].^.|.].W.N.P V c p 3 * @ * g P N.R.W.H.P g 7 7 d U F.!.!.W.R.H.H.H.N.x.x.P K K l.x.x.n * o ",
"o 7 P x.x.P P n * * p M P l.x.n.H.H.H.H.H.n.c s n x.R.W.V.K 3 @ * 3 y s K P P I x.I M c V K K b s 3 * @ * * @ @ @ @ * c !.=XeXwX$XE.f * @ @ @ @ * * @ * 3 s b K x.I M N l.x.x.P P K s y 3 * @ 3 P V.W.R.l.n p p d S P x.x.x.x.x.I P P P P P K g 7 * * i g g * o ",
"o % 3 s b g * @ * % & & e t 3 3 y c I x.x.c.N.x.K P K.E.c.n * * Z D d : i p p s P P s s b b i 1 1 * 1 3 y y 3 3 p p 3 7 b I D.D.I b i 3 y y 3 3 y y 3 * * * 1 i b V c c P P s y y i : C U U g a V c.E.K.I g * * : d 7 * * @ @ @ @ @ @ @ @ % * * @ o o o @ @ @ o ",
"@ @ % % % % @ @ @ @ % % % % @ @ @ @ @ * = = * 3 y c l.l.c 3 * * C C - @ @ * y c l.P i 3 p l p 3 * * p l p p l M P P K n s p 3 3 p s n K P P M l y s b g * * 3 p l p 3 p P I c 4 3 * = r R U 7 * 3 c l.l.c y 3 * = = + - Z C . . + @ @ @ @ @ @ @ @ @ @ @ @ @ @ @ ",
"!.E.H.D.D.D.D.D.D.H.E.E.H.N.x.x.I K s 3 3 i T n.P K P P s 3 1 7 C D K P l.x.N.N.x.P s p y y y y y s K M s c I N.H.R.E.H.x.M c c V x.H.E.K.H.N.I c s K K s y y y y y y s P K i 7 g I H.W.R.x.b t y s P P K b s y 3 3 y y a b x.H.E.K.N.x.x.N.K.H.x.P P K H m m m ",
"!.E.V.x.N.N.H.H.N.c.x.x.x.x.x.x.x.x.K b c l c M P P K g 7 * * 7 S J K V V K P x.x.x.I P l p 3 3 4 p l c b P D.E.H.n.N p 3 3 1 1 3 3 p N n.H.E.D.P b c l p 3 3 3 p c P K s f d S x.R.!.^.^.n.i 1 3 p b K P P M l l c M g 7 i x.R.R.H.H.H.N.x.N.x.x.x.x.P K K P P ",
"R.H.N.N.H.R.W.E.V.x.K K P x.x.c.N.I c p y p b K l.I s y 3 * 1 i n K K m m K P x.x.P s p l p 3 * * 7 h h 7 3 3 3 3 3 1 1 1 1 % % 1 1 2 2 3 3 3 3 3 i h h 7 * * 3 p l p i d S P x.D.R.!.!.R.x.i * * 3 y s I l.K b p y y i Z J N.R.T.H.N.N.N.N.x.N.H.H.N.x.x.x.P K ",
"R.R.H.H.H.H.N.N.N.x.x.x.x.N.H.H.H.H.N.I c p y y 3 3 3 * * 7 g K P P K K K K P x.I P K b i 3 3 * * 7 b g * @ % 5 O.1X$.O.O.O.$.%.2X3X8X4X2X+.5 * @ * g b 7 * * 1 1 3 y c I N.E.W.R.D.x.x.x.K * o o @ * 3 3 3 y p p i 9 d P N.H.T.H.H.H.H.H.H.H.R.W.W.R.H.H.H.N.x.",
"!.!.^.W.H.N.c.x.c.N.H.V.a.a.V.H.N.N.H.H.H.x.i * @ * ; r a b K x.x.N.n.N.H.H.N.x.x.x.x.N.H.x.i 3 * 3 g K P K s 6 +.O.( Q Q ! ) ) ) ) ! ( O.+.6 s K P K h 7 * * 3 y c I V.E.E.H.N.N.n.x.x.x.n * o o % ; ; * @ @ - d S P x.x.N.H.H.R.R.R.R.R.R.R.H.N.N.H.H.H.H.H.H.",
"!.^.|.'.W.H.H.H.N.x.x.N.H.H.H.H.N.N.N.N.H.D.x.K c M x.H.H.H.W.!.!.!.!.!.R.R.R.K.H.R.W.!.R.R.W.n.f 3 y c I c.H.s.| ) ! Q Q ( ) o.o.( ! ! ( | s.H.N.I c y 3 * 1 i K x.D.H.H.H.H.H.N.c.x.P K b a e % * n P K m m P n.H.H.H.H.H.R.R.!.!.!.!.!.!.!.!.R.H.H.H.H.R.W.!.",
"H.W.'..X|.'.W.H.N.x.x.x.x.x.x.H.E.!.!.!.R.H.N.l.M l l N n.W.'.|.^.^.|.|.|.|.^.!.!.!.!.^.^.!.R.R.W.C.M y y M H.S.;.$.) ( o.o.) o.o.o.! ( O.-.S.H.M p y y 3 7 S U N.R.!.E.N.N.E.^.'.'.^.H.N p 3 * @ * n P K K P x.D.T.R.R.!.^.].|.|.|.^.^.].|.^.^.!.E.V.N.H.H.N.N.",
"!.^.]..XOXOXOX XR.x.n.N.x.N.H.R.W.^.].'.W.R.!.H.N l y c n.W.'.|.|..XOXOX.X|.|.|.^.^.|.|.|.].^.!.!.!.!.C.M s P 9.&.2X2X1X%.$.O.O.$.1X1X1X%.@.8.P s y y s K I x.x.n.N.N.N.N.N.N.H.R.R.R.H.x.K b e % * n x.P x.x.N.H.R.W.^.].].^.].oXOX.X|.^.^.|.|.^.!.R.H.H.H.H.H.",
"!.!.^.^.^.'.|.'.W.R.!.E.V.N.H.R.R.R.R.R.!.!.!.E.V.l.K P N.W.'. X.X.XOXOX.X X.X|.^.^.|.|.^.!.!.!.!.!.!.^.].W.M 6 +.O.( ! ! ( o.O.$.O.) ) O.+.3.c l M l.l.M M P x.D.E.'.OX-X:X-X*X*X#X#X XW.x.b e @ * n x.x.N.H.H.H.H.H.R.!.^.!.^.|.|..X|.^.^.^.^.!.!.R.H.H.H.R.R.",
"!.^.|.|.|.|. X|.^.^.|.'.H.V.E.!.!.!.!.!.!.E.V.N.D.D.n.N.H.W.'..XOXOXOXOX.X|.|.|. X|.^.^.!.!.!.!.!.!.!.^.|.|.^.Z.=.) ! Q Q ! ( ) ) ( ! ( O.] 0 d n l.R.R.l.P N.R.!.^.^.].oX#X*X*X#XOX.X'.W.x.i o o 7 P N.N.x.x.N.H.H.H.R.!.!.E.R.R.W.'. X|.|.^.!.R.R.R.H.H.R.!.!.",
"!.^.|.|.|.|.|.].^.^.|.|.|.|.|.|.^.!.!.W.R.D.x.P K P x.N.H.R.!.^.|.|.|.|.|.|.|.|.|.|.^.!.!.!.!.!.!.!.!.!.!.^.^.Z.| ( ! Q ! ( ) ) ) ( ( ( O.=.p.x.x.H.^.|.|.|.|..XOXOXOXoX].].oXOX.X|.^.W.H.l.b e @ 7 n.!.R.D.x.x.x.x.H.R.T.R.!.!.!.!.!.^.|.|.^.!.R.R.!.!.!.!.^.^.",
"H.R.!.^.^.!.E.E.!.^.^.^.|.|.|. X.X!.I N l.x.P K P x.x.N.x.N.H.R.!.!.!.!.^.^.^.^.^.!.E.E.!.!.!.!.!.!.^.^.!.!.R.d.} ( ! ! ) O.O.O.o.( ! ! o.=.s.T.T.R.!.^.|..XOX#X*X*X*X*X#XOXOXOX.X|.^.E.V.P 7 o o 7 x.H.N.N.H.H.H.E.'.'.!.R.R.E.!.!.^.^.^.^.^.!.!.!.^.!.!.^.].|.",
"H.R.!.!.!./.oXOX.X|.^.^.|.|.|.|.|.'.R.H.H.N.P K P x.H.N.k.P x.H.!.!.R.R.!.!.!.!.!.!.!.!.!.!.R.R.!.^.|.|.^.^.^.Z.| ( ! ! ( ) ) ) ) ( ! ! ) } i.D.W.!.^.^.^.^.|.OX#X*X#XOX.X X.X.XOX.XW.D.x.n * o o i n.W.H.N.H.R.W.Q.Y.{.9XwX=XoX].].].|.|.|.|.|.|.|.|.].^.!.^.^.",
"H.H.T.H.H.W.'..X.X|.^.^.].|. X^.D.c.R.!.R.N.P m m I K.^.].'.^.^.oXoX].^.^.^.!.!.R.R.!.!.R.H.H.R.!.^.|.|.^.^.|.Y.X.( ! Q ! ( ) ) ) ( ! ( o.-.g.R.W.^.]. XoXOXOXOXOX*X:X-XOX.XOXOX.X'.W.N.P g * o o 7 T R.H.H.H.R.R.R.!.].#X>XtXuXpXwX].H.R.W.'.|.^.^.^.^.^.^.].|.",
"x.N.H.H.H.R.!.^.|.|.^.!.!.!.!.!.R.H.N.N.H.D.x.P K P N.W.'. X|.].{.{.9X&XOX|.^.!.R.R.!.!.R.R.!.!.^.^.^.!.!.^.|.Y.X.( ! ! ( ) ) ) ) ) ) ) o.=.Z.W.R.H.R.R.!.].#X*X#XOX#XOX.X|.^.^.|.'.D.P K g * o o * K x.x.V.E.!.!.!.!.^.|..XOX;XuXtX].R.!.!.W.W.!.'.|..X.X|.^.^.",
"x.x.N.N.H.H.H.H.H.H.N.b.B a.V.H.x.x.x.x.n.N.H.H.N.N.H.W.'.|.|.|. X.XOX#XOXOX.X'.W.H.H.R.T.R.!.^.|.|.^.!.R.T.T.s.{ ! Q ! ) o.( ( ! ( ( ( o.| p.x.x.c.R.!.!.^.|..XOXOXOXoX'.!.!.!.!.E.N.P b t % @ * i K x.z.x.H.R.!.!.!.!.!.^.|.OX:X-X X^.'.OX-X:X-X-X:X:X-X#X.X|.",
"x.N.H.H.H.H.N.x.x.P P P P x.D.N.P M B a.V.H.N.N.H.R.!.!.^.^.^.^.|..X.X.X X|.^.!.R.H.H.R.!.!.R.R.!.!.!.E.H.l.N k ^ ! ! ! ! ( ) ) ( ( o.o.O.` x P x.x.c.N.H.R.!.^.^.!.R.R.H.H.N.x.x.P K n s y e & % i P x.x.x.D.R.R.R.!.!.!.].oXOXOX.XW.W.'..XOX#X*X*XOX|.^.].oXOX",
"H.H.H.H.N.x.x.P M M P x.x.n.s.m.C.N.x.l.x.N.H.H.H.W.'.|.^.^.].|.|.|.|.|.^.^.!.!.!.!.!.!.^.!.R.H.H.H.N.x.x.P P v / ! Q Q ! ) O.O.) ( ) ) o.| p.c.H.N.x.l.x.N.H.R.R.H.N.N.N.N.H.D.x.P K m m g * @ * i K x.x.N.H.R.W.!.!.!.!.^.|.'.W.R.!.!.!.!.!.].oXOXOXoX^.!.^.^.",
"H.H.N.N.N.x.x.P K K P x.x.x.x.N.H.H.N.x.x.x.D.H.H.W.'.|.|.].^.^.^.^.^.^.|.|.^.!.!.!.!.^.].^.H.x.x.x.x.x.K m m z ` ) ! Q ! ( o.o.o.o.) ) o.| p.x.x.P K K K P N.R.W.!.!.!.!.W.R.H.N.x.K m m g 3 * * i P c.x.x.x.N.H.H.H.R.!.^.^.E.c.c.E.!.R.R.R.R.!.!.E.R.K.R.!.!.",
"x.x.x.x.x.x.x.P K m m K P I l.x.x.N.H.H.H.D.N.V.E.^.|.|.^.!.!.!.!.^.].|.|.].^.!.!.!.!.!.R.H.N.x.x.P K n a a p 5 ^ ! Q ! ( ) ) ) ( ( ) ) o.| p.x.x.x.x.x.x.x.x.x.x.x.x.N.N.x.x.z.l.x.P K b t % @ % i x.N.P K P l.x.x.x.N.H.R.!.E.c.x.D.R.W.!.!.!.!.!.R.H.H.H.R.R.",
"P x.x.x.x.x.x.P K m m K P l.x.x.x.x.x.x.P P x.N.E.!.!.!.!.!.!.W.R.R.!.!.R.H.H.H.H.R.!.!.R.H.N.x.P m a u y y 3 2 Q ! ! ! ( ) ) ( ( ( o.o.O.| s.D.c.x.x.x.x.x.l.x.N.N.x.x.N.N.x.P P P P P K g 7 * * i V P K K P P K K P P P x.H.H.N.N.H.R.H.R.!.!.!.!.!.W.R.H.H.H.",
"P P P P P P P P K m m m m b s p p p 3 * @ @ * i b K K V K V V K P x.x.x.x.x.x.n.D.H.H.H.n.x.I P P n * % e u t 5 ^ ! Q Q ! ! ! ! ! ( o.O.O.] F J Y P P P K m m K P P K m m n a t % * g K P n * @ * * @ @ * 7 g m m b s s b K l.x.x.N.H.H.H.H.H.H.H.H.H.H.H.H.N.N.",
"3 3 3 i g m m g 7 * 3 * % @ @ @ * 1 1 * @ @ * * @ @ @ @ @ @ @ % * 3 p y * @ * i b K K b i * @ % & & # O @ @ * 5 ( ) ! Q Q Q Q ! ) o.) ) o.( < # % 3 3 * % @ * 3 t t % + & & + @ @ @ @ @ @ $ & & % * @ @ @ @ @ % t a b g * @ @ * g K P P P P K m m K P P P l.x.x.",
"3 3 3 3 3 3 3 3 3 3 3 3 3 3 3 3 3 3 3 3 3 3 3 3 3 3 1 1 * * * * * 3 3 3 3 3 3 3 3 3 3 3 3 3 3 * 3 3 3 3 3 3 3 2 Q ( ) ( ( ! ! ( ( ( ( ( ) ! > $ * 3 3 3 3 3 3 3 3 3 3 3 * * 3 3 3 3 3 3 3 3 3 3 3 3 3 3 3 3 3 3 3 3 3 3 3 3 3 3 3 3 3 3 3 3 3 3 3 3 3 3 3 3 3 3 ",
"D.H.D.n.x.K m V K P l.l.P x.n.H.E.E.E.H.x.K m m m m m b p 3 * @ * i I N.x.I K b a u u g K P K K P I x.x.x.c.D.a.{ ! ! ! ( ) ) ) ( ( o.o.) X.Y.'.^.E.N.x.x.x.x.x.x.x.I P K K c.D.D.D.D.H.E.!.!.E.N.x.x.x.x.x.x.P P x.N.D.n.n.D.H.n.x.l.P P x.x.x.K m m K P P P P ",
"N.x.P H H m m m m V c c M m V K P P K V V b s s b b s p y y 3 * * i K P s p p s b m m m m K P P K K P x.D.T.T.s.{ ( ( ( ! ! ( ) ( ( o.o.o.>.Y.|.^.E.V.x.x.x.x.x.x.x.x.P P P K K K K P x.x.H.!.^.!.!.!.!.!.!.!.W.R.R.W.!.!.^.|.|.^.W.R.R.!.!.R.H.H.H.N.c.x.x.x.x.",
"x.x.K m m n a a b g 7 3 y p l l p p u a p p p p y s P P s 3 * @ * 3 y p p s b V K K m K P P P P P x.x.n.N.V.H.s.[ ! ( ) ( ( ) ( ! ! ( o.O.-.S.!.R.R.H.H.H.H.N.x.x.x.x.P k.x.x.x.x.x.x.N.H.R.!.^.!.!.!.^.^.!.^.!.!.!.!.^.].|..X.X X X|.|.|.|.|.'.W.R.!.E.V.N.H.T.",
"k.K b a s l y y 3 3 * * * * 1 3 t t 3 3 g m m b p c I x.x.n * @ * * @ * g V P x.x.l.P K P P P x.x.x.x.V.E.!.!.Z.} ( o.o.) ) o.o.( ( o.o.) | Z.^.^.^.^.!.R.H.H.H.N.x.x.x.x.n.N.N.H.H.H.R.!.!.^.^.!.^.|.|.|.|.^.!.R.R.!.^.|..XOX#X*X*X#XOXOXOXOXOX.X'.W.H.N.H.E.!.",
"K b i * 1 1 1 1 1 * @ @ * * * * * * * * 3 3 p c b P N.H.N.l.K g 3 * @ @ @ 7 V l.k.l.x.x.x.P K K l.x.x.N.H.H.T.s.} ) ( ( o.o.) ) ) ) o.o.) } s.W.'..XOXoX].!.R.H.H.H.N.c.N.N.H.R.H.R.!.!.!.^.|. X|.|.|.|. X|.^.^.].|.|..XOXOXOX#X*X*X*X*X#X#X*X*X#XoX].!.!.!.!.!.",
"B z 3 3 4 y 3 * * * @ o o o o @ * * @ * 3 y y s b P x.n.N.P i * * i M M i 7 b V V V V P x.I c s b K P I B B I 8.} ) ( ( ( ) o.o.) ) ) ) ) } i.D.W.'.|.OX-X*X^.H.H.H.H.H.H.R.W.!.!.^.|.|.|.|.|.|. X X|.|. X X|.|.|..XOXOXOXOXOXOX.X.X X.XOXOX.XoX#X*X#XoX^.!.!.!.",
"l p 3 3 p s a t 3 * @ o o o o o o % t t 3 3 y p l c V K P K * @ % i K P P P K V M l c M l.I i 3 p l B B v B I 8.| ) ! Q Q ! ) o.o.o.o.o.o.` 5.D.|.OX.X.XOX.XW.H.H.H.H.H.H.H.H.W.'.|.|.|.|.|. X|.^.^.|. X.X.X.X.X.X.X.X.XOXoX].^.|.|.^.^.^.^.|.|.|.|.|.|.^.!.!.!.",
"l p 3 3 t a u a s p 3 * @ @ o @ O & % 3 y y y y p s n K K g * @ % i K x.x.N.H.H.H.n.8.B l.I c p b P l.x.l.P z.B / ! Q Q Q ! ( ) ( ( ) o.o.| p.R..XOX.X|.^.!.R.H.H.H.H.H.H.H.H.W.'.|..X X|. X X|.^.!.!.].oXOXOXOXOX+X+X XH.c.H.R.!.!.!.!.!.!.R.R.R.R.!.!.R.H.H.H.",
"I K b t 3 3 t a a a y y 3 * @ @ * * * i g m m M c c V K K m a t * f x.H.H.H.H.H.H.D.x.P I P M l z B I P K P x.i.[ ! ! Q Q ( o.o.! ! ) o.) } s.W..XOX.X|.^.!.R.H.H.H.H.H.H.R.!.!.^.^.|.|.|.|.^.^.^.^.!.^.|..XOX#X*X*X#XoX].!.^.!.E.R.R.H.H.H.H.H.H.H.N.N.H.H.H.H.",
"P P K b a a s c V b s p p y 3 * * i K P M M P I P P P P K g 3 * * i x.H.x.I x.P K K K V N z l c M K P P K V N 3.^ ( ( ) ) ) O.O.( ( ) ) ( { s.W.|..X X|.^.!.R.H.H.H.H.H.R.R.!.^.|.|.^.^.^.^.!.^.^.!.!.^.|..XOX#X*X*X*X*X*X*X*X#XoX'.W.H.N.N.N.N.n.n.x.x.x.V.E.!.",
"P P K m m m m K P P P P K M c l l M n.R.'.'.E.D.x.P P P K g * @ % i P x.x.x.x.x.x.P P P P P s s b V V n a b K 5._ ( ! Q ! ( o.o.) ) ) ) ( { i.H.'..X X|.^.!.R.H.H.H.H.R.!.^.|.|.|..X X'.W.R.!.^.^.^.^.].oXOX.X.XOX#X*X*X#XOXOXOXOXOXOXoX X'.R.N.x.l.x.x.x.x.D.H.",
"V b i 1 * * * i K x.x.l.K K P P P x.D.R.!.!.!.R.c.P P P K g * @ * 7 b P N.H.H.N.P K P P P P M l l c V V c c V v _ ( ! Q Q ( o.O.o.( ( ( o.` z x.].OX.X|.^.!.R.H.H.K.R.R.!.!.^.^.|..X X|.^.!.!.!.!.^.|. X.X.X|.|.^.^.|..X.X|.^.^.^.!.E.R.!.!.R.V.0.N V P x.x.N.N.",
"c p 3 * @ o o * g V V V V K P l.x.x.x.N.H.H.N.x.x.x.x.x.P g * @ * i K x.x.N.H.D.x.P P P K K P P M M P l.x.x.x.B ~ ! Q Q Q ! ( ( ! ! ) o.) _ z x.^..X.X|.^.!.R.H.R.R.!.!.!.!.!.^.|.|.^.!.!.!.!.!.!.^.|..X X|.^.!.!.!.^.^.!.!.!.!.!.!.R.H.N.H.E.E.V.l.M M P x.H.H.",
"V h 3 * @ @ * 3 j l p j z N V m m P x.x.x.x.x.x.x.x.x.x.P b 3 * * 7 b P N.H.H.N.P K P I P P P x.x.T M M P x.x.i.[ Q Q Q ! ( ) ( ! ! ( ) ) / z x.^..X.X|.^.!.R.R.!.!.!.!.!.^.|.|.^.!.!.!.!.!.!.!.!.^.|.|.^.!.!.!.!.!.!.!.R.H.H.R.!.^.].'.^.E.H.R.!.K.I P N.E.!.^.",
"l p * @ * 3 p k { ~ 2 3 p j 3 3 j z M K P I I P K K x.x.x.P 7 @ % i K x.x.c.c.x.l.l.x.x.x.x.x.x.x.x.l.l.x.c.c.i.{ ! Q Q Q ! ) o.( ( ) o.) _ k x.^..X.X/.S.S.Q.!.!.!.!.^.].|.|.|.^.Q.S.f.w.9.9.s.I.!.^.!.!.!.^.^.!.!.R.T.T.H.Z.P.!.!.R.C.s.9.5.s.!.^.P.P.].OXOXOX",
"8.z j y y p k  ./ / 5 p l l j 6 / { 3.B B N M m m K P I l.K i % o 7 P x.x.I I P K m V K P l.x.n.n.n.x.x.x.x.x.i.{ ! Q Q Q ( $.$.) ! ! ( ) ) ( ..I. X X).r.e.h.H.H.R.!.!.!.!.!.!.^.Y.r.<.:.@.]  .a.N.H.E.!.^.].|.^.W.R.H.H.C.s.g.C.H.N.s.>.@.] ..d.D.a.d.I.^.|. X",
"5.5.k k k 6 / ' ' / 6 k x x k 6 / } 3.5.5.5.x v M V B 5.8.z 3 @ . = v s.8.5.v N V M v v 5.8.i.p.9.q.b.b.s.s.p.6.' ( ! Q Q ! O.O.o.( ( ( ( o.O.@.5.I m.f.>.>.u.s.s.h.P.I.Q.Q.I.P.P.f.>.&.@.] ' { 6.s.d.Z.h.P.!.!.R.H.N.N.D.Z.r.r.f.s.p.6.>.#.@.| u.s.8.8.d.P.Y.Y.",
"5.4.} ' ' ] @.@.@.@.] ' ' ' ' ] o.` 4.3.{ ' ] / q k x 5.k 0 3 @ . % z 9.5.x k k k k k k k k 5.5.9.9.9.7.>.>.6.4.' ) ( ! ! ( o.o.) ( ! ! ( o.%.&.7.p.f.t.@.` 4.5.5.9.p.Z.Q.Q.S.(.(.y.6X1XO.) ( ^ 3.8.9.9.g.Z.I.Q.Z.s.T x.x.s.>.>.7.9.5. .+.$.O.` 4.4.{ } 6.9.s.g.",
"@.@.@.@.@.@.#.#.O.o.+.] ] ] @.#.O.o.@.@.@.+.@.@.] ] ] ] ' / 5 1   X / @.] ' ' ' ' ' ' ' ' ] ] ] =.#.O.$.%.%.%.$.o.) o.O.O.$.$.O.o.) ( ( ) $.2X3X*.:.:.#.o.o.' ] ] ] @.e.j.).r.1.1.1.2X2X$.o.( ! ' ] ] @.@.>.f.h.s.9.5.8.s.7.&.%.&.-.@.@.o.O.O.o.] ] ) ) ] ] ] ' ",
"$.O.+.+.o.O.$.O.O.o.o.o.] ] @.@.o.o.o.O.O.$.%.%.#.@.o.o.] ' ! ,   X ^ +.) ) ] ] ' ' ' ' ] ] o.O.&.&.$.$.%.%.1X%.$.%.2X1X$.o.o.O.$.O.) ( ) $.4X8X*.@.@.] ) ) ] +.o.o.+.| t.t.>.&.%.1X2X1X$.o.( ( ( ) o.o.O.=.t.t.>.#.-.:.:.#.%.%.$.$.$.$.#.@.o.o.+.+.o.o.+.] ' ' ",
"o.o.) ) o.o.@.@.) ) o.o.@.@.@.] ) ) o.O.$.$.%.%.%.%.$.O.O.) ! ,   X Q ) ) ) o.o.o.o.) ) ] +.$.*.7X2.&.$.$.%.2X2X1X1X2X2X1X%.O.O.%.$.o.o.$.1X2X2X&.@.+.o.o.o.) ) o.o.) +.-.:.#.#.O.$.%.%.O.o.( ( ( ) o.o.o.+.#.#.$.$.#.#.#.#.$.$.$.$.$.O.#.@.) ) ) ) o.o.@.@.( ! ",
"( ( ( ( ! ( ] ] ( ! ! ! ' ' ' ' ( ( o.O.$.$.$.$.$.$.O.o.) ( ! ,     , ! ! ( o.o.) ) ) +.#.&.$.$.O.o.) o.o.O.$.%.2X2X%.%.2X4X8X4X3X2X2X2X1X2X3X5X7X2.<.#.#.#.@.@.) ( ! ! @.@.] ' ) ) o.o.( ! ! ! ! ! ( ) ) ) @.#.O.O.O.o.o.o.o.o.) ) o.o.] ] ( ( ) ) ) ) @.@.( ! ",
"Q Q ! ! Q Q Q Q Q Q Q Q ^ ^ ! Q ! ( ) o.O.$.#.#.$.$.O.o.) ( ! ,     , Q ! ( o.o.o.o.) +.<.<.@.' ! ! @.<.1.2.2.7X2X2X1X1X2X2X2X2X2X2X2X3X4X4X7X1.<.<.2.2.1.:.] ' ( ! Q ! ( ( ! Q ! ( ) ) ( ! ! ! ! ! ! ( ) ) @.@.o.o.o.O.o.o.) ) ( ( ) ) ' ' ( ! ! ( ) ) @.@.( ! "
};
