/* XPM */
static const char *wall58_3[] = {
/* columns rows colors chars-per-pixel */
"128 128 223 2 ",
"   c #0D0100",
".  c #0C0B09",
"X  c #160503",
"o  c #160E06",
"O  c #0F1507",
"+  c #161107",
"@  c #181007",
"#  c #121A05",
"$  c #141409",
"%  c #1B140A",
"&  c #131B09",
"*  c #1E190D",
"=  c #171511",
"-  c #1B1611",
";  c #1D1A15",
":  c #1E1E1A",
">  c #210C0A",
",  c #310000",
"<  c #3D0603",
"1  c #221202",
"2  c #22160A",
"3  c #2A140A",
"4  c #221B0D",
"5  c #281F0E",
"6  c #331409",
"7  c #351B0C",
"8  c #3D1B0E",
"9  c #221E10",
"0  c #281F10",
"q  c #201E1B",
"w  c #3E1C10",
"e  c #341918",
"r  c #14210A",
"t  c #1D220C",
"y  c #1D2118",
"u  c #23240E",
"i  c #29220F",
"p  c #24290F",
"a  c #252112",
"s  c #2C2511",
"d  c #262C12",
"f  c #2D2A14",
"g  c #24241E",
"h  c #2B2618",
"j  c #272B18",
"k  c #2A2D19",
"l  c #322512",
"z  c #3A2313",
"x  c #322C15",
"c  c #3A2C16",
"v  c #3E2718",
"b  c #322E18",
"n  c #3D2C19",
"m  c #293016",
"M  c #2E341D",
"N  c #2F381F",
"B  c #32341C",
"V  c #39321A",
"C  c #3C331B",
"Z  c #30381F",
"A  c #252423",
"S  c #282622",
"D  c #262823",
"F  c #2B2B25",
"G  c #2B2B29",
"H  c #372929",
"J  c #2E3421",
"K  c #2F3820",
"L  c #2F322A",
"P  c #313620",
"I  c #3F3420",
"U  c #343C23",
"Y  c #393E25",
"T  c #32322D",
"R  c #363D29",
"E  c #3A3F29",
"W  c #323330",
"Q  c #393A35",
"!  c #3C3D37",
"~  c #450000",
"^  c #4C0000",
"/  c #450C07",
"(  c #4C0B06",
")  c #4C0D0A",
"_  c #540101",
"`  c #5C0101",
"'  c #510B06",
"]  c #5C0C07",
"[  c #530A08",
"{  c #5B0A08",
"}  c #4C120B",
"|  c #54120C",
" . c #5C130C",
".. c #471A10",
"X. c #5B1A13",
"o. c #640101",
"O. c #6B0101",
"+. c #640B06",
"@. c #640A0A",
"#. c #6B0C0C",
"$. c #720101",
"%. c #7C0101",
"&. c #730D0C",
"*. c #64120C",
"=. c #6A110E",
"-. c #74150E",
";. c #6C1110",
":. c #661914",
">. c #651B14",
",. c #6A1A13",
"<. c #721212",
"1. c #781615",
"2. c #7B1818",
"3. c #452415",
"4. c #4A2215",
"5. c #432D1A",
"6. c #4D281A",
"7. c #572A16",
"8. c #42341D",
"9. c #4B341C",
"0. c #41381F",
"q. c #483C1F",
"w. c #52391E",
"e. c #66201A",
"r. c #6C241D",
"t. c #61341D",
"y. c #6B311B",
"u. c #522F22",
"i. c #443521",
"p. c #4A3621",
"a. c #443A22",
"s. c #4C3B25",
"d. c #4C3D29",
"f. c #573927",
"g. c #513C26",
"h. c #623B27",
"j. c #374027",
"k. c #3A4127",
"l. c #374028",
"z. c #3C442A",
"x. c #3F482C",
"c. c #3F4530",
"v. c #424127",
"b. c #42462C",
"n. c #4D422B",
"m. c #40482C",
"M. c #41492D",
"N. c #424A2E",
"B. c #444B2F",
"V. c #48492F",
"C. c #53422B",
"Z. c #5B432B",
"A. c #5F4528",
"S. c #434B30",
"D. c #474833",
"F. c #464D32",
"G. c #464E32",
"H. c #474F33",
"J. c #494E33",
"K. c #41433C",
"L. c #544432",
"P. c #534C35",
"I. c #5A4A34",
"U. c #5B4A35",
"Y. c #475033",
"T. c #4A5135",
"R. c #4D5237",
"E. c #4E5438",
"W. c #535136",
"Q. c #51563A",
"!. c #52563A",
"~. c #54593D",
"^. c #5A593D",
"/. c #604123",
"(. c #614935",
"). c #695A3D",
"_. c #454740",
"`. c #565D41",
"'. c #595E43",
"]. c #5B5E49",
"[. c #6A5A44",
"{. c #725F40",
"}. c #566043",
"|. c #5A6246",
" X c #5E6549",
".X c #646446",
"XX c #62664A",
"oX c #65694D",
"OX c #696A4E",
"+X c #776749",
"@X c #676C50",
"#X c #696D51",
"$X c #706D52",
"%X c #7D6D53",
"&X c #6D7155",
"*X c #747256",
"=X c #717559",
"-X c #79755B",
";X c #75795D",
":X c #7A7A5E",
">X c #777C60",
",X c #7A7D61",
"<X c #820101",
"1X c #8C0000",
"2X c #930101",
"3X c #9E0101",
"4X c #811009",
"5X c #801616",
"6X c #A30000",
"7X c #AC0000",
"8X c #87765A",
"9X c #937B5A",
"0X c #827E63",
"qX c #8C7D64",
"wX c #907D64",
"eX c #848166",
"rX c #8C8369",
"tX c #94846B",
"yX c #9B876E",
"uX c #9C8C73",
"iX c #A38C73",
"pX c #A29279",
"aX c #AB9A81",
/* pixels */
"o @ @ @ @ @ @ @ @ @ @ @ @ @ @ @ @ @ @ @ @ @ @ @ @ @ @ @ @ @ @ @ @ @ @ @ @ % % % % % % @ @ @ @ % @ @ @ @ @ @ @ @ % % @ @ @ @ @ @ @ @ % % @ @ @ @ @ @ @ @ @ @ @ @ @ @ % % @ @ @ @ @ @ @ @ @ @ @ @ @ @ @ @ @ @ @ @ @ @ @ @ @ @ @ @ @ @ @ @ @ @ @ @ @ @ @ @ @ @ o o ",
"o 9 Y S.z.z.z.z.M.S.S.S.M.M.M.S.S.M.z.z.z.z.z.z.z.k.U U z.z.M.G.R.R.G.G.R.Q.`.'.`.`.Q.E.E.E.Q.R.G.M.z.z.U U z.M.J.Q.E.E.E.E.E.E.E.Q.`.~.T.S.S.G.G.G.G.G.S.S.S.G.R.Q.`.`.Q.R.R.E.R.R.R.R.G.M.M.B.B.M.M.M.M.b.z.z.M.b.z.U U U U U z.M.T.R.G.M.z.z.z.z.M.z.b 4 @ o ",
"o 9 E G.M.k.P Z Z P P P P P P P Z P U z.z.z.z.U P P N U z.M.G.G.M.M.G.E.`.}.}.}.~.Q.T.Y.G.G.G.G.M.z.z.z.z.z.z.z.M.M.G.G.T.T.T.R.Q.Q.T.Y.G.G.G.T.E.Q.Q.R.B.z.z.z.z.z.x.M.G.G.M.x.z.z.b.k.U Z b x x x s s x b Z Z P U z.z.x.x.M.M.G.G.Y.G.M.b.z.z.z.z.z.U P j * o ",
"o 9 U b.a.C x s x b Z P P P P N m m N P U z.z.z.z.U P P U z.z.M.z.M.G.Y.T.T.T.G.G.G.G.G.M.z.z.z.z.M.G.G.M.z.z.z.z.z.z.z.z.G.~.'.~.E.T.G.M.M.G.G.G.S.z.z.l.Y 0.C Y U U z.z.U U U P m f i s s s s s i i i i s x b Z P U z.S.T.Q.Q.T.G.G.G.M.b.M.z.U P U z.U M * o ",
"o 9 U z.U Z N N N P U z.z.x.z.k.P P z.z.z.z.S.G.G.G.G.G.M.z.z.z.z.z.z.M.M.z.z.z.z.M.M.z.z.U U z.z.M.G.G.G.S.z.z.z.z.z.z.z.M.G.G.M.M.G.S.z.j.j.z.z.U P P U z.Y U P Z Z Z Z N N B b s 4 * * * * * 4 4 * 4 s b B P z.z.z.M.G.T.Q.Q.Q.Q.T.G.G.G.M.z.z.z.z.Y b 4 * o ",
"o a b.R.x.U P P U z.z.M.G.G.M.z.P P z.z.z.M.G.G.M.M.G.G.M.z.M.M.z.z.z.z.z.z.z.z.z.z.z.z.z.U P P z.b.b.M.G.G.G.S.z.U P P z.M.M.M.M.x.M.z.z.U P K K P U U U U j.l.U Y C x d u 4 4 2 2 2 * @ o o @ * * * 4 i f U z.z.M.G.T.T.G.M.G.Q.Q.T.T.G.G.G.G.M.z.z.Y b 4 * o ",
"o a J.`.G.z.z.M.G.G.M.B.E.E.B.k.P N N P U U z.z.z.B.R.E.T.T.E.Q.T.G.G.G.M.M.M.M.M.x.z.z.z.z.z.Y C a.k.z.x.M.G.G.z.U P P k.M.R.E.T.G.M.z.U N K K N P U U P P U U P m f i i i 4 * @ @ * * @ o o o @ @ * 4 s B U z.S.T.Q.'.XXoX X XoXoX X`.E.G.M.z.z.z.z.z.P j * o ",
"o a J.}.E.G.M.M.G.G.G.T.Q.R.x.U P m f f m N Z U z.M.M.G.R.Q.Q.Q.~.Q.T.G.G.T.E.E.T.G.M.z.x.z.P P U U U U U z.S.G.M.z.P P U z.S.T.E.R.M.k.P N K P U U U U P N N m f i i i 4 * * * * * * * @ o o o o @ * 9 k U z.B.R.~.'.}.}. XoXoX X|. X`.E.G.G.S.z.U z.U P j * o ",
"o h T.|.~.R.B.M.G.T.E.Q.T.M.U N N m d p f b Z U z.z.z.M.G.T.Q.~.'.'.~.Q.Q.Q.T.Y.Y.G.M.M.M.z.U K N Z Z N N P z.M.G.S.z.U U U z.z.z.U P P K P U j.U U P Z b s 4 4 2 2 2 2 2 4 u u 4 * @ @ * * @ o o @ * a P z.S.T.Q.Q.Q.~.}. XoXoX X}. X}.~.Q.T.G.G.G.M.z.U j * o ",
"o h Q.oX'.Q.Q.Q.T.G.G.T.T.b.V x x x i s m P U k.z.M.G.T.E.Q.T.G.G.G.G.G.G.G.G.T.Q.Q.T.G.G.S.z.U P N N N N P U z.z.x.z.z.U U z.z.z.z.z.U U U U U U U U U P k 4 * * 4 u d p p i i 2 * * * * 2 2 2 4 a k U z.M.G.G.Y.T.Q.'.XX@X&X@XoX X X}.~.Q.T.G.Y.S.z.k.U M * o ",
"o h Q.XX~.T.Q.Q.T.T.E.Q.T.b.V f d p i f m N N P k.z.x.M.b.z.U P Z Z Z P k.z.z.M.G.G.G.G.G.b.V x s s x s 4 a P z.z.M.M.z.z.z.z.z.z.U P P U U P P U z.Y k.z.P a 4 * a m Z b s 4 * @ * s s 4 4 s B Y M.G.G.G.G.G.T.Q.Q.Q.'.XXoX XXX@X@XXX}.}.'.~.Q.T.G.M.z.U j * o ",
"o a J. X|.}.}.`.E.T.Q.Q.T.M.U m s i p p p p d m P z.z.z.U Z Z Z b x s s x b Z U z.M.G.S.z.U P m f s x b Z P z.M.G.G.G.G.G.G.M.M.z.z.P P U z.z.z.z.z.z.M.G.G.M.k.P N N N Z k a 2 * a P P a 9 j U M.T.E.Q.Q.Q.Q.~.'.}.}.'.~.~.}.}.|.|.}.}.~.~.~.E.G.z.U P N j * o ",
"o a b.`.}.}.~.Q.Q.Q.Q.R.x.U f i 2 2 * * * 4 s b Z P U U B b b s 4 * * 4 i f m P U z.z.z.z.U P P k.z.k.z.M.T.E.E.T.G.G.T.E.Q.Q.R.B.z.k.U U z.S.S.z.z.S.T.E.Q.Q.G.U m s f m B b b U k.z.z.P N N U z.M.G.T.Q.Q.Q.Q.Q.~.~.Q.Q.~.}.}.~.~.}.}.}.'.~.Q.Q.R.M.U a * @ o ",
"o 9 b.`.}.}.~.Q.T.T.Q.J.C s 4 4 4 2 * * * 4 u d M P U U P m f 4 * @ * 4 i i i f U z.G.G.M.z.z.z.z.M.G.T.Q.Q.T.G.G.T.Q.Q.T.T.E.R.B.z.k.U U z.z.B.R.E.T.G.G.G.z.U f i 4 4 s b Z P U Y k.z.z.M.S.G.G.T.Q.Q.Q.Q.T.T.Q.Q.Q.Q.Q.~.~.~.~.Q.T.T.T.T.Q.Q.T.G.G.z.M t % o ",
"o a b.'.XXoX X'.~.Q.Q.G.Y N N N N j 9 * * * u d M P U z.j.U B s 4 * * 4 i i i b b.T.Q.Q.T.G.M.M.G.T.Q.~.}.`.E.S.z.x.R.Q.T.G.M.z.z.U P P U k.z.z.z.z.z.z.z.z.U m 9 * * 4 u d m P z.z.z.z.M.M.z.z.z.G.~.'.~.Q.Q.Q.Q.Q.Q.Q.Q.~.'.'.~.Q.T.G.G.G.Y.Y.G.G.M.z.P j * o ",
"o a J.}.`.Q.T.G.M.z.z.z.Y U P P U Z a * * * u d M U z.z.z.U P m f i i i i i i B G.~.~.~.Q.Q.T.T.Q.Q.Q.~.'.}.~.J.Y U M.T.T.B.a.8.8.C B M d j N P P M f l c C B k 9 * * 4 i i x B Y M.G.G.G.M.U P z.M.G.T.Q.Q.R.T.G.T.Q.Q.T.G.T.T.G.T.Q.E.T.G.G.G.M.M.M.z.U j * o ",
"o a J.}.~.T.x.U P Z b x s s s l c c 5 2 * * * a j U z.z.z.z.z.z.U N N m s s m Y T.~.}.}.}.}.~.Q.Q.Q.T.T.G.E.`.Q.a.C b.T.Q.R.x.U B b Z N N Z V C C c l l c 8.C c x i i i t & * a m U M.G.z.U P P z.z.z.x.R.Q.Q.E.T.G.M.z.z.z.b.b.b.M.G.Y.G.G.G.G.G.G.G.M.U j * o ",
"o a b.Q.G.z.z.U P j 9 5 c c l s x x c c 4 * * a m P U z.G.Y.Y.G.M.z.U m s f Y B.R.~.}.}.}.'.~.Q.Q.~.`.~.G.M.G.b.V x U M.`.~.M.U P P U U P U z.b.b.z.U U z.M.G.M.z.P m p i i p d M P z.z.P M d m P U U z.S.T.G.Y.T.M.U Z V C C C k.M.G.G.G.T.E.E.T.T.Q.R.x.M * o ",
"o a b.E.x.R E U P j 4 4 k Z b s 4 4 k M d p p d M P z.B.R.Q.T.G.G.G.M.k.B B b.G.T.T.Q.Q.R.T.T.G.G.G.M.M.z.M.G.b.V x c a.J.E.G.z.z.M.G.T.E.E.T.T.E.E.G.G.E.R.B.z.z.U P N N M d d M Z b f d p i f m N N P U z.z.M.G.M.U B b B U Y Y z.z.M.G.G.T.T.Y.T.Q.T.k.j * o ",
"o h J.`.S.z.S.M.U m 9 4 s b Z j 4 4 s x x b m N N U M.Y.T.Y.G.T.Q.Q.T.M.z.z.S.T.T.T.Q.Q.Q.E.T.G.M.z.z.z.z.M.G.M.U Z Z U z.B.R.Q.Q.Q.Q.Q.Q.Q.Q.Q.T.T.T.T.T.T.G.T.Q.J.U P U P m d M m f i p p t & * 4 s b Z P U z.S.B.0.c c C Y z.z.M.G.G.M.B.R.Q.Q.Q.T.G.z.M * o ",
"o a b.Q.T.T.E.E.T.b.V x x x b x s i 4 4 s b M N N U M.G.G.G.G.T.Q.Q.T.G.M.M.G.T.`.'.~.Q.T.T.G.G.M.z.z.z.G.T.Q.E.T.G.G.G.M.z.z.z.G.G.M.M.M.M.M.G.~.}.}.'.~.E.T.T.Q.G.U P U P m d M k 9 4 i i i i i i p d M P P P U U P U k.z.z.M.G.T.Q.Q.T.T.Q.Q.Q.Q.Q.R.x.M * o ",
"o a b.Q.T.G.G.T.Q.W.C.a.U Z b b Z m a 4 u p p m P z.z.M.G.G.G.T.Q.Q.T.G.M.z.z.z.G.T.Q.Q.Q.E.T.T.E.Q.Q.~.`.`.E.T.G.T.T.S.z.z.z.z.z.G.R.~.'.}.}.`.~.Q.~.Q.T.T.G.G.M.z.P N P m f i i s s s s s i i p p i f m P U U U z.z.z.z.M.G.T.Q.Q.T.T.Q.Q.T.G.G.T.Q.R.S.U 4 o ",
"o a b.~.Q.R.B.M.G.T.R.R.G.b.8.C k.z.k.U B b x b Z P P U z.M.G.T.Q.Q.T.T.T.M.U P z.G.E.Q.T.T.E.Q.Q.Q.T.T.T.E.`.'.~.Q.Q.Q.Q.E.J.G.G.T.E.Q.Q.Q.Q.Q.Q.Q.Q.Q.Q.Q.T.S.z.U P N N Z b x x b Z N N m f i i i i s x b N N N P z.z.z.z.S.T.T.Y.G.G.G.G.M.z.x.b.M.z.z.M * o ",
"o 9 E T.T.G.M.M.M.z.z.z.z.v.C C k.b.d.n.V.M.z.Y U U U z.S.G.M.G.~.}.}.}.}.`.G.M.G.T.E.Q.Q.E.T.G.G.T.E.~.'.}.}.}.~.Q.Q.Q.Q.R.B.z.z.z.z.M.G.T.T.Y.G.T.Q.Q.Q.Q.T.G.M.z.P P U U U U P P U U j.U P Z Z m f s p u 4 a m U z.M.z.M.G.Y.G.G.M.z.z.z.z.z.x.x.x.z.U j * o ",
"o 9 E T.T.G.G.T.E.E.T.G.G.G.M.b.G.G.G.G.G.G.G.G.G.G.M.z.z.M.G.G.Y.T.Q.~.}.|.}.}.~.R.B.M.M.M.M.M.G.T.Q.Q.Q.~.}.`.E.G.T.G.M.M.x.z.z.U U z.S.G.G.G.G.G.G.G.G.G.G.G.M.z.P P U U j.z.z.z.z.z.z.z.z.z.z.z.k.U f f m P z.M.G.G.G.G.G.G.M.z.z.z.z.z.z.z.S.G.M.z.z.M * o ",
"o 9 Y G.G.G.G.G.M.M.G.G.M.z.z.z.z.z.z.z.M.M.x.z.z.U U U U U z.M.G.G.M.G.~.}.}.}.}.~.G.x.S.G.G.G.G.G.G.G.M.B.R.Q.T.G.G.G.G.M.z.U P P U z.z.M.G.G.G.G.M.z.z.z.z.z.z.z.k.U P P k.z.z.z.S.G.G.G.G.B.M.z.z.z.z.z.z.M.G.G.G.G.G.S.z.z.z.z.z.z.z.M.G.G.G.G.G.M.U j * o ",
"o * j P U k.z.z.Y U P N N N N P U U P P k.z.Y U U M 9 + O r N U U U U Y z.M.G.S.z.U P N N N N P U Y z.z.z.z.Y U P m f s s 4 * * j P U Y z.z.Y U P N N N N N N N N m f s d u % % & t m N j d s f P U U Y z.z.Y U U Y z.z.k.U U U P N N P U U z.z.z.z.Y U P j * o ",
"@ @ @ @ @ @ @ @ @ @ @ @ @ @ @ @ % % @ @ @ @ @ @ @ @ @ o @ @ @ @ @ @ @ @ @ @ % % % @ @ @ @ @ @ @ @ @ @ @ % % % % @ @ @ @ @ @ @ @ @ % % % % % % % @ @ @ @ @ @ @ @ @ @ @ @ @ @ @ @ @ @ @ @ @ % % % % % % % @ @ @ @ % % % % % @ @ @ @ @ @ @ @ % % % % % @ @ @ @ + o ",
"N P U P f i 4 * @ % u d d d p d m N N m f s s s 4 * @ @ * * @ @ 4 i s i 4 a P U P k a * % @ @ @ @ @ @ * j N N N N N N N N m f f m N N N N N N m d u 4 a j m f s d d d u 4 4 i i * @ * a j P k.z.Y U P j * * 4 f m N K N d u % @ # # r t p d N P P M f i 4 * @ @ ",
"z.M.G.G.z.z.z.z.U U U k.z.z.j.U U k.z.z.M.G.R.J.z.U U M * o o @ * a U z.z.b.G.G.G.G.b.z.z.z.Y U U U U Y z.M.G.G.G.G.G.G.G.G.G.G.G.M.x.z.z.z.k.U P Z P U z.z.B.M.z.P N P k.z.z.k.P N P Y z.z.z.z.z.z.k.U U U U k.z.M.G.G.x.z.U P N N P z.M.G.R.Q.Q.E.G.x.U N P U ",
"z.z.z.z.U P P P N P z.z.z.j.U j.z.U P P U z.x.z.z.l.z.P ; o o * j U M.G.z.z.z.M.G.T.E.Q.Q.R.S.M.G.G.M.z.z.x.M.M.G.G.G.G.G.G.G.S.z.U U U P Z N N Z Z b b B P k.z.k.P f b Y x.x.z.U N N U z.z.z.U P P P Z b B U z.z.z.G.G.M.z.z.z.P P U z.z.z.z.z.G.T.T.G.z.U P P ",
"z.z.x.z.z.U U U P P U z.j.z.z.z.M.z.z.U U z.z.z.z.z.z.z.P j * * j Y J.Q.Q.R.x.z.z.G.E.'.XXXX'.Q.T.Y.G.G.G.G.G.G.G.J.G.G.G.G.T.M.U K P M f f M Z V c l i i s x x b x s b Y z.k.U U U U k.z.z.z.z.z.U B x c C k.B.R.Q.Q.R.B.z.z.z.U U M.G.M.z.z.z.S.T.Q.Q.Q.T.x.z.",
"z.z.z.z.z.l.z.U P P U U U z.z.B.E.E.B.z.z.z.z.z.U U z.z.P j * @ 4 B G.~.Q.Q.Q.Q.Q.~.}.XX&X&XXX'.~.Q.Q.Q.Q.Q.T.T.E.R.B.z.z.M.G.G.z.l.z.U B B U U P M d u 4 4 s x s i i f U U f i s s s f U z.z.k.P P U U Y z.M.T.Q.Q.Q.R.B.M.G.G.M.M.R.Q.T.S.z.z.G.R.Q.~.}.}.}.}.",
"U z.M.G.G.G.G.M.U N N P z.M.G.E.`.`.E.T.G.S.z.U U z.z.U a * @ % u B G.Q.R.T.T.E.`. XoX&X;X;XoX XoXoX X}.~.E.T.G.T.G.M.z.z.G.`.`.E.G.T.G.M.z.U B C C x s 4 5 c c 5 4 4 4 f f 4 * * * 2 9 k Z Z N Z P U z.z.z.z.M.G.G.G.G.M.M.G.G.M.M.G.T.Q.Q.Q.Q.Q.~.}.|.}.}.}.}.",
"z.z.x.M.G.G.Y.S.z.U P U M.T.Q.Q.Q.~.}.}.~.R.B.z.z.j.z.P 4 o o * j U M.T.Q.~.}.}.~.~.}.oX&X&XXX}.}. X X`.E.G.G.E.`.}.~.T.x.S.|.oX X}.}.}.~.E.T.G.G.b.8.c c C b.b.8.V Z N N j 4 * @ @ * 4 s x s l c V Z N N U z.z.z.z.z.z.z.z.S.S.z.x.R.~.}.}.|.}.~.Q.~.'.}. X X}.",
"G.G.G.G.M.M.G.S.z.U U x.R.Q.Q.Q.Q.Q.Q.Q.Q.Q.T.S.z.z.z.k.m t % * j U M.T.Q.~.}.}.}.'.~.'.XXoX X}.}.}.}.}.~.E.T.E.`.`.E.T.E.'.@X&X&X&X&X@X X'.~.E.T.B.b.k.Y z.M.M.U P U U f i * @ @ @ * * 2 4 5 s x f f p p m P Y Y U U U U z.S.T.E.E.T.E.`. XoXoX X XoX@X&X&X@XoX",
"~.Q.R.G.z.z.G.G.z.z.S.G.G.T.Q.Q.~.R.G.G.E.Q.T.G.M.z.M.z.U j * @ 4 B G.~.~.Q.~.~.~.~.}.}.~.~.}.}.~.Q.Q.Q.Q.Q.Q.R.G.G.R.~.}. XoX#X;X,X,X&X`.R.Q.R.k.B C 8.C C Y j.U U P P U U f i 4 * * 4 2 2 * 4 i i 4 4 i s x x x b Z Z Z U M.T.E.Q.Q.Q.~.~.}. X X|.|. XoX@X@XoX",
"}.}.|.`.R.T.Q.Q.T.G.M.z.z.B.R.Q.Q.Q.T.T.Q.Q.T.G.G.G.G.M.U j * @ 4 B G.~.~.Q.Q.Q.Q.Q.~.~.}.`.E.T.G.G.G.T.Q.Q.T.G.G.T.Q.~.}. X X X XXXoX@XoXoXoX}.S.E s.s.E U P P U Y C a.J.R.B.Y m d m m f i 4 * * 2 4 4 2 4 s x C C x x c V Z P z.S.R.Q.Q.'.XXoXoXoX X}. X XoXoX",
" X XoXoX X'.~.E.T.M.z.z.z.B.R.Q.T.T.Q.~.}.'.~.Q.Q.E.T.M.U j * % u B G.~.Q.Q.~.~.~.~.~.~.}.}.~.R.M.z.z.x.G.R.Q.E.G.B.R.~.}. XoXoXXX X X}.}.oX&XoXT.G.~.`.T.b.8.0.B.G.M.G.~.`.T.b.C V Y Y C c 4 * * 9 m j a 9 k U M.G.M.z.z.U f f U z.S.T.Q.~.~.`.}. X}.}. X X X X",
"oXoX X}.}.`.T.M.U K K U z.M.G.G.G.E.`.}.~.Q.T.G.G.T.Q.J.Y j * * j U M.T.T.E.`.}.}.}.}. XoXoXoXoXoXXX X}.}. XoXXX~.Q.Q.~.'. XoX#X;X=XoX}.}.oX;X&X~.T.Q.E.B.M.B.R.`.~.G.z.z.z.z.z.k.Y z.z.U m f s x B U U P B C a.B.G.G.G.T.B.a.8.Y z.z.S.E.~.}.}.}.}.}.}. X X X}.",
"~.E.G.z.z.k.P P N P U U P B C 0.b.T.Q.Q.T.G.G.G.M.M.G.M.U j * o o a b.~.}.}.}.}.}.}.}. XoXoX X}.|. X X X}.}.}.}.~.Q.Q.Q.Q.~.}. XoXoX X XoXoX X}.~.Q.Q.R.x.x.R.R.G.z.z.z.S.G.M.z.P P k.z.z.z.U P U k.z.z.z.z.k.z.G.R.Q.~.Q.Q.Q.R.B.M.G.T.Q.Q.R.R.Q.~.}. X X X}.}.",
"M.z.z.z.M.G.M.z.z.U P P z.z.z.U f B b.T.T.M.U U z.M.M.z.U j * % t B E.|. X}.~.Q.~.~.}. XoXXX'.Q.Q.~.}.}.}.'.~.~.'.'.~.Q.Q.Q.Q.~.}.}.}.XX@XoXR.G.~.`.E.T.E.Q.~.J.Y P U z.S.G.M.k.B b Z P U z.S.G.M.x.M.M.M.b.z.B.R.~.}.}.~.Q.T.T.Q.Q.Q.Q.~.Q.Q.Q.~.~.}. X X X}.}.",
"z.k.U z.z.M.G.G.M.z.z.z.S.S.z.U P U M.T.Q.Q.T.G.G.G.T.M.U j * % t M G.`.}.}.~.Q.Q.Q.Q.'.XXXX~.Q.Q.Q.Q.Q.T.T.Q.~.~.~.Q.Q.~.~.~.~.Q.Q.Q.Q.~.~.Q.R.G.G.R.~.}.}.~.J.U K U z.S.T.Q.R.z.U P P U z.z.B.R.Q.Q.Q.Q.E.T.E.`.}.~.~.~.Q.T.T.Q.~.}.}.|.}.~.~.}.|.}.}.}.}.}.}.",
"z.z.z.M.G.G.G.G.M.M.G.G.M.z.z.z.z.x.G.T.E.Q.Q.E.T.T.Q.R.x.M * % j z.~.|. X}.~.Q.G.B.G.T.T.T.T.G.M.M.G.T.G.T.Q.~.'.`.T.E.|.@X&XXXR.M.M.M.G.T.G.G.G.T.`.}.~.~.~.J.Y N N U M.T.Q.Q.T.G.M.z.b.M.G.T.Q.Q.Q.~.'.'.~.~.}.}.}.}.}.}.~.Q.Q.'.XXoXoXoXoXoX X|.|.|. X}.~.~.",
"z.M.G.T.Q.Q.T.G.M.x.M.M.x.x.x.z.z.U P U M.G.T.G.G.T.Q.R.x.M * * M x.R.'.XXoXoXXX|.`.~.E.T.G.G.T.E.E.T.G.G.T.T.T.T.G.G.T.Q.~.~.~.'.~.G.M.G.G.M.M.G.G.G.E.|.oX X~.S.z.z.B.R.~.}.'.~.Q.Q.~.}.|.}.}.}.'.~.Q.T.T.G.E.`.}.}.}.}.}.}. XoX@X&X&X@XoX X}.}. XoXoX X}.~.Q.",
"G.T.Q.Q.~.Q.Q.E.T.G.G.G.G.S.z.z.U U P P U z.S.G.M.B.R.E.G.U 4 * U G.E.~.}.}.}.`.E.J.G.G.M.M.G.T.T.T.Q.Q.Q.Q.Q.E.T.G.M.z.b.M.G.G.G.G.G.G.M.z.P P z.M.G.G.G.T.T.b.V V G.~.'.}.~.E.G.Y.`.XX%X8X$XXX`.~.`.'.~.E.T.G.T.T.Q.~.~.~.}.}.|.|.|. XoXoX X}.}.}.}.}.|.}.~.~.",
"Q.Q.Q.~.}.`.E.G.M.z.z.z.M.M.G.M.U P U U P P U U U z.S.T.Y.Y 9 * U B.R.Q.Q.R.G.M.b.z.U P z.B.R.Q.Q.Q.Q.Q.T.G.G.G.M.z.U P U z.z.z.U P U z.z.Y b s m P U Y C C Y z.z.M.G.T.T.T.Q.'.XXXX X|. XOX%X+XQ.G.G.T.Q.R.B.M.G.T.Q.~.'.'.~.Q.Q.~.~.~.~.`.}.}.`.~.~.`.}. X}.}.",
"z.M.G.T.Q.R.B.z.z.z.z.M.G.G.Y.G.M.z.P K N N N N N P z.z.z.M * 4 U M.M.z.z.z.Y U P Z N P z.B.R.Q.Q.Q.Q.R.B.z.z.M.G.b.8.C Y z.z.U B x x V k.Y s 4 s x C C C C Y z.z.M.M.G.R.'.XXXX).).XXoXoXoXoX XE.G.M.z.z.z.z.M.G.G.T.T.T.T.T.T.J.E.`.}.}.XX@X&X&X&X&X&X@XoX X X",
"U k.z.z.z.M.z.z.z.z.z.M.G.G.M.z.z.U U U P K K M f f U U b 4 @ 9 E G.B.x.z.U P Z b b Z P U z.z.G.R.R.G.M.G.S.z.z.G.G.z.z.S.G.G.G.G.b.8.C k.Y b s m U z.z.k.U U z.S.E.`.}.}. XoXoXoXoX X`.E.T.J.G.M.z.z.U P N N U z.M.G.T.E.Q.Q.E.T.R.`.}.}.}.}. X X|.|. XoXoXoXoX",
"U U U U U U U U P P k.z.z.z.z.k.P N N P U U U P Z N N N N j * a b.~.'.`.~.R.M.k.C C Y j.l.z.z.z.z.z.z.z.z.z.S.T.E.Q.Q.Q.Q.E.T.G.G.S.z.Y z.U B x C 0.Y U P P k.z.M.G.R.Q.`.`.Q.~.`.`.~.Q.L.n.z.U P Z Z Z b b m N N P k.z.z.x.M.G.G.G.G.G.G.G.G.T.Q.Q.Q.Q.Q.~.XXoX",
"N N N m d u % @ @ % u d M Z b x s s p d d u % @ * % & & i 4 @ 9 b.E.J.G.G.M.z.Y k.z.z.z.M.S.G.M.z.z.U z.M.M.z.z.Y U U U U Y z.x.M.S.S.S.S.b.Y U k.z.z.Y f 4 * * u u * @ @ * 4 a M Z b c c b M m b x s i 4 * * 4 4 * % @ @ $ & & * 4 s i 4 a P z.z.z.z.U P Z P P ",
"@ @ @ @ @ @ @ @ @ % % @ @ @ @ @ @ @ @ @ @ @ @ @ @ @ + + @ @ @ @ % * % % @ % @ % % % % % % % * * % % % % % * % % % % % @ @ @ @ @ @ @ % % @ @ @ @ % % % % @ @ @ @ @ @ @ @ @ @ @ % % % % @ @ @ @ % @ @ @ @ @ @ @ @ @ @ @ @ @ @ @ @ @ @ @ @ @ % % % % % % % @ @ @ @ ",
"o * 4 f P U U z.J.T.x.P a 4 u d m N N N N N N N N j 9 * * * @ * j M f s i f m N N N N P U Y z.z.Y U P P U U U U P N N j a * % @ @ * u u * @ * a j N N N N N N N N N N P k.z.M.M.z.U U U P P U U P N N N N m d u t t u d P U z.z.M.M.z.z.M.M.z.k.U U U P f 4 * o ",
"o 4 P M.G.J.E.~.'.'.~.R.M.z.z.k.U P Z N N N N N N N N M M N P U z.z.M.M.z.k.Y Y z.z.z.z.z.z.z.M.G.G.G.J.R.~.`.`.~.R.G.G.G.S.S.b.E z.M.G.G.b.z.U P U M.G.x.z.z.z.z.M.G.G.M.M.G.G.G.G.G.G.x.b.B.G.G.S.M.z.z.z.k.U N N N P U U z.U P Z Z Z b b Z Z b b Z P U M * o ",
"o * M k.Y z.S.T.T.T.G.M.U m f s p p p d f x s s s 4 * @ @ @ * 4 i s s s s f x B U z.z.z.z.M.M.G.G.G.G.G.G.G.G.G.G.S.M.z.z.z.z.z.R z.z.x.z.z.U Y z.z.z.U P P k.z.k.z.z.M.z.z.P P U z.z.z.k.Y C 8.E x.M.M.b.k.P B b b M P U U P Z b b Z Z Z M d d m P U z.z.U 4 o ",
"o * s B Z P z.z.x.z.U Z P N d u 4 4 u d d d 4 4 4 4 4 4 @ @ @ @ * 4 4 f Y Y B b Z P z.M.M.Y a a x B Z P U P g : : A T Q Q Q E E Q Q Q T A : 9 a P U P Z b f a a f V b.M.U K N N N P P M a 4 * @ % * 9 9 9 4 4 h T T A q h s d d 4 a k P U U B x x b Z P U Z * o ",
"o 9 Y b.b f m P U U f f U U P m d d M U M.M.z.z.M.R.`.E.z.U z.E b 4 * * 4 f m N N P Y z.z.M.M.x.U m s i 4 a M P U U P U S.E.Q.Q.Q.S.U P U U P M a 4 i s m U z.G.G.b.B b U U P N N P U U f f U U P x.|.oX'.J.z.z.S.M.U J F D D G G F b B k.z.z.U B b B P U M * o ",
"o * P U P m f s x x i f P U P m f B V.Q.Q.R.T.E.|.XX`.|.&X0XtX8X^.M.b.U 9 @ * a P S.'.|.E.x.U m f i 4 4 j Y E.~.x.P f i 4 s b b s 4 i f P S.'.`.z.j 4 4 i f m U b.T.~.E.z.M a * @ 9 P z.z.J.@X;X&X@X XXX@XoXE.G.E.Q.Q.V.B h g D D F U U U R E U P Z b x s 4 * o ",
"o * P U f s x x s 5 4 9 k Z B b Z Y G.R.B.M.B.G.E.~.`.OX8X9X*X-XyXtX@XS.a 9 B S.'.'.S.P a 4 4 a s s 4 * * a P Y V x 4 a U G.'.'.G.U a a M U z.Y a * * 4 x x x s s f U S.'.'.S.Z a a Y ~.@X&X|.'.oXoX'.E.T.G.G.B.M.B.R.G.Y B b b S D J P U z.z.Y C C B k a * @ o ",
"o a b.J.Y B V c 5 2 * 4 s V b.G.M.k.U P U U B B Z z.T.~.}. XXXoXXXE.b a k Y G.R.x.P a 4 4 B R.`.~.V.B i 4 4 i B V.R.M.z.z.z.b.b.z.z.z.M.R.V.B i 4 4 4 Y XX,X,XoXa.s 4 a P S.~.E.z.k a a z.T.Q.E.T.G.M.z.U Z B B U U P U k.M.B.M.Q W G L x.G.M.k.B x x x d t % o ",
"o 9 z.B.0.C k.k.C V Z m f b U z.z.z.P P U U P U b.G.M.z.U U k.U b s s B G.T.x.P a 4 f b Z k.J.Q.Q.T.z.U U U P U z.z.U m a a Z Z a a m P U Y B c C C k.G.|.@X@X}.S.U B s 4 a P x.R.G.B s s f B Z B B Z P z.k.P P U U P P k.z.z.U b f M U z.z.z.z.k.Y 8.c s * @ o ",
"o 9 U z.U U z.z.U P U k.z.z.z.z.U m f f m N N P U U P U z.Y b i 4 a E S.M.U a 9 j Y E.'.'.E.x.U Y z.z.z.z.S.'.'.S.U P U x.'.8X8X'.b.V B Z k.E.Q.z.Y b.B.G.G.b.G.'.XX}.E.U j 9 a U M.G.z.a 2 4 f U P m m P U P N N m f f m P z.z.z.c.K._.G.T.E.Q.Q.R.B.z.Y M * o ",
"o 9 U v.I C Y j.U U P P U z.z.k.B x s i 4 4 4 4 s b m U M.Y 9 * j P U B 9 @ * 4 4 a x x x s 4 4 s V R. X@XXXR.z.k.G.@X&X'.'.oXoX'.`.oX|.x.P U W.8X9X8X+XC.c 0 4 s x x x a 4 * * @ 9 B U P j * 4 U k.B x x s 4 4 4 4 i s x B k.z.z.R Q ! R.~.}.}.~.Q.T.b.B 4 * o ",
"o 9 U z.z.U P P U Y C V Z P U U b b m m s 4 4 * 2 4 i s x s 4 4 j j a * @ @ * a P z.z.Y b s s s 9 9 s b k.b.z.x.G.Q.XX|.T.Y f a P M.`.`.E.M.z.b.C.C.8.x s s c x x f Z P P k 9 * @ @ * a j j 4 4 s x s i 4 2 * 4 5 s m m b b U U P P W ! E.~.}.}.~.Q.T.G.z.M * o ",
"o * M z.z.k.C 8.b.G.M.k.P N N k a 2 4 4 2 2 * * * 4 5 i 4 2 2 2 2 * @ * s x s B G..XqXqXOX XoX=X:X#XJ.P a 4 4 h b.Q.~.J.B b b.b.B b b.E.Q.b.f 4 4 c s.).wXyX9X%X.XXX=X&X~.v.b s x s * @ * 2 2 2 2 4 i 5 4 * * * 2 2 4 4 4 a k Z N P W K.].XX'.~.Q.Q.Q.T.x.M * o ",
"o * M z.z.z.z.B.R.R.M.Y b i s s x x x s 4 * * * * * 2 2 * 4 i 4 % @ % 4 j z.|.oX XoX=X,X,X;X>XrXpXpX,X@X XE.B s l s.oXOXn.c c b m b.oXoXv.x s a.{.8X:XrXaXaXrX;X&X&X&XoX'.~.|.~.z.j 4 * @ * 4 i 4 * * * * * * * * 4 s x x x s i i h T K.`.XXoXXX'.E.G.z.z.M * o ",
"o * j Z P U z.M.M.z.z.U f s x s 4 2 2 * @ o @ @ * 4 2 * * 4 s i * @ * 4 i B b.Q.|.XX~.~.'.}.}.}.|.oX=X=X@XXX~.b.f 4 s b Z m 9 4 s b x s s B R.oX=X0XtXqX#X}.}.'.~.E.J.T.`.~.G.k.b i 4 * @ * i s 4 * 2 4 4 * @ @ o @ * 2 2 4 s x i h T K.`. XoXoX X`.T.S.z.M * o ",
"o * 4 b Y M.G.S.z.U l.U f s x s 4 * @ o o @ * a P U b 4 * @ * * @ @ * s Y G.G.M.U B f s 4 4 4 4 4 4 s b U S.'.'.b.P B B U M * * M U B B Y J.XXXXR.E b s 4 4 4 4 4 4 4 4 s B E z.z.U a * @ @ * * @ * 5 b U P a * @ o o @ * 4 s x i h T K.`.|.|.}.~.E.G.z.U j * o ",
"o * M U k.z.z.z.z.U U z.z.Y b i 2 * @ o o @ 4 b z.T.E.b.h * * * * 4 i s s s s i * @ @ @ @ @ * * @ @ @ @ * 4 x b M z.E.~.M.Z a a B b.~.E.z.N P M a * @ @ @ @ * * @ @ @ o @ * i s s s s i 4 * * * * h b.E.T.z.b 4 @ o o @ * 4 i i i f M Y T.~.~.Q.T.G.G.M.U j * o ",
"o * j P U z.S.G.M.z.z.z.z.U f i 4 2 * * @ @ * 9 m U z.z.Y M * @ * a U z.k.Z a * @ o @ * 4 s s s s i 4 * @ @ @ @ * a Y z.U Z b b B U z.Y h * @ @ @ @ * 4 i s s s s i * + o % 4 f P z.M.E a % @ * M Y z.z.U m 9 * @ @ * 2 2 4 i i s j m U M.T.T.S.z.U P M a * @ o ",
"o * M z.z.M.G.G.G.G.G.G.M.Y b s x x s 5 4 * @ * j m a 4 u u 4 * * 4 f B Z j 9 * * 4 j P k.z.Y U Z B b l i 4 4 * @ @ * 4 s V G.G.V s 4 * @ @ * 4 4 i s x m Z U Y z.k.P j 4 * * 9 m Z B x 4 * * 4 s s 4 a k j * @ * 4 5 s x x i s g F U z.S.G.M.z.z.U j.M * o o o ",
"o 9 U M.M.M.G.G.M.z.z.z.z.U P N N m f s s 4 * @ * 4 s s 4 4 * 4 s B Y U b i * @ @ @ * a m Z Z Z b s 4 4 5 5 4 * * * @ * j U M.M.U j * @ * * * 4 5 4 4 4 s b Z Z P m a * @ @ @ * s V v.z.U j 4 * 4 4 s s 4 * @ * 4 s s f m m s f P R R U P P U E U U z.P a * @ o ",
"o 9 E T.G.G.M.z.z.z.z.U U j.j.U B b m P z.U a * @ @ * a Z B 9 9 B M.'.}.G.k.U k 9 2 4 i s s s i 4 2 * * @ @ * 2 2 * @ * j U z.z.U j * @ * 2 * * @ @ * 2 2 4 i s s s i 4 4 a M U M.~.&X@XR.U a 9 B Z a * @ @ * a U z.P m f a : g P z.z.z.z.U U j.U z.z.k.B s * o ",
"o a b.Q.G.x.z.M.G.G.M.z.z.z.M.Y a a j U M.b.b s s i 4 4 s s 4 4 s V B.R.Q.~.~.G.C s 4 4 4 4 4 4 2 2 * * @ @ @ * 4 5 2 a z.~.oXoX~.z.a 2 4 4 * @ @ @ * 2 2 4 4 4 4 4 4 a m b. X&X=X@X|.J.C s 4 4 s s 4 4 i s s b b.M.U j 4 9 A L E z.b.M.G.G.M.z.z.M.G.G.G.Y 9 o ",
"o a J.`.E.G.G.G.M.M.z.z.z.M.G.T.Q.b.a 4 j U M.G.M.U a 2 2 2 * 4 j P k.T.XX&X@XoX X'.~.G.Y Z B x x s 4 4 2 4 5 i i i 4 h J.oX;X;XoXJ.h 4 i i i 4 4 2 4 4 l B Z P P Y J.'.@X=X;XeXyXqX'.M.U j 4 * 2 2 * a U M.G.M.U m 9 * * a P z.z.M.G.G.G.G.G.G.M.M.G.G.Y.E 9 o ",
"o 9 z.G.x.z.z.z.z.z.z.M.G.T.Q.~.~.S.f 4 j U b.G.M.Y b i 4 * * 4 4 f P M.~.}. XoX=X;X=X@X X X@XXXQ.B.z.Y x s i s x B U x.E.'.oXoX'.T.Y Z b s 4 4 s x Y M.R.'.oX@X@X@X=XeXuXuX,X&X@X|.T.Y f i 4 * * 4 i b Y M.G.z.M u 2 * ; g U x.G.G.M.M.G.G.G.S.z.k.z.z.z.P * o ",
"o 9 E T.G.G.M.Y b b Y M.G.T.Q.~.~.E.B.U a 4 s B b.G.M.U s * @ @ * 9 k P U S.'.@X&X@XXXoX=X;X@XXX~.T.M.U a 2 4 b b.Q.`. X@X=X,X:X&X XE.G.G.E h * * a U M.R.~.XX*XqXqX*X@X;X,X=XXXT.z.U k 9 * @ @ * a U M.G.b.B i 4 4 4 f Y G.~.`.E.G.M.z.z.x.M.z.z.U U z.z.M * o ",
"o 9 E G.M.z.x.Y m d Z z.M.T.E.~.}.`.R.G.b.k.Z U G.E.T.M.U j * @ * 4 s b Z U M.T.Q.Q.T.E.`.`.E.M.U m a * @ @ * 4 s Y E.XX=XeXtXtXeX&X~.v.B s 4 * @ @ * a k Y G.'.@XOX'.~.}.'.E.M.U Z b s 4 * @ * j U M.T.E.G.U j 9 9 g T D.Q.Q.E.T.G.G.G.M.z.z.U P P k.z.z.M * o ",
"o 9 U z.z.U U M * * s B U k.z.b.G.G.G.G.G.b.b f M z.T.E.B.P 4 @ * 4 i f P U U Y z.Y B b Z P P m f 4 * @ * * @ @ @ @ * b Q.*XwXqX#XR.h * @ @ @ @ * * @ * 4 f m P z.Y B V k.z.z.U U P f i 4 * @ 4 U B.E.T.k.M s s g F U z.z.z.z.z.Y U U U U U P j 9 * * a j j * o ",
"o % 4 f m j * @ * % & & t u 4 4 i b Y z.z.x.M.z.P U J.R.x.M * * S G g : a s s f U U f f m m a 2 2 * 2 4 i i 4 4 s s 4 9 m Y S.S.Y m a 4 i i 4 4 i i 4 * * * 2 a m Z b b U U f i i a : A T T j d Z x.R.J.Y j * * : g 9 * * @ @ @ @ @ @ @ @ % * * @ o o o @ @ @ o ",
"@ @ % % % % @ @ @ @ % % % % @ @ @ @ @ * = = * 4 i b k.k.b 4 * * A A - @ @ * i b k.U a 4 s x s 4 * * s x s s x B U U P M f s 4 4 s f M P U U B x i f m j * * 4 s x s 4 s U Y b 5 4 * = y W T 9 * 4 b k.k.b i 4 * = = + - S A . . + @ @ @ @ @ @ @ @ @ @ @ @ @ @ @ ",
"Q.R.G.S.S.S.S.S.S.G.R.R.G.M.z.z.Y P f 4 4 a E b.U P U U f 4 2 9 A G P U k.z.M.M.z.U f s i i i i i f P B f b Y M.G.T.R.G.z.B b b Z z.G.R.T.G.M.Y b f P P f i i i i i i f U P a 9 j Y G.E.T.z.m u i f U U P m f i 4 4 i i d m z.G.R.J.M.z.z.M.J.G.z.U U P K N N N ",
"Q.R.B.z.M.M.G.G.M.x.z.z.z.z.z.z.z.z.P m b x b B U U P j 9 * * 9 F L P Z Z P U z.z.z.Y U x s 4 4 5 s x b m U S.R.G.b.V s 4 4 * * 4 4 s V b.G.R.S.U m b x s 4 4 4 s b U P f h g F z.T.Q.~.~.b.a 2 4 s m P U U B x x b B j 9 a z.T.T.G.G.G.M.z.M.z.z.z.z.U P P U U ",
"T.G.M.M.G.T.E.R.B.z.P P U z.z.x.M.Y b s i s m P k.Y f i 4 * 2 a M P P N N P U z.z.U f s x s 4 * * 9 k k a 4 4 4 4 4 2 2 2 2 % % 2 2 3 3 4 4 4 4 4 a k k 9 * * 4 s x s a g F U z.S.T.Q.Q.T.z.a * * 4 i f Y k.P m s i i a S L M.T.Y.G.M.M.M.M.z.M.G.G.M.z.z.z.U P ",
"T.T.G.G.G.G.M.M.M.z.z.z.z.M.G.G.G.G.M.Y b s i i 4 4 4 * * 9 j P U U P P P P U z.Y U P m a 4 4 * * 9 m j * @ * 6 ' o.O.O.$.%.<X<X<X1X6X6X<X` 6 * @ * j m 9 * * 2 2 4 i b Y M.R.E.T.S.z.z.z.P * o o @ * 4 4 4 i s s a q g U M.G.Y.G.G.G.G.G.G.G.T.E.E.T.G.G.G.M.z.",
"Q.Q.~.E.G.M.x.z.x.M.G.B.a.a.B.G.M.M.G.G.G.z.a * @ * ; y d m P z.z.M.b.M.G.G.M.z.z.z.z.M.G.z.a 4 * 4 j P U P f 7 [ ` ^ ~ ~ _ O.O.o.` _ _ ` ' 7 f P U P k 9 * * 4 i b Y B.R.R.G.M.M.b.z.z.z.M * o o % ; ; * @ @ - g F U z.z.M.G.G.T.T.T.T.T.T.T.G.M.M.G.G.G.G.G.G.",
"Q.~.}.`.E.G.G.G.M.z.z.M.G.G.G.G.M.M.M.M.G.S.z.P b B z.G.G.G.E.Q.Q.Q.Q.Q.T.T.T.J.G.T.E.Q.T.T.E.b.h 4 i b Y M.G.s. .` ^ ~ ~ ^ _ ` ` ` ^ ^ `  .s.G.M.Y b i 4 * 2 a P z.S.G.G.G.G.G.M.x.z.U P m d t % * M U P N N U b.G.G.G.G.G.T.T.Q.Q.Q.Q.Q.Q.Q.Q.T.G.G.G.G.T.E.Q.",
"G.E.`. X}.`.E.G.M.z.z.z.z.z.z.G.R.Q.Q.Q.T.G.M.k.B x x V b.E.`.}.~.~.}.}.}.}.~.Q.Q.Q.Q.~.~.Q.T.T.E.V.B i i B G.Z.-.$.` ^ ^ _ o.O.$.o._ _ $.-.Z.G.B s i i 4 9 F T M.T.Q.R.M.M.R.~.`.`.~.G.V s 4 * @ * M U P P U z.S.Y.T.T.Q.~.'.}.}.}.~.~.'.}.~.~.Q.R.B.M.G.G.M.M.",
"Q.~.'. XoXoXoX|.T.z.b.M.z.M.G.T.E.~.'.`.E.T.Q.G.V x i b b.E.`.}.}. XoXoX X}.}.}.~.~.}.}.}.'.~.Q.Q.Q.Q.V.B f P u.4X2X1X<X%.%.%.%.$.$.<X%.$.] 8.U f i i f P Y z.z.b.M.M.M.M.M.M.G.T.T.T.G.z.P m t % * M z.U z.z.M.G.T.E.~.'.'.~.'.XXoX X}.~.~.}.}.~.Q.T.G.G.G.G.G.",
"Q.Q.~.~.~.`.}.`.E.T.Q.R.B.M.G.T.T.T.T.T.Q.Q.Q.R.B.k.P U M.E.`.|. X XoXoX X|. X}.~.~.}.}.~.Q.Q.Q.Q.Q.Q.~.'.E.B 8 +.O._ ~ ^ ^ _ _ o.o._ ^ ` [ w b x B k.k.B B U z.S.R.`.oX=X;X=X&X&X@X@X|.E.z.m t @ * M z.z.M.G.G.G.G.G.T.Q.~.Q.~.}.}. X}.~.~.~.~.Q.Q.T.G.G.G.T.T.",
"Q.~.}.}.}.}.|.}.~.~.}.`.G.B.R.Q.Q.Q.Q.Q.Q.R.B.M.S.S.b.M.G.E.`. XoXoXoXoX X}.}.}.|.}.~.~.Q.Q.Q.Q.Q.Q.Q.~.}.}.~.Z.=.O.^ ~ ~ ^ _ ` _ ^ ~ ^ O.{ e g M k.T.T.k.U M.T.Q.~.~.'.XX@X&X&X@XoX X`.E.z.a o o 9 U M.M.z.z.M.G.G.G.T.Q.Q.R.T.T.E.`.|.}.}.~.Q.T.T.T.G.G.T.Q.Q.",
"Q.~.}.}.}.}.}.'.~.~.}.}.}.}.}.}.~.Q.Q.E.T.S.z.U P U z.M.G.T.Q.~.}.}.}.}.}.}.}.}.}.}.~.Q.Q.Q.Q.Q.Q.Q.Q.Q.~.~.~.Z.*.` ^ ~ ^ _ o.o.o.` ^ ^ O.*.p.z.z.G.~.}.}.}.}. XoXoXoXXX'.'.XXoX X}.~.E.G.k.m t @ 9 b.Q.T.S.z.z.z.z.G.T.Y.T.Q.Q.Q.Q.Q.~.}.}.~.Q.T.T.Q.Q.Q.Q.~.~.",
"G.T.Q.~.~.Q.R.R.Q.~.~.~.}.}.}.|. XQ.Y V k.z.U P U z.z.M.z.M.G.T.Q.Q.Q.Q.~.~.~.~.~.Q.R.R.Q.Q.Q.Q.Q.Q.~.~.Q.Q.T.s. ._ ^ ^ ` o.o.o.` _ ^ ^ ` *.s.Y.Y.T.Q.~.}. XoX@X&X&X&X&X@XoXoXoX X}.~.R.B.U 9 o o 9 z.G.M.M.G.G.G.R.`.`.Q.T.T.R.Q.Q.~.~.~.~.~.Q.Q.Q.~.Q.Q.~.'.}.",
"G.T.Q.Q.Q.^.XXoX X}.~.~.}.}.}.}.}.`.T.G.G.M.U P U z.G.M.j.U z.G.Q.Q.T.T.Q.Q.Q.Q.Q.Q.Q.Q.Q.Q.T.T.Q.~.}.}.~.~.~.C. ._ ^ ^ ` o._ _ ` _ ^ ^ o. .p.S.E.Q.~.~.~.~.}.oX@X&X@XoX X|. X XoX XE.S.z.M * o o a b.E.G.M.G.T.E.W.U.[.8XqX*XXX'.'.'.}.}.}.}.}.}.}.}.'.~.Q.~.~.",
"G.G.Y.G.G.E.`. X X}.~.~.'.}.|.~.S.x.T.Q.T.M.U N N Y J.~.'.`.~.~.XXXX'.~.~.~.Q.Q.T.T.Q.Q.T.G.G.T.Q.~.}.}.~.~.}.(.,.o.^ ~ ^ _ o.O.$.O._ _ O.=.g.T.E.~.'.|.XXoXoXoXoX&X;X=XoX XoXoX X`.E.M.U j * o o 9 E T.G.G.G.T.T.T.Q.'.@X:XrXyXiXqX'.G.T.E.`.}.~.~.~.~.~.~.'.}.",
"z.M.G.G.G.T.Q.~.}.}.~.Q.Q.Q.Q.Q.T.G.M.M.G.S.z.U P U M.E.`.|.}.'.[.[.8X%XoX}.~.Q.T.T.Q.Q.T.T.Q.Q.~.~.~.Q.Q.~.}.(.,.o.^ ~ _ ` o.O.O.o._ _ O.=.Z.E.T.G.T.T.Q.'.@X&X@XoX@XoX X}.~.~.}.`.S.U P j * o o * P z.z.B.R.Q.Q.Q.Q.~.}. XoX-XyXrX'.T.Q.Q.E.E.Q.`.}. X X}.~.~.",
"z.z.M.M.G.G.G.G.G.G.M.v.C 0.B.G.z.z.z.z.b.M.G.G.M.M.G.E.`.}.}.}.|. XoX@XoXoX X`.E.G.G.T.Y.T.Q.~.}.}.~.Q.T.Y.Y.s.} ^ ~ ~ ^ _ ` ` _ _ ^ ` O.*.p.z.z.x.T.Q.Q.~.}. XoXoXoXXX`.Q.Q.Q.Q.R.M.U m u % @ * a P z.l.z.G.T.Q.Q.Q.Q.Q.~.}.oX;X=X|.~.`.oX=X;X=X=X;X;X=X@X X}.",
"z.M.G.G.G.G.M.z.z.U U U U z.S.M.U B C a.B.G.M.M.G.T.Q.Q.~.~.~.~.}. X X X|.}.~.Q.T.G.G.T.Q.Q.T.T.Q.Q.Q.R.G.k.V z ( _ ^ _ o.o.` ` _ _ _ ` o.] v U z.z.x.M.G.T.Q.~.~.Q.T.T.G.G.M.z.z.U P M f i t & % a U z.z.z.S.T.T.T.Q.Q.Q.'.XXoXoX XE.E.`. XoX@X&X&XoX}.~.'.XXoX",
"G.G.G.G.M.z.z.U B B U z.z.b.s.n.V.M.z.k.z.M.G.G.G.E.`.}.~.~.'.}.}.}.}.}.~.~.Q.Q.Q.Q.Q.Q.~.Q.T.G.G.G.M.z.z.U U n [ ` _ _ o.o.o.o.` _ _ _ o. .p.x.G.M.z.k.z.M.G.T.T.G.M.M.M.M.G.S.z.U P N N j * @ * a P z.z.M.G.T.E.Q.Q.Q.Q.~.}.`.E.T.Q.Q.Q.Q.Q.'.XXoXoXXX~.Q.~.~.",
"G.G.M.M.M.z.z.U P P U z.z.z.z.M.G.G.M.z.z.z.S.G.G.E.`.}.}.'.~.~.~.~.~.~.}.}.~.Q.Q.Q.Q.~.'.~.G.z.z.z.z.k.P N N c ' _ ^ ^ _ ` _ _ ` ` _ _ o. .p.z.z.U P P P U M.T.E.Q.Q.Q.Q.E.T.G.M.z.P N N j 4 * * a U x.z.z.z.M.G.G.G.T.Q.~.~.R.x.x.R.Q.T.T.T.T.Q.Q.R.T.J.T.Q.Q.",
"z.z.z.z.z.z.z.U P N N P U k.k.z.z.M.G.G.G.S.M.B.R.~.}.}.~.Q.Q.Q.Q.~.'.}.}.'.~.Q.Q.Q.Q.Q.T.G.M.z.z.U P M d d a 7 ( _ ^ ^ ^ _ _ ` ` ` o.O.%.=.p.z.z.z.z.z.z.z.z.z.z.z.z.M.M.z.z.l.k.z.U P m u % @ % a z.M.U P U k.z.z.z.M.G.T.Q.R.x.z.S.T.E.Q.Q.Q.Q.Q.T.G.G.G.T.T.",
"U z.z.z.z.z.z.U P N N P U k.z.z.z.z.z.z.U U z.M.R.Q.Q.Q.Q.Q.Q.E.T.T.Q.Q.T.G.G.G.G.T.Q.Q.T.G.M.z.U N d p i i 4 3 ~ _ ^ ^ _ ^ ^ ^ ^ ` O.$.O.*.s.S.x.z.z.z.z.z.k.z.M.M.z.z.M.M.z.U U U U U P j 9 * * a Z U P P U U P P U U U z.G.G.M.M.G.T.G.T.Q.Q.Q.Q.Q.E.T.G.G.G.",
"U U U U U U U U P N N N N m f s s s 4 * @ @ * a m P P Z P Z Z P U z.z.z.z.z.z.b.S.G.G.G.b.z.Y U U M * % t p u 7 / ^ ^ _ ` _ ^ ^ ^ _ o.O.$.@.H L R U U U P N N P U U P N N M d u % * j P U M * @ * * @ @ * 9 j N N m f f m P k.z.z.M.G.G.G.G.G.G.G.G.G.G.G.G.M.M.",
"4 4 4 a j N N j 9 * 4 * % @ @ @ * 2 2 * @ @ * * @ @ @ @ @ @ @ % * 4 s i * @ * a m P P m a * @ % & & # O @ @ * 3 < ~ ~ ^ ^ _ ` _ ^ ^ ` o.o.^ 1 # * 4 4 * % @ * 4 u u % + & & + @ @ @ @ @ @ $ & & % * @ @ @ @ @ % u d m j * @ @ * j P U U U U P N N P U U U k.z.z.",
"4 4 4 4 4 4 4 4 4 4 4 4 4 4 4 4 4 4 4 4 4 4 4 4 4 4 2 2 * * * * * 4 4 4 4 4 4 4 4 4 4 4 4 4 4 * 4 4 4 4 4 4 4 3 < ^ ^ ~ ~ ^ _ _ ^ ^ ` o.o.~ > $ * 4 4 4 4 4 4 4 4 4 4 4 * * 4 4 4 4 4 4 4 4 4 4 4 4 4 4 4 4 4 4 4 4 4 4 4 4 4 4 4 4 4 4 4 4 4 4 4 4 4 4 4 4 4 4 ",
"S.G.S.b.z.P N Z P U k.k.U z.b.G.R.R.R.G.z.P N N N N N m s 4 * @ * a Y M.z.Y P m d p p j P U P P U Y z.z.z.x.S.s.| _ ^ ^ ^ _ o.o.` ` o.o.` X.U.`.~.R.M.z.z.z.z.z.z.z.Y U P P x.S.S.S.S.G.R.Q.Q.R.M.z.z.z.z.z.z.U U z.M.S.b.b.S.G.b.z.k.U U z.z.z.P N N P U U U U ",
"M.z.U K K N N N N Z b b B N Z P U U P Z Z m f f m m f s i i 4 * * a P U f s s f m N N N N P U U P P U z.S.Y.Y.s.} ^ ^ _ _ ` ` _ ^ ^ ` ` ` X.U.}.~.R.B.z.z.z.k.z.z.z.z.U U U P P P P U z.z.G.Q.~.Q.Q.Q.Q.Q.Q.Q.E.T.T.E.Q.Q.~.}.}.~.E.T.T.Q.Q.T.G.G.G.M.x.z.z.z.z.",
"z.z.P N N M d d m j 9 4 i s x x s s p d s s s s i f U U f 4 * @ * 4 i s s f m Z P P N P U U U U Y z.z.b.M.B.G.s.} ^ ^ _ ^ _ o.` ^ _ o.$.O.*.Z.Q.T.T.G.G.G.G.M.z.z.z.z.U j.z.z.z.z.z.z.M.G.T.Q.~.Q.Q.Q.~.~.Q.~.Q.Q.Q.Q.~.'.}. X X|.|.}.}.}.}.}.`.E.T.Q.R.B.M.G.Y.",
"j.P m d f x i i 4 4 * * * * 2 4 u u 4 4 j N N m s b Y z.z.M * @ * * @ * j Z U z.z.k.U P U U U z.z.z.z.B.R.Q.Q.C. .` ` _ _ _ ` ` ` o.O.O.o. .C.~.~.~.~.Q.T.G.G.G.M.z.z.z.z.b.M.M.G.G.G.T.Q.Q.~.~.Q.~.}.}.}.}.~.Q.T.T.Q.~.}. XoX@X&X&X@XoXoXoXoXoX X`.E.G.M.G.R.Q.",
"P m a * 2 2 2 2 2 * @ @ * * * * * * * * 4 4 s b m U M.G.M.k.P j 4 * @ @ @ 9 Z k.j.k.z.z.z.U P P k.z.z.M.G.G.Y.g.*.O.o._ _ _ o.O.O.$.$.$.O. .s.E.`. XoXXX'.Q.T.G.G.G.M.x.M.M.G.T.G.T.Q.Q.Q.~.}.|.}.}.}.}.|.}.~.~.'.}.}. XoXoXoX@X&X&X&X&X@X@X&X&X@XXX'.Q.Q.Q.Q.Q.",
"C c 4 4 5 i 4 * * * @ o o o o @ * * @ * 4 i i f m U z.b.M.U a * * a B B a 9 m Z Z Z Z U z.Y b f m P U Y C C Y C } _ ` _ _ _ o.o._ _ o.o._ } i.G.E.`.}.oX=X&X~.G.G.G.G.G.G.T.E.Q.Q.~.}.}.}.}.}.}.|.|.}.}.|.|.}.}.}. XoXoXoXoXoXoX X X|. XoXoX XXX@X&X@XXX~.Q.Q.Q.",
"x s 4 4 s f d u 4 * @ o o o o o o % u u 4 4 i s x b Z P U P * @ % a P U U U P Z B x b B k.Y a 4 s x C C C C Y C ) ^ ^ ^ ^ ^ _ ` _ _ o.o.` [ n S.}.oX X XoX XE.G.G.G.G.G.G.G.G.E.`.}.}.}.}.}.|.}.~.~.}.|. X X X X X X X XoXXX'.~.}.}.~.~.~.~.}.}.}.}.}.}.~.Q.Q.Q.",
"x s 4 4 u d p d f s 4 * @ @ o @ O & % 4 i i i i s f M P P j * @ % a P z.z.M.G.G.G.b.8.C k.Y b s m U k.z.k.U l.C / ^ ^ ^ ~ ^ _ _ ^ ^ _ ` o. .p.T.|.oX X}.~.Q.T.G.G.G.G.G.G.G.G.E.`.|.|.|.}.|.|.}.~.Q.Q.'.XXoXoXoXoXOXOX|.G.x.G.T.Q.Q.Q.Q.Q.Q.T.T.T.T.Q.Q.T.G.G.G.",
"Y P m u 4 4 u d d d i i 4 * @ @ * * * a j N N B b b Z P P N d u * h z.G.G.G.G.G.G.S.z.U Y U B x c C Y U P U z.i.} ^ ^ ^ ^ ^ o.o._ ^ ^ _ ` | s.E. XoX X}.~.Q.T.G.G.G.G.G.G.T.Q.Q.~.~.}.}.}.}.~.~.~.~.Q.~.}. XoX@X&X&X@XXX'.Q.~.Q.R.T.T.G.G.G.G.G.G.G.M.M.G.G.G.G.",
"U U P m d d f b Z m f s s i 4 * * a P U B B U Y U U U U P j 4 * * a z.G.z.Y z.U P P P Z V c x b B P U U P Z V 3.( ^ ~ ^ _ ` o.o._ ^ ^ ^ _ } s.E.}. X|.}.~.Q.T.G.G.G.G.G.T.T.Q.~.}.}.~.~.~.~.Q.~.~.Q.Q.~.}. XoX@X&X&X&X&X&X&X&X@XXX`.E.G.M.M.M.M.b.b.z.z.z.B.R.Q.",
"U U P N N N N P U U U U P B b x x B b.T.`.`.R.S.z.U U U P j * @ % a U z.z.z.z.z.z.U U U U U f f m Z Z M d m P 5.[ _ ^ ~ _ ` ` ` ` ` _ _ _ } i.G.`. X|.}.~.Q.T.G.G.G.G.T.Q.~.}.}.|.|.|.`.E.T.Q.~.~.~.~.'.XXoX X XoX@X&X&X@XoXoXoXoXoXoXXX|.`.T.M.z.k.z.z.z.z.S.G.",
"Z m a 2 * * * a P z.z.k.P P U U U z.S.T.Q.Q.Q.T.x.U U U P j * @ * 9 m U M.G.G.M.U P U U U U B x x b Z Z b b N v ] ` ^ ~ ~ ^ o.$.O.o.` ` ` ( c z.'.oX X}.~.Q.T.G.G.J.T.T.Q.Q.~.~.}.|.|.}.~.Q.Q.Q.Q.~.}.|. X X}.}.~.~.}. X X}.~.~.~.Q.R.T.Q.Q.T.B.0.V Z U z.z.M.M.",
"b s 4 * @ o o * j Z Z Z Z P U z.z.z.z.M.G.G.M.z.z.z.z.z.U j * @ * a P z.z.M.G.S.z.U U U P P U U B B U k.z.z.z.8.[ _ ^ ~ ~ ^ ` o.` _ _ _ o.] c z.~. X X}.~.Q.T.G.T.T.Q.Q.Q.Q.Q.~.}.}.~.Q.Q.Q.Q.Q.Q.~.}. X|.}.~.Q.Q.Q.~.~.~.Q.Q.Q.Q.Q.T.G.M.G.R.R.B.k.B B U z.G.G.",
"Z k 4 * @ @ * 4 l x s s c V Z N N U z.z.z.z.z.z.z.z.z.z.U m 4 * * 9 m U M.G.G.M.U P U Y U U U z.z.E B B U z.z.i.} ^ ~ ~ ~ ^ ` o._ ^ ^ _ o.] c z.~. X X}.~.Q.T.T.Q.Q.Q.Q.Q.~.}.}.~.Q.Q.Q.Q.Q.Q.Q.Q.~.}.}.~.Q.Q.Q.Q.Q.Q.Q.T.G.G.T.Q.~.'.`.~.R.G.T.Q.J.Y U M.R.Q.~.",
"x s * @ * 4 s z } / 3 4 s l 4 4 l c B P U Y Y U P P z.z.z.U 9 @ % a P z.z.x.x.z.k.k.z.z.z.z.z.z.z.z.k.k.z.x.x.i.} ^ ^ ^ ^ _ o.o._ ^ ^ _ ` ' c z.~. X X^.A.A.W.Q.Q.Q.Q.~.'.}.}.}.~.W.A.f.w.9.9.s.P.Q.~.Q.Q.Q.~.~.Q.Q.T.Y.Y.G.C.L.Q.Q.T.V.s.9.5.s.Q.~.L.L.'.oXoXoX",
"8.c l i i s z ..) ) 7 s x x l 8 ) } 3.C C V B N N P U Y k.P a % o 9 U z.z.Y Y U P N Z P U z.z.b.b.b.z.z.k.z.z.i.| _ ^ ~ ^ ` O.O.o._ ^ ^ _ ( e T E.}.|.(.r.e.g.G.G.T.Q.Q.Q.Q.Q.Q.~.U.r.<.;.@.{ ..a.M.G.R.Q.~.'.}.~.Q.T.G.G.V.s.g.V.G.M.s.:.@.{ X.d.S.s.d.P.~.}.|.",
"5.5.z z z 8 ) [ [ ) 8 z v v z 8 ) | 3.5.5.5.v n B Z C 5.8.c 4 @ . = n s.8.5.n V Z B n n 5.8.i.p.9.q.v.v.s.s.p.6.[ _ ^ ~ ~ ^ ` ` ` _ ^ ^ _ ` ` [ v E L.f.:.:.u.s.s.g.L.U.W.W.U.L.L.f.,.&.@.{ [ } 6.s.d.C.d.L.W.Q.T.G.M.M.S.C.r.r.u.s.a.6.:.#.@. .u.s.8.8.d.L.U.U.",
"5.4.| [ [ { @.@.@.@.{ [ [ [ [ { o.] 4.3.} [ { ) w z v 5.z 7 4 @ . % c 9.5.v z z z z z z z z 5.5.9.9.9.7.:.:.6.4.( ^ ~ ~ ^ _ o.o._ ^ ~ ^ ` O.$.$.<.r.h.t.@.] 4.5.5.9.p.C.W.W.A././.y.4X<XO.` _ ( 3.8.9.9.p.C.P.W.C.s.E z.z.s.:.:.7.9.5.4.+.$.O.] 4.3.} | 6.9.s.g.",
"@.@.@.@.@.@.#.#.O.o.+.{ { { @.#.O.o.@.@.@.+.@.@.{ { { { [ ) 6 2   X ) @.{ [ [ [ [ [ [ [ [ { { { *.#.$.$.%.%.%.$.` ^ ^ ^ _ ` ` ` _ ^ ^ _ o.$.%.%.&.;.;.#.o.o.[ { { { @.e.h.(.r.1.1.1.<X<X$.o._ ^ ' { { @.@.:.f.g.s.9.5.8.s.7.&.%.&.=.@.@.o.O.O.o.{ { ` ` { { { [ ",
"$.O.+.+.o.O.$.O.O.o.o.o.{ { @.@.o.o.o.O.O.$.%.%.#.@.o.o.{ ' ^ ,   X / +.` ` { { [ [ ' [ { { o.O.<.&.%.%.%.%.<X$.` _ o.o.` o.O.O.` ^ ^ _ $.1X3X2XO.` { +.` ` { +.o.o.+. .t.t.,.&.%.<X1X<X$.o._ _ _ ` o.o.O.*.t.t.:.#.=.;.;.#.%.%.$.$.$.$.#.@.o.o.+.+.o.o.+.{ [ ' ",
"o.o.` ` o.o.@.@.` ` o.o.@.@.@.{ ` ` o.O.$.$.%.%.%.%.$.O.O.` ^ ,   X ~ ` ` ` o.o.o.o.` ` { +.$.%.5X5X%.%.$.$.%.%.%.$.O.O.O.O.%.%.%.$.` _ ` ] 7.7.+.O.O.O.O.o.` ` o.o.` +.=.;.#.#.O.$.%.%.O.o._ _ _ ` o.o.o.+.#.#.$.$.#.#.#.#.$.$.$.$.$.O.#.@.` ` ` ` o.o.@.@._ ^ ",
"_ _ _ _ ^ _ { { _ ^ ^ ^ ' [ ' ' _ _ o.O.$.$.$.$.$.$.O.o.` _ ^ ,     , ^ ^ _ o.o.` ` ` +.#.&.$.$.O.o.o.o.o.O.$.$.O.$.<X1X2X2X2X<X$.$.<X1X1X<X#.#.;.#.@.[ ^ ^ ^ _ ` _ ^ ^ { @.{ [ ` o.o.o._ ^ ^ ^ ^ ^ _ ` ` ` @.#.O.O.O.o.o.o.o.o.` ` o.o.{ { _ _ _ ` ` ` @.@._ ^ ",
"~ ~ ^ ^ ~ ~ ~ ~ ~ ~ ~ ~ ( ( ^ ~ ^ _ ` o.O.$.#.#.$.$.O.o.` _ ^ ,     , ~ ^ _ o.O.o.o.` +.<.2.2.2.1.1.<.<.<.;.#.&.2X7X7X7X6X6X7X7X6X6X6X6X2X<X5X2.<.#.#.@.{ ' ' ' _ ^ ~ ^ _ _ ^ ~ ^ _ ` ` _ ^ ^ ^ ^ ^ ^ _ ` ` @.@.o.o.o.O.o.o.` ` _ _ ` ` [ ' _ ^ ^ _ ` ` @.@._ ^ "
};
