/* XPM */
static const char *mwall4_2[] = {
/* columns rows colors chars-per-pixel */
"128 128 45 1 ",
"  c #070707",
". c #0B0B0B",
"X c #170F07",
"o c #0F1700",
"O c #0B1707",
"+ c #171F07",
"@ c #1F170B",
"# c #131313",
"$ c #1B1B1B",
"% c #2F1B0B",
"& c #13230B",
"* c #2B230F",
"= c #232B0F",
"- c #372313",
"; c #332B13",
": c #3F2F17",
"> c #3F2B1B",
", c #2F371F",
"< c #232323",
"1 c #272727",
"2 c #373F27",
"3 c #43331B",
"4 c #4B371B",
"5 c #533F1F",
"6 c #473323",
"7 c #4F3B23",
"8 c #4F3B27",
"9 c #4F3B2B",
"0 c #533F2F",
"q c #3F472B",
"w c #5F4323",
"e c #474F33",
"r c #574333",
"t c #5F4B37",
"y c #53573B",
"u c #6B4727",
"i c #675333",
"p c #775F3F",
"a c #5B6347",
"s c #676B4F",
"d c #6F7357",
"f c #7B7F63",
"g c #937B63",
"h c #9F876F",
"j c #A78F77",
/* pixels */
"+=======,,,,,2222e22q====,,,XXXXXX@=,2,====,,,,,,,,,,=;====@@X@@=====@====@*===@@@@@X@XXOXXXX@@@@=,,,,,22,,,,,,,,=,=,,222,====XX",
"@adayeaaaaddsdfffifddddsddsd22**;qadffdaddssddfdfddsaassaayaeeeaasaaaeasfa0sffdsyye6:;,,2,,2eee0qasddddddsaasadfssdsddfdffsaay*X",
"=sayq,2eayyyaaasssaeesayaaye;;;;,eaassdyyayaayysasaa2yqeyee22qqeyeaay2qaseeayyayee6=@,::*@@%;:qq3,qeqqeaaeyyysdsaaaysssssdeyeq@X",
"@ay,;@,qdfisdyyaayqqqqyqey2***,qqaaaaasyeeeyyeyyyaas2y22yae2eyeyyassaqeyse2yesfsy2,;@,22*X@@,,q,;;7qeeyayeyyyaasyyyyaaaaayyqeq@X",
"@ae,,;,eaaaddfyeya2qees22q-X@*qyeaaaaasa2qqyyyyyyyys,eq2q2,eeeayeqq2eqqeaeyyasfdaqqq,,q6*@@+=2ee2:eyaayyeyayasaayeeyyaasyyeqe,XX",
"@yeq222yaaaasffyyy22qyyq,,@XX*eyyyayaayyqq,eeyyeeeee=222,,qeeyq22,2qe2qqyeeyyasdd2qq,:2:;;@@*2qae,qeayeeeyassssyyayeeyayy22q,,XX",
"Xyee,eqyaaaassfaysaqqayq;%@XX=eyyyaaeeaaae2qeeeqq22,=,q,=2a,<22,,1,qq2q2,,eeyyaaaeq2,;,,*@@@$,qeqqeqeaayyeyaaaaayasyyeyqq;qq;,@X",
"@yeq@22yayaasssfyyeeeqye;%XXX*qyyyyseysyyyqqq2,,,,,<#<<=,q<<<$$$<<1$<<222qeqqyyyyeee2236;*;**;,2:qyyeeeeaddsadfaassayyyee,yy,2@X",
"Xeq;X,;yaayyyyayasyeqeqyq*@X@,qyyyaaeeeeeee2q2,,2<,,,,,,,<$$$$&$&&$<<$,,,qqeeeeyyyyqqe22,292;;;qq22ysddffdffddssaasaaseaeqyaya=@",
"X:;@X,*yyyyyyaaayaydqeeee*@@,2eyysay2eq2yyeyy,,2<<,,<<1<$<<$$$$$$$#$$$$<<222qe2qqeq2yyq2eye2,qqeqyaaaaaaaddddddaaayssseea2qeee=X",
"X;;@X;*eeeqeeyyyeeyyayqqq,,,qyyyayyy,,2ey22q222,<<,,,1=<$&#$$$<$$<$<$$$<,22qeq22eyeyeeeaeeeeqqeeyeaayyyaadddssdsasaafgyqaqdday,@",
"X,;@X@+qqqqeeeeyeqeyeq,,,2222eeeeeeyq2eqq222,,,<111==$$&$#$$11,22,2q<$#$$1<2,2qq222,qqey2eeee22eyyyyyyeaadddddaaadsafhseyqadsdq=",
"@2*XXX@,yyyee2yyeeeye,=,,,q222q2qq22222q2q2,,2,,<1,<$=######12q,,eee=$$$$<,<12q2ye2,22sqeeyeeq2qeyyyyaaassssssdfssssfjgey2yyaaq+",
"+;@**@*,eyyeq,2qeeeeeq,,23qe2,22qq22qe2qq222,1<12,$$<<$$&##$,,$&$$,<#$$$$$<<<<=<22,2qe22,2e2222eyqeayyyyyyaaddddsssaspgea,eyaa,@",
"X;@@***;2qq2;;;,2eeqe2,,,,,2,,2222,2q,221,,<<,<,,<<1,<=<&##=<,,,,q21,$&$<<<=<$<,21,1222$2qq22,122eayyyeeyyaassdssadasdsqa22yyy,o",
"X,*@@**,,q22,,;;;2q2q2,,,,2,===$<,2eq,22,1<,<1<2=<1,11,<&##$$,,,,2,<<$&$$<<$=<<,<$$<21<,,2,,,,2,22q2ee222yysaaaasayaayyyaq2yya,@",
"X;*@X*;,,q:e2:,;*;2,q222,,,,2,$,,,,,,22,,,,,,<<$$$<1<<<&&..#$$1,,1<<<##$$<$$$$$&$<<2,,2q222,2,q2yqqeeqqyyeyssaaysdaayeyayyeyye;X",
"X;*@X@*2q:q2e2,;*,,,2e221,,22<122,,2,221<,<$&$$$$<<111<<$..##$21=1$$$.#$$$<<<$$&$$1$<$=,<,,,222qqqeeq,qyeqeyaayaaaayesyayyysd2=X",
"X;*@@@;2eyqq2,,,*;<,2,<$$1<1$<,22,1,<,,<1<<$$<<&$,$1$$$<$#.##$,11,<$##&$<<<<$<,&&$$$$$$<<=,,,,2,,$122qe22qq2qqqeeasaasfhsdyyds=X",
"X,*X@*qayyq:::,*2,,,,2121$$<1<1,,,1<&$<<,2<$1,<<,<,,<,2<$&#&$1,=1,<#O#&$$,<$<,$<$1=$$$<=$$$&$2,=<12q2,,$1<2eeqeyeqyaiidfafqaye=X",
"X,*X*3eaeeyqq22;;22,2qq,$&$<<,1<$$$<$,<$$<$<$$12,,2<q22,1$#&$,,,2,,$##&$=1<<$<<<<$$<$$$&$$=<<<$<12221$<1<,,2qeeeeyysfffdsdyayy=@",
"Xq=@*;,q2q2eee2,,2,,2e,<$$<<$<=<&&<,$,<<<<11$$<2111,q2221###$11,,1<#O.$$,,<1<$$$<$<<$$$$$$<<<$&&,,21<$,111,2,q2qeeaasdfffyeyaa,+",
"@y;*@@*,,222eae;2ee2,e2<1,,,,<$$#$<<$,,11,2,<12222,2222,,<###$,,,,$##$$<<<====<=,<$$<<<$$<1<$$$$$&$==$$&&12qqyee2qyassssdyyyaa,o",
"@e,*@@*;*,,,qyy,eq22ea22,<,1,&$$$$<$$<<<,,2,<12q21$<2121<$###<,,,,$O##$=$<$<$#$<21<<=2,<<1$$$$$####$$=1<$12qaaayeqyyayaayyyyyy+O",
"X2,,,+=;;,,22y22q,,2e2,,,<,<<$##<<<&$&$,2qq2<<11<<12,1<$<$##$$,,,,$$#O##$$<,<$$<$$<<e2,,2<#&####OO##$<1=<12qyayeeyayyysdayyeqe@X",
"@e,2e,,,,2222q,,2<,,,1=$$$,$&##&&$&<1$<,,2,,,$,2<,2,1<1$$&##=<q2q2<1$O.##$<$$<$$<<<y21,2,<1q$######O#=$$1,qyyqqqyaaadsyayayqe2@X",
"@e,qyyeq,2,eq2,221<,qeqq<&&#O#&&$<&,,221<1<$$=2,<<,,<<$$$##&,,qafq,<$OOO##$$=<$$<<,<<$<<<,,=$#######&$&$,,2qq,eeadaaahisayqq,2@X",
";eq2eyay2eq<<<$ee,2qeye2,2,&#&##&#<<<<112,,$$<,1,1,<1&#$###$$,2qq,1$#.#####$$<$<$<<<$<<,$$$###&#####&==1,,2q2qqyyqqqeyye,qqe,q=@",
",yeqeyye,qq<1<<12qeyeq2,<$&&$$$$$&$&&$<1q2$$1,22,1,<$$$$#..#$,eyy2<<$##OOO#&$=$,,,=<<&<<$$&####$$&#&O$&<,eysyyeyeeyqey,,,2q2qy=@",
"2deyyeyq,,222,$2,12,,q,=$$$&&&&&$$$$$<1<$&$<,<1,<,1##$##...#$,qqq2q,$&#..O###$$$<$$,$1$<$$$######&###$$<,eaqq,eyq2,,qq11<qeye2,@",
"qfyeyey2,*,222<eye,,q21<$$&####&&&&&&$<$$&&$<,<,<<$&$#&##..#1,eyeeq,$&...O####$$q,<<$&&<&$&&#&#######&&<2q2q,,,2,2q2,<<<1yay2y,@",
"2daeeye,,=;,,1<2,2222,===######&&&&$$$<&$$,,,<<<$$$$$#$&&#.#$q2,2q2=&#...O##$<11,<2221<,$$$$$#######$$$,,222,21<<<,,<<,,ye2yea2*",
"qfyyeee;;*,1,122<,,,,11$$&#.##&$$<<,,<<$1,2,2$<<<<$$##<<###$,2qeee22$#O.#####&$$$$<1,,<$&$<<<$$#O#.###$<<,,2,2,,<$<<$,eyy2qyya,+",
"2fyyeye;=*,,<$<1,1,21$$#&####&$$<,<<<<<1222,,<$$<1$$$##<<1<2222qeq2221=$$O##&&$<$$$==<1=<1<<<$$$OOO..#$$<<<1,1,,,2yeqyeye22qee,+",
",dsaeye,*=,&&1&$$&#&&$&#####$$$<<$<,qq<<$$$$<<,<<<$$2222,qyeqeeeyyyyq222,,1<##$<$<$$&$<$$$<1<$$##OO##$###&$$&&&$<<12,ayq22,2ye=@",
";aayyy2*@@@<1<1$$$&#$$####&&$$<y<<<1,<$<,<<<$$$$$&$,2qeyqyeyyyysfsaayeeqeq2,<#$$$$#$<<$<<&#$$#$$,#O###.#.$<<$&<1&$22,2qqq,,2ee=O",
"=aayey;@@*$1,1,,21$$$$&&$$$$<,2<$,<$<<$<$$1$&&$#$<<222qqqeeeeasddsaaeyyeqq2,,$=######$&#$#$$#$$##$$#####O#$$$$<,,,222qq2q=,qa,=X",
",adayy,,,=$,1,1<<<&<12$$$$<<<1,<<,<,<<$<$&&##&#$,,,qeeeeeyqeyeysssssyqyyyeeyq,<1#####&$###$#$#$##$$$###O##$$$&<$$<2,qeyea22;ye=o",
",saeqq2,,$<2,,2,1$$<$$&$$$<<,,,$<$<<$<<$&&&##&$<,,qeeayayeaysasaaaaayaaayyyq222<=$O#$$$$$$#############O###O##$$=1,22eeaaeeyyy,+",
",sy2,;**;=<<,,,<$$<,$$$$=$$,<<$$<<<<$<<&&&&#1y222qyyqyayyyeysyssssasasseeee2,,,1<<1$##$#$$##$##$#O########O#$##&$<,eeeyayeeee2,+",
",ae2,@:*,=,1,,$$$<$$#$,$#$$1,,<2,,<<<<<$$##$2,2yeyyyyyyyaaetyeasaasssdyyyyqe2eq22,1,#####$##$#$$$######O#$######$<q22eaeeee2ee,@",
",a22,@,,,221,,<<$$2$$$$$$$$#<=12,,,2<$&&##$<2qeeeyyyyeeeeayq2eyaassasaayyyqyeyeqq2,,$##.####$$$#$###OO###$###=##$<,12qqeyeeqee2+",
",s2e,@;,,2,,,<1<#$#&$$$###<1,,q,1<$,<&&&#$2qqqaeeyyyyyyyeye,2eyaaaaayaaeeyeyayayee,,,$#.#O##$###$$#$$#O######O##<<,,2eyy2q2qee,+",
"2yeye;;,2,,,<<<$$$$<=<$$$$<<<$<<<$$q2=$&.<22yyyeaaaayyayyyyqeyyaassaayayeaysssdaeqe21$#.#O#$$#####O####$#$#$#.O##$$$,qqqqy3e2q=o",
",aeey722q,,,1<$#$#$$$$#######$$$$$<$$$$&<eqeyyadsaasaayyyyaeyyaaaaaaaaayeyysdsssayee,<<##OO##########$<$$&&###$###$$22qeye,eee=O",
"=syqeyeqe,2q2,<$$$<<$###$$$$#######$<$#$,2qyyeasdaaaaayasayyyaaaaasaayayyeyaaayaasyq,<$$#O######O#$$<,22$########$<,,qqyy2qeee=X",
"@yeqqeeeaqe2,,$1<$<$$$$$$11<<<$$<$#####,,eaaaayaaasssdasdaaaaaaaayayyyeyeqasaaaaayy2,,<########$$<<,,eq,+$$=$##$$&=$,,2yy;22,q=@",
"=ayesayyy,2,2,$<$&&$,,,<<<1,11<,<$$###$,,qeyaaaayysfdaasfeyyyaayaaaayaeeyyyysaaasaye21$$##O##$$,2,,,2q,==1<=,$$$$#$1222ee*;,;,=@",
"*aeqysae,1,2q$$1<111,<,,1=1,,<<,,<<$##,,eyeyaaaaaaasaasaaeqeyaaayaaaaeaaaaasdaaasae2,,,1$$###$12q2,=,,=,,,<==<<$$#&1<qyy2*,,=,=O",
"=sy2eyq2,2q2<$<$$=$,q22,1,,,,,,22,<$$$1,qqyyeyaaaaaassdffaaeeyyyyaaayayyasfddsyaayq2q,,<$##$11,2,,$<2,22,2<,<$$=$$<,2qy2,*,,;2*X",
"*dyqeyeqeqq2,$$#$$=221,22yyye2,,,1<2$<qeyaaaasaaaaasssddfasseyyayyyeqeyaddsssayayeyeeyq2<$##<1,,2q;,yyaee22,,$##=<$<<2<,a:,2,,@O",
"=feqeyye2e2<<&&$<<22,q2qeyeeaeqq,1,e1qyyeyyasaaasasaassasaye2yayayyqqeyasdsyaaasyysaaee,,,$#,2,,qeqyeqq,,,222,1$$=###$,ee,*,,,XX",
"@aqqyyaye,,<$#$1222yyeeqaayyysffeqae2ayyyeyyyyayaayeyssyasyyqyeeyye2qqyaadddddffddddyyq,1<1$,22qeay2,22qq,222,<$$=##$,,222,;2,XX",
"=saeaaeeq,,<$&=1,,2eeaeydayyydsyeyd<eayasayyayayeeeyyyyysae2eeeeyeeyyaeayaaaddddsddsyy,,,<,<$22qysq222qayeyq,<<=$1#$$$<,eeq2qe@X",
"@saysy2q2,1<$&=$,2qeyyssaaeqyyeqyfq,aeqyyayayyeeyayyeyasayyyaaeqqyyayeeeyadfffdyyyyeeq2,,$<1=,aayyeeqeyyeaq2,,<<$$#O###$2yq22q*X",
"@syeeqq2,$$$&$,<2qeeyaaeyeeye2eesdee,,yeysyeeayayaaayyassyeeeeeeyyq2,2qyeddfddasseyq2,q,,,$$12yeqeeeeqeyee22,,<<$$###<<22aq2q2@X",
"@ayqqeeq1=$<$$<<<2,2yaeaaayeyyyaf2<<,yyeeyayaadsayyaaaaaaayyeaq,$&22qsayasdffdsssysaye21<,1$$<,yyayayeeye22,$$<$####$<,,,dy23e*X",
"@e2,qq21=1$$$$$$,,12q2qqeq222e2da2,<qe2qaeeysaddayyeayaaaayye2<<$$,2qyeedfasaeyayyeeq,,2<$<=#<,qyeeq2,22,<<1=$$$#O#<<<,,2y2e2q*X",
"@e::2,,,1,,,=$$$$$,,22,,<,,2qysa,,,yeeeaayadsddaasyyaaaaayeye<&$,,=$adffsayayyyyeyayeq,,,<<,1<,,eyq,,1,<<$<,$$#####,<=<12yq,,:*X",
"@aq22qq,2,<<$&&&&$$<11<12qqydyqe,$eqeeayasdssadsyayaaaaaaesyq$<1,<,$yyyyeeyayyyyyayeqq2,,,<<$<$<2,,e,,,<$$<$$####&$$$$,qey2;,q=X",
"=32qe2222,,,1##&&&&<$<<1222y<,,,,<$esaaasdasaadayayyasaaeyday1$#$#O$2yeeyadaayayyyeqq222,,1,,#$<11<$,<<=$1#######$$e22eqeyq;2qXX",
",yqqyqq,,=$$#&#&$#&&&&$<<$$=$<1<$$2,yeqaaayyaafaysaasdayadydy<$##..<2ysssassaaaeeyee,,22,$<1$$#$$$$####$$#####.####<,<,22qe,qe@X",
"=aeqeqq2,1<<$&###&&&$<$$$&$$$####$1=<,qyyyaassdddddasssssaadq2$###,eysaaasayyyyaaeyq22,,,=$##$########$###$####O$$$2q22,1,,*eq=O",
"@3qeeq2q2,<$#####.$$$&$############$<,eaaasaasssaadfsddsayeyeayeqq2,qaaaaaaaayeeeee22q,,,<$$#O#####$$$########O$###<&<,$2,;@22XX",
"@7eyyyee,$$&######&$###$##########$#,22yaassdsdsfadddfdsaeyeaayae2qeaayyyasaayyaeeqe2q,,<$$$######$$$$#####O#####&#$$<12e,3,2,@X",
"=aayyee2,1,<<$#######$#######$######<<,eeyyasddddddsaayaaaasaqqe22eyyyyeyayyaaayyee2,,,<$$###O###$<$$$$$$$<##O&&###2<,22q22qq2=O",
",sayyqe,<,<$$$#.O##OO##$##$$##$$##$#<,qyysaaadddddssyyaasaaayqeq,,qeyeysdaeeyaeyae2,,22,<<$#O#$$<1$$2,$$,$#&&&&#..#<<,,12eyeyy=X",
",syyyeqq2<$$<$$#O##.OO#$$$&$$$$$$$##$<22syasssssasaeeyasaaayayyaeqqeyaayaeeeqeeqq2qe2,,2=$###$$<,<1,q,,2,$&&.$$$###$<<$$2yayya,@",
"=ayeyyq22$<,$&##.####O#$$<<$$$$$$$$$$<qqayyayaayaaayeyyayyeyyyeqqydssaeee2q,222,,2q,1,,,<$###$=,,,,2qyyq2<&&<$####&<<$<2eyyayy,O",
"=aeeeyq,,,q2<,$##########$<<,$$$$$$&.<eqsyayyayyeeyeqyaayyee2qqqeyaaqeeyaey22,,2qq2,q2,,<<$.#$<<<,2y2q,<$$&&$$###&=$,1qsaaayyq=O",
"=aeeyyeq,qq<<$###########$1<<$$1,,$##$,2eq2qyeeyyyeeeaayeeeqqeyyasyyeeqeeyy22eee2,,,,<$<$$##O$<<<,,qqy21$$$1$###&$<,<yyeeaayye=X",
"=ayyyyq,1,,q,,##..#O#######<$<,<<<$&#$<<,<qeyeeyeqeqyeeeqqyyaaayyaayye2,qq2qqsq22,<<<=$$######$<1q,$$$&&&<<<##..$<yys2qq2yyayq=X",
"=aayssyqq2,2=$$$#.########$$$<$,$$<$$$&$<<2eyqeyqeq2eeeeyeyyayyaaaaeqeqeyyqq222,,,1,,<######$$$#=$$<$$&&&&&&&&##&<<,,,,,,yayyq=X",
"=ayyyaayeq2,1,<$#####&&$$$<$<<<$$$<<$##$,22,qee2q,,2222eeyyqeayqqeeq2qqee,eqq2<,,,,<=$$$####$$##$$1<1,$$$$$&$&$#$1,,22qeqeeeyy,@",
"qiffaeeyyy2,,<$<###$$$<<=<1$$$$&$$$<$&##<,,2qqeeeq2qeysaaaqqeqeeeq2,2,qq2qq2,,,,,111$=$#O.O&<<<#$<<<$,$,,2$$<$$#<<,,2qyeqe,2qa2=",
",fsyaayeeq2221<$$##$$<<$,,<<<1<<<,1=$###&$,e2q2qq2eqeeyseeqeyq2ey22q,,,,2q,,,1<11$<$<$#O##$<,2<$#$$112,<&$$<1$$21<22eeee22eqqa,+",
",syadfyyeeqq21=$###<$<<<,,<<$&$$$&<<$####<,11,2q2qeeeaeeeqqq22ee2,2q22qq2,22,,1<1=$$##$###.&$<$$$$&&<<,,2,<<q<$$<1,,2eq1,,eqea,&",
",daaasyyaayeq,$$###$$$$,,<<$$$$$$,,<$##<<$,<,22e2qqqee,,2,22,qq222q,,,,,,,,,11<<1$$$#<###OO$$==<<&&&<$$=$$<<1$#$=1,<2ee2;,qeqa2&",
",fayaaayyye221<$###$##<,$$$&&<$=11<$#####$,$,1,<1,,2,,122,qq2222,,,1,,,,,$=<<=<$$$$$#OO.###&$<,,,,<$#&&<,<<$,##$<,2222,2,:eqesq+",
",syyyye2qq22q,,,<$#$#$$$$#&#<$<,1<$#O##&$==&,<<12,222,1,222,2q22,,,1<1<<=$<<<<<$$###OO$#O###$$<<,<<$##&$<,<$2#$<y2eyeqq22,eqea2+",
",syeeeyeqq,22222,$####<$###$&$,,<<&######$$$&&$,$$$<<<$<,,1<2q2<<,21$$<=$$$$$###$OOO###....O.#$<,2$&##&#$$$$<#<yysyadyq2,;q2ee;+",
"=syyyaaeeyq,,,,1<,<<$$,$#$$<<$$$$&#####$#$<$##&###$$$&&##&#&<$$$&$$$$$$$$$#######O###$$##.####&$1$$$$$$$#<$1eey2eyyeee3:*;q2qe=@",
"=syyyydaye2,,<,,1<<1<1<#&$$<,21&&####<1,21$O.....##$####&##&&&#######..##########..##&$<$$$####$$$<=<<<$$$,$q22qe2,qy3;,=:e;,,=O",
"@ssyyyaayq2,1,,<<<1<<<##$<<,,1$&##.#$<<e,2$OO...#.#######$###$$####OOO#####........###<=,$$######$$=,<<$$&$e2$,<,,1,q>*;;,q;;=XX",
"@saeaaayqe2,<2,1<<,$$###$,,<$<<##..#<<$<<$$#######.####################&##..........O##$$&##....#$$$<22<$#<1$1<,qeq22-**=,,,,@XX",
"@aayyaayyq,,,22q2,$##O##$&<=$<$#...$,<,q<<<<,$#$#.##########$&$###&&###&##.########$$#$$2<$$#....&$$,,$$##$<$<,eaae2%**@*,2q2*XX",
"@sayyydaay22,<,q2,$####O#&&$$##....$,qesay,1<#<$&&&##&##########.########.##O###O##$=$,2y,,$#.....#$<$$$#$&$1<eeqq,;,;*@;qeq2*XX",
";aaeyaaaeq2q2,2,1,<&&###&$&$###...#,<qeyee,<$$<$$#########$&#$#######&###########$$$$<,eq,,$$O#...########&$$2y2,,,,ee,=;eyq2*XX",
";dyeeyayeq,2222,,21$##O#&$$###...##$<eeeey,<1,,2$########$<#$##.###<&$#OO######$<,,,$1ee2,,1<$&...O.#,2##$$<<2q2,,2eyy;=;qyqq@XX",
"=dyeeyyye22212222,<1$##$&##$...O#&,,eeyyyq,,qye,$$&###&#$q$$####$#$###$#&#&####$1qq,<2qeeeq2<<$&#..#,#####$1q,2qqeqasa==;qyq;XXX",
"=deeeeeyqq22,,q,,,1<<<$$#.##...#$,,aasaday,1,22,$######$&$&##$$$$$$##&&$<&####$22qq,1,eayyy221$1#...#.##=<1,,,2eyeeyay=;,2eq**XX",
";syyeeqqeee,11,1<1<1,,$$&##..##$<1aqyyyeeq2qqqe,#&#####1<<$$#<$##&$&$&$,q$#$###$<,22qqeeee22,,,=&##....#$<1<=,2eyaaqeq=2q2e;;;XX",
"=saeeeqeyeeqqee22,2,<$$####$##$$$<,qqqqe2,=,,q,,&###&&$$,211<$$<$&$$$$1<$&$$####=,,,,,,qqq22,<$$$###OO#$$===;,2yae2e,,2qeq,*,*XX",
"=ayqeeqqyq2,,qq,$<$&$=<=$<&####$$<,,21eq,==,2,,<&###$<<<22,<=<<$$$,,<,,1<<,$&##O$<,ee,,,,2,,<=$=$#####,<,2,==2qeyyeq*;22e2@*;;XX",
"@yeeqe2qqq2,,2,1&&&$==,<$$&$###$$,,qqqeq2<$,eqe=&..#$,<2qe,,,<<<<<122222,,,<####22,e2<$<2q2,1=,$######&$,=,@*,qqeyae*,,22q@;,,XX",
"@ae,eyyqqe2<=<$&&$&$,,,<$$1<###&&=<2,qq,<$<,qe2&#..#$,eayyeqe2,,1,222qqee2,<$###$<,q1$$<1,,<2,,=#OO##$#@$@@@@;,2eyyy,=22q,=;22XX",
"@e2qeeeeye2,22e1$$2q,21<$<$$$&###,2q2,,,=<<2q,2$..O#$2yssyq2qq222qeqq2qeee,<$&###,,2,$$,2,,2q2,$#.##$#&@@@@@*;,2eyyqq=;2q,,2eq@X",
";syq,eeeeeqqaq2,2qq22,2<<&$$$$$$&$,,$1$<1<yeqy$O...#,,eae222,,2qq2,22,12q2,,$###$&,2221,<<,,22$##&##+$*@@@=*;;:,qe2qq=,2,,qqqe;@",
";dq2,eayye2*,<=<,2q22,$<q2<=$$#$#$$&$$#$<y2qe21O..O&12ey,qq,22qqq,,<,,,qq21<$####$,qqe21,1=<1=#####$$=,;*@*;;2,;222ee,:qq2eeye*@",
"*ayq2eyye*@@@@$,,,22$1,2qq2,<$&#####$,,,<$<ey2#O..#$112eye22ee2,,,,,,,qy2,<<$#####<2q,,,22,,$##..#$$,,2,,+*==qq22,2;2,qqqeqeqq@X",
"*ayeeyye,XXXX@1,2q2q2eyeeq2,,<$$&#O.###,,,<q<$.#..#$<,q2qyyse1,112$,qqq,<1<$##....$$,1ee2,$#####$#$,2qq,22=*;2eqq3eeeeee22eee,XX",
"*eeqeqey,X@*@:*,2qeyqyee2ee2q<$<$#####$##$2<$$##..#$,q,2qeq2,<,,,1$,,22,=$,=$#....O$#<21$$####$<$<,qqeyqqe2;=2qeyqyqeye222qyyq*@",
";y2qqqee2=@,;;=,2qe22eeyeeeaq$,$$$##$$$$#$,,<#.. .#$,22qyqqq,,1<<,2eee,21,,<$#. ..O#$$#######$$<,2q2qyyeee2,,2eyyqyqqqe2222eee=@",
"qf2eeyeeq,,:;,=2qqq2,eqeq2,2,,22,$#$<&&&#$$##$#...#&,1<<2,1$$11qq2,11,21=<1q$#....O..########$<,2eyyeyyyyeq2,eqee2q:2,22q,qyese2",
"eiyeeyeye2qq:yeeyaq,2eaq22e,2,<,$$qq$$<1<$&#####.#&<,<,222,,,,<<<$,222,,,,$=$$#...OO##&$$$##1,1,eeyeqyeeeqe2qq2qe22,2;:2eqqeea,,",
"qisyyyyyyeeyqyyyaae,qe2eqeeq2<$<,22,<<$$$&$&#####&$<,,<2221<$=<<$<<$$<<<<$1=$$#O....#$$$<$$$=,2qeeeq2eyeqqeeqqeqeeeeq2qqqyeyey,=",
",dsyyayyyyyy2eqyyyq2,2qqqyq2&$2qq22=<$1<$$$$&$&##&<<,<,q2,<$$$$$$$&<=$=<1$$<$$##.OO#&#$<$===,,2eqe,,2qqeeeeyq22qyyyyaeyyyyaaey,=",
",fyqeyyyyyee,=,qeye,,22qq2,2,eq2,22<&<1$<<<$$<$###$<&$,2<<$11<<<<11,=&$$=$$$$#####$$$$<<=1,,,2qqeq2,22eyyyeqq2,qqyyaysyaaaadas,+",
",d:qyeeeeq22==,qefs2,2q2q2eaee22q21,,,1<1,<$$$&##O&$&$$$<$$<<,,<<22,$<$$&<$$$$&&##$$$<<,,2q2qqq2,22,qeeyyayaeeqqqqeyaseyyyadad,=",
",deeeeqq,qe,;;,2yadye2q22eyy2q22q,2222,,22,1$$$#######$#&$$$$<<<,,<$$<=$<<&&#####&$$1,,2eyyeeeqq222,qeyyassyyeeeqqeyyeyaeeyasa2=",
",f2eeq2,qq2;*,,,qyeaa222qayeq2qqeq21<<<,2=,<<<$<#####&&&$##$<<$<<<<$<<$<$$######$$,22q2eyaaeeeeqeq2,,qeyyaaaaeqeq2qysaaaqeyyay2=",
",dqeey,,22,=;22,2qeae,23,yayyeqeyee2,=,qe2,,12<<<###$$$$$$&,=$=<<$$$<$$$$######$<,e2eqeqyayeeeqeee,**2qeyeeyyyeeeq2eyayyqqyyaa2=",
",dqeee=;22,,,2,,qqqa2;,;=qyaayyeyyyye;,=,2qyeqee22$$$##$#$$<$&<$$$$&$&###.#&$$,2qeyyyyqyyasasaeqyeq*@;,2qeeeee2qq2,qqeeeeyyyya,+",
",dyeey;,eeyeee2qyeya,,,,=@qeyyayyeyae,;@@@*<2=,<$$######$$<$$$$&&$##&$####$$$<,qyyeaayayeaaayayeeee2;,;,2qqqe2;;q2,qqeqeyeeyee=+",
",daeey,2yayeqyyyyeya2,2,=X*@2eyey2eqqq,@@@@*$=,,1<<$#&#####$$##.#.O#$##$$$<$$,2eayyaaasyeyyeyyyyeeq;,22,,,22,,%;42,qq2eeyyeeya,X",
",dsyae2qeeeesayyeeeye,,,@XXX@,2*,,22ey7:@**;@=2qq21=$$$$@#&##....######$$$<,,,qeayyyyyyyeeeqeeeqqq;**,2q222,,%->43qe2qeyyyayyy,@",
",seysaeqeadaayyyeeeayq22,=@XX@=@,,2qeaye,,22=,qeqqq22,,,,$$$#########+#&$=,22qyyyeeeeqeyyeyyeeeq3,,*@;*;,,,32;*3552e2eeeyaeeyq=+",
";y:eayyaaasasyyseyeyyq22,22@XX@=,,qye:q22,,,,2qyeeeeq22q221=@#######+&@+*=,=2qeeyeeqyyyeyyeeyyeq2,,,;*;*,,22qq2qwu82qeyeyyeyyy=@",
"=y:qqyeayasasayaeeyyeeeeeee,@;=,22yyqye,42,=;2eeyayeeyyyeqe2,=$####@$=@=,,,,2qeeeeyaaasyeayeyeeq2222;@*;;;2,qyqeerq,qqqeeeyyyy,=",
"=s:2eyeyyysasayayeyayeyyyyee,2,22yaqee0;34:%%*2yyyaayaayeeyeq,==$$$=*@@@,,,;2eeyyaasssddaeeyeqeaae2q2-*;;;:,qyeee8ee,eyyeeyyey=X",
",dq,qeyyyyaasayayeeeeeyyeasaqqeyeeyeyq>%---@@@*qaayyyaaaayyyy2,,==@*=@@=,*,22qyyaadssddfsyeysdayyy2eq2,,,,6,qaeyyaaeeyyaeyyqe2=X",
",dse2qeeyyyasaasyyy2yqeyyyaayqqeqyyye,---;-@X@@*yayyyaayayayq2;,,*@;;=*,,=,qqeyysdssssayeqqeeayyyeyyeqqqqeq2eaeeeeqyeeyaeyqq2e*X",
",fsseq2eeeyyaasdyya2eqyyyyya2qq2qeqq2;%%*;;*-:@*eaayaayyeyyyq,@;,=*;,*=,*,qeeeassssssdyq2qyaeeyeqyaasasaeayyeddayyayeye;2,qye2=O",
"=dyeysy22eyayaaaya2qe2qeaaeeq2ee,e22,*@%,,q,,23,qaayyyyeyaayq=;===*;,;,,,qeeyaaaassssye,2eyeyeqq2eyysdffsaaeessdsayyeeaydfaeq,=X",
"=aayaeyeqeyeyyayyq2qy,2qeyyee,34:,2,,*%*2qeeeqy,eyaydssyqyayq,2@=;;,2,,qeyyyyeyyysssaeq,qyeeqyyqqyyaasdddfdaeyyyasaeey2eeyadda=O",
",fsadsddyayeyyaae2qessee2eyq2*->>;;22;*,eyyyyas2eaaaasaayyeeqqe,,2,,,222yyyyyayyaaaay3,,,qeyyyqqeyyasdsdsdfae2qeyasaeyqyeeeqys2@",
"o==,,,,,,,2q2,,e2,,,2@@=@==XXXXXXXXX@@@@====,,,,,,,,,,,;,;==@X@==@@@=@@=,==;+==;=,,==@OXXOXX==,==,,222eeeqye,;=@@@=+======;;=,@@",
"XXXo@@+@@@++=+++=+@@=XXX+++XXXXXXXXXX@XXO@+++++++++++++@@@X@XXXX@XXX@XXXXO@OXXXXX@OXXXXXXXXX@#oX&@&+==,=&+=@@++XX@OOo+++@+XOXXXX"
};
