/* XPM */
static const char *wall51_2[] = {
/* columns rows colors chars-per-pixel */
"128 128 248 2 ",
"   c #050404",
".  c #090605",
"X  c #0C0907",
"o  c #070708",
"O  c #0C0C0B",
"+  c #1C0605",
"@  c #160E06",
"#  c #190F07",
"$  c #130E09",
"%  c #1C0B0B",
"&  c #0F1409",
"*  c #161206",
"=  c #181007",
"-  c #141B04",
";  c #15120B",
":  c #1B140A",
">  c #131A0A",
",  c #1E190D",
"<  c #0F1010",
"1  c #141413",
"2  c #1A1612",
"3  c #171814",
"4  c #1C1A15",
"5  c #1C1C1A",
"6  c #230C06",
"7  c #270D0B",
"8  c #350403",
"9  c #3B0603",
"0  c #3D0905",
"q  c #22160B",
"w  c #2B1409",
"e  c #221B0D",
"r  c #2C1B0C",
"t  c #311807",
"y  c #351509",
"u  c #39150A",
"i  c #321D0D",
"p  c #3D1B0F",
"a  c #281414",
"s  c #221D11",
"d  c #2B1E11",
"f  c #211E19",
"g  c #341A14",
"h  c #3D1C10",
"j  c #14210A",
"k  c #1D230C",
"l  c #1B2115",
"z  c #23240E",
"x  c #2A220F",
"c  c #242A0F",
"v  c #32200E",
"b  c #262112",
"n  c #2C2511",
"m  c #262C12",
"M  c #2D2A14",
"N  c #24211D",
"B  c #2C241A",
"V  c #262C19",
"C  c #2A2E19",
"Z  c #342413",
"A  c #3A2515",
"S  c #332B15",
"D  c #3B2C16",
"F  c #372619",
"G  c #352C19",
"H  c #3C2B1A",
"J  c #293015",
"K  c #2E351D",
"L  c #2F381F",
"P  c #32341C",
"I  c #3B3118",
"U  c #3D331C",
"Y  c #30381F",
"T  c #232323",
"R  c #282723",
"E  c #2B2B25",
"W  c #2C2B2A",
"Q  c #362D25",
"!  c #2E3323",
"~  c #2F3820",
"^  c #323620",
"/  c #3D3320",
"(  c #343C23",
")  c #3A3D25",
"_  c #33322D",
"`  c #363A29",
"'  c #3B3F28",
"]  c #343333",
"[  c #3C3835",
"{  c #3B3B3B",
"}  c #4A0605",
"|  c #440906",
" . c #450B09",
".. c #4B0D09",
"X. c #530707",
"o. c #5B0606",
"O. c #530807",
"+. c #5C0A05",
"@. c #540B0A",
"#. c #5C0A0A",
"$. c #4C110C",
"%. c #40190E",
"&. c #56120E",
"*. c #441D11",
"=. c #4B1810",
"-. c #541511",
";. c #5C1611",
":. c #5D1A14",
">. c #630804",
",. c #630C0C",
"<. c #6B0D0E",
"1. c #67180B",
"2. c #7D1C08",
"3. c #631A14",
"4. c #681815",
"5. c #641D18",
"6. c #741515",
"7. c #572506",
"8. c #442215",
"9. c #422C16",
"0. c #4A2618",
"q. c #422D1C",
"w. c #4D291D",
"e. c #532B1B",
"r. c #413017",
"t. c #44331C",
"y. c #4A361C",
"u. c #42381F",
"i. c #4D391D",
"p. c #57341E",
"a. c #513C1E",
"s. c #722E0B",
"d. c #69221C",
"f. c #77251D",
"g. c #432F20",
"h. c #532E20",
"j. c #443422",
"k. c #4A3624",
"l. c #443924",
"z. c #4D3A23",
"x. c #47362A",
"c. c #473B28",
"v. c #4B3C2A",
"b. c #543324",
"n. c #523D22",
"m. c #5B3D23",
"M. c #5B3628",
"N. c #523D2C",
"B. c #423D37",
"V. c #6B2921",
"C. c #772B24",
"Z. c #653D28",
"A. c #733E26",
"S. c #3A4127",
"D. c #374028",
"F. c #3C442A",
"G. c #3F482C",
"H. c #3F4335",
"J. c #404127",
"K. c #42452B",
"L. c #4D412C",
"P. c #41492D",
"I. c #424A2E",
"U. c #48492F",
"Y. c #53422D",
"T. c #594228",
"R. c #434B30",
"E. c #464D32",
"W. c #474F33",
"Q. c #4A4E33",
"!. c #454538",
"~. c #544432",
"^. c #594533",
"/. c #544B35",
"(. c #5B4935",
"). c #574A39",
"_. c #5B4D39",
"`. c #475033",
"'. c #4A5135",
"]. c #4D5237",
"[. c #4E5438",
"{. c #525036",
"}. c #585236",
"|. c #51563A",
" X c #52563A",
".X c #5D523C",
"XX c #54593D",
"oX c #59593F",
"OX c #684627",
"+X c #634429",
"@X c #744C2B",
"#X c #794C2C",
"$X c #674834",
"%X c #614D3A",
"&X c #6B5237",
"*X c #62523D",
"=X c #795030",
"-X c #474743",
";X c #565D41",
":X c #595E43",
">X c #645641",
",X c #645A43",
"<X c #6B5843",
"1X c #6B5A44",
"2X c #715A46",
"3X c #5A6246",
"4X c #5D6549",
"5X c #5F684B",
"6X c #626046",
"7X c #62654A",
"8X c #65694D",
"9X c #69684E",
"0X c #75624D",
"qX c #676D51",
"wX c #6A6D51",
"eX c #786C52",
"rX c #6D7155",
"tX c #727459",
"yX c #75765B",
"uX c #8D3109",
"iX c #862824",
"pX c #88342B",
"aX c #94382F",
"sX c #924D10",
"dX c #A24707",
"fX c #86492E",
"gX c #924A31",
"hX c #835532",
"jX c #8B5A35",
"kX c #8A5A37",
"lX c #965C39",
"zX c #A14638",
"xX c #A15D38",
"cX c #9F6D21",
"vX c #99633B",
"bX c #A9712D",
"nX c #AB4945",
"mX c #8D6D4F",
"MX c #A86B41",
"NX c #AC7245",
"BX c #B3754A",
"VX c #927E66",
"CX c #C4714D",
"ZX c #C47D51",
"AX c #95836A",
"SX c #A38C73",
"DX c #C68152",
"FX c #D38A59",
/* pixels */
"@ = = = = = = = = = = = = = = = : : = = = = = = = = = = = = = = : = = = = : : : : : : = = = : : = = = = = = = = : : = = = : = : = : : : = = = = = = = = = = = = = : : : : = = = = = = = = = = = = = = = = = = = = = = = = = = = = = = = = = = = = = = = = = @ @ ",
"@ s ) R.G.F.F.F.P.R.R.R.R.P.R.R.R.P.F.F.F.F.F.F.F.S.( ( S.F.P.W.].].W.W.].|.;X:X;X;X|.].[.[.|.].W.P.F.S.( ( S.P.Q.|.[.[.[.[.[.[.[.|.;XXX'.R.R.W.W.W.W.W.W.R.R.W.'.|.;X;X|.[.[.[.].].].].W.R.P.P.P.P.P.P.P.P.F.F.P.K.S.( ( ( ( ( S.P.Q.].W.P.F.F.F.F.P.F.S e = @ ",
"@ s ' W.P.S.^ K Y ^ ^ ^ ^ ^ ^ ^ ^ ^ ( S.F.F.S.( ^ ^ ~ ( S.P.W.W.P.P.W.[.;X3X3X:XXX|.'.W.W.W.W.W.P.F.S.S.F.F.F.F.P.P.W.'.'.'.'.].|.|.'.'.W.W.W.'.[.|.|.].P.F.S.S.S.S.G.P.W.W.P.K.F.F.K.S.( Y S S S S n n S S Y Y ^ ( S.F.G.G.P.P.W.W.'.W.P.P.P.F.S.S.S.( ^ C , @ ",
"@ s ( K.l.I S n S G Y ^ ^ ^ ^ K J J K ^ ( S.F.F.S.( ^ ^ ( S.F.F.F.P.W.`.'.'.`.W.W.W.W.W.P.F.S.S.F.P.W.W.P.F.F.F.S.S.F.F.F.W.XX:XXX[.'.W.P.P.W.W.W.R.F.D.D.) u.U ) ( ( D.S.( ( ( ^ J M x n n n n n n x x x n S S Y ^ ( F.R.'.|.|.'.W.W.W.P.G.P.F.( ^ ( S.( K , @ ",
"@ s ( F.( Y K K K ^ ( S.F.G.F.S.^ ^ S.F.S.S.R.W.W.W.W.W.P.F.F.F.S.S.F.P.P.F.S.S.F.P.P.F.S.( ( S.F.P.W.W.W.R.F.S.F.F.S.S.F.P.W.W.P.P.W.R.F.D.D.S.S.( ^ ^ ( S.S.( ^ Y Y Y K K K Y S n e , , , , q e e , e n S P ^ S.F.F.P.W.'.|.|.|.[.'.W.W.W.P.F.S.S.F.) S e , @ ",
"@ b K.].G.( ^ ^ ( S.F.P.W.W.P.S.^ ^ S.F.F.P.W.W.P.P.W.W.P.G.P.P.F.F.F.G.F.F.F.F.F.G.F.F.S.( ^ ^ F.K.P.P.W.W.W.R.F.( ^ ^ S.P.P.P.P.P.P.F.S.( ^ ~ K ^ ( ( D.D.D.D.( ( I S m z e e q q q , = @ @ = , , , e x M ( S.F.P.W.'.'.W.P.W.|.|.'.'.W.W.W.W.P.F.G.) S e , @ ",
"@ b Q.;XW.F.F.P.W.W.P.P.[.[.P.S.^ K K ^ ( ( S.S.F.P.].[.'.'.[.[.'.W.W.W.P.G.P.P.P.G.G.G.F.F.S.) U l.S.F.G.P.W.W.F.( ^ ^ S.P.].[.'.W.P.S.^ ~ ~ ~ K ^ ( ( ^ ^ ( ( ^ J M x x x e , = = , , = @ @ @ = = , e n P ( S.R.'.|.;X7X8X4X4X8X8X4X;X[.W.P.F.S.S.F.F.^ C , @ ",
"@ b Q.3X[.W.P.P.W.W.W.'.|.].G.( ^ J n M J K ~ ( F.P.P.W.].|.|.|.|.|.'.W.W.'.[.[.'.W.P.G.G.F.^ ^ ( ( ( ( ( S.R.W.P.F.^ ^ ( S.R.'.[.].P.S.^ K ~ ^ ( ( ( ( ^ K K J M x x x e , , , , , , , = @ @ @ @ = , s C ( S.P.].XX:X3X3X4X8X8X4X3X3X;X[.W.W.R.F.S.S.( ^ C , @ ",
"@ b '.3XXX].P.P.W.'.[.|.'.P.( K K J m m M S Y ( S.F.F.P.W.'.|.XX:X:XXX|.|.|.'.'.'.W.P.P.P.F.( ~ ~ ^ ^ ~ K ^ S.P.W.R.S.( ( ( S.S.S.( ^ ^ ~ ^ ( D.D.( ^ Y S n e , q q e q , e z z e , = = , , = @ @ = , b ^ F.R.'.|.|.|.XX3X4X8X8X4X3X3X3XXX[.'.W.W.W.P.S.( C , @ ",
"@ B |.8X:X|.|.[.'.W.W.'.'.K.I S S S x n J ^ ( S.F.P.W.'.[.[.'.W.W.W.W.W.W.W.W.'.[.[.'.W.W.R.S.( ^ K K K K ^ ( S.F.G.F.S.( ( S.F.F.F.S.( ( ( ( D.( D.( ( ^ C e , , e z m c c x x q , , q , , , q e b C ^ F.P.W.W.'.'.|.:X7XwXrXwX8X4X3X3XXX|.'.W.`.R.F.D.( K , @ ",
"@ B |.7XXX'.|.|.'.'.[.|.'.K.U M m c x M J K K ^ S.F.G.P.P.F.( ^ ^ Y Y ( S.F.F.P.W.W.W.W.W.K.U S n n S M e b ^ S.F.P.P.F.G.F.S.S.S.( ^ ^ ( ( ^ ^ ( S.S.S.S.^ b e , b J Y S n e , = , n n e e n P ) P.W.W.W.W.W.'.|.|.|.:X7X8X4X7XwXwX7X3X3X:XXX[.'.W.P.S.( C , @ ",
"@ b Q.4X3X3X3X;X[.'.|.|.'.P.( J n x c c c c m J ^ S.F.S.( K Y Y S S n n S S Y ^ S.P.W.R.F.( ^ J M n S S Y ^ S.P.W.W.W.W.W.W.P.K.G.S.( ^ ( S.F.F.F.F.F.P.W.W.P.S.^ K K K Y C b q , b ^ ^ b s C ( P.'.[.|.|.|.|.XX:X3X3X:XXXXX3X3X3X3X3X3XXXXXXX[.W.F.( ^ K V , @ ",
"@ b K.;X3X3XXX|.|.|.|.].G.( M x q q , , , e n S Y ^ ( ( P S S n e , , e x M J ^ ( S.F.F.S.( ^ ^ S.F.S.S.R.'.[.].!.B.c.v.!.!.~.Y.B.{ { B.v.v.U.R.F.F.R.'.[.|.|.W.( J n M J Y S S ( S.F.S.^ K Y ( F.P.W.'.|.|.|.|.|.XXXX|.|.XX3X3XXXXX:X3X3X:XXX|.|.].P.( b , = @ ",
"@ b K.;X3X3XXX|.'.'.|.Q.U n e e e q , , , e z m K ^ ( ( ^ J M r , = , e x x x M ( F.W.W.P.F.F.F.F.P.W.'.|.|.'.W.L.j.B N M S S B R R R R S P S.P.].[.'.W.W.W.F.( M x e e n S Y ^ ( ) S.S.F.P.W.W.W.'.|.|.|.|.'.'.|.|.|.|.|.|.XXXX|.|.'.'.'.'.|.|.'.`.W.F.K k : @ ",
"@ b K.:X7X8X4X:XXX|.|.W.) K K K K C s , , , z m K ^ ( S.( ( P n e , , e x x x S K.'.|.|.'.W.P.P.W.'.|.XX3X;X[.W.L.j.S B _ ] ] W R N M S n S ) F.G.F.S.S.F.F.( J s , , e z m J ^ S.F.F.F.P.P.F.F.F.W.XX:XXX|.|.|.|.|.|.|.|.XX:X:XXX[.'.W.W.W.W.`.W.W.P.F.^ C , @ ",
"@ b Q.3X;X|.'.W.P.F.F.F.S.( ^ ^ ( Y b , , , z m K ( F.F.S.( ^ J M x x x x x x P W.XXXXXX|.|.'.'.|.|.|.XX:X3XXX{.Y.x.Q W W W W T 3 5 E W W E ! Y ^ K M Z D I P C s , , e x x S P S.P.W.W.W.P.( ^ S.P.W.'.|.|.'.'.W.'.|.|.'.W.W.`.W.'.[.[.'.W.W.W.P.P.P.F.( C , @ ",
"@ b Q.3XXX].G.( ^ Y S S n n n Z D D r , , , , b J ( S.F.F.F.F.S.^ K K J n n J ) Q.XX3X3X3X:XXX|.|.|.'.'.W.[.;XoX~.x._ W R f 1 O   1 W { ] Q H I I D n Z D t.I D S n x x k - , b J ( P.R.F.( ^ ^ S.F.S.G.].XX|.[.'.W.P.F.F.F.K.K.K.P.W.'.W.W.W.W.W.W.W.P.( C , @ ",
"@ b K.|.W.F.S.( ^ C s e S D Z n S S D S e , , b J ^ ( F.W.'.W.W.P.S.( J M S ) P.].XX3X3X3X:XXX|.|.XX;XXXW.P.W.W.L.j.S B E Q U j._ ] ] _ B M ) K.K.F.( ( F.P.W.P.S.^ J c x x c m K ^ S.S.( K m J ^ ( ( S.R.'.'.'.'.P.( Y I I I U S.P.W.W.W.'.[.[.'.'.|.].G.K , @ ",
"@ b K.[.G.' ' ( ^ C e e C Y S n e s C K m c c m K ^ F.W.].|.'.W.W.W.P.S.P I K.`.`.'.|.|.].'.'.`.W.W.P.P.F.P.W.K.S r 2 3 3 3 3 2 : 2 4 3 1 5 S.'.|.[.'.'.[.].P.F.S.( ^ K K K m m K Y G M m c x n J K K ^ ( S.F.P.W.P.( P S P ( ) S.S.F.P.W.W.'.'.`.'.|.'.S.C , @ ",
"@ b Q.;XR.S.R.P.( J s e n G Y C e e n S S S K K K ( P.'.'.`.W.'.|.|.'.P.S.S.R.'.'.'.|.|.|.[.'.W.P.F.S.S.F.P.W.P.( K K ` H.{ ] ] { !.'.[.[.[.|.[.'.'.'.'.'.`.W.'.|.Q.( ^ ( ^ J m K J M x c c k - , e n S Y ^ ( F.R.P.u.D D U ) S.F.P.W.W.P.P.].|.|.|.'.W.F.K , @ ",
"@ b K.|.'.'.[.[.'.K.I S S S S S n x e e n S K K K ( P.`.W.W.W.'.|.|.'.W.P.P.R.'.;X:XXX|.'.'.W.W.P.F.S.F.W.'.|.[.'.W.W.K.U / B.[ 5 5 ( P.P.P.P.`.XX3X3X:XXX[.'.'.|.Q.( ^ ( ^ J m K J b e x x x x x x c m K L ^ ^ ( ( ^ ( S.F.F.P.W.'.|.|.'.'.|.|.|.|.|.].G.K , @ ",
"@ b K.|.'.W.W.'.[.{.Y.l.( Y S S Y J b e z c c J ^ S.F.P.W.W.W.'.|.|.'.W.P.F.S.S.R.'.|.|.|.[.'.W.~.~.|.XX;X;X[.'.Q.`.'.R.] B.>X%Xk.j.W.XX;X3X3X:XXX|.XX|.'.'.W.W.P.F.^ K ~ K M x n n n n n n x x c c x M J ^ ( ( ( S.F.F.F.P.W.'.|.|.'.'.[.[.'.W.W.'.|.].R.( e @ ",
"@ b K.XX|.].P.P.W.'.].].'.K.u.U S.F.S.( P S S S Y ^ ^ ( F.P.W.'.|.|.'.'.'.P.( ^ F.W.[.|.'.'.[.|.~.~.Q.'.'.[.;X:XXX|.|.[.-X{ ] W ( F.'.|.|.|.XX|.|.|.|.|.|.|.'.R.F.( ^ K L Y S S S S Y K K J M n n n x n S S K K K ( F.F.S.S.R.'.'.W.W.W.W.W.P.F.G.K.P.F.S.K , @ ",
"@ s ' '.'.W.P.P.P.F.S.S.F.J.U U S.K.v.L.U.P.S.( ( ( ( S.P.W.P.W.XX3X3X3X3XXXW.P.W.'.[.|.|.[.'.W.v.Y.{.XX:X3X3X3XXX|.|.W./ ^ ] ] W E ' P.W.'.'.'.W.'.[.|.|.|.'.W.P.S.^ ^ ( ( ( ( ^ ^ ( ( D.( ^ Y Y J M n c z e b J ( F.G.F.P.W.`.W.W.P.F.K.F.F.F.G.G.G.F.( C , @ ",
"@ s ' '.'.W.W.'.[.[.'.W.W.W.P.P.W.W.W.W.W.W.W.W.W.R.P.F.F.P.W.W.`.'.|.XX3X3X3X3XXX[.P.P.P.P.P.J.l.v./.|.|.XX3X;X[.W.`.`.-X-X-X-X] _ ` F.R.W.W.W.W.W.W.W.W.W.W.W.P.F.^ ^ ( ( D.S.F.F.F.G.G.G.F.F.F.F.S.( M M J ^ S.P.W.W.W.W.W.W.P.F.F.F.F.F.S.F.R.W.P.F.S.K , @ ",
"@ s ) W.W.W.W.W.P.P.W.W.P.F.S.S.F.F.F.F.G.P.G.F.S.( ( ( ( ( F.P.W.W.P.W.XX3X3X3X3XXXW.G.R.W.W.P.K.P.W.W.P.R.].|.'.W.W.W.-XB.Q H q.l.) S.F.P.W.W.W.W.P.F.S.S.F.F.F.F.S.( ^ ^ S.F.F.F.R.W.W.W.W.P.P.F.F.F.F.F.F.P.W.W.W.W.W.R.F.S.F.F.F.F.F.P.W.W.W.W.W.P.( C , @ ",
"@ , C ^ ( S.F.F.( ( ^ K K K K ^ ( ( ^ ^ S.F.) ( ( K s * & l K ( ( ( ( ) F.P.W.R.S.( ^ K K K K K K ^ S.F.F.S.' ( ^ J M B W ] { ] 5 5 ! ) F.S.) ( ^ K K K K K K K K J M n m z , : - k J K m m n M ^ ( ( ) F.F.) ( ( ) F.F.S.( ( ( ^ K K ^ ( ) F.F.F.S.) ( ^ V , @ ",
"= = = = : = = = = = = = = = = = : : = = : : = = = = * @ = * = = = = = = = = : : : = = = = = = = = = = = : : : : = = = s _ B.-X!.] R 2 = = = = = = = = = = = = = : : = = = = = = = = = = = = = : : : : : = = = = : : : : : = = = = = = = = : : : : : = = = = = @ ",
"K ^ ( ( M x e , = , z m m m m m J K K K M n n n e , = = , , = = e x n x e b ^ ( ^ C b , = = = = = = = , C K K K K K K ' ).(.j.G _ _ V z , , , , z z , e C J M n m m m z e e x x , = , b C ^ S.S.) ( ^ C , , e M J K ~ K m z , = - - j k c m K ^ ^ K M x e , = = ",
"F.P.W.W.F.F.F.S.( ( ( S.F.F.D.( ( S.F.G.P.W.].Q.F.( ( K , @ @ = , b ( F.F.F.R.W.W.W.K.F.F.F.) ( H H ( D.F.J.l.j.J.P.W.H._ Q j.H d , = = = : : = = = = , e S S.P.S.( K ^ S.F.F.S.^ K ^ ) F.F.F.F.F.F.S.( ( ( ( S.F.P.W.W.P.S.( ^ K L ^ S.P.W.].|.|.[.W.G.^ K ^ ( ",
"S.S.F.F.( ^ ^ ^ K ^ S.F.S.D.D.D.S.( ^ ^ ( S.G.F.S.D.S.^ s @ @ , V ( P.W.F.S.F.P.W.'.|.|.|.[.P.J.u.u.J.F.G.F.S.' v.L.W.R.] [ ).N.d @ @ r y.+XOXm.9.r : = , q r Z ^ ( M S ) G.G.S.( L ~ ( F.F.S.( ^ ^ ^ Y S P ( S.S.F.W.W.P.F.F.S.^ ^ ( S.F.F.S.F.W.'.'.W.F.( ^ ^ ",
"F.F.G.F.S.( ( ( ^ ^ ( S.D.S.F.F.P.F.S.( D.S.F.F.S.S.F.S.^ V , , V ) Q.XX|.].G.S.F.R.].:X7X6X/.z.t.t.j.c.R.P.l.l.J.P.W.`.-X{ R 4 * e t.i.y.Z.lXMXvX#X0.r e , = , n S n S ) F.S.( ( ( ( S.F.G.F.F.S.( P S D U S.P.].|.|.].P.F.G.S.( ( P.W.P.F.S.S.R.'.|.|.|.'.G.S.",
"F.F.F.F.S.D.S.( ^ ^ ( ( ( S.F.W.[.[.P.F.F.F.F.S.( ( F.F.^ V , = e P W.XX|.|.|.{.~.~.{.:XwXwX1X(.z.t.j.v./.].P.K.~.~.K.' R 5 5 4 , x y.Z.uX2.+.$.e.+X@X@X+Xy.r = , q x M ( ( M n n n x M ( S.F.S.^ ^ ( ( ( S.P.'.|.|.|.].P.P.W.W.P.P.].|.'.R.F.F.R.'.|.XX3X3X3X3X",
"( S.P.W.W.W.W.P.( K K ^ S.P.W.[.;X;X[.'.W.R.F.( ( S.F.( b , = : z P W.|.'.'.'.Q.~.(.(.,XtXrX_.T.+X+XN.~.{./.L.v.k.l.' ( G A F b.hXvXvXxXuX2.>.o.O.d.fXhXp.8.7.7.t , e e M M e , , , , s C Y Y Y Y ^ ( S.F.F.F.P.W.W.W.W.P.P.W.W.P.P.W.'.|.|.|.|.|.XX:X3X3X3X3X3X",
"F.F.G.P.W.W.W.R.S.( ^ ( P.'.|.|.|.XX3X3XXX].P.F.S.S.S.^ e @ @ , C ( c.Y.{.XX3X;X).N.~._.9X9X_.N.N.n.n.z.k.j.j.v.(.%X~.v.[ ] T B m.#XcXbXbXgXf.2.uXdXsXsX1...u v S S J K K C s , = = , e n S n Z D I Y K K ( S.F.S.S.F.F.S.S.W.W.F.G.'.XX3X3X3X3XXX|.XX;X3X4X4X4X",
"W.W.W.W.P.P.W.R.S.( ( G.'.|.|.|.|.|.|.|.|.|.'.R.S.S.F.S.J k : , n D j.v./.XX|.{.).Y.n.Y.6X6X(.N.N.N.~.N.z.t.A H k.z.k./ f 5 T g ..1.sXsXuXuXuXuXgXgXs.s.Z.b.B f C ^ ( ( M x , = @ = , q q e r n S M n m c J ^ ) ) ( ( ( ( S.R.'.[.[.'.[.;X4X8X8X4X4X7XqXrXrXwX8X",
"XX|.].W.F.F.W.W.F.F.R.W.W.'.|.XXXX].W.W.].|.'.W.P.F.P.F.^ C , = e S k.~.{.|.~.N.N.N.N.Y.|.^.d.5.M.).|.Q.c.0.$...h H k.j.H *.-.#.o.+.1.s.1.o.} } #.1.s.7.t : 4 N K Y Y ^ ( ( M x e , e q q , , e x x e e x n S S S S Y Y Y ( P.'.[.|.|.|.|.XX3X4X4X3X3X4X8XqX8X8X",
"3X3X3X;X[.'.|.|.'.W.P.F.F.P.].|.|.[.'.'.|.|.'.W.W.W.`.P.( C , = w A k.~.{.{.Y.z.z.z.z.Y.oX|.q.H K.P.c.k.N.v.9.i i r x G _ W $   o + | o.#.o.} | u %.&.&.a 5 b C ^ ) U l.Q.].P.) J m M Z i r q , , e e e q e n S I I S S D I Y ^ S.R.].|.|.:X7X8X8X8X4X3X3X4X8X8X",
"3X4X8X8X4X:XXX[.'.P.S.S.F.P.].|.'.'.|.XX3X:XXX|.|.|.'.P.( C , : z S c.~.|.{.Y.n.z.N.N.~.~.M.5.:.j.) / H A h 0 9 w , , : : = = 6 8 9 7 # X + } >.+...g T T R M U K.W.P.W.XX;X'.K.U I Y Y H A e , , b J C b s C ( P.W.P.F.S.( M M ( F.R.'.|.XXXX;X3X4X3X3X3X3X4X4X",
"8X8X4X3X3X;X].P.( ^ ~ ( S.P.W.W.W.[.;X3XXX|.'.W.W.'.|.'.) C : , x S j.v.W.Q.~.~.N.^.%X$Xd.3.e.L.oX:XY.q.d : $ O O 2 H k.k.q.H H 9.y.Z.+XT.p.4.&.y @ O O o 3 ( '.;XXXR.S.) S.F.F.S.( ( ( ^ J n n S P ( ( ^ Y U l.P.`.`.W.W.P.l.u.) S.F.W.].XX:X3X3X3X3X3X3X3X3X3X",
"XX[.W.F.S.S.( ^ L ^ ( ( ^ P U u.K.'.|.|.'.W.W.W.P.P.W.P.( C , @ @ e t.~.oXoX~.h.3.3.b.v.z.r.Z b N f s s 4 3 O ; e S t.h.5.5.0.q.y.M.iXiXp.9.r % # ; 3 3 O O 5 5 5 3 1 $ * s ( S.^ ^ ( ) l.j.^ ^ ( S.F.F.F.F.S.F.R.'.|.|.|.|.|.].P.P.W.'.|.|.'.'.|.XX3X3X3X3X3X3X",
"P.F.S.S.R.W.P.F.S.( ^ ^ S.F.S.( M P K.'.'.P.( ( F.P.P.F.( C , = e Z j.~.;XXXL.e.3.@.7 ; s n f f B B f 4 ; $ O s m.OXy.0.;.3.e.T.=XjXaXiX6.<.<.-.7 O : 2 4 5 5 5 3 3 5 4 , , = , n P Y K Y ( P.W.P.F.K.K.P.P.F.P.].XX3X:XXX|.'.'.|.|.|.|.XX|.|.|.|.XX3X3X3X3X3X3X",
"S.S.( S.F.P.W.W.P.F.S.F.R.R.F.( ^ ( P.'.|.|.'.W.W.W.'.P.( C , = , d H L.oXXXv.j.q.Z ; O 3 s b b s 4 2 , 1 < O s m.@XT.y.q.q.q.m.jXvXjXfXf.6.6.@.7 O 1 1 ; = , 2 4 5 b b f 4 = e P ( ^ Y Y ( F.W.].|.|.|.|.[.'.[.;X3XXXXXXX|.'.'.|.XX3X3X3X3XXXXX3X3X3X3X3X3X3X3X",
"F.F.F.P.W.`.`.W.P.P.W.W.P.G.F.F.F.G.R.'.[.|.|.[.'.'.|.].G.K , , x H c.).;XoXL.t.A d 2 1 , 2 4 s d e 2 1 O O O 2 j.&XMXxXiXf.lXNXBXMXzXpXiXiXiX5.7 O O 1 1 2 e r 4 5 b b 5 5 s M ) J.l.l.J.P.W.'.|.|.~.).;X;XXXXX3X3X3X3X3X3XXX|.|.:X7X8X8X8X8X8X4X3X3X4X3X3XXX|.",
"F.P.W.'.|.|.'.W.P.G.P.P.G.G.G.F.S.( ^ ( P.W.`.W.W.'.|.].G.K , q A t.k.~.6X6X~.H 2 O 1 2 s b f 5 5 5 5 3 O O $ r p.hXNXNXlXlXDXFXDXNXhXA.f.6.iXV.g $ O O 1 1 , , 4 5 5 f b b s 5 3 N x.).:X3X3X3X3X;X(.~.Q.'.W.[.;X3X3X3X3X3X3X4X8XwXrXrXwX8X4X3X3X4X8X8X4X3XXX|.",
"W.'.[.|.|.|.|.[.'.W.W.W.W.R.F.S.D.( ^ ^ ( S.R.W.P.P.].[.W.( e q H k.N.).;XoXY.H 2 O O 1 5 N b b 5 4 2 : $ O < B +XjXvXlXaXaXxXMXMXlXaXpXA.A.C.5.g * O O O $ = , 4 5 b b f f b s 1 f v.<XeXmXrX7X;X|.~.~.|.[.'.W.W.'.|.XXXXXX3X3X3X3X3X4X8X8X4X3X3X3X3X3X3X3XXXXX",
"|.|.|.XX3X;X[.W.P.F.F.G.P.P.W.P.( ^ ( ( ^ ^ ( ( ( S.R.'.'.' s q H k.N.~.|.Q.U d ; O 1 4 d B f 4 , 2 4 3 O O < B +XhXjXhX+XT.@X=XjXgXiXiXfXhX@Xb.s O O O O O $ * 1 3 5 f b x x e 1 f x._.:X9XeX0X|.P.l.c./.].P.P.W.'.|.XX:X:XXX|.|.|.XXXXXX;X3X3X;XXXXX;X3X3X3X3X",
"F.P.W.'.|.].P.F.F.F.F.P.W.W.W.W.P.S.( ^ K K ~ K K ^ S.F.S.K , q D u.' S.S.( P n ; O 3 5 T N s , 1 1 , , 1 1 : A OXvXDXBX&Xk.t.p.OX#XOX#XlXlXhXm.e   O O O O 1 1 : , 4 4 d r x s 1 N v.*X7X8X8X4X[.K.l.j.' S.F.P.W.W.W.'.'.'.'.W.W.[.;X3X3X4XwXrXrXrXrXwXwX8X4X4X",
"( S.S.S.F.P.F.F.S.S.F.P.W.W.P.F.S.( ( ( ^ ~ ~ K M M ( ( M e = q H j.' S.S.( Z q $ O 3 5 b n e , 1 3 5 3 ; * = 9.hXBXFXBXOX0.;.;.0.e.f.pXxXMXzXC.g $ O O O O 1 1 * * 1 3 5 f b s 2 f x.~.Q.'.'.W.F.) U H Y K ~ ^ S.P.W.'.[.|.|.[.'.'.;X3X3X3X3X3X3X3X3X4X8X8X8X8X",
"( ( ( ( ( ( ( ( ^ ^ S.F.F.F.F.S.^ K K ^ ( ( ( ^ K K K K K V : e q.Y.%X*X|.W.H d $ O 3 5 T N s : $ O $ ; 1 1 : D @XMXDXBX$Xw.3.3.e.p.f.aXCXDXvXOXB ; $ $ O O 1 3 3 3 3 3 5 5 5 5 3 4 H k.N.L.F.( ^ Y Y P S S J K K ^ S.F.F.G.P.W.W.W.W.W.W.W.W.'.|.|.|.|.|.XX7X8X",
"K K K J m z , = = , z m K Y S S n n c m m z , : , , > > x e = e H z.v.v.W.F.G e ; ; e b N T 5 3 O O 3 4 , : 1 F =XvXjXfXpXC.e.q.y.m.#XlXZXZXjXm.s O 1 1 O O O O O O 1 1 , e e b 5 4 ; q n S Y P S Z n x e , , e e , : = = ; > > , e n x e b ^ S.F.F.S.( ^ Y ^ ^ ",
"= = = = = = = = = : : = = = = = = = = = = = = = = = * * = = # = = : = = : = $ O 1 3 5 f b b 5 3 O O 3 4 ; $ O ; Z m.hXlXjXfXC.f.A.A.C.aXnXgX0.: $ $ : : O O O O O O $ ; 4 5 5 4 2 , = * = = : : = = = = = = = = = = = = = = = = = : : = = = : : : : : : = = = = ",
"$ , e M ^ ( ( F.Q.'.G.^ b e z m J K K K K K K K K C s , , , = , n S n n n e ; O ; e x b f 5 3 1 O O 3 5 3 1 $ @ @ q F m.@XfXpXiXiXiXfXhXhX+Xs $ r d 2 1 O O O O O O O $ : e r d f 5 3 4 C ^ ( ( ^ K K K K J m c k k z C ^ ( S.F.P.P.F.F.P.P.F.S.( ( ( ^ M e , @ ",
"@ s ^ P.W.Q.[.XX:X:XXX].P.F.F.S.( ( Y K K K K K K K K K K P H H q.t.k.c.' K 1 O 3 f b b N 5 3 1 O $ : 2 5 4 ; $ O O 1 B m.@X&X=XpXpXfXOXD , # = , e , ; O O O O O O O $ : , 4 5 5 4 , b ^ S.R.W.K.F.S.S.F.F.S.^ Y K K ^ ( ( S.( ^ Y ^ Y P G Y Y S G Y ^ ( K , @ ",
"@ , K S.) F.R.'.'.'.W.P.( J M n m m m m M S n n n x , = = = , e r i n n n e ; O 3 5 5 f b s ; O O O 3 5 5 3 O O 1 $ O O , e n 8.3.3.*.w $ + 8 0 y e 2 1 O O O O O O O O 1 2 s b 5 4 , s J ( U u.) S.F.F.P.F.( Y S S Y ^ ( ( ^ Y S S Y Y Y K m m J ^ ( S.F.( s @ ",
"@ , n P Y ^ S.F.G.S.( Y ^ K m z e e z c m m S S n x e e e x x n S S Y K M e ; O 3 5 b b f 3 O O O $ : , 1 1 O O $ @ $ $ O O = e q q : $ O % |  .7 1 O O O O O O O O O O 1 3 5 f d e 2 4 V ^ F.K.v.v.K.P.P.F.S.( ^ ^ ( ( ^ K m z e e C ^ ( ( P S S S Y ^ ( ~ , @ ",
"@ s ) K.G M J ^ ( ( M M ( ( ^ K m m M S Y Y S S S n e e x n S S Z S P Y Y V ; O 3 5 b b 5 3 O O o O 3 5 3 1 O O O O : , 1 1 * = , , = : q u ..@.h d 2 < O O O O 1 1 $ @ @ ; 4 5 5 5 5 3 O 5 K.{.~.N.N.~.|.Q.) Y S S S G Y J z , , e n P S.F.S.( P S P ^ ( K , @ ",
"@ , ^ ( ^ J M n S S x M ^ ( ^ K K K K Y ( ( ( ( ^ Y S S S H t.j.j.j.j.j.^ V ; O 3 4 2 , 1 1 O O O O : , 1 1 O O < 7  . .a 5 5 4 r e 2 % 8 9 w q 4 3 O O O O 1 1 1 1 * $ ; 2 s n n b 5 3 O 5 K.{.).~.~.).{./.v./ P K K K J k - - : e z J ^ S.S.( ^ Y S S n e , @ ",
"@ , ^ ( M n S S n e e s J J b e , , , b ^ S.F.S.^ ^ ( ( ( ) l.k.z.z.k.H 2 O O O 3 5 5 5 3 1 O O O $ : , 1 1 1 1 1 7  . .% O O O $ = $ @ X X @ $ O o   O O O 1 1 O O 1 ; * ; 4 5 5 f n s 1 5 ~ F.v.N.~.).{.].F.( G S Y L K J n x - k J ^ ( S.D.) U I P C b , = @ ",
"@ b K.Q.) Y I D r e , e M M e , = @ @ , C Y Y Y Y ^ ( S.F.F.F.P.W.K.c./ N 3 ; $ 1 1 , : 1 1 : : 1 1 , , 1 1 1 1 * = 2 2 $ @ @ $ $ $ $ # # $ O O O O O O O O 1 1 O O O O $ , e b 5 f n e ; 3 ^ K.l.k.v.L.W.K.U S n S D I Y K m z e b ^ F.R.W.P.S.P S S S m k : @ ",
"@ s S.P.u.U S.S.U H P K K C e , = = , e n S n Z D I Y K K ^ S.F.S.S.) ^ M e , : q s 5 4 ; $ O O $ = , , 1 1 * , d Z n e ; $ q t t r q q r r q , = @ @ $ O O 1 1 O O O O O $ 3 f b b f 5 1 5 ( P.W.R.K.P.W.P.( K K ^ ( ) ( ( ^ J S P ( S.F.F.S.S.S.) u.H n , = @ ",
"@ s ( F.( ( F.S.( ^ ( ( M x , = @ = , , , e x n S S m c c J ^ ) ) ( ^ K N f F y.@X@Xz.H S n ; O $ @ = * 1 1 1 1 , q q , * 6 8 } } O.O...u t r r q = $ O O O 1 1 O O O O O O 3 5 b b 5 3 ; s ' `.W.W.L.v.K.S.J c M P ( S.F.S.^ ^ ( S.F.P.W.'.[.|.|.].P.F.) K , @ ",
"@ s ( J./ U ) D.( ( ^ ^ ( ( M x e , , e , , , e x x e e x n S S S S Y J M e e q.hXjXp.Z n e = $ O $ = , 4 4 ; = , q q : $ + 8 } ,.,.#.X.O.| 7 6 8 8 % 1 $ @ @ @ @ $ O O O O 1 1 O O 1 1 O 3 ! F.G.P.K.J.l.I S x e b ^ ( ^ ^ L ^ ( S.F.P.].XX3X3XXX|.'.K.P e , @ ",
"@ s ( F.S.( ^ ^ ( ) U l.Q.[.P.) J m J J M r q , , q e , , e n S I H A A Z r : A hXjXm.Z ; O O $ = , = ; 3 f b Z r r q , = = , w  .O.X.X.X.| 6 : w w $ O @ = , , = @ O O O O 1 1 * ; 4 5 $ 3 ^ P.W.P.l.l.' ( P S n M J ^ Y K ~ ( S.P.].|.|.XX3X3XXX|.'.W.S.K , @ ",
"@ , K S.F.S.U u.P.W.P.W.XX;X[.K.U I ( ) U S e , , b C C s s C ( P.K.j.H S x , Z @XhX+XH 2 O O O O O $ * 1 1 = q r r w , = : w r r u ..#.,.&.y w 9 8 @ @ 8 0 y y 0 9 w , , , = , d H k.z.q.H ) S.F.F.S.S.F.S.( Y Y P S S Y ^ ( S.R.'.|.:X7X7X:XXX|.|.|.'.G.K , @ ",
"@ , K S.F.F.F.P.].].P.F.S.F.F.F.S.S.F.F.( J M n S P ( ( ^ Y I U S.J.j.q.t.D v Z k.v.k.D q @ # $ $ O O O 1 3 n Z i r w , = = , , = : r u ....u r q , 1 % 8 | p *...X.} 0 y r r A z.&XvXlXn.P ) G.F.P.W.W.W.W.P.S.u.u.) ( ( S.R.'.|.|.XXXX3X4X8X7X:X[.W.F.S.K , @ ",
"@ , C Y ^ ( F.P.P.F.S.S.R.W.P.S.^ ( S.F.F.S.^ ^ ( S.F.F.F.S.( ( F.K.v.N.N.N.q.Z q r y.y.n e d Z i e 2 1 1 s G q.A Z x e ; $ q r r r r y ..X.O...w : O % | #.,.<.<.<.<.3.0.8.$.$.0.T.lXjXx.E ' P.W.W.W.W.P.P.P.P.W.W.W.W.W.W.W.[.;X3X3X3X3X4X8X8X4X;X'.R.S.K , @ ",
"@ , e S ) P.W.R.S.( ( S.R.W.P.S.U U ) S.D.S.P.W.P.K.K.K.P.F.F.P.W.W.~.M.d.3.8.Z i r e e r i Z Z n x r i A H q.H A Z e , * = e x r r w q q w r r e : O %  .X.o.#.,.<.6.d.M.w.-.| 7 q Z F E W S.P.P.P.W.'.[.[.'.W.W.W.W.W.W.'.[.|.XXXXXXXX3X3X3X3XXX[.W.F.( C , @ ",
"@ , K ( S.S.F.F.S.( ( S.F.P.W.W.P.F.S.S.F.F.P.W.].|.'.W.W.W.P.P.]./.v.j.q.8.$...u r r r r i A H Z x r Z t.z.z.y.H Z e , = @ = q i A Z Z i r q e x e ; % | o.o.o.X.#.<.5.b.h.-...p n m C ^ S.F.P.W.W.W.W.'.'.W.'.[.[.'.W.W.W.W.'.|.|.|.|.|.|.|.|.'.W.W.P.( V , @ ",
"@ , C ^ ( F.R.W.P.F.S.S.S.F.W.`.W.W.W.W.W.'.|.|.XX|.|.|.|.[.'.W.`.W.L.k.q.8.....8.9.9.A i r x Z H H Z S t.i.i.y.q.A e , = : e p ;.;.*.Z i i Z Z Z d ; + 0 O.o.o.o.o.o.;.b.b.-.| 6 : N E j.v.K.P.W.W.W.'.[.|.|.[.'.'.[.[.'.W.P.P.W.'.|.|.'.W.W.R.F.( ^ K b , = @ ",
"@ , K S.F.P.W.W.W.W.W.R.P.P.W.W.W.'.|.|.|.XX3X3X3X3XXX|.'.W.W.`.Q.W.P.c.:.;.*.*.;.3.b.k.H Z x Z H t.t.t.z.z.n.y.D n e , = = e Z 9.t.t.0.$.$.h Z S n ; ; e i ..X.X...%.9.v.b.-. .w b F.W.W.Q.[.[.'.W.P.W.[.|.'.'.'.W.'.W.P.F.F.F.G.F.P.P.W.W.P.F.S.( D.K , @ @ @ ",
"@ s ( P.P.P.W.W.P.F.F.F.S.( ^ ( F.W.[.|.|.XX3X:XXXXX:XXXW.P.W.'.|.[.R.' H *.;.<.6.5.b.j.A r q r D t.q.t.z.z.i.t.S x e , = = e S t.y.y.y.z.y.H A D S 2 2 d Z i u O.X.X.-.b.k.9.A q.l.R.W.v.v.W.'.[.XX;X:XXXXXXXXXXX|.'.W.W.W.P.F.G.F.S.( ^ ^ ( S.( ) S.^ b , = @ ",
"@ s ' '.`.W.P.F.F.F.S.( D.( ( S.R.W.W.W.W.'.'.W.F.S.F.W.].|.'.'.[.{.L.j.H A H 8.$.-.w.q.Z r q r D y.y.i.a.n.n.t.S e , @ O ; e S t.y.t.t.t.q.A A H A q = , w  .O.o.,.<.d.Z.Z.5.3.h.L.{.{.~.~.W.`.'.'.|.:X8XrXrXwX4X;X[.W.W.W.W.W.P.F.F.F.S.( ( ( ( S.F.S.P n , @ ",
"@ b K.[.W.P.F.P.W.W.P.F.F.F.F.P.W.W.W.W.P.P.W.W.P.F.F.P.[.[.P.F.S.( ^ P n i Z Z A A H A i w : e D t.z.n.n.n.n.t.S e , @ @ = , x 9.i.y.y.t.q.A A H A q 6 9 0 y u ..X.X.-.M.Z.5.3.w.v.Q.|.~.~.W.'.[.XX;X4X8X8XwX8X4X;X[.W.W.W.W.W.W.W.P.P.W.W.P.F.F.P.W.W.W.) s @ ",
"@ b Q.;X[.W.W.W.P.P.F.F.F.P.W.'.|.].P.P.W.W.'.'.W.W.W.W.W.W.F.S.S.) U F r w r i i r e e r e q e D t.z.n.n.a.i.t.S x q , = = , r r.i.i.y.t.t.q.H S Z i u ....u t t u  .-.b.v.H A q.l.J.P.P.P.W.'.|.|.'.[.;X4X4X3X;X|.'.'.'.'.'.W.P.P.W.W.W.W.W.W.P.P.W.`.`.' s @ ",
"@ s F.W.G.S.S.S.F.F.F.P.W.'.|.|.|.|.'.W.W.'.|.|.|.].P.G.P.P.W.'.|./.v.q.Z r r i r r w , = = , r 9.i.z.n.n.a.i.t.S x e , = = e S t.i.y.y.y.y.q.H S A $.$.8.8.$.O.X...p H v.k.A i H j.K.W.W.'.|.|.'.'.|.|.|.XX3X4X8X8X4X3X7X7X4X;X'.W.P.P.W.W.W.R.F.S.S.S.S.^ , @ ",
"@ s ' '.W.W.P.) S S ) P.W.'.|.XXXX[.W.F.F.P.].|.XX|.'.'.[.|.|.XX3X|.v.q.Z n Z Z i r r r : = , r r.i.z.n.n.a.y.I Z e , @ @ , x D t.i.y.y.y.y.q.H S S A *.;.;.*.%.....u A q.t.Z Z H l.P.'.|.|.|.|.|.|.|.|.'.[.;X3X3X3X3X:XXXXX3X;X[.W.P.F.F.G.P.F.S.( ( S.S.K , @ ",
"@ s ' W.P.F.F.( J m ^ S.P.'.[.XX:X;X'.W.P.P.].XX3X;X[.W.W.W.W.'.[.Q.c.q.H H q.9.A A Z r , = : r 9.i.z.n.n.n.n.t.S e q , , e n D t.i.i.y.t.t.q.H S A ;.3.0.0.$.X.X.#.,.:.w.q.Z n G ( P.'.|.|.|.XX:X:XXX|.'.'.|.XX|.|.'.'.[.|.|.|.'.W.W.W.P.F.S.( ^ ^ S.F.S.K , @ ",
"@ s ( F.S.( ( K , , n P ( S.F.K.W.W.W.W.W.W.W.'.|.|.'.W.P.F.F.S.( C s w r i A 8.$...h Z e = = e D i.z.n.n.n.n.t.S e = = , e n D t.i.i.y.r.D S S S S H 0.:.,.@.X.X...p A q.j.q.q.j.l.P.`.W.W.W.W.W.Q.[.[.Q.W.W.W.W.P.K.F.F.F.F.F.) ( ( ( ( ( ^ C s , , b J C , @ ",
"@ , e M J C , = , : > > k z e e x S ) F.F.F.P.W.W.P.F.S.) ( ^ C , = @ @ # = , w r i Z d , @ @ e D i.z.n.n.a.y.I Z e ; O : e Z H t.i.i.y.r.D A Z S n e w r t t r q q r i A H A A H j.K.P.S.^ J z : s K ( ^ C b e e e e , : = = = = = = = = : , , = @ @ * = = * @ ",
"= = : : : : = = = = : : : : = = = = : : , , , , , , : : : : : : = = = = = = = = = : : = = # @ e D y.z.n.n.a.t.H Z e ; $ = e D t.z.z.i.y.t.D S S S n q # # = = = # # = = = = = : : , , , , : = = = = : , , : = = = : : : : : = = = = = = = = = = = = = = = = = = ",
"|.].W.R.R.R.R.R.R.W.].].W.P.F.S.( ( ( ( F.F.P.W.R.P.F.F.P.W.W.P.F.' H H H H H H t.u.J.( H r : e D i.z.n.n.a.y.H Z e = = , e S t.z.z.i.y.t.I S S S Z i r r r r u  . .y n J P H H q.c.Q.[.Q.F.J k = s ) Q.].].W.W.].].|.|.;X;X|.[.[.'.P.F.F.K.Q.W.F.( ( ( K K K K ",
"|.].P.F.P.P.W.W.P.G.G.G.F.F.S.S.F.P.W.W.P.F.G.F.S.S.F.P.W.W.P.F.( Y S S n n Z A A A S S v r q e S t.z.n.n.a.y.H Z e , = : e A q.z.z.i.y.t.I D S S S Z Z Z h ....h A A H ' S.U q.j.v./.XXXXK.b = @ s ' '.|.].P.F.G.W.[.XXXX|.'.W.`.W.W.W.P.F.P.F.S.S.S.( ^ ^ ( ( ",
"'.W.P.P.W.'.[.].P.S.( ^ ( S.F.F.G.P.W.W.P.F.F.P.W.W.P.F.G.P.G.S.^ Y S S x n J P H H S n e q , e S t.z.n.n.a.t.H Z e : @ @ q A q.k.z.i.i.z.k.q.H S S Z A q.q.A A Z H k.v.K.J.j.q.j.v./.|.'.F.b = @ s ( P.W.W.P.F.F.W.;X3XXX[.'.W.W.W.P.P.P.G.F.P.W.W.P.F.F.S.( ^ ",
"'.'.W.W.W.W.P.P.G.F.S.S.F.P.W.W.W.W.P.F.S.S.( ( ( S.F.F.P.F.S.S.D.( P Z i i Z A A Z S S i r q e A t.k.n.n.a.t.D Z e : = , e A 9.q.q.y.y.t.t.D S S Z i i H q.A A A A q.v././.v.j.j.j.' S.S.^ e @ @ s ( P.W.W.P.F.S.G.].|.'.W.W.W.W.W.W.W.W.W.W.'.[.[.'.W.W.W.P.F.",
"|.|.|.[.W.P.G.F.F.P.W.P.l.l.P.W.P.P.W.W.W.P.( K K ^ S.P.W.W.W.W.P.J.l.j.q.q.9.H A A H H A Z e e n D y.n.n.i.t.D n e : = , e A q.q.t.y.y.t.t.t.D S A $...h h $.O.X.$.0.v./.Q.j.q.t.u.J.F.S.K e @ @ e ( P.W.W.P.F.F.G.P.P.P.P.W.W.'.'.'.'.'.'.'.W.P.P.W.`.W.W.W.W.",
"|.XX3X;X[.W.W.W.P.F.F.P.P.W.W.W.P.P.P.P.W.R.S.( S P K.W.W.'.|.|.|.|.~.N.k.k.k.j.j.k.N.N.j.A e q x S t.z.y.t.D Z e , = = , e A q.q.t.y.i.a.i.t.H S Z i i Z A A %...-.w.c.R.K.j.9.q.U ) ( ^ K m k : , ^ ( ^ ^ ^ ( P.W.W.W.W.W.'.'.|.|.|.|.|.|.|.|.'.W.W.W.W.'.[.|.",
"W.[.;X4X3X;X[.W.P.F.F.F.S.S.F.P.].|.|.|.'.W.P.S.P S S U K.[.;X3XXX|.~.M.5.5.M.~.N.N.~.N.j.A e e n D t.t.y.t.H Z e , = = , e A q.q.r.y.i.a.i.t.H S Z i i A H A h ..-.b.L.K.J.j.k.v.~.|.W.U n e , = , K ( ^ ^ ( S.R.W.W.'.|.XX:X3X3X3XXXXX:X3XXXXX|.].P.P.W.W.P.P.",
"|.XX:X4X8X8X8X3XW.F.F.K.F.P.W.'.[.XX:X;X[.'.|.W.U S x G K.[.;X3X3X:X.X^.N.N.%X%XY.N.~.N.k.H n n D H H q.k.y.H Z e , = = , r D t.y.y.t.y.a.i.I S S S Z A P P H H A A j.c.K.K.j.q.k.v.W.W.F.^ C k : , K S.( S.F.P.W.'.[.XX:X:XXX:X7X8X4X3XXXXX:X3XXX|.'.W.W.W.W.W.",
"|.|.XXXXXX;X3X;X[.'.|.].P.P.W.'.'.'.'.'.|.|.|.].P.S.^ ( P.[.;X3X3X4X8X6X_.).;XoXY.Y.%X(.z.D e e r Z S S D H H A e , , , , e A H D r.t.i.z.z.t.I S S H H S S H H H j.N..XwXeX&XOX$X,X7X4X[.F.J k = , K S.F.P.W.W.W.W.W.'.|.|.|.XX:X3X3X3XXXXXXXXX|.|.'.W.W.W.W.W.",
"|.XX:X3X3X3X3X3XXXXX3X;XW.W.[.XX|.|.|.|.|.].P.P.W.W.P.P.W.[.;X4X8X8X8X7X,X>X3X;X~.N.~.~.v.H d w  ...i n Z d , = , , , , , , q q , e n S D D H H S S t.j.( P U t.y.z.Y..X7X<XC.f.Z..X:X;X[.' b @ @ s ( P.P.G.F.P.W.W.W.'.|.|.'.W.'.[.;X3X3X3XXX|.'.W.W.W.W.'.|.|.",
"|.XX3X3X3X3X3X:XXXXX:X3X3X3X3X3XXX|.|.[.'.R.S.( ^ ( F.P.W.'.|.XX3X3X3X:XXXXX3X;X~.~.|./.v.q.Z y .. .g 5 1 O O o o X @ # # # @ $ X O : , , = , , , d j.~.;XXXY.p.4.C.<X8X:X}.T.Z.T.).{.[.W.S.J k = b K.|.'.R.F.S.S.F.W.'.'.'.[.|.|.|.|.XX3X3XXX|.'.'.|.|.|.|.|.XX",
"W.'.|.XXXX|.].].|.XXXXXX3X3X3X3X4X|.) U S.F.( ^ ( S.F.F.F.P.W.'.|.XX|.|.~.~.{.{.~.~.W.W.L.j.d s N R R f : $ o o $ # = # # $ X O 3 5 T T T 5 O X @ e H L.XX*XV.6.<.V.1XrXwX<XC.d.M.).|.[.W.( s @ @ s F.W.P.P.W.W.W.].;X;X[.'.'.].|.|.|.XXXXXXXX|.|.|.|.|.|.XX:X3X",
"W.'.[.|.|.XX7X8X4X:XXXXX3X3X3X3X3X;X'.W.W.P.( ^ ( S.W.P.D.( F.W.|.|.'.Q.~.).{.{.~.~.{./.v.F ; O 5 R 5 3 O O o $ q r r w : $ O O 3 5 R R R T 5 2 e i 9.c././.k.0.4.C.<XqX5XoXY.N.^._.Q.R.F.K , @ @ b K.[.W.P.W.'.[.{._.1XVXVXtX7X:XoX:X3X3X3X3X3X3X3X3X:XXX|.XXXX",
"W.W.W.W.W.[.;X3X4X3XXXXX:X3X3XXXR.G.'.|.'.P.( K K ) W.XX;X;XXXXX7X7X:X{.).).{.].R.W.[.Q.t.d $ O 5 f : $ o $ q i Z Z i r q = O O = s N T 5 5 T N Z *.;.V.*X*XV.<.<.V.0XyX8X;X~.~.;X;X[.P.( C , @ @ s ' '.W.W.W.`.'.'.|.:XwXyXAXSXSXVX:XW.W.[.;X3XXXXXXXXXXXXX:X3X",
"F.P.W.W.W.'.|.XX3X3XXX|.|.|.|.[.'.W.P.P.W.R.F.( ^ ( P.[.;X3X3X:X,X1XmXeX,X|.|.|.'.'.|.Q.j.Z ; O O O O     . q i Z Z e , = @ o o $ = , s f T T N Z A H j.Q.^.d.6.<.d.$X,X3X;X~.~.;X;XR.( ^ C , @ @ , ^ S.F.P.].|.|.|.|.XX3X4X8XyXAXAX:X'.[.|.[.[.|.XX3X4X4X3XXXXX",
"F.F.P.P.W.`.`.'.'.W.P.S.U l.P.W.F.S.F.F.K.P.W.W.P.P.W.[.;X3X3X3X3X4X8X9X,X>X:X;X[.W.W.W.P.^ 3 O o o o o $ 6 8 | p Z e , = @ O O 1 3 5 4 , : $ O 1 f H v./.|.~.N.N.^.^.).{.|.~.~.|.[.P.) J z : = , b ^ D.D.F.W.'.|.|.|.|.|.XX3X8XyXtX3XXX;X8XtXyXtXtXyXyXtXwX4X3X",
"F.P.W.W.W.W.P.F.S.( ( ( ) F.R.P.( P U l.P.W.P.P.W.'.|.|.XXXXXXXX3X4X4X3XXX|.|.|.'.W.W.'.'.F.b , = @ @ @ @ : w r w q q , = @ @ $ O O $ = , = O O   $ Z j.K.W.~.N.k.k.v.L.W.W.c.j.' ( ^ P M x k > , b ( F.S.S.R.`.'.'.|.|.|.:X7X8XqX4X[.[.;X4X8XwXrXrX8X3XXX:X7X8X",
"W.W.W.W.P.F.S.( P P ( S.F.K.v.L.U.P.S.S.F.P.W.W.W.[.;X3XXXXX:X3X3X3X3X;X).~.{.|.|.|.|.|.'.K.G e , # # : w r t r q , , , = @ @ ; 3 3 ; $ O O       X r H ' J.l.j.j.l.J.P.P.J.j.j.' ( ^ K K C , = , b ^ S.F.P.W.'.[.|.|.|.|.XX3X;X[.'.[.|.|.|.|.:X7X8X8X7XXX|.XXXX",
"W.W.P.G.P.F.S.( ^ ^ ( S.F.F.K.P.W.W.P.F.S.F.R.W.W.[.;X3X3X3XXXXX|.XXXXoX*X*XoX|.|.|.|.XX:XXXG.P Z r r r r r r r x x e , , , , s f f : $     $ @ @ : r Z P ( j.j.j.c.Q.|.|.Q.c.j.J.S.^ L K C e , , b ( G.F.F.F.P.W.W.W.'.|.XXXX].G.G.].|.'.'.'.'.|.|.'.'.Q.'.|.|.",
"S.S.F.F.G.F.S.( ^ K K ^ ( S.S.S.F.P.W.W.W.R.P.P.].XX3X3XXX|.|.|.|.XX3X;X).).|.|.|.|.|.|.'.P.j.A i r r r q q r r r r w , , q r r x x e , = @ = = # q r H ' F.S./ H H ' P.P.J.t.H ) S.( ^ J z : = : b F.P.( ^ ( S.S.S.F.P.W.'.|.].G.S.R.'.[.|.|.|.|.|.'.W.W.W.W.'.",
"( S.F.F.F.F.S.( ^ K K ^ ( S.F.F.F.F.F.F.) ( S.P.].|.|.|.|.|.|.[.'.'.|.].P.P.W.W.W.'.|.|.'.K.j.A i r q q r r w w r r r r q w r r x x r r q e n Z r i Z H ' S./ q.j.j.) S.R.K./ H ( ( ( ( ^ C s , , b Y ( ^ ^ ( ( ^ ^ ( ( ( S.R.W.P.P.W.`.`.'.|.|.|.|.|.[.'.W.W.W.",
"( ( ( ( ( ( ( ( ^ K K K K J M n n n e , = = , b J ^ ^ K ^ K K ^ ( S.F.F.F.F.F.K.R.W.W.W.P.' U A i q = = , q r r r x Z Z r r r r q q r r r x C P Z Z Z A P K K P H H P K K J m z : , C ^ ( K , = , , = = , s C K K J M M J ^ S.F.F.P.W.W.W.W.W.W.W.W.W.W.W.W.P.F.",
"e e e b C K K C b e e , : = = = , e q , = = , , = = = = = = = : , e x x , = , b J ^ ^ J b , = = = $ O O $ = , , = * 1 2 , q q , = $ $ $ $ = - - , q e , = = , e z z , * > > * = = = = = = ; > > : , = # = = = , z m J C , = = , C ^ ( ( ( ( ^ K K ^ ( ( ( S.F.F.",
"e e e e e e e e e e e e e e e e e e e e e e e e e e e q , , , , , e e e e e e e e e e e e e e , e e e e q q q q q q q q q q q q q e e e e e e e q q q e e e e e e e e e , , e e e e e e e e e e e e e e e e e e e e e e e e e e e e e e e e e e e e e e e e e e ",
"W.W.W.P.S.^ K K ^ ( S.S.( S.G.W.].].].W.S.^ K K K K K J n e , = , b ) P.F.) ^ J m c c C ^ ^ S A G ^ S.' H p ..O.O.$.8.8.$.X.X.$.8.j.W.Q.l.v.(.$Xd.&.*.G ) S.( ) j.j.) ( ~ P / l.K.R.R.W.].|.|.].P.F.F.F.F.F.S.( ( S.P.R.K.K.R.W.K.F.S.( ( S.F.S.^ K K ^ ( ( ( ( ",
"P.F.( ^ ~ L K K ~ Y S S P K Y ^ ( ( ^ Y K J M M J J M n x x e , , b ^ ( M n n M J K K K ~ P S Z Z G ( / =...p A A A H H A %.....8.U ) ' l.k.~.N.k.9.A H ( ( ^ ^ j.l.) D.' ( S M P ^ ( S.F.W.[.|.|.|.|.|.|.|.|.[.'.'.[.|.|.XX3X3XXX[.'.'.[.|.'.W.W.W.P.G.F.F.F.F.",
"G.S.^ K K K m m K C b e x n S S n n c m n n n n x M ( ( M e , = , e x n n M J Y ^ ^ K ^ ( ( G A H U F.' H %.....u i Z A H 8.$.$.8.j.F.J.j.j.N.~.N.k.q.j.K.R.S.( H U ) D.D.) j.j.) S.F.P.W.'.|.|.|.|.XXXXXXXX|.|.|.|.|.XX3X3X4X4X3X3X3X3X3X3X3X;X[.'.|.].P.P.W.`.",
"D.^ C m M S x x e e , , , , q e z z e e C K K J n S ) F.S.K , = , , = , V ^ ( S.F.S.^ ^ ( ) H q.j.l.K.l.=.X.X...h A H 0.:.3.0.t.k.L.{.|.~.^.%X%X(.N.k.l.R.R.c.j.j.j.J.F.F.F.F.P.W.W.W.'.|.|.XXXX|.XX3X3X3X3XXX|.'.'.|.XX3X4X8XwXrXrXwX8X8X8X8X8X4X;X[.W.P.W.].|.",
"^ J b , q q q q q , = = , , , , , , , , e e n S J ( P.W.P.S.^ C e , = = = s Y S.( S.F.F.S.( M Z q.l.J.' H %.....h H k.N.N.n.z.v.K.W.;X6X2X2X*X%X*X%XN.Y.|.|.R.l.t.t.J.G.G.P.W.W.W.'.|.|.XXXX3X3X3X3X3X3X3X3XXXXX:X3X3X4X8X8X8XwXrXrXrXrXwXwXrXrXwX7X:X|.|.|.|.|.",
"I S e e r x e , , , = @ @ @ @ = , , = , e x x M J ( S.P.G.( b , , b Y P b s J ^ Y Y Y ( F.) Z r Z P ( U =...u i A q.j.k.v.v.n.Y.%X1X9X7X*X2XVXVX<XY.N._.wXwX_.c.t.l.K.W.W.'.[.|.|.XX3X3X3X3X3X3X3X3X3X3X3X3X3X3X3X4X8X8X8X8X8X8X4X3X3X4X8X8X4X7XwXrXwX7X;X|.|.|.",
"S n e e n M m z e , = @ @ @ @ @ @ : z z e e x n S S Y ^ ( ~ , = : b ^ ( ( ( ^ Y P S S P S.) n e i A H D v t r i F q.q.j.v.T.+XOX+X&XtXtX1X0XVXAX0X%X~.(.6X7X|.W.W.W.W.W.W.W.W.[.;X3X3X3X3X3X3X3XXXXX3X3X4X4X4X3X3X4X4X4X8X7X;XXX3X3XXX|.XXXX3X3X3X3X3X3XXX|.|.|.",
"S n e e z m c m M n e , = @ @ = & > : e x x n x n M K ^ ^ C , = : b ^ S.F.P.W.W.W.K.u.U S.) Z r x S ) ) Z r r Z q.k.N.~.~.N.T.+X$X1XwX9X.X_.7X9X1X_.v.v./.|.'.W.W.W.W.W.W.W.W.[.;X3X3X3X3X3X3X3XXX|.|.:X7X8X8X8X8X8X8X3XW.G.W.'.|.|.|.|.|.|.'.'.'.'.|.|.'.`.`.`.",
"( ^ J z e e z m m m x x e , = = , , , b C K K Y S S Y ^ ^ K m z , b F.W.W.W.W.W.W.R.S.( ) ( H Z Z G ( ^ Z i i H k.N.N.N.N.N.n.N.^.*X7X7X*X.X:X6X,X%XN.Y.{.|.'.W.W.W.W.W.W.'.|.|.XXXX3X3X3X3XXX|.|.|.|.XX3X4X8XwXrXrXwX7X:X|.XX|.].'.W.W.W.W.W.W.W.W.P.P.W.W.`.`.",
"( ( ^ K m m M S Y J M n n x e , , b ^ ( P P ( D.( ( ( ( ^ J b , , b F.W.F.S.S.( ( ^ ^ Y I D A Z Z G ( ( M x Z A q.k.v.N.N.z.k.v.(.1XwXwX1X,X7X7X_.~.N.~.{.|.'.W.W.W.W.W.W.'.|.XX3X3XXXXX|.|.|.|.|.|.|.XX3X4X8XwXrXrXrXrXrXrXrXwX7X;X[.W.P.P.P.P.K.K.F.F.F.P.].|.",
"( ( ^ K K K K Y ( ( ( ( ^ P S S S P K.'.;X;X].P.S.( D.( ^ C , = : b ( F.S.S.F.F.S.( ( ( ( ^ Z i Z S Y K M Z D H H H A F g.k.y.z.N._.7X7X*X*X7X8X4X*XV.V.(.|.'.W.W.W.W.'.[.XX:X3X3X3X3X;X[.'.|.|.|.|.|.:X7X8X4X4X8XwXrXrXwX8X8X8X8X8X8X7X3X;X'.P.S.S.F.F.S.F.R.`.",
"Y J b , , , , b ^ S.F.S.^ ^ ( ( ( S.R.'.|.|.|.'.G.( ( ( ^ C , = , s J ( P.W.W.P.( ^ ( D.D.( G Z Z S P P S Z S S A Z n n Z A A H v.).6X6X_.(.;X4X8X6X(.~.{.|.'.W.W.W.W.'.|.|.|.XX3X4X3X3XXX|.|.|.|.XX3X3X4X4X3X3XXXXX3X4X3X3XXXXXXX|.'.'.|.|.'.P.u.I Y ^ S.F.G.P.",
"S n e , = @ @ , C Y Y Y K ^ ( S.F.F.F.P.W.W.P.F.S.S.F.F.^ C , = , b ^ S.F.P.W.R.S.( ( ( ^ P H H A H ^ ) j.j.q.H S S A Z i i Z H v.).:X;XY.Y.oX4X4X3X3X:XXX|.'.W.W.'.|.|.|.|.|.XX3X3XXXXX|.|.|.|.|.XX3X3X3X3XXX|.|.|.XXXX|.|.|.|.|.|.'.W.P.W.].].P.S.P P ( F.W.'.",
"Y C e , = = , e n S n Z D I Y K K ( S.F.S.S.F.F.S.S.F.F.( C s , , s J ( P.W.`.P.( ^ ( ) ( ( ) ) j.t.D S P ^ ( ) j.j.j.H d q r A k.~.;X:X>X>X:X3X3X3X3X3XXX|.'.'.|.|.|.|.|.XX3X3XXXXX|.|.|.|.|.|.|.XX3X3XXX|.|.|.|.|.|.|.'.`.`.'.|.XX:X:XXX[.'.'.|.Q.S.( P.'.|.XX",
"S n , # @ = , , q e x n S M m c m J ^ ) ( ( ( ( ^ ^ S.G.F.( s = , b ^ S.F.P.G.F.S.S.F.F.S.S.F.J.l.t.H H t.U ) ) U 9.q.H S Z r i H k.N._.;X3X3X3X3X3XXXXX|.|.|.|.|.|.|.XX:X3X3X3XXX|.|.|.|.|.|.|.|.|.XX|.|.|.|.XX|.|.'.W.W.'.[.|.|.|.|.|.'.W.P.W.XX3X3X3X3X4X8X8X",
"S.( M x e , e e q q , e x x e e x n S S S S Y Y Y ( S.F.S.^ b , , b ( P.P.F.S.( ^ ^ ( S.F.F.F.J.l.j.^ P H t.S.S.U q.j.j.P G x t t Z ^ R.;X4X3X3X3X3X3X3XXX|.|.|.|.|.|.|.XXXXXX|.'.'.|.|.|.|.|.|.|.XX|.|.'.[.;X:XXX[.'.W.P.P.W.`.W.W.P.P.W.W.W.'.|.XX3X4X8XwXrXrX",
"|.].P.) J m J J M x e , q e e e e e n S I I S S H H P ^ ^ C , = : b F.W.P.S.^ ~ L ~ ~ Y S P S.F.S.) l.j.j.j.^ ^ Y Y Y P H A i i Z H ' W.;X3X3X4X8X8X4X3X3X3X3X3XXXXX|.|.|.|.|.|.|.|.|.|.'.'.|.XX3X3XXX|.|.XXXX[.P.F.S.S.P.W.P.F.S.D.( S.F.P.].|.|.|.XXXX3X7XwXrX",
"3X;X[.K.U I ) ) U S e , q b C C b e C ( P.P.S.( ) ( S M K C , = : b ( F.( L K K K L L K K ^ S.G.F.J.l.k.z.v.' ( M n n x r i Z A P ^ S.P.[.XXXXXX3X4X8X8X8X8X4X3X3X3XXXXXXX|.'.'.|.|.'.W.`.'.|.XX3X:XXXXX:X3XXXQ.l.D S P S.F.S.( ( S.( S.F.P.].|.|.XX:X3X3X4X8X8X",
"S.F.F.F.S.S.F.F.( J M n S P ( ( ^ Y I U S.P.P.G.P.J.l.U P V > > : b ^ ( ^ K ~ ~ L ~ ~ J M M ( S.F.G.F.J.v.v.K.F.F.) S n Z Z Z G ( S.F.P.].XX:X3X3X3XXX:X7X8X4X3XXXXX3X3XXX|.'.'.|.|.'.'.|.|.'.'.'.'.W.'.|.[.W.S.P S S S Y ^ ^ ( F.G.F.F.F.P.W.W.P.P.W.[.;X3X4X4X",
"W.W.P.S.^ ^ S.F.F.S.^ ^ ( S.F.F.F.S.( ( F.W.].|.|.[.'.P.S.K 4 = , b ^ ( ^ ^ ( ( ^ ^ ~ J M M ( F.R.W.P.P.W.W.W.W.W.W.P.( Z i Z G ( S.F.P.W.'.|.|.|.|.|.|.|.XXXXXX|.|.|.|.|.|.'.W.W.`.W.W.W.'.[.[.'.W.P.F.G.J.l.u.) ( ^ Y Y ^ ( S.R.W.P.F.S.S.S.S.F.P.W.'.[.XX:X3X",
"F.F.S.( P S Y ^ ( S.P.W.P.P.P.P.P.F.F.P.W.[.;X:XXX[.'.R.S.( ~ C e e C ^ ( S.F.F.F.S.( ^ ( S.P.W.W.W.P.F.F.P.W.'.[.'.G.( M x x M ^ ( ^ ^ S.P.W.W.P.F.K.K.G.P.].|.|.|.'.W.W.W.W.W.W.'.[.[.'.W.P.P.W.W.P.F.S.( ( S.F.F.F.F.F.F.F.F.F.P.P.W.W.P.F.S.) S.F.P.P.P.P.P.",
"( ) S.S.( ^ K ~ ( ( ( F.Q.].W.R.W.P.S.S.R.W.W.W.P.F.S.( ( Y b , , e z m J ^ S.F.F.F.F.F.F.F.F.F.) ( ^ ^ ( S.F.F.F.S.^ J M r e , = , e n n M K L K ^ ( ) S.F.F.K.P.W.W.P.G.F.F.F.F.F.F.F.S.( ^ K K ^ ( ( ^ ^ ( S.F.S.U I ( ^ M M J K M n n x , , e M ^ S.F.F.S.( ",
"= : , , : ; > > * = = = = = = = = , C ^ ( ( ^ ^ ^ C , = = = = = , , = = = , x n e e m J K Y M x , = , e x n n n e e x x e , = @ @ @ # : z c m z , = = : - - : = = = = = = = = ; > > ; : - - : = = = = = = = , e m m m z , = = = = : , , = : z z : : z J K J b e "
};
