/* XPM */
static const char *mwall4_1[] = {
/* columns rows colors chars-per-pixel */
"128 128 88 1 ",
"  c #070707",
". c #0B0B0B",
"X c #170F07",
"o c #0F1700",
"O c #0B1707",
"+ c #171F07",
"@ c #1F170B",
"# c #131313",
"$ c #1B1B1B",
"% c #2F1B0B",
"& c #13230B",
"* c #2B230F",
"= c #232B0F",
"- c #372313",
"; c #332B13",
": c #3F2F17",
"> c #3F2B1B",
", c #2F371F",
"< c #232323",
"1 c #272727",
"2 c #373F27",
"3 c gray23",
"4 c #430000",
"5 c #470000",
"6 c #4F0000",
"7 c #530707",
"8 c #5B0000",
"9 c #5B0707",
"0 c #5F0707",
"q c #670000",
"w c #670B0B",
"e c #6B0F0F",
"r c #730000",
"t c #7F0000",
"y c #731313",
"u c #771717",
"i c #7F1B1B",
"p c #432F1B",
"a c #43331B",
"s c #4B371B",
"d c #533F1F",
"f c #473323",
"g c #4F3B23",
"h c #4F3B27",
"j c #4F3B2B",
"k c #533F2F",
"l c #3F472B",
"z c #5F4323",
"x c #5B472B",
"c c #474F33",
"v c #574333",
"b c #5F4B37",
"n c #53573B",
"m c #6B4727",
"M c #774F2B",
"N c #7F532F",
"B c #675333",
"V c #67533F",
"C c #775F3F",
"Z c #6F5743",
"A c #775F4B",
"S c #5B6347",
"D c #676B4F",
"F c #7B634F",
"G c #6F7357",
"H c #7B7F63",
"J c #8B0000",
"K c #9B0000",
"L c #831F1F",
"P c #A70000",
"I c #B30000",
"U c #8B2323",
"Y c #8F2B2B",
"T c #972F2F",
"R c #9B3333",
"E c #875733",
"W c #8F5F37",
"Q c #836B4B",
"! c #836B57",
"~ c #8B735B",
"^ c #937B63",
"/ c #9B7F6B",
"( c #A76B6B",
") c #9F876F",
"_ c #A78F77",
"` c #838383",
"' c #8B8B8B",
"] c #939393",
/* pixels */
"+=======,,,,,2222c22l====,,,XXXXXX@=,2,====,,,,,,,,,,=;====@@X@@=====@====@*===@@@@@X@XXOXXXX@@@@=,,,,,22,,,,,,,,=,=,,222,====XX",
"@SGSncSSSSGGDGHHHBHGGGGDGGDG22**;lSGHHGSGGDDGGHGHGGDSSDDSSnScccnSDSnScSDHSkDHHGDnncf:;,,2,,2cccklSDGGGGGGDSSDSGHDDGDGGHGHHDSSn*X",
"=DSnl,2cSnnnSSSDDDSccDSnSSnc;;;;,cSSDDGnnSnSSnnDSDSS2nlcncc22llcncSSn2lSDccSnnSnccf=@,::*@@%;:lla,lcllcSScnnnDGDSSSnDDDDDGcncl@X",
"@Sn,;@,lGHBDGnnSSnllllnlcn2***,llSSSSSDncccnncnnnSSD2n22nnl2cnlccnSSn2lnDc2ncDHDn2,;@,22*X@@,,l,;;glccnSncnnnSSDnnnnSSSSSnnlcl@X",
"@Sc,,;,cSSSGGHncnS2lccD22l-X@*lncSSSSSDS2llnnnnnnncS,cl,2,,222cnl22,222lScnnSDHGSlll,,lf*@@+=2cc2:cnSSnncnSnSDSSnccnnSSDnnclc,XX",
"@ncl222nSSSSDHHnnn22lnnl,,@XX*cnnnSnSSnnll,ccnnccclc=,,,=1,,,c1<<<<,,,,2c2ccnSSDG2ll,:2:;;@@*2lSc,lcSncccnSDDDDnnSnccnSnn22l,,XX",
"Xncc,clnSSSSDDHSnDSllSnl;%@XX=cnnnSSccSSSc22lcll22,1@$$&#$2<<,,,,,,,,1<<=<,2cccnSl2,,;,,*@@@$,lcllclcSSnncnSSSSSnSDnncnll;ll;,@X",
"@ncl@22nSnSSDDDHnnccclnc;%XXX*lnnnnDcnDnnnll2,,1<$$$&$=$<1<1,,,,,,,,11,,,,,,,22ll222,,,a;*;*@*,2:lnnccccSGGDSGHSSDDSnnncc,nn,2@X",
"Xcl;X,;nSSnnnnSnSDnclclnl*@X@,lnnnSScccclc2,,,<$$$==$$$<<1<11,,,,,,,,1,<<11,,,,,,,21,2,,=,f,@**22,2nDGGHHGHHGGDDSSDSSDcSclnSnS=@",
"X:;@X,*nnnnnnSSSnSnGlcccc*@@,2cnnDSn,ll2l2l22=$$$$$$==<,,,,,,22,,,,,,,,,,,1=<$$$$=<$,,,,2cl,;=,llnSSSSSSSGGGGGGSSSnDDDccS2lccc=X",
"X;;@X;*ccclccnnnccnnSnlll,,,lnnnSnnn,,,2,$$$$$$=$<1<,,,,,,,2222,,2222222l22221<$$$&=$$<,,,2221;2ccSSnnnSSGGGDDGDSDSSH^nlSlGGSn,@",
"X,;@X@+llllccccnclcncl,,,2222ccccccc2,,<#$$$$=<<<1,,,,,,,,,,,22l22lcl2,,,2,22,2,,<$##&$=$<,22,=accSSSncSSGGGGGSSSGDSH)DcnlSGDGl=",
"@2*XXX@,nnncc2nncccnc,=,,,l222l2ll,2,<&$$$<<1,1,,1,,,,,,,,,,,2l22ccc22llll2,,222c2,<$#<&$<,,,,1lnSSSSSnSDDDDDDGHDDDDH_^cn2nnSSl+",
"+;@**@*,cnncl,2lcccccl,,2alc2,22l2,<=$&$<<12,,,,22,,222,2222ll,,,,2,,lcc22222,,1,,,,2,$#O&$$$<,cSSSSSncnnnSSGGGGDDDSDC^cS,cnSS,@",
"X;@@***;2ll2;;;,2cclc2222,,2,,2,,<$$$#$<<,,,,,,2l2222222,,2222222cc2cclcccl2l22l2,,,,,<$$##&$&$lnncnSDncnSSSDDGDDSGSDGDlS22nnn,o",
"X,*@@**,,l22,,;;;22,c:,,,,2,===$$$$$$$1,2,,,,,2c222l22ll2222,2222cl2lclc2lll2llc,,1,,111<$#..$&=nDGDnnSccSSDSSSSDSnSSnnnSl2nnS,@",
"X;*@X*;,,l:c2:,;*;,,cl,2,,,,,<$$&###$,22,,222222,222222,2,,,,,222222c2lnll2222l2222l2,22,,<$##$$lSGHHGSSnnSGDSSnDGSSncnSnncnnc;X",
"X;*@X@*2l:l2c2,;*;,*2l22,,,2,$$$&##<,22,,2l,,2222222l22ll,22,2c2,,2ll,c2llcclc22lcnl22,,,,,1&##=1SSDGDDSSnnSSSnSSSSncDnSnnnDG2=X",
"X;*@@@;2cnll2,,2*@@*,2l,$1<1$$$$#$<2,2l2lll2222,2l22,,,c,,,2,2222ll2,2lncnnncSSllcc222222,,,,$###1cnSSnnnnnccllccSDSSDH)DGnnGD=X",
"X,*X@*lSnnl:::,*,*@@*l22<<$<#&$#&<,,<,22lc2,2l2lccnl2nnc22,c2ll,,ll,22lccncccnccnS2222l222,<<,$..$<2nnnncllccllcclnSBBGHSHlSnc=X",
"X,*X*acSccnll22;*,,@;ccl$$$$#$##$11,,l2,,2,22,2cccn2SSnnncl22nc2ccnl2lc22clllccnnccncc,,2,,,,,$#.#$<,ncl2cccccl2lnnDHHHGDGnSnn=@",
"Xl=@*;,l2l2ccc2,,,c,,cl,$$$$##.#=<,2,ll22222,,2clllcDnSSn2lccccl22l,,22lnnncn2llncnnnclll22,,<$$##&$$,lll222lc2llnDSDGHHHncnSS,+",
"@n;*@@*,,222cSc:l,2c2nl,<11<<##<$$,,,ll22ccl22nnnnnSnnnnSnnc2cllcnl,clcnSnlcSnnnSSncclcc22l2,<<<#....#,2cnSncnl2cnnSDDDDGnnnSS,o",
"@c,*@@*;*,,,lnS2c:2ccSl,,1<<$#$<<<,,2222ccclllnSnl2lncSccclllnccnSl2nnDDSSnDDnSSDDDncSnlll2,,<<&##...#<;2nnccSc2lcnnSnSSnnnnnn+O",
"X2,,,+=;;,,22nlcc,llcl,,1$1$##=<1,212,22nnScl2clllnSnnl2nclcSlnnnScDHSGHD!~HScSGDcSnDSnnnl,,,$$#O...##$*:lccDDSlccnnnnDGSnnclc@X",
"@c,2c,,,,2222l2lclcl2,,=&$=$##$$<<,2,,lccncl2,nSlSSSccnnScnnnnGDGDD`GmWRUUUmhvbSSSSGDSnnc2ll1$&#.#..###$,llnSC)GHHSSHDnSnSnlc2@X",
"@c,lnncl,2,cl22cccnnncl2$&#O#&$<<1<llncl2cl22lSS3cvk>pfjbSGGHGGH]HZmYtJJtq887wembDHSSnnclnl,<$&$&#...###,2cnG__/DZHSD_BDSnll,2@X",
";cl2cnSn2clnnScnnccnnnl,,<$#&<$&$$22l2lcnnnl2lScmse5844eymMGGSSSDv798qe979q9qqr87vSScnnl22,,<<$&#&##..#$<,lSDC)/GDGSGH_Slllc,l=@",
",nclcnnc,llccncncnnnl2,1$###,,<<$<,,,2llSSl2cSVu97rq77wrtttuvGHHV9668w97-->zmerrrwgnSl222,,,,<$$$###...$$lcSDBBZGDHSDSSD22l2ln=@",
"2Gcnncnl,,22lnnSccc222=$#&#$<<=$$,,,2lc22,2cnk7750e->kjg9w88evDbw8rrrrgvvc2cc>%4-54xlSlc222,,$$&&###..#$$lnlb~HHHSSnnnSDnlcnc2,@",
"lHncncn2,*,,llnnSc2cc,==$&#$$$$$$<<,,2l221,2ce547pf,cnSGmmzytyAittJUrLDGHHHSclf>Bu57222l2,,,,<$&#&&&#.#&<2lllsDHHGSncnSSSnSn2n,@",
"2GSccnc,,=;,llcnnccll1$$#.&<$$$$$<<,22l,,2cnf4%4%3lnSDHH]GSAYYUJJKJm0VD`HGHGDGGDDvu8sccc2222,<$$####$O.$$,2ccccSGDDDSSnccc2ncS2*",
"lHnnccc;;*,2lcnlllll,,1<#O#&&#$<<,,cccl2nnSce4p7-ccSDGH'DGGHZQJKKKENuDGHHHDSSncScck57cl,2222,<$#####&#.&$<22llclnDSSnSccl2lnnS,+",
"2Hnncnc;=*,,ll2,cl2l2<$$##&$&&$&1,22lcccSnnn742-pSSDDDDHSGGHGmrrtySnZDGHGSnDDSSDSnc54lc2lcl2,=&#.######.$$<,fll22SDSnncSS22lcc,+",
",GDScnc,*===2l,cg>;,1<$#O#$$$$$$<<,lnnnclllc76nvbDSGHHHGDG`HFJrttQHHDSHGSSDGSnSDSnn54lc2ll,2<$$....#$$O.##$,,,==,,lclc2cS2,2nc=@",
";SSnnn2*@@@;,=kk;*>,1<$$.&$$$$<,<<,2cclcnnnnf6pcnnnSDGHHGHH~TKtKU)HHHDGGGGDGSSDGSSn67cc2l2,,<$#$$...$#..#&<,,=,,<,2clc2ln,,2cc=O",
"=SSncn;@@@@=,2c;;ff22,<$.$<$<<1<$11,2llcccnn247jnncnSnDSnGVurPPI(RAHDGGGDDSDSnSSSnf6pcl22,,1$$....#.##...#$,<,,2,222cl2cn=,lS,=X",
",SGSnn,,,@@=,n2a,j22ll<$.$1=<$$$$11222lcl2l,2757vclcnSSnDGetrrrTHLLAHSGGGDDGDSSSck74lll22,,<$$$####$##...#&$$=2,1,2,lcccc,2;nc=o",
",DScll2,2@@,2l2ljf2c21$#.$<$<<<$$$<,,2ll2ll22>557-fcnSnbvetrtJJZnf7elSGGDDDSnSSnk754nnccl21<$$######..  .#.#$=21<,222nca;lcnnn,+",
",Dn2,;**:@@;l2llclln2,$$.&1<<$$<<<,,,222llcnSD9p759epsse76qqLeiGGGv9emVnncncclcf7547ccccl,1<<$$$$#&#..  .#.#$===,,2clcSc=cccc2,+",
",Sc2,@:*;:*,2lcSnlc2<,<#.#$<<,12,,,,22l2llnnSc7Sf96707777erLbpbSnnSe9w>fhgpfpfs7689encc2,,1<<$$$#$##..  ..##$<<,,lnllcnc=cc2cc,@",
",S22,@,;@,=22nSnncn2,<$#.$$$<1,2222c22,22cnnSnsnc>907j>%>jwv2-jccnnp0pp779707067p76gcccl,,<<<$$&$$$&.   .$..$=1,22l2llnc;lclcc2+",
",D2c,@;,@;allnSSnl2,,<$#.$,12,ll2,,ll,222cnSSSVcch7wvnj62c72cgjcccnf7cnffp>989egnb7vSnl,,<111<$$$$##..  ....##<,clccc2cc,l2lcc,+",
"2ncnc;;;**h2lnnSnc,22,<$.$,1<=,22,,ccl222nnSGGnkSShvSnn7kcfcnfpccnncpnnnnnvyymVDSSmSSc22,<<,<=$$$#..... .....#$,ll2lcc2c2c;c2l=o",
",Sccng,;,;,,cSncc,2,,<$# #$#&$<,,,l2222lcSSDDDSVGDDGDDn-knknnf>cnncSvSSnnnhuVGGSSSDDvlll,,,1<<<$&#..... .....#,2ll2lc2lcll;ccc=O",
"=Dnlcnc:l2ajncScnll,,1$#.####$$$=1,lcclclcnSDSSVDGDDDDnggSnnccjcnSnnnnSnnkvbSSSSDGGS7ll2,,,,<1<$&#####. .....#<,2nlccclll;2ccc=X",
"@nclllc:cgclnSSnccc22,$#.#$$$<$<,,,222cclnSDDDSbSGHHGGDzsSSSccllclcccnncffSGSDDSSSDc5j2,22l,<<$$$&###&#  .O###$,lcc,c2lc2*22,l=@",
"=SncDDSncclnSDSn2l2l2=+#.#$#$$<1,2222lcccnnSDDDbbSGHHSnbzncnlcflcccnSDnc-SSnDDSSSSSk6f22l22,,,,,<#####. .####$<2cnclnllc2@;,;,=@",
"*SclnDSclllnDSncl2cc,&+#.#$$$#&,2,22,2ccnnnSDSSbmDDScnSSSSclnn7flcnnSlcf7nSDDSSSSncf-lcclll,,,,,<##.O.  .#####=,2ll2lnSn,@,,=,=O",
"=Dn2cnnclclSDDSnl2lc,=&# #####<,,22,llllcccSnnSv0nnnDDDGDSccc24-lccc22l>7SSSSSnnnnlljcccl2222,,<&#.##O. ...##$1,2cccnnS2,@,,;2*X",
"*Gnlcnn,llnDGSSSl2cl,##O.#$$$##$<<1,,,,,lcnncnnj6fSDSSSSnncc22->2l222lnvkSSnnnnnnccccnl2,,,,,1<=$##$,,, ###&$$$<nSnlcc2,c;,2,,@O",
"=HclcSS2clnDDScnnlc,1<##.$$&&&$$<<<<<$$<1,2ccnnl7eSScnSnlcl222,22llc2cccnSncnnnnclncc,,<=$$<<1<<<$&,$#. .##$,,,,cnn,,22cl,*,,,XX",
"@SllncDnl2nnnccnnSc2,1$#.<<$1,2,<$$. . ..#$$12cc>encnnnlcclclcl2llc2llccnnnnnnSSnlc2$$#.    .$<<<<1$..  ###$$<<,ccn,;c2222,;2,XX",
"=DScSnlccllnSnnnccl,,,$#$#$$2c,$$#. .. ..  ..+2,ffccncl2llll2,1<<12lccccccccnccl,<,. .      ..#$<2,,....#$<<$<<22cc,,2,2ncl2lc@X",
"@DSnDSlnnclSSclcnn2,,,,,<#&$2c2<.&.... . ... .  $1,2lccllllllc2,,2clcllllccc2,$...        ....##1ll,##..O$$$$<2c2n2,,,==cSl22l*X",
"@DncclcnnlcSScncnnl,,,,####,222<####. .. .  ..   ##&$<,2,,2,2lc22cc2,,1,1,,$&..       ..#####O..1l2,$. ####$$<,22cj22l2lSDl2l2@X",
"@SnllcncnlnSn2cncl,12,$11<<2ccl1#....O. ........    .#####,,,2clcl2,,,$##..... .. ...#.... .... 1cll1. .###$&=,,,,c2clllcGn2ac*X",
"@c2,lcnc2lnScn2ccc,,,&###.&,lc2,......  ....#.O...   .....<21,cnnc,,2<....     . ......##..O.. .,ll2<#...##$$,l,2l,nlllcnS2c2l*X",
"@c::2,lccnnnnDnncl,<=&#O..$,cnn,.......##..####..O........<11lnnnnl1<1#..   .. . .##.#...##... #2ll21&...#$l,,2,l2Sn2,2lnSl,,:*X",
"@Sl22lnccccScScl2,$=$#...#1lGS2,# ......#####.#. ........#$<1lcnnSc2<$#    ......###.#....    .#<2lc2<..#&,$<,<<,cn2222cnn2;,l=X",
"=a2lclnncl2ncccl2,=$###..$2nnc21$. ....######O##  ........#2,cnncS2<,#.. ...#.OO..###.....    #<12ccl2# .,##$$,2,ccllccccnl;2lXX",
",nllncncc2l2,c2c2=$##..##$2nSc2<$#.... .#.....O .OOO....###22l2,,l21,#.. . .....O###....     .$$$,lnc2$$..#&$&$$,l,2f,,lclc,lc@X",
"=Sclcccnc2,,,ccc2<&##.O$$<cnnl,$$$#.   .........#.O..  .##<2c,###$,l,$...     ..O.#          #$$$,2cc,1##..&#&$<l2,ll22,,,,*cl=O",
"@alccccccl22,cc2,$$&#.#<$,cnnc2,$$##.  ....  ...  .. . ###,2c$$#$$$l,,##.                  .#$$$<lcSSc<$$#.##&&2l,;2=,2*;*;@22XX",
"@gcnnSncc,,,,lcl2=$#.#$1<,lnnnc,$=$$#.    . .     ....##&#,l2$#.###2l2$&#..  . ..          #$<<$,lnDnc1$$&...#,,,,=,=,22,*:,2,@X",
"=SSnnnScllc2ll22,=$..#<<12cnnSn21$$##..... .     ....#$$$=,2<#...##$2,<$$$#.........     ..#$$$=2nSSnl,<<=$..#$<<<<22222222ll2=O",
",DSnncnc2c22,n22<#&..&$$$<,cSSSn2<<$<$####.....$###$11$<&,l$$#....##$,1<,11<&#.##   .....##$$$<,nSnnS2<<1<#..#$$$=<2ll,,lcncnn=X",
",Dnnnnccc222c22,=$#.#<$<11<,nDSnl,=$<$$$,$<<1,,,,222,<<<,c,$$$## .##$,21$$,22,,,$#$<$#$1$$#<,<,cSnncl1121<#..#$<$$=,c22lSSSnnS,@",
"=Sncnnlll2,nl2,,$&#.&$$$=$1,,cnnnc2,<<11,<<1,2lccl22,<$<l,#$$..  .,<,<,l,$<,2,,2,22$#<,1$$<,1,cnncl22lc21$##.#&$$$,ll,ccSSSSnn,O",
"=Scccnll,2cclcc,$$..#$$<$<ll22,cnnn2<12,l2cccccll2l2<=<l2$$&#.   .#$#$$2l$,,,,22cc22cc2,<<,,,cncc,,l,l,$$###..##$12clnSSDDSnnl=O",
"=Sccnncl;a2lcl2$<&..$$&<1,2l,<12ccccllc2nclllllcccl21,22<$###.....#$$$#$,,11,2lcl2,2cl22,22lccl2<<<,22<$###$..##<2cSSDDDSDSnnc=X",
"=SnnnSnc2,,2ll<$$..#&$$1,,,ccl2,,,,,cSnll2cl22lcl22,,<,<$#$$#..O...$$###,,$,lSnl22,,22cl,cnl1<$<<2,<$#######...#2lSGDDGGDSnSnl=X",
"=SSnDDSc2,*2ll2,<$..#$<$<=,22222,,22nSnccll,,,22,l,,<<,$#$$##..&#O..#$$<,l,2lcl22222,lcccnn22,<&<,,1$###.#....#$<2nSSGDDDSSnnl=X",
"=SnnnSDScl;,2cl2,$&..##$1<2,2lc,,,2lcccnSDc,,22,2,,<$,,$$&#...OO#.. .#$1,,c2cn,2cc,,,lcccnl2<<1<<22,<<#&##....&$,lcnDGDSScccnn,@",
"lBHHSccnSS2,::l2<$$#.##<$<,12l,,,,,,2ccnnSnl2222l2,,122$$$.....O#.. .##$$,c12clcc222lncl22,,,,,,,,22<=#&&#..&&$<,22lcnnncc,2lS2=",
",HDnSSnncllnncnc2,1$#.#&=2<2c222,2,,,llnnnSn22,2l2,1,l,<$#.....O#... .##$12,,2l22,,2l,22nnnc2,,1<<,l,<##....$&,ll2l2l2l,22cllS,+",
",DnSGHnncclcncnl,,==+#..<$<22,,,1<,,2lcnSDSn222l222,lc1$$... .........#$=<2l,2lcc2,,,2nnnc2,,,<1,,,2,$##.#.#2,222llcnc2@;;clcS,&",
",GSSSDnnSDSDSSHn2l;=&#..#&<,2,,11,2,lcnSDSDnnllcl221c2&#.  ...###..  ..&<<,2,,2l2,<,2ccll,22,11,,1,,,$.  .#$,<,,,2cccSc*@=lclS2&",
",HSnSSScnSDSSDGGcla,$##,..$2,1<<,1,,,2cnlccccl2,221,l,##. ....$11$    .#$$2c222l2,2,22222,,,,,,,,,122#   #$$2<,,2cnSSSc;@;clcDl+",
",Dnnnnc2lnnSSSDDnnl2=$O#. #,2<<,,1<$<,2lcnlcnc2cll22cl$O...  .&,,&   ...#<lcc22,,<<<,,22,,,,<<<,,<<,,. .&1$<c,22ccSSSDl,*;clcS2+",
",DncccnclcnSSSSSScc2,$$$#..$#.#$$$$$1,,2222ll,,l2,,22l1#... ..$,,$  ...#$2cl2,,,2$=,,,,,1<<$##&$$#.#$ .#&$12l,2nnnSDSc,,@*l2cc;+",
"=DnnnSScnnSSSSSDSnnl2,c<##..  .####$<<,,,2ll,1,,,,22222$..  ..,l2,#...#$lnc2,,,2,<1,22,1<$$#####O.   ##<$<,cnnnccnSSc2-:@;l2lc=@",
"=DnnnnGSnSSnnSSSSSSnnS,$$&#O..#.####$<,2l2,$$#$<112c22c22,,,,,2ll2,,,,,2l22ll2,,,$$12,1<<$$###.#..  O##$12,nDSnnnnncl;;,=;c;,,=O",
"@DDnnnSSSnDSSnSSDSSSnc2,<<#$#...##.##&$,,2<$$$$<<<,2lcl22c2222lll2,,2222222ll,$<<$#$,<$$$##...#. . .##<<,2cSSnccccc2c>*;;,l;;=XX",
"@DScSSSncSSSDnDSDSSSnccl2,$##.  &...#&####$$$$$,,<2ccllll222,,2lll22222llccl22$$<$#######.       ..##1,,,2nnnc,l2l,,2-**=,,,,@XX",
"@SSnnSSnSScnnnnSDSSDDcccl,1$##.....###$$##$1,<=21,lcnncccll2llccll2222lccclcnc,,,$##&####..    . .##<,<,2cnnc2222c2,%**@*,2l2*XX",
"@DSnnnGSDHnncccnnnSSnnnll2,=$####...&<<,2,<<$#<,,2cnnccccc,2cccllccl2,ccl2cnl2,<&&########..  ....#$<=,22ccc2-**:l,;,;*@;lcl2*XX",
";SScnSSSSSSHGcccnnncnncccc,,,$###.   $$<$$$###$$12cncclcn2,lcnc22ccc212clcnccl,$#$....#$##.  .....&$$$,,,lll,-***;,,cc,=;cnl2*XX",
";GnccnSSSSDDHSlccnnclncccn2222$#O.. .$<&#$##O.$$<,2ccl2l2,,2ccl,,lcc2,,222llc2,$#$#...#&#.    . .#$#,lc,2==,*=,:*,2cnn;=;lnll@XX",
"=GnccnnSnnSDDGnlcclcl2,,,,2l2,<$###.##<<$$&&$<$##122,,,,22,,2l2,,ll2,<<,,,,2,,1##$#..##&##. .#.#$#$,l2;*@XX@@*2llclSDS==;lnl;XXX",
"=GcccccncnSSSSn2clcl2**;;,,l22,<<<$21$<2,<##$$#..,2,,$<,<<&12cl,,ll2<&<1,,#,222$#$$$#.#$#.  .#.$##+<=@*@@XXX@*,cnccnSn=;,2cl**XX",
";DnnccllnnSSSSS,cncc;@;;;*2c2lc22,l$$$$$$##$$$$#$lnl,.2c21$2cnc<1lcc2$<lS2.2nnl$##$&###$#. ...$<$$==,=@@@@XX@,2cnSSlcl=2l2c;;;XX",
"=DSccclcncnncnSlcnnSn*,,2;2lc22,21$$$.#$##.#&$$#<cnn,#lnn22lcnn,1cnc22,cn2&2nnc<.$$####$...###&$$<,,,*@*;=X@;,2nSc2c,,2lcl,*,*XX",
"=SnlccllSnnccnccccSSD,clg2clc2,2,,<&#.###..$##$O,cnc,<lnn,2lcnn,,cnclc,cn2,2cc2$.$$&$###. ####$,2,2,**@@,<@X=llcnncl*;22c2@*;;XX",
"@ncclc2lcnncccnclccSSnSSnnSnn;;2222,$##.###<$&=#<2cl<12nc222cnnl2nccll2cc21,lc2$#<&&#... .###$,2,,,;@@=@**=X*,llcnSc*,,22l@;,,XX",
"@Sc,cnnlcncllcl2lcnnnDGHDGSDS;,:,,,,$$#...#&###.$2cl<<2nl222ccnl2ccl2222c,<<2c2$ #O#.....O##<,2,,,:;*=@@@@@@@;,2cnnn,=22l,=;22XX",
"@c2lccccnnc2,2l,2cnSnDDGSGSSSc22,,,,<&#...###.#.#2c2$$<2,<,,2ll,,ll2,,$1,=&<ll,. ##.....$#$lcccll2;*@@=@@*@@*;,2cnnll=;2l,,2cl@X",
";Dnl,ccccc2=*==@,2nnSSSDSnnnSnnnccl,=$#...O... ..<221$$$<<$$1,,$$,,1$$<<#$$,ll<...  .##$.#<$cc,2l22;=,-@@@=*;;:,lc2ll=,2,,lllc;@",
";Gl2,cSnnc,XXX+@,;cnSDDGSDSScnSSSnc2<&#.#<#    #$$,21,,$,21$2l,##,l2$<2,$,,,l2<<#...$,$#.##$$$,2cnn22l,;*@*;;2,;222cc,:ll2ccnc*@",
"*Snl2cnnc*@XXXX@,;2SSSDDSSSSnnnSnSn2=###$$#.   .<<=,,22$,l<$2c<  <c2$<l2$2l,,<1,1&...#,$2lc2,,,2cSSllf2,,+*==ll22,2;2,lllclcll@X",
"*Snccnnc,XXXX@X+,,lcnSnSSSSnnSnnSSnc2$#<$&##.. #$&$$1,,,22,,22,,,22,,,22,,2,$$$<$.$#.$2,#$$==,2nnSScccc,22=*;2cllacccccc22ccc,XX",
"*cclclcn,X@*@;@==;222cnSSSncnSSSSSSnl,$#&$$##O.#$$##=<,,2l,1,,l2l2,,12l211,<$#$<$###.$$.#$$==,cnDnSScnnllc2;=2lcnlnlcnc222lnnl*@",
";n2lllcc2=@,;;==;,22,nnSnnSnSSSSDDSnc2,#$<$&$#.#$<##<,,,,,,1<,,,,2,2,cl1<,,<$<1$##&#.##..#$<,lnnSDSccnnccc2,,2cnnlnlllc2222ccc=@",
"lH2ccnccl,,:;,=,ll22,ncSSSnnnSSDDDDSn21$$$$#<$&#$$+#$<,1,,,<<,,222,112l,,,,,=#$$#.#..##O.&=<,lSSSDDScnnnncl2,clcc2l:2,22l,lncDc2",
"cBnccncnc2ll:nccnSl,,cnSSDSnnnSSDGDSnl,==1&&$<$#&$$$$<,2,,,<<,,,,,,,2l2,,,$$$$$#.$$..&$#.$$,2cnnSSSclnccclc2ll2lc22,2;:2cllccS,,",
"lBDnnnnnnccnlnnnSSc,,lnSSnnnncnSDGSnl2,#$$$$&$###&$<<<1,,,,=<1,,111<1,<<1<<<,$#.&$.O#1,##$1,2cnnnncl2cncllccllclccccl2lllncncn,=",
",GDnnSnnnnnn2clnnnl,,,clcnccncnSnc2:,,=$$,,$$1&#O&<111,222,11,,,,,,22,,,,1<<<$&##&O$#$$##<,22lcncc,,2llccccnl22lnnnnScnnnnSScn,=",
",Hnlcnnnnncc,=,lcnc,;,2ccnnnnccccll2;,=+&,,<$=&##$$<<,2l222l222222lcl,ll22,1<$$.##<=#,<&$=,22lllcl2,22cnnncll2,llnnSnDnSSSSGSD,+",
",G:lnccccl22==,lcHD2,222nSSnnc2cclcl,,*@@2,<<$&#&$,,,222222ccnnccSDScncl2c22,,1#&&$$<,$$<2llcll2,22,lccnnSnSccllllcnSDcnnnSGSG,=",
",Gccccll,lc,;;,2nSGnc2,,nSSSSclnc2cc2,,@$,2,=$$$$,2,,,,,22lllcncnSnccnncnc2222,$###$,,=1cSncccll222,lcnnSDDnncccllcnncnSccnSDS2=",
",H2ccl2,ll2;*,,,lncSS,,;lSSSSnnnnnc22,=@$$<1,,,,,,,22,222,22nclcnnncSncnncl22,,11$,2,1,lnSScccclcl2,,lcnnSSSSclcl2lnDSSSlcnnSn2=",
",Glccn,,22,=;22,2lcSc,,;,nSSSnnSSSScl=@*=@=,1,,,,,,2lccccllSncncnccnSnSncl2,,,<<<,c,,,22nSnccclccc,**2lcnccnnncccl2cnSnnllnnSS2=",
",Glccc=;22,,,2,,lllS2;,;=lnSSnnnSSSSn;@@@X,,2,l222,2l22llcnnclcnccnccccl2222,,<1<1,,2llcnSDSDSclncl*@;,2lccccc2ll2,llccccnnnnS,+",
",Gnccn;,ccnccc2lncnS,,,,=@lcnnSnncnSc,;XXX@X$+$$=$$,,,2lcnSnncc2lc22ccccl22,<<,<=<=,lcnncSSSnSncccc2;,;,2lllc2;;l2,llclcnccncc=+",
",GSccn,2nSnclnnnncnS2,2,=X*@2cncn2clll,@XX@@X@==$=$$$=,llccccl22222cncccl2,<$<$$,,,2cnDncnncnnnnccl;,22,,,22,,%;s2,ll2ccnnccnS,X",
",GDnSc2lccccDSnncccnc,,,@XXX@,2*,,22cng:@**;@+,,,<$$$$=,,,l22<=$$<1,,22,,<$$$$$$<12lcnnnccclccclll;**,2l222,,%->salc2lcnnnSnnn,@",
",DcnDSclcSGSSnnncccSnl22,=@XX@=@,,2lcSnc,,22=,22222,,11,,$==@#######$$&$$$=<$=1,,,2lclcnncnncccla,,*@;*;,,,a2;*add2c2cccnSccnl=+",
";n:cSnnSSSDSDnnDcncnnl22,22@XX@=,,lnc:l22,,,,2lcclll222l221=@####.#&$$++=$==,,,2clllnnncnnccnncl2,,,;*;*,,22ll2lzmh2lcncnncnnn=@",
"=n:llncSnSDSDSnSccnnccccccc,@;=,22nnlnc,s2,=;2ccnnnccnnnccc2,=$#$$&=====,==,,2lllcnSSSDncSncnccl2222;@*;;;2,lnlccvl,lllcccnnnn,=",
"=D:2cncnnnDSDSnSncnSncnnnncc,2,22nSlcck;as:%%*2nnnSSnSSnccnnl,==$$$=*@@@,,,;2ccnnSSDDDGGSccnclcSSc2l2-*;;;:,lnccchcc,cnnccnncn=X",
",Gl,lcnnnnSSDSnSncccccnncSDSllcnccncnl>%---@@@*lSSnnnSSSSnnnn2,,1=@*=@@=,*,22lnnSSGDDGGHDncnDGSnnn2cl2,,,,f,lScnnSSccnnScnnlc2=X",
",GDc2lccnnnSDSSDnnn2nlcnnnSSnllclnnnc,---;-@X@@*nSnnnSSnSnSnl2;,,;@;;=*,,=,llcnnDGDDDDSncllccSnnncnncllllcl2cScccclnccnScnll2c*X",
",HDDcl2cccnnSSDGnnS2clnnnnnS2ll2lcll2;%%*;;*-:@*cSSnSSnncnnnl,@;,=*;,*=,*,lcccSDDDDDDGnl2lnSccnclnSSDSDScSnncGGSnnSncnc;2,lnc2=O",
"=GncnDn22cnSnSSSnS2lc2lcSSccl2cc,c22,*@%,,l,,2a,lSSnnnncnSSnl=;===*;,;,,,lccnSSSSDDDDnc,2cncncll2cnnDGHHDSSccDDGDSnnccSnGHScl,=X",
"=SSnScnclcncnnSnnl2ln,2lcnncc,as:,2,,*%*2lcccln,cnSnGDDnlnSnl,2@=;;,2,,lcnnnncnnnDDDScl,lncclnnllnnSSDGGGHGScnnnSDSccn2ccnSGGS=O",
",HDSGDGGnSncnnSSc2lcDDcc2cnl2*->>;;22;*,cnnnnSD2cSSSSDSSnnccllc,,2,,,222nnnnnSnnSSSSna,,,lcnnnllcnnSDGDGDGHSc2lcnSDScnlnccclnD2@",
"o==,,,,,,,2l2,,c2,,,2@@=@==XXXXXXXXX@@@@====,,,,,,,,,,,;,;==@X@==@@@=@@=,==;+==;=,,==@OXXOXX==,==,,222ccclnc,;=@@@=+======;;=,@@",
"XXXo@@+@@@++=+++=+@@=XXX+++XXXXXXXXXX@XXO@+++++++++++++@@@X@XXXX@XXX@XXXXO@OXXXXX@OXXXXXXXXX@#oX&@&+==,=&+=@@++XX@OOo+++@+XOXXXX"
};
