/* XPM */
static const char *wall51_3[] = {
/* columns rows colors chars-per-pixel */
"128 128 243 2 ",
"   c #040303",
".  c #0A0604",
"X  c #0B0907",
"o  c #070808",
"O  c #0C0B0A",
"+  c #130303",
"@  c #1B0605",
"#  c #150E07",
"$  c #190E07",
"%  c #130D09",
"&  c #1B0E08",
"*  c #0F1507",
"=  c #0F110C",
"-  c #151206",
";  c #191007",
":  c #151B07",
">  c #13120C",
",  c #1B1309",
"<  c #1E190C",
"1  c #0F1010",
"2  c #141413",
"3  c #1A1612",
"4  c #161812",
"5  c #1B1B14",
"6  c #1B1B1B",
"7  c #250707",
"8  c #230C06",
"9  c #290D07",
"0  c #2B0F09",
"q  c #350402",
"w  c #3B0503",
"e  c #3D0804",
"r  c #300F0A",
"t  c #201007",
"y  c #23150A",
"u  c #2A1509",
"i  c #221A0D",
"p  c #2C1A0B",
"a  c #331307",
"s  c #341409",
"d  c #3A150B",
"f  c #321C0D",
"g  c #3C1A0F",
"h  c #221E11",
"j  c #2D1E11",
"k  c #211E1A",
"l  c #321F10",
"z  c #3D1C11",
"x  c #15200B",
"c  c #1D230C",
"v  c #1F211A",
"b  c #23240E",
"n  c #29210F",
"m  c #232A0F",
"M  c #35210F",
"N  c #252112",
"B  c #2C2511",
"V  c #262C12",
"C  c #2D2A14",
"Z  c #22241D",
"A  c #2B241B",
"S  c #252B1A",
"D  c #2A2E19",
"F  c #342312",
"G  c #3A2514",
"H  c #322C15",
"J  c #3B2B16",
"K  c #372719",
"L  c #342D18",
"P  c #3D2B1A",
"I  c #293016",
"U  c #2E351D",
"Y  c #2F381F",
"T  c #32341C",
"R  c #3C331C",
"E  c #30381F",
"W  c #232322",
"Q  c #292A27",
"!  c #2B2C25",
"~  c #3E2F22",
"^  c #2F3521",
"/  c #2F3820",
"(  c #2F3129",
")  c #313620",
"_  c #343C24",
"`  c #393D25",
"'  c #383A28",
"]  c #3B3F28",
"[  c #383836",
"{  c #430201",
"}  c #4C0404",
"|  c #430906",
" . c #4B0907",
".. c #440C08",
"X. c #4A0D09",
"o. c #530606",
"O. c #5B0606",
"+. c #520807",
"@. c #540B0A",
"#. c #5B0B0A",
"$. c #43170D",
"%. c #4D120C",
"&. c #53120C",
"*. c #58140E",
"=. c #431C11",
"-. c #5B1512",
";. c #680505",
":. c #640D0D",
">. c #6A0E0E",
",. c #780A0A",
"<. c #69100F",
"1. c #641513",
"2. c #6C1111",
"3. c #631B14",
"4. c #691B18",
"5. c #731414",
"6. c #781717",
"7. c #741A19",
"8. c #7C1B1A",
"9. c #442215",
"0. c #432C16",
"q. c #4D2A16",
"w. c #4B2618",
"e. c #422D1B",
"r. c #532C1A",
"t. c #43321C",
"y. c #43351C",
"u. c #4B351C",
"i. c #4E391D",
"p. c #57351D",
"a. c #543A1E",
"s. c #6C221A",
"d. c #692E1C",
"f. c #443421",
"g. c #4A3523",
"h. c #443A24",
"j. c #4C3A24",
"k. c #463B28",
"l. c #4C3C2A",
"z. c #533C23",
"x. c #5B3D21",
"c. c #523D2C",
"v. c #5C3A2C",
"b. c #573F30",
"n. c #772822",
"m. c #673C23",
"M. c #733F26",
"N. c #374027",
"B. c #394027",
"V. c #3C442A",
"C. c #3F472B",
"Z. c #404227",
"A. c #42462C",
"S. c #4D422D",
"D. c #41492D",
"F. c #42492E",
"G. c #48492F",
"H. c #5D4223",
"J. c #56432A",
"K. c #464D32",
"L. c #464E32",
"P. c #454834",
"I. c #494F33",
"U. c #544331",
"Y. c #534C35",
"T. c #5A4A36",
"R. c #5C4B35",
"E. c #475033",
"W. c #4A5135",
"Q. c #4E5438",
"!. c #51563A",
"~. c #52563A",
"^. c #59533A",
"/. c #54593D",
"(. c #634424",
"). c #694626",
"_. c #684729",
"`. c #6E4A29",
"'. c #734C2A",
"]. c #784A2A",
"[. c #7C512E",
"{. c #624C36",
"}. c #65523D",
"|. c #6B563E",
" X c #735738",
".X c #484947",
"XX c #4F5149",
"oX c #565D41",
"OX c #575A45",
"+X c #595E42",
"@X c #565755",
"#X c #675942",
"$X c #6B5B44",
"%X c #735A43",
"&X c #5A6246",
"*X c #5D6449",
"=X c #62664A",
"-X c #66654B",
";X c #656A4E",
":X c #75634C",
">X c #666A52",
",X c #696D51",
"<X c #756C53",
"1X c #6D7256",
"2X c #6F7458",
"3X c #727559",
"4X c #77755A",
"5X c #75795D",
"6X c #686866",
"7X c #797D61",
"8X c #73746A",
"9X c #777775",
"0X c #850202",
"qX c #980402",
"wX c #861212",
"eX c #821D1D",
"rX c #961817",
"tX c #A90605",
"yX c #B60505",
"uX c #852121",
"iX c #8B2424",
"pX c #8B2928",
"aX c #982323",
"sX c #962A2A",
"dX c #8E332F",
"fX c #C40101",
"gX c #825531",
"hX c #8C5333",
"jX c #895A34",
"kX c #83613F",
"lX c #98633A",
"zX c #A3693F",
"xX c #85755B",
"cX c #A76C42",
"vX c #B37448",
"bX c #867C62",
"nX c #927C66",
"mX c #7F807E",
"MX c #93836A",
"NX c #96836A",
"BX c #96896F",
"VX c #A28E76",
"CX c #C88255",
/* pixels */
"i i i i i i i i i i i i i i i i i i i i i i i i i i i i i i i i i i i i i i i i i i i i i i i i i i i i i i i i i i i i i i i i i i i i i i i i i i i i i i i i i i i i i i i i i i i i i i i i i i i i i i i i i i i i i i i i i i i i i i i i i i i i i i , , ",
"U _ K.~.oX/.W.F.V.V.V.F.I.Q.Q.Q.~.I.V.V.I.~.Q.Q.K.K.K.K.K.K.K.K.K.K.K.K.Q.Q.Q.Q.K.K.K.F.V._ _ _ _ ) U U ) _ ) ) _ _ _ ) ) U U U U ) V.V.V.V.V.V.` V.F.F.V._ _ B.V.V.V.F.I.I.F.V.V.V.V.V.F.F.V.V._ _ V.V.F.K.K.F.V.F.I.Q.K.F.V.V.F.K.K.K.K.K.K.F.V.V.V.N.) S < # ",
"U _ F.K.F.F.V.V.V.V.V.F.K.K.K.K.K.K.K.K.K.K.F.V.V.V.V.V.V.V.V.V.V.V.V.V.F.F.F.V.V.N._ _ ) U U U V V V V U ) / U / / / ) _ _ _ V.V.F.Q.~.~.~.~.~.~.~.~.Q.W.W.Q.Q.W.K.K.K.F.F.K.K.K.K.F.V.V.V.V.V.) ) _ V.V.V.V.V.V.F.K.K.V.` _ V.V.F.K.K.K.K.K.K.F.V._ U C i , # ",
"_ V.K.K.V._ _ V.V.V.V._ ` V.V.F.V.V.V.V.V.V._ _ ) ) _ _ ) ) _ V.V.V.F.F.F.V.V._ _ _ ) T L C V V C L T ) _ _ ) ) ) ) _ V.V.V.V.F.K.W.~.~.~.~.~./.+X+X/.~.~.Q.W.W.Q.Q.W.K.F.F.K.K.K.K.F.V.V._ N._ _ _ ) ) _ _ ) ) _ _ ) ) _ _ _ _ _ N.V.V.V.V.V.V.V.V.V._ _ U < # ",
"V.V.F.V.V._ _ _ V.V._ _ _ V.V.V.V.` _ _ _ _ _ _ _ _ ) / / ) / _ F.W.~.Q.W.K.V._ ) ) ) U ) T L L T ) V.V.V.F.I.Q.Q.I.K.K.K.K.W.Q.Q.Q.Q.Q.Q.~.oX/.W.K.K.K.F.V.V.F.K.W.E.W.Q.Q.G.F.K.I.K.K.F.V.V.V.V._ ) U U ) _ _ _ _ _ _ ` _ ) U C C U ) _ N.V.V.V._ _ N.N.U < # ",
"_ V.F.K.F.V.V.V.V.V.V._ ) ) V.B.T H B B n C _ V.V.N.) ) _ _ _ V.F.W.~.~.W.K.V.V.V.V.V.V.V.F.A.V.V.V.V.F.K.V.! 2 o   O 2 > = > > > > = > > O X   o 4 S ) _ V.V.V.V.K.Q.~.W.W.~.~./.~.W.K.F.V.V._ _ N.V._ ) ) _ N._ V.V.V.V.V.V._ T L T U Y Y E ) _ _ N._ ) D < # ",
"B C _ V.V._ ) ) _ _ ) U C H J J F n i , , h D T T U T ) _ V.V.V.V.F.K.K.K.K.I.Q.Q.Q.Q.Q.Q.Q.Q.Q./.oXoXW.! 2 O     2 W Q W W 6 6 6 6 2 2 2 2 o   o o 2 v ] K.Q.W.K.K.W.~.oXoXoX+X*X&X~.Q.I.K.F.V.V.F.K.K.K.K.V.V.V.F.K.K.V.V.N._ ) U L L T U U ) _ V.V.V._ D < # ",
"U ) _ V.V.V.V.V.V.Z.y.R T U U D h , , , , i B H B B J R T U U _ V.V.V.^ 6 > o   o O O O O O > > = > 2 O       o 2 6 Q Q W W W W 6 2     O 2 O O 2 2 o   O > > O O o O O O O O O o o 2 ! V.K.I.W.W.W.E.W.~.~.~.~.~.~.~.Q.W.K.V.) C n i i B L U ) _ _ ) ) ) D < # ",
"U ) V.V.V.V.V.F.K.F._ ) _ _ C n , ; ; ; , < y i n B H H V m m I ) ^ 6 O         > 2 o   o O 2 2 o O 6 6 o o 6 W 2 o o     O W Q W 2       o 2 6 2 2 2 2 6 6 2 O o     o 1 O     o o   o 2 ! W.&X&X+X/./.oXoX/.Q.W.W.Q.Q.W.V.T n i < , < i N D U U U U _ V._ i # ",
"U _ F.K.F.Z.h.h.Z.V.V._ ) ) _ _ C n i < < i i y , i n n i i B B >           2 v D S > O 1 O                 2 6 2 o     O 1 O o o O 2 6 2 O     o o o O 2 2           o o 4 D ^ Z 2 o       o Z P.~.Q.K.F.V.V.` V._ ) ) _ ` _ T N , , i p n m m B C _ _ _ U < # ",
"U ) V.F.l.l.A.V.V._ ` ` R h.I.Q.G.` I V U U C n i , , < i i n i X   o o       o O o                         O 2 2 O                 O 2 2 O         1 2 6 2 o         o 1 2 2 2 O o           4 I.oXK.V.N._ T L T ) / T L L T U V n < < < i i N D U ) U N , ; # ",
"_ _ _ V.Q.~.W.A.h.h.G.K.F.K./.oXQ.A.R R ` ` R H i , , N D U C i . o 6 6 o           O O                       o 6 6 o                       o o O 2 W W O             o 2 2 O o o     O W W o 4 I.&XW.B.R J F C U U T U C n i i < < < i b V C B , < D U C i , # ",
"U ) V.F.K.K.F.F.K.Q.oX/.K.V.V.V.V.V.N.B.V.V._ U C B H T _ N.N.U > = 6 6 O o 6 W 6 2 2 2 6 6 6 2         2 2 O o 2 6 2 2 2 2 o       O 2 2 2 6 W ( ( ( ( ( W O       o 2 6 6 6 6 W 6 O o 5 6 2 ! +X,X+XW.V.` R J L L L C i i y , , < b V U U V m C H B B m b < # ",
"E ) _ V.V.V.V.V.Q.Q.K.V.V.V.K.K.F.V.) ) N.V.V.N._ ) _ N.V.V.V.N.) ) N.P..X.XXXXX.X.X[ [ [ .XXX[ 2     O W .X@XXX6                   o O , h Q .X6X9X8X6X8X@XW     2 [ @X6X6X6X@X@X@XXXXXW.K.I.Q.+X*X&XoX/.~.~.Q.G.N.) T R J B n < c U U Y T L H B n B B n i , # ",
"V.V.V.V.V.V.K.W.~.I.` ) _ V.K.K.F.B.T L T ) _ V.F.K.F.F.F.F.F.V.V.F.K.Q.oX&X&XoXI.V.V.V.F.K.Q.P.! 2   O S P.@XXX[ W 6 2 o             O 6 Q [ .X8X9X>X&XoXA.5   o A #XnXVXBX4X=X+X~.Q./.;X3X5X4X:X|.~.Q.~.~./.~.W.K.V._ _ _ T U F F T U U U U U B C U D < # # # ",
") ) _ V.K.W.Q.~.W.F._ / _ V.K.W.~.Q.V._ ) ) _ _ N.F.Q.~.W.K.E.K.V.V.W.~.W.W.W.K.F.F.K.W.Q.~.W.K._ S X   2 ! Q.;X6X8X9XmX9X8X6X@XXX@X6X6X6X6X6X>XOX~.Q.K._ S > o O ! OX4XnXnXxX<XxXxX<X,X>X<XxXnXNXMXbX1X&X/.+XoXW.K.K.F._ U C n i i n B B n i i n n V b < # # # ",
"_ _ V.F.Q.~.W.W.~.I.` U U _ F.W.~.~.W.K.F.V.V.V.K.W.~.~.~.~.~.Q.W.K.K.K.K.K.K.K.K.K.K.K.K.K.K.K.F./ =     5 I.&XoX/././././././.~.oX&X*X*X*X*X*X&XoXQ.V.! 2 o O 6 [ OX,X1X4XxXbXbX5X1X;X;X,X,X1X5X5X1X=X/.Q.W.K.F.V.V.B.R J F n i , i i n n i i n B V m c < - # ",
"B C _ V.K.Q.oX+X/.Q.F.V.V.F.Q./.&X+X/.~.~./.&X&X&X&X&X&X/.Q.K.F.K.K.K.K.K.K.F.V.V.F.K.W.K.K.K.K.E.` 4     = ) K.Q.~.W.W.~./././.&X&X&X&X*X&X&X&X*X&X/.P.Z O   = / K.oX*X*X=X;X,X1X1X,X;X;X,X5X5X1X=X+XQ.G.F.K.A.y.J L L T T L B i i n n n n m V U U U U U D < # ",
"U ) V.V.V.F.K.K.W.F._ ` I./.+X&X/.Q.K.K.oX,XbXnXbX3X;X*X=X&XQ.K.F.F.K.K.F.V.V.V.V.V.Q.~.W.K.F.F.K.] 5     X S ` W.~.~./.+X&X&X&X&X*X;X;X;X;X*X*X;X=X+XA.4     4 ` W.~.+X=X;X*X=X,X,X=X&X&X*X*X&XQ.W.E.K.V._ ) T L H B B H H H H H H B n n n m V U U U Y Y D < # ",
"_ V.K.K.F.V.V._ V.V.V.F.K.K.W.W.~./.+X&X;X;X,X4XMXbX-X~.~./.+X/.K.F.K.K.K.K.F.V.V.F.K.K.K.K.F.F.K.V.Z O     O Z P.~././.&X&X*X*X&X&X/./././.&X&XoX~.W.` 4   o 6 F./.&X&X*X*X&X&X*X*X&X&X&X+X/.~.~.Q.G.V.) ) N.N.) T T D N i B L H H H H B B V V V V U U V c < # ",
"U _ F.K.V._ ) ) _ V.V.F.F.F.K.Q.oX+XR.{.-X1X>X,XxX<X#X~.~.~.W.K.F.V.V.V.V.F.K.K.F.V.V.V.V.F.F.F.K.V.U < X     4 ` Q.oX&X&X*X=X=X/./.oX+X/.~.~./.&X/.V.S = o O Z P./.&X&X&X&X&X&X&X&X/.~.W.K.F.V.V.V.V.V.V._ _ V.V.V.V.V.) U T T T ) _ _ ) U U U U U Y D < # # # ",
"< N ) V.V.V.V._ ) ) V.F.Q.~.~.~.~.~.~./.+X&X/./././.~.~.W.K.F.V.V.V.V.V.V.V.V.V._ _ _ V.V.F.K.K.K.F._ S >     > D V.Q.+X&X/.K.V.K.W.E.W.~.~.~.~.W.V.Z O     2 W V.W.~.~.~.~.~.~.~.Q.K.V.V.V.A.N.) U ) ) _ _ _ V.K.K.K.K.K.K.V.V.V.N.N.N._ _ ) U U U D b < # # # ",
"U ) _ V.V.V.V._ _ _ _ V.V.F.K.K.F.F.K.W.W.W.~.~./.~.~.~.W.K.F.V.V.V.V.F.K.K.V.N._ _ _ V.V.F.K.K.F.V.V.D O             O 6 ( V.K.W.W.W.E.W.K.V._ _ U >         o 2 W _ F.K.K.F.V.V.V.V.V.V.B.R R T ) _ _ _ _ N.V.K.E.K.K.V._ _ V.V.V.V.V.V._ ) U Y U C i , # # # ",
"_ N.V.V.V.V.V._ ) U U ) N.V.V.V.V.F.K.W.Q.~.~./.+X&X/.~.W.K.F.V.V.V.V.V.V.V.V.V.V._ _ _ _ V.V.V.V.N._ S >                 > _ W.oX&X/.Q.F.) 5 ; ; %       . # # X X 2 v _ F.F.V.V.V.V._ ) ) _ _ ) U U ) _ V.V.F.K.K.F.V._ / / ) ) ) _ N.N._ ) U U E T D h , ; # ",
"U ) _ N.N.N._ _ ) U V V U _ V.V.N.V.F.K.K.K.K.W.Q.~.~.Q.W.K.K.K.K.K.V._ _ V.K.K.K.K.V.V.N.V._ ) F f p u , $ $ #             o 6 V.~.~.Q.F.) >   o O % 0 @.2.2.>.} q + > U V.K.W.Q.~.~.W.V._ ) U V V U ) _ V.V.V.V.V.V.V.V._ ) ) _ _ ) ) U ) Y Y U U Y U N , ; # ",
"U ) _ _ _ _ _ _ ) U V V U ) _ _ ) ) _ V.F.K.K.F.V.V.V.F.Q.Q.W.K.K.K.F.V.V.F.K.K.K.K.K.K.F.B.R 9.%.e @ 7 #.5.5.@.@     X ; ; .     5 ] K.V.U >   o t &.2.>.2.6.6.>.} @ o 1 v _ V.N.V.F.K.F.N.) U V C ) V.V.F.K.F.V._ V.V.V.V.V._ _ _ ) U U / _ _ / U U U C i , # ",
"U ) _ _ ) U V V V V m m m b < < b m c : < < D U U U U U T _ N.F.F.F.V.N.) ) _ _ _ _ _ N.V.f.%.| 8 9 | ;.tXtX,.e +   X ; u u , % o > U _ I c X   o % u d | } :.<.>.@.0 X   o < i < < b I U D h i b V U ) _ _ ) D N h D ) _ _ _ _ _ ) N , ; < b b < < D ) _ U < # ",
"i i i i i i i i i i i i i i i i i i i i i i i i i i i i i i i i i i i i i i i i i i i i F g | q + @ *.2.o.o.:.@.0 % X X # ; ; % X O , i , %     % 0 @.:.:. .0 $ , % X     O < i i , < < < < i i < < < i i i i i i i i i i i i i i i i i i i i i < < < < i i < , ",
"U U U U U U U ) _ _ ) U U ) N.V.V.V.V.F.K.K.F.V.` _ _ _ ) D h , ; < D ) N.V.N._ ) U C n i u w q & 8 q { } | 9 $ % %   . y u y i D U U T L B , ; y $.4.6.>.@.0 ; , ;   o : V B B B n , ; ; i B C i , < < D _ V.V.N._ ) U U U U U U ) _ _ _ _ ] ) I c : : , < , i ",
"V.F.K.K.F.V.V.F.K.K.K.K.K.K.K.K.K.W.Q.~.~.~.~.Q.W.W.Q.~.~.A.C , ; h ` K.F.F.K.K.K.K.F.N.) D i ; $ # .   X X X X X o     X X % h ] K.F.N.) D < # & 9 e } { w 8 ; , ;   X S _ F.K.F.N.) U U ) N.V.V.V.F.K.K.W.Q.Q.W.K.F.V.V.V.V.V.F.W.Q.~.~.~.~.I._ / ) _ _ _ ) U ",
"~.~.~.Q.W.K.K.W.Q.Q.F.V.V.F.K.K.K.K.V.V.K.W.W.K.I.W.~././.A.A i B T B.V.V.N.V.V.V.V.K.K.V._ _ P %.| @ + q q 9 $ X o           5 F.W.N.U V b < 9 | +.#. .0 & & # X     o 6 ( V.K.F.V.) U U U T _ N.F.K.K.K.K.W.W.K.K.K.K.F.F.K.K.K.W.~.~.W.K.F.V.V._ _ _ _ N._ _ ",
"&X&X/.~.~.~.~.Q.W.K.K.K.F.V.F.F.V.V.V.F.Q.~.W.W.Q.Q.W.W.~.A.A i D ) V.V.V._ _ V.V.F.K.K.F.Z.h.P y & # # & d 7.8.@.q +       # B V.K._ U C n i y u $.1.1.} { } | @       O v _ A.A.V.N._ ) U L L T _ V.F.K.W.~.~.W.K.K.K.K.K.K.K.K.W.~.~.~.~.W.K.V.N.V.V.V.V.V.V.",
"/./.&X&X/.~.W.K.F.F.K.K.F.F.K.K.F.F.K.W.~.Q.W.K.K.K.F.F.K.V.h ; i L ` V.V._ _ _ _ V.V.K.Q.Y.g.G y # & s 4.rXyXtX&.y .     7 1.n.R.I.h.R ` ) Z 2 X X % 8 w +.:.*.r %     o 4 S T R R ` ) I m m V C R I.~./.~././.~.~.~.~.~.Q.W.W.~.~.W.W.~.~.W.F._ ) _ V._ V.V.V.",
";X;X*X&X/.~.~.~.~.Q.W.K.E.K.K.W.Q.Q.W.K.K.K.F.F.K.K.K.K.W.] h ; i C _ _ ) ) _ _ _ V.K.W.~.S.$.q & s 4.7.@.;.qXqX..; O     q 0XrX_.Q.k.f.) U N ;     % 0 @.5.8.8.5.@.@ o 2 5 < i n n B n m m m m n T K./.&X&X&X&X&X&X&XoXQ.W.Q.~.~.Q.W.W.~.~.W.K.F.V.V.V.N._ _ N.",
"&X&X&X&X/.Q.F.A.V.G.Q./.+XoXQ.K.F.V.V.V.V.V.V.V.V.V.V.F.K.] h # , N ) _ ) ) _ V.V.K.Q.~.U.~ , o % 8 w #.8.eX5.#.d u , # X X $ B A.W.` T T U Z 2   + w @.>.6.uX8.#.q .   ; i n n i i b m n i , i _ G.Q./.&X*X;X;X*X*X&XoXK.V.V.V.V.V.V.F.K.K.F.V.V.V.V._ ) ) _ _ ",
"&X&X&X&X/.Q.F.V.N.V.K.K.E.W.~.Q.V._ _ N.V.V.V.V.V._ _ V.V._ h # # < ) _ ) U ) N.I./.=X=XT.~ 3     + q ;.tXtX;.e s s e q 8 % X 4 ) B.T H L H Z 6 o   % 9  .>.eX8.:.e +   % , i B H B i i i i i C ` G.Q./.&X&X*X*X;X=X+XQ.F._ ) ) _ V.V.F.A.A.V.V.V.V.V._ ) ) _ V.",
"&X&X/.Q.G.N.) ) _ V.V.F.K.K.K.F._ T R y.` V.V.V.V.N._ V.V._ h # # N V.K.V.V.V.F.K.Q.oX&X/.A.N X   @ -.eXeX4.$.$.3.1.s & # % . % n L H L T D < % X     X # a -.>.+.q +   o > i C T T L H B B H J f.k.Y./.&X&X&X*X;X;X*X&X&XoX/.~.~.Q.W.G.S.k.A.F.K.K.K.K.V.V.K.K.",
"&X&X&X~.` C V V J R ` V.V.V._ T L L _ N.V.F.Q.Q.W.K.V.V.V._ h ; c I V.K.V.N.N.V.W./.&XoXQ.V.h X   7 4.7.d 0 @.7.pXsXuX-.@ + w e $ > B L V b < % X   o X X X X % u y %     O S _ V.B.T T _ _ ` V.G.W.~./.&X&X&X*X;X;X*X&X/.~.W.W.W.W.~.~.~.~.~.~.~.~.~.Q.G.F.K.E.",
"*X&XoXW.` U B C ) _ ) ) _ _ T C V V C T _ V.V.F.K.K.F.V.V.) < # # N F.Q.F.F.K.K.I.Q.~.~.K.) >     + q } } :.8.uX8.8.uX4.7   % # X > U _ ) D < % X X # & $ $ & , u u , < n L ` V.V.F.K.K.K.W.Q.~.~.~.~./.&X&X&X&X&X&X&X&X&X&X&X&X&X&X&X&X&X&X&X+X/.~.~.~.W.K.K.K.",
"&X*X&X~.k.R T U U T L H B n i i n B H L T ) _ _ _ ` R R Z._ h & , N _ F.V.F.K.W.Q./.&X/.V.S >     X # d 7.iXsXuXw.K 0.F %   X # # < U V.V._ h # # 0 @.2.2.1.#.X.d u , # # h _ F.K.W.~.~.~.~.~.~.~.~.~.~.~./.+X&X&X&X&X&X&X&X&X&X&X&X&X&X&X&X/.~.W.W.~.~.W.K.K.K.",
"&X&X/.Y.k.R D V C H B i , ; , b D U U U U U V b i i B R F.V.h ; i C _ V.K.W.W.K.K.Q.oXQ.! 2 X     + e ,.tXfXfXyXaXn.g # X       % < U V.Q.A.A ; - 0 @.2.5.5.>.>.>.@.0 % # h _ K.Q.~.~.~.~.~.~.~.~.~.W.K.K.W.W.W.~./.~.~.W.K.K.W.Q./.+X&X&X+X/.~.~.Q.W.W.Q.Q.W.K.",
"/./.~.I.` U B i , ; , < < c b m n B B n i < < < , , , A ` _ i , S _ F.Q.*X=X+X~.W.W.W.V.h # # X   7 4.rXyXfXfXfXyXtX;.| 9 % .     > ) G.~.F.5     % u $.#.>.>.@.0 # X X % N F.~.~.~.~.~.W.I.W.W.W.E.K.K.K.W.Q.~.~.Q.G.V.V.V.V.V.V.F.F.F.F.F.K.I.K.K.K.K.K.K.F.V.",
"~.Q.G.` L i , # # ; , , , , ; ; , y y , , , , , , i i L N._ h ; i L A.Q.*X,X5X3X;XoXQ.] 4 X % X   7 0XyXfXfXyXyXyXtXwX2.#.+.+.| 9 , p J Z.` 4 o % u -.5.>.#.a , ; % X X % N V.W.W.I.I.K.K.K.K.K.K.K.F.V.V.V.V.V.V.V.V.V.V.V.V.N.N.N.N._ _ V.V.F.V.F.K.K.F.F.V.V.",
"W.A.T B i , ; # ; ; ; ; ; ; # ; ; ; & ; , , i i , i b I _ ) < ; i L A.W.~.+X:X:X$X$X:X}.K % X o   % u %.5.5.#.+.} #.7.uXeX5.#.+.@.#.1.*.f , ; # # 9 | #.5.1.a % X o   O i T K.Q.W.K.K.K.K.I.I.K.I.W.Q.Q.W.K.K.W.Q.~.~.~.~.Q.F.V.V.N._ _ _ V.V.F.K.W.Q.Q.W.K.V._ ",
"` _ _ T N , , , , , ; # ; ; & ; , , ; ; , i n n m D ) V.V._ h # # h V.Q.~./.+X=X$X:X<X,X+XA.K y X @ e e +     @  .#.d $.3.1.$.=.7.4.0 X # & # # & & & 8 e q @ o o o   > U V.V.V.V.F.K.W.~.~.~.~.~.~.W.Q.oX&X&X+X/./.+XoXQ.K.K.K.K.K.V.` h.h.Z.V.V.F.K.K.K.K.V.V.",
"H L T U B n < < < < < , ; ; , , , < < i n B B C _ V.V.F.F._ h # # N A./.~.~.W.I.I.Q.oX*X*XI.A # # # & # X X % & & 8 w w u a X. .9 % X + q q + @ X.&.0 8 q | s y O X % % X o O 5 _ K.Q.~./.~.~.~././.&X&X&X&X&X&X/./.~./.~.Q.W.K.K.K.F.F.K.K.K.K.V.V.V.F.K.W.Q.~.",
"n n i i < < < i b V C C c < < i i B U ) _ _ ) _ F.K.I.K.V.U < # # N A.~.Q.I.K.K.K.W.~././.K.H y % X % % X X # 8 w q 8 8 q w 9 %     % % . . ; s 1.5.:.o.} | s y .         X c T I./.~./.+X+X/.+X=X;X*X&X&X&X/./.&X+X/.~.~.~.W.K.F.V.V.V.V.F.K.K.K.K.F.F.K.W.~.~.",
"i i i < < i b I ) _ ) T L H B n n C _ V.V.V.K.K.K.W.~.K.C , ; # # N A.~.Q.I.I.I.I.I.I.Q.~.A.A ; # % X X # 8 w | d u % + q e u ;     % % . @ @.5.8.eXuXuXeX5.+.q +   O 2 2 Z V.Q.oX&X/.~./.+X=X;X;X;X;X;X*X&X&X+X/.~.~.~.~.~.W.K.K.F.V.V.V.V.V.V.V.F.K.K.K.K.E.W.",
"J J F n < c U ) _ ` R R T U U ) N.F.K.W.Q.Q.W.W.Q.~./.K.T i < # # N A././.~.~.~.~.~.~.~.~.~.Q.] >     @ | :.5.8.uXiXpXpXeX2.+.w 8 # # u -.7.eXiXiXiXiXiXiXeX5.@.0 % X 4 / K./.&X&X&X&X&X&X+X/./.&X&X/.~.~.~.~.~.W.K.K.K.K.K.F.V.V.V.V.V.V.V.V.V.V.V.V.F.F.F.K.E.",
"T ) ) ) P J T / ) ) T U U ) _ V.F.K.K.I.Q.Q.I.K.K.K.K.W.Q.Z.h # # N F./.+X&X&XoX/.~.~.Q.W.] N % X % y &.qXtXsXpX8.6.eXiXiXeX5.>.#.| 9 9  .>.eXiXiXiXsXsXsXpX5.:.@.e + O 6 ( P.+X=X;X*X+X/.~.~.Q.W.K.K.F.A.A.K.K.F.V.V.` C C _ N._ _ ) ) _ _ _ _ _ N.V.V.V.F.K.K.",
"V.) h , i C ) _ _ _ _ ) U U U U U U C n , < , i b V U U C i , # # < U V.V.V.V.F.K.F.V.) H p , 8 e #.8.rXyXyXrX8.2.2.5.8.8.8.5.2.#.} { { O.>.6.eXiXiXiXiXiX8.>.+.d y % o o 4 ^ F.~.oXW.F.V._ ) T U D N i i i b V U U N , ; < D U U U V b < ; , i b V V V U U T T ",
"< < ; ; ; ; ; < < < < < ; < < ; ; ; ; ; ; ; ; ; ; ; ; ; ; ; ; ; ; ; ; ; < < < < < < < u X.o.} { { O.qXyXyXqX,.2.5.8.8.8.5.5.5.>.+.q 8 9  .:.2.5.8.8.8.8.5.>.#.+.} q +     o ; < , , < < < ; < < ; ; ; ; ; ; ; ; ; ; ; ; ; ; ; ; ; ; ; , ; ; , , ; ; ; ; ; ; ; ; ",
"_ _ _ _ _ _ ) ) _ _ L L T ) ) U C C U U C B V V N B U T L L T ) ) ) ) T U U U U U U U T F g #.O.} } O.;.;.>.5.5.5.5.5.5.2.>.#.} { q .   % 0 @.<.>.<.2.2.2.2.>.#.} q + o o 2 S ) N.` T L U U U U U U U U U D N , ; , i B B i , ; , N D U U U V V U U C n n i , # ",
"V.V.V.V.V.V.K.K.V.V.I.~.oX&X&X&X&X&X&X&X=X=X=X<XbXMXbX1X+X~.~./.+X+X/.~.~.Q.G.V.V.F.Q.Q.F.f.%.+.o.+.} { +.#.2.5.2.>.#.+.+.X.d y %         % y d X.X.z g | | g f y %     2 2 = 4 S T U U U U L H H L U ) _ _ T U H L _ ` V.A.F.F.V.` V.F.K.F.V.V.V.V.V._ N , ; # ",
"V.V.V._ _ V.K.W.Q.Q.W.Q.oX*X;X;X*X*X;X,X1X1X,X,X1XbXVXNX-XQ.~.+X;X1X1X1X,X=XoXQ.I.K.I.F._ D < 8 q e a s X.@.#.#.:.#.} w 9 , u y %         % u u y , u s e w 8 % X         o o % , i n B B n n n i i n B V V C L L L T _ f.h.A.F.V.V.V.V.V.V._ _ T B < ; , , ; # ",
"V._ ) U U _ F.W.Q.~.~.~.~./.&X*X*X&X&X*X;X;X>X;X*X<XNXMX=XE.K.W.~.&X3X5X3X,X*X/.K.F.K.` 4 X % & & ; , p G 9.%.X.d f f p i i y ; .       X 9  . .9 8 w w 8 # X             X % % X % i n i , , i n n V I ) _ T T _ _ V.V.V.F.K.K.I.K.V.` _ _ ) ) _ U h ; , , ; # ",
"N._ T L J R T ) V.K.Q.~.~.oX=X;X;X;X*X&X&X*X;X,X,X4XMXMX4X*X/.W.W.Q.&X*XoX/././.&XQ.( 6 o   % , u f f f G 0.u.q.&.&.q.u.t.K >             + w +.+.+.o. .9 & # %               X % ; , i i i n n B C _ V.V.F.K.K.K.W.Q.Q.W.K.K.K.E.K.F.V.V._ C C _ _ ) D < ; # # ",
"_ _ _ ` ` ) N N ) V.K.W.~./././.&X*X*X&X&X&X*X*X*X;X5X7X7XbXMXMXbX7X7X3X&X/.+X*X;X~.v X % # # 9 | &.q.a._.'.'.`.(.(.).).(.u.5 o               + | :.5.2.:. .9 %     o o o = : < < i p V U ) _ _ ) _ F.K.K.W.~.~.~.~.~.~.W.K.K.K.K.K.K.K.F.V.V.V.V.V.K.K.F.) i # ",
"_ N.V.F.F.Z.R R T ) V.G.Q./.+X&X&X&X&X&X&X&X&X*X;X;X;X;X*X;X5X7X3X3X7X3X&X/.&X;X1XOXW O % % X @ e -.M.'._.(.).).).).).`.'.(.A 3 , ; X % p g | q 9 d 7.8.@.q 8 % X     = c V C H B n B C _ V.V.V.K.K.K.W.~.~.~.~.~.~.~.~.~.Q.G.F.V.V.V.V.N.V.V.F.K.K.K.K.F._ h # ",
"L R I./.&X+X/.I._ ) N.G.Q.~././.&X&X&X&X&X&X&X*X;X;X*X&X/./.&X*X;X<XxXnXbX3X;X*X;X=XoXA.h # # ; y ; X , u.(.x.z.H.(.).'.[.gX'.).a.t.G l p 9.n.rXtXqX,.#.0 # # % X o O 5 H R T U U ) N.A.K.W.Q.~.~.~.~.~.~.~.~.~.W.I.E.E.W.I.K.K.F.V.V.V.V.V.V._ _ _ V.F.Q.F.N # ",
"_ V./.&X&XoXK.V.V.V.V.V.Q./.&X&X&X&X&X&X&X&X&X&X&X&X&X&X&X&X&X*X;X,X5X7X7X3X;X*X,X1X,X~.A ; ; , ; % . i (.gXgX'._.H.z.H.).x.0.y % % p K J w.4.wXtXtXrX3.a # # # # < c V U T L T _ _ _ V.K.K.K.W.~.~.~.Q.W.K.K.I.K.K.K.K.K.K.F.V.V._ ) ) _ V.V.N._ V.K.E.W.] h # ",
"_ V.K.W.W.K.F.V.V.F.K.K.K.Q.oX&X&X&X&X&X&X&X&X&X/.~.~./.&X*X;X;X*X*X*X;X;X;X*X&X&X*X*X/.] S > X % B J.kXcXcXjXjXcXzXgX'.).a.F i p y X . % i G w.1.5.6.2.+.q 8 - # # - , u n F L U T R y.Z.F.K.K.K.K.K.K.K.K.K.K.I.E.E.E.E.W.Q.Q.W.K.K.K.K.K.K.K.F.F.K.K.F._ h # ",
"_ V.V.F.V.V.V.V.V.F.K.K.K.W.~./.&X*X&X&X&X&X/.~.~.~.~./.&X&X*X*X;X,X1X1X1X<X:X$X}.{.|.T.! 3 % # < B t.J , ; F x.jXlXlXjX[.'.`.(.a.J y # # ; , u e } } } } | a u , %     % ; , i n C U _ N.V.V.V.V.V.V.V.V.F.K.W.~.~.~.~.~.~.W.Q.oX&X&XoXQ.W.~.Q.G.F.K.W.W.] h # ",
"U _ V.V.V._ _ V.V.F.K.K.K.W.~./.&X&X&X&X&X&X/.~.W.W.~./.&X*X;X,X1X1X,X;X;X-X$X|.`.(.u.K >     X i t.(.(.g.(.cXvXvXlXgX'.).u.p # X X # ; # , u s | o.5.eXeX7.@.q 8 %       X # ; , i B L L L T ) _ V.V.F.K.W.~.~././.~.~././.&X&X&X&X&X&X/.~.~.~.W.K.K.K.E.` h # ",
"_ _ V._ ) U U ) V.G.Q.~.W.Q.oX&X&X&X&X&X&X&X/./.+X&X&X*X;X;X;X;X;X-X#X}.}.|. X X`.a.p %   . y x.cXCXcX[.z.(.lXcXjX'._.a.F p p M H F f u , i J p.n.rXtXtX,.#.} q 8 % X       % ; , i i i n B V I ) V.V.K.Q.~.~./.+X+X/.+X=X;X;X;X;X;X*X&X&X&X/.~.~.Q.G.V.V.U < # ",
"_ _ _ _ ) ) _ V.V.G.Q.~.~./.&X&X&X&X&X&X&X&X&X&X&X*X;X;X;X;X;X=X+XY.k.g.j.z.z.z.j.J %         % P P , X O h P z.H._.[.[.`.(.a.t.n i l F F =.3.8.sXiX5.@.7 o o X % %     % ; , i n n B B H T _ V.K.Q.oX&X/.~.T.U.U.T.=X,X1X1X1X1X,X,X;X;X*X&X&X+X/.Q.G.V._ D < # ",
"B C _ _ ) ) _ V.K.W.~.~.~./.&X&X/./.+X&X*X*X&X&X&X&X&X*X=X=X+X/./.Y.S.j.f.t.e.K k 2 ; %           , u.).gXgX`.`.gXlXlXjX[.a.p ; ; ; ; ; ; s -.5.5.@.7 X % %           > S T R 0.J R ` N.V.G.Q.~./.+X=X-X#X{.U.c.c.U.}.$X,X2X1X1X1X1X,X;X*X&X/.~.W.K.F.V.) D < # ",
"m V U ) / ) _ V.K.W.~.~.~./.&X&X/.~.~.+X=X;X*X+X#X}.}.T.Z.` F.W.~.~.W.K.K.A.R B > % i y , %             X , F x.jXcXcXlXgXH.F , y p p p p M 0.r.4.@.@             X ; B g.c.b.c.l.l.c.U.Y./.=X,X,X,X,X;X;X-X$X#X+X*X;X,X1X1X1X1X,X;X*X&X/.~.W.K.K.K.F.` L i ; # ",
", N D / / ) V.F.K.E.E.W.~.~././.~.~.~.~.~.~.R.T.U.c.c.c.c.U.~.~.W.W.E.E.E.V.! 2 O X o % ; y u y .         i ).jXlXlXlXjXgX'.).u.i ; u u i g 4.pXdXdX1.| 8 # O o   X n 9.3.7.7.3.9.G G P g.c.T.R.^./.&X*X;X;X;X;X;X,X1X1X1X1X1X1X,X;X*X&X/.~.W.K.F.V.V.) N , ; # ",
", N ) _ ) ) _ V.K.E.E.K.K.W.~.~.~.~.~.~.T.U.c.l.g.g.c.T.}.$X-X;X*XoXQ.I.F._ 5 X % i J J i # X o     % y F u.`.[.[.[.'.).).(.(.u.; . y p p g 3.uXdXdXpX5.o.| s y X % B 9.&.X.d s e ..9.9.%.@.@.-.v.^.+X&X*X&X&X*X;X,X1X1X1X1X,X;X;X;X*X+X/.~.~.Q.W.F.V.U i # # # ",
"m I ) V.N.V.K.K.K.K.K.K.F.G.Q.~.~.~.W.K.U.l.f.e.f.j.U.{.}.#X$X$X}.}.|.#X#XP.5 % i F G l y & # ; ; , i i i p F e.j.H.).`.'.'.`.a.p , F G f p f G u.m.dXaXyXqX&.y X       o X # , u s X.} { | =.f.U.^.+X&X&X&X&X*X;X;X;X;X;X,X;X;X*X&X/.Q.W.K.F.V.V.` L n i , ; # ",
"U _ F.K.F.F.K.K.K.K.K.K.K.K.I.I.W.I.U.l.f.e.e.0.e.f.c.U.T.R.(.(.H.H.a.z.J.f.;   # y p f F l p G m.[.jX[.0.G x.`.'.[.gXgXgX'.).u.p % . . % , u M 0.p.n.rXyXtX,.@.0 % X o o X # % X % y f f l e.h.G.W.~./././.~./.&X&X&X*X;X;X*X&X/.Q.G.V.V._ ) U C n i , ; & # # ",
"U _ F.K.V.V.V.F.K.K.F.F.K.K.K.K.I.K.S.j.e.P P e.f.g.u.i.a.H.H.H.a.r.3.3.r.G , F [.jX'.a.G p , ; ; p t.u.G e.).[.'.).)._.'.).0.p , ; < < ; , u M 0.u.e.w.1.>.>.#.} w w w w q +     . y p p M J y.Z.G.Q./.~.~.~.~.~.~.U.S.K.W.~.~.W.K.V._ T L L L L L T D < # # # ",
"_ V.K.K.F.F.K.K.K.K.F.F.K.K.K.K.S.l.l.g.e.P P e.g.j.i.u.e.e.u.u.u.r.s.5.2.*.g x.cXCXvXzXjX).e.p , & ; ; ; y F 0.x.).'.'.'.x.G u , # # # # , u f F G 0.9.@.o.O.O.o. .9 # X X % %     ; i p p f G f.S.Y.~.~.~.~.~.U.l.P G e.h.G.W.K.F._ U U U U ) _ V.K.V.A , ; # ",
"V.F.K.E.E.F._ _ F.K.K.K.K.K.V.` t.e.e.e.0.P P e.t.y.f.f.t.9.%.&.q.u.u.q.&.+.+.3.hXzXvXcX[.x.t.G F f f f f $.3.s.m.`.[.[.'.x.0.p , % X X % , u M J w.4.2.#.+.o.#.>.#.} q +           % , u f F G P e.f.k.G.W.~.Q.K.B.R P P f.Z.V.V.V._ _ _ _ _ V.F.K.F._ h - # ; ",
"_ V.K.W.E.K.F.V.V.V.K.K.K.K.S.l.f.P P e.e.e.e.R ` _ ) T L H F g X.&.q.u.u.q.&.+.@.3.].`.0.p i F x.).pXiXuXuXpXpXm.(.(.).'.'.).x.u.J M y , , u M t.r.3.:.@.#.7.4.9.f y %               % y f F G P J T ) _ V.K.K.K.K.F.F.K.K.K.K.F.F.K.K.K.F._ T L T _ ) I b < # ",
"_ V.K.W.W.K.V._ _ V.V.V.V.V.V.F.K.K.V.] l.l.] _ ) ) ) T C n p p p d X.#.>.-.9.=.X.&.w.0.M G a.`.gXgXs.5.8.n.m.).'.[.[.'.H.t.p # . % y p p p l G 0.0.G G f f f f f u , & & %       O y f G J H H B B U ) _ _ N.N.` V.V.F.K.W.Q.~.W.K.V._ V._ ) U U ) _ _ C i , # ",
"_ V.K.K.K.F.V._ _ _ _ _ _ V.F.W.Q.Q.W.W.Q.I.y.R ` V.V.B.T H n n p p p d X.+.+.X.g g X.%.=.u.'.gXgX).0.f f 9.x.'.[.[.[.(.J i p p p p p u i u X.@.@.X.=.G F G P J f p p p p y , % X > S T L H F F p p p B T ) _ _ ) U U ) _ V.F.K.K.F.V._ _ N.V.` C n B B B i , # ",
"V.V.V.V.) D h i b V U U U ) _ V.F.K.K.K.F.` C C ` N._ T L B i , y , ; , u a e q 8 % X @ | *.p.(.(.a.G f P g.x.(.(.(.(.(.(.(.a.u.M p p p p =.4.7.#.#.:.&.u ; i p p y % X X O ; , - ; i n i , ; & ; , u f F F H C V b < ; ; ; ; < < i i i b V B B n n m m C n , # ",
"U U U D < ; # # ; - - : c V B B B C ) _ ) D < < b V U U U S < # & ; & & & # X       % 8 w { { } +.X.s i y F a.).'.`.(.p.*. .{ e s p i y , p 0.q.&.} } w 9 % . . % ; , < ; # # %     o o X X X X % # & , u u , ; ; ; # # # # # # # ; # # ; ; ; ; ; ; ; ; , , ; # ",
"< < < < ; ; ; ; ; ; ; ; ; ; ; < ; ; ; ; < , ; ; ; , ; ; , ; ; ; ; ; ; % X         + q { { { { { { q + o X X % p u.x.u.9...e u y p f f u , , p f f a e | g p , X       X # % X X % & & # # # # % X X % ; ; ; ; ; ; ; ; ; ; ; ; ; ; ; ; ; ; ; ; ; ; ; ; ; ; ; ; ; ",
"K.K.K.F.V.V.` ` V.V.` _ _ _ V.V.F.Z.T J y.j.l.c.x.a.t.9.%.X.g F F F p y % O ; p J t.u.0.f u ; & & # X X % # # ; ; 9 w ..w.q.%.} { e s p p a e q 8 8 q e s y .         X % %   . y p p u , % X X % i K e.t.R B.V.F.I.Q.Q.I.V._ U U U U _ V.K.K.F.V._ V.V.F.F.V.V.",
"~.Q.W.W.Q.Q.W.K.K.K.K.K.F.V.A.Z.h.f.t.e.e.e.e.t.e.e.0.P G G F F F F i , ; y F G M f f p y ; & & & , u y % X % 8 q e a f f s e e a p p a e e a u , # & & & # .   % & # % X     . i B H n , % X X % i J y.` N.V.F.K.E.E.E.K.K.K.K.K.K.K.K.K.K.K.K.F.F.K.K.K.K.F.V.",
"I.I.K.W.Q.Q.W.K.F.K.Q.Q.K.A.S.c.j.j.u.u.e.P G K G F f f f f p p p y % ; F u.(.).(.p.*. .s a e { { q 8 & & & & & & t u s e | g p , 8 w { { q 8 ; & & ; 8 q w a u p u , , u u , & # , B B ; X % # # i 0.u.j.S.G.K.K.I.I.W.I.I.I.I.W.W.W.K.F.F.K.K.K.K.K.K.K.K.F.V.",
"K.W.Q.Q.K.V.V.V.W.~.~.~.~.Y.U.l.f.r.s.2.#.%.z F f p p f p p i , ; % X , J a.H.(.).m.-.+.{ } +. .9 8 q { { w a a w w a a e q 8 ; , u w q 8 , p g .. .s y % X # & ; , u u i u ..| 9 , u p p u , # # 0 &.3.p.z.j.j.l.S.Y.~.~.~.~.~.~.~.~.Q.W.K.K.K.K.K.K.E.W.K.K.K.",
"W.W.~.~.Q.K.F.F.F.F.K.W.I.W.Q.~.R.R.(.(.x.a.t.J M p p f p p p y % X # p a.a.G f f f f d  .| 9 & # 9 | ..u , ; # X X # 9 w { { { { q @ o o % $ $ % o     % # # ; , i F F f f f g %...9 , u u , # # , l G e.t.u.i.a.H.J.R.+X+X/.~.~.~.W.W.~.~.W.K.E.W.I.W.~.~.W.K.",
";X>X,X1X1X,X;X=X*X+X/.~.W.K.I.W.~.^.$X%X[.).a.0.M f f f f u , % X , t.H.).x.e.F f u , & & & & # # # & # X X % , y p p a w { { { { w 8 8 | @.:.@.0 % X     . # ; y y p f G g.'.gX[.a., . y i %     % y f F G e.u.(._.{.T.T.T.+X&X/.~.W.W.~.~.W.W.~.~./.~.~.~.W.K.",
";X,X5X3X;X&X&X*X;X;X;X=X/.~.~./.+X+X$X|.`.m.s.2.#.+.+.X.g p % X % , j J i.i.t.G f u ; & & # # % X X % # # % % % $ & ; # . + q { { w 8 9  .O.O.+.+.e 8 & q { { { } } { e f u.`.].3.| @ O i i , # # , B J t.g.j.z.J.U.T.R.~.~././.~.Q.W.K.K.K.K.W.Q./.+X&X/.~.W.K.",
"&X*X;X;X*X&X*X&X/./.&X&X/.~.~.~.W.I.R.{.).).(.d.4.>.>.:.} w 8 # # # ; , u f F z X. . .e 8 # # # # % . . % 8 q w { { } | 9 % X @ e +.o. .9 & & & & %   + q { { { { w 8 ; u G a.p.%.w 9 ; , , ; # # y F t.h.A.F.F.A.K./.&X&X&X/.~.W.E.W.K.F.A.S.S.A.G.Q.~.~.Q.F.V.",
"&X&X*X*X&X*X;X;X*X&X&X*X&XoXQ.I.J.H.H.m.s.7.8.8.7.7.8.5.#...u , ; & # , u p p u , & & # X X % # & , u a w q u u w } o.@.d y % o o % # & & & & # X o   + q { { q 8 ; , y u f F 0.a.(.).a.;   % # # i K e.f.j.c.U.~.~.~./.&X&X/.~.W.W.~.~.U.c.c.j.g.h.Z.F.F.V.V._ ",
"&X*X;X;X*X&X/.+X=X;X;X;X*X&X#X}.(.H.a.a.x.(.).).(.J.J.z.t.K p i p p , ; ; ; ; ; # # # % X X # ; u s e q 8 ; u d X.o.O. .9 - # # # # & ; i s ..} { q 8 8 q { { { { { { e s f F G t.H.gX`.j o % & & y F e.u.a.z.J.U.R.~././././.~.~././.~.W.I.U.l.` ) _ V.V.V.) U ",
"&X&X*X*X&X+X/./.&X&X&X&X&X*X;X=XT.U.c.c.U.U.T.R.I.I.R.S.L H i.(.).(.a.t.J j , # # % X X % 8 q { { q 8 & - 8 q { } | 9 & # # # # # 8 q q 8 8 w } +.+.+.| 9 y u a e { { { { e s f l u.[.'.K # < y q { } 3.dXhXgX`.{.T.+X&X&X&X&X&X&X&X&X+X/.Q.K.V._ / U U U U U U ",
"~./.&X&X/.~.~.~.~.~.~.~.~.~.~.~.~.~.W.I.I.I.I.K.F.A.S.f.h p a.'.[.[.[.'.).u.p % X       % 8 w w 8 & # , u f l f y & & & # # # # & 8 q q 8 8 q { { e a s X. .d s e { { { } +.+.} { &.].'.u.j , # # y K a.).gXlXcXnXxX/.K.K.Q.oX&X/././././.~.~.Q.F.V._ U V V C L ",
"~.~./.~.W.K.K.K.K.W.W.K.F.F.K.W.~.~.~.~.W.W.Q.~.~.Q.K._ < p a.'.[.[.[.'.).u.B ; ; % . + q w 8 & # & & , u u , 8 q w u , ; & # 8 q { { { { q 8 8 w w 8 9 w } } X.z g | { { | a p p f 0.a.).a.j % X % y G a._.{.$XnXbX+XW.Q.~.Q.Q.~./.&X*X*X+XQ.W.E.K.F.` L C U E ",
"K.W.~.~.W.K.K.K.F.K.Q./.~.~.~.~.W.W.~.~.~.~.W.I.I.W.E.] N F (.[.'.'.).u.B , ; # # 9 | X.d u , & & , u u , ; - , u f p p p u , , u s e { { { { q y u w e s d X.&.9.e.e.9. .| s u , u ..3.].gX'.(.u.K i ; y h k ' =X,X+X/.oX;X3X5X3X3X5X7X7X3X,X=X/.Q.W.G.h.R ` N.",
"K.K.W.W.W.W.~./.+X&X&X&X&X&X&X&X/.~.W.Q.oXoX/.Q.W.K.F.) < p a.).a.0.p % X       % y l F i i u p p a e w 8 , i n p u i i p u , 8 w e s d  . .9 & - 8 q e a p y u ..&.q.q.&.| 9 i t.H.`.[.[.).u.t.z.t., O 2 ! W.*X;X=X~.Q.oX*X;X,X1X1X;X&X/.+X,X;X/.K.K.K.K.K.K.K.",
"~.~.~.~.~.~.~./.&X&X&X&X&X*X;X;X;X;X*XoXK.F.F.F.K.A.f.K y i J i.u.0.M u , % X O i C _ ` L F f s X.+.+.X.s M J F y , u f F j , 8 q e a d X.+.{ w u , ; 8 w { { { { { } &.w.G y p u.u.p ; ; # .     X < T W.*X;X&XQ.W.Q.~.~.~.~.+X=X;X;X=X/.~./././.Q.F.V.V.V.V.V.",
"~./.+X+X/./.+X+X/.~.~.~.~.~.~.+X=X;X*XoX/.Q.G.V.V.B.R G f M 0.t.G f p u , % X > U V.V.Z.y.P G g X.X.=.H T T B u , , u f F j , 8 q { { { } } { { { e a a e { { { { { { } #.<.>.&.s ; .           % , D V./.&X/.Q.V.V.Q.~.W.K.K.W.~.~.Q.W.K.W.~.~./.W.N.E ) ) _ _ ",
"~.~././.~.~.W.K.F.V.F.F.V.F.K.K.F.F.K.W.Q.~.~.W.V._ C n p G u.i.J p y # X o o 4 ) F.F.Z.t.9.@.&.w.y.Z.V.V._ B , ; h _ ` F u ; ; u f f a e e a a e e s p f s e { { e s s e } +.@.@...9 %     % # # < U V.K.W.~.I._ _ F.W.W.K.K.W.~.~.W.E.K.K.K.W.~.Q.V._ ) U U U ",
"~.~.~.~.W.K.F.V.V._ _ _ _ N.V.V.B.V.V.V.V.K.Q.Q.F.) 6 3 j G G G f u , # # % O 5 f.J.H.p.3.>.2.4.v.U.A.V.~ G | | z ~ A.k.$.{ { e a p p s e { { { { ..P V.W.G.J u t t u u y 9  .#.>.:.@...s i , # # < U V.V.F.F.V.) _ F.K.K.K.K.W.Q.~.~.Q.W.K.K.K.I.K.F.` L B B B ",
"W.I.K.K.F.V.V._ _ _ ) ) _ _ _ V.V.V.V.F.K.W.~.~.W.V.W 5 j 0.x.x.0.p ; o o > S ` J.p.3.<.>.3.r.S.Y.~.U.g.G s e ..9.~ ` R d { { e s f F g X. .d a e ..w.S.K.I.J.a.$.| { ..9.w.-.>.#.%.9.0.0.K i # # < U V.K.K.F.V.N.N.V.V.F.V.V.V.V.F.F.F.K.K.K.K.K.K.K.K.K.K.K.K.",
"K.K.V.V.K.F.V._ _ _ _ _ _ _ V.F.K.K.K.W.Q.~.~.Q.W.` 5 % y G a.).'.(.e.j , % ; , i i p f 0.J F C U T P G f F e.k.G.A.R B , ; u p p p p d #.#.d u , y l P A.K.F.Z.y.q.3.-.w.t.e.e.e.e.u.u.y.H i # # < U V.K.K.K.K.V.N.V.V.V._ _ _ _ V.F.K.K.K.K.K.K.W.Q.~.~.Q.W.K.",
"V.V.` _ _ _ ) U C i , ; ; < B T A.F.V._ ) T L L V c O , P a.i.a.(.).(.(.).H.i.t.J F p y ; ; ; ; ; ; ; ; , , ; < D T F u , # # ; , , ; 8 w e f i < , u F ` V.V.V.` _ ` _ T U U T L L _ _ ) D i ; - < U _ _ ` V.V.N.N.V.V._ ) I b < ; , N ) V.V.F.K.K.K.K.F.V.V.V.",
"V b i , ; ; ; ; ; ; & # # ; ; ; ; ; ; ; ; ; ; %   X y f G e.x.x.e.F f G a.x.t.e.u.i.u.J y # # # & # X X # & # < i n i ; X o   X % % X X # - - : < , ; , i i , < b b i < < i b V m b < ; ; ; * * - < D D N i n C U U V b < - - - < , , , ; , i C ) _ _ _ ) ) _ _ ",
"< < < ; ; ; ; ; < ; ; ; # # # ; ; ; ; ; ; ; O o o , P a.H.(.).H.u.G i i F F y # .         X ; ; ; ; ; ; ; % X X ; ; X X % % X o X o o O , , ; ; ; ; X X o X # , ; ; ; ; ; ; < < < ; ; ; ; ; ; ; ; ; < < ; ; ; ; < < ; , , , , ; ; ; ; ; ; ; ; ; ; ; ; ; < < < < ",
"K.K.K.F.V.V.F.K.Q.I.V.U < ; , N T ` N.N._ U 5 5 K P F i , y F G M p y i F F i , - % O O O 4 ) V.F.K.K.A.h.P l f G G f f G G f p p F _ V.F.K.K.G.k.t.F y , ; , i D U U ) _ ` V.V.V.B.) ) ) V.F.F.V.V.F.F.V.V._ _ V.V.F.K.K.F.V.V.F.F.F.V.` ) U U U U ) ] F.F.V.V.",
"V.V.V.N.N._ ) _ V.B.T C V m n n B B B B i , ; j a.a.i     # J u.t.K , i u.a.J < . X S U U ) _ V.K.E.E.F.R B i i p f f F e.e.F p p B U _ F.K.K.K.F.B.T B i , ; , B T _ V.V.V.V.V.V.F.K.F.V.V.V.F.K.K.W.K.F.V.V.V.V.V.V.V.V.F.K.A.T B B B i i B B B C _ _ V.V.V.V.",
") ) ) ) ) U V V H H B n n i , ; , i n i > > F P e.F X   ; i F J u.J % X B P F y .   2 Z U ) _ V.K.W.W.A.f.K p i n L ` F.K.A.J l f F ) N.V.V.V.F.V.V.V.N.) D h i u F ` F.K.K.F.F.K.K.F.V.V.V.V.F.K.K.W.W.K.K.I.K.F.V.V.V.V.F.F.V.) U U D h N ) _ C C _ V.V.V.V.V.",
"V.V.V._ ) D i i n n i i n n i i p i , % O ; i u , %   % J 0.M M J K %   ; i i , % 2 6 Z ) _ V.V.Q./.~.I.k.e.G J g.U.~././.I.h.G f F ) V.V.V.V.F.K.K.F.V.V.` R J F F ` F.K.W.W.K.W.E.K.K.F.F.K.K.E.W.~.~.~.~.~.~.W.K.K.K.K.K.V._ ) U N N ) _ ) ) _ _ N.V.K.K.F.V.",
"K.K.F.B.R H i i n n i < i i , , , , , , , , y ; O     # J J ; % j j > O % < i C T V.F.V.T R K./.+X&X/.W.N.T R c.$X<X4X,X+X~.R.c.e.L ) V.K.K.F.F.K.W.~.Q.W.W.~.Q.G.F.Q./.&X&X/.~.~.~.W.W.~.~.~./.+X&X&X&X/.~.~.~.~.~.~.~.~.~.W.K.V._ _ _ _ V.V.V.V.V.K.K.E.E.K.K.",
"K.K.K.A.R B i i B C V b i , ; ; ; ; - ; , < i ; .   % , u y .   ; i B B 4 5 D T R y.` V.V.F.K.I.W.Q.~./.oX+X#X#X-X4XVXNX,X~.T.U.b.l.] V.K.K.K.K.K.W.~.~.~./.&X&X&X&X&X&X&X&X&X&X&X&X&X&X&X*X;X;X*X&X&X&X/.~.~.~.~.~.W.Q.oX&X/.Q.W.F.V.V.V.F.K.K.K.K.K.W.~.~.~.~.",
"N.` R J L B i i b m m V C B i , ; ; & - * : i u , , u p i < X X % , i C U T R y.t.R ` V.V.F.F.K.Q.+X=X-X|.|.4X7X7XMXBXNX4X=X/.^.}.^.I.K.K.K.K.K.K.K.K.Q.oX&X&X&X&X&X&X&X/./.&X&X&X*X&X&X&X&X*X*X;X=XoX~.~.~.W.W.K.W.Q.~.~.~.~.~.W.K.K.W.Q.~.~.~.~.~.~.~.~.~.W.K.",
"R J F C _ ) I b i i b V V V n p i , ; ; , < i i F F F F f u , # # < D ) _ N.V.V.N._ _ V.F.Q.oX&X&X*X;X,X,X1X<X1X;X=X;X,X,X;X*X+X/.~.W.K.K.K.K.K.K.K.K.Q.oX&X&X&X&X&X&X&X/.~.~.+X=X;X;X;X;X;X,X&XK.V.K.W.~.~.~.Q.W.K.K.K.K.W.~.~.W.K.F.F.K.W.~.~.~.~.W.K.K.I.K.K.",
"T D i N ) _ ) U V V C L T U C B B n i , , N ) _ J J t.R T D N , ; < U ` R R ` _ ) ) N.F.K.W.~./.&X&X/.+X=X,X,X,X;X;X*X*X;X;X*X&X/.~.W.K.K.K.K.K.K.W.~.~././.&X&X&X&X/.~.~.~.~./.&X*X;X,X1X1X,X=X+X~./.~.W.W.W.K.K.K.K.K.K.K.F.F.K.K.K.K.K.W.~.~.W.K.F.F.K.K.K.K.",
"B n i N ) _ ) U U U U T _ _ _ _ ) T L H H T N.G.Q.Q.G.N.) U U S , i _ V.V._ _ _ ) T R R B.F.Q.~./.~.~.+X;X1X1X1X1X1X,X;X*X&X&X&X/.~.W.K.K.K.K.K.K.W.~./.&X&X/./.~.~.~.~.~.~.~./.&X*X;X,X1X1X1X1X1X1X1X,X*XoXQ.K.F.F.F.F.V.V.V.V.V.F.Q.~.W.K.K.K.W.K.F.F.F.V._ E ",
"i y , h U U N < i < , N ) V.V.N.) ) _ _ _ N.V.F.K.K.F.V.) U C i , h _ V.V._ _ ) I I ) ` ` ` N.V.W.~.~./.&X*X;X,X,X;X;X;X*X&X&X&X/.~.W.K.K.K.K.W.~./.+X&X&X&X&XoXQ.W.~.~.~.~.~.+X=X;X*X*X;X,X1X1X,X;X;X;X;X;X;X=X&XoXW.F.V.N.V.V.V.V.K.W.Q.Q.F.F.Q./.*X=X*X~.k.t.",
"i i i i C C i , ; # # < D E T T U ) _ N.V.V.V.V.V.V.V._ ) U C i , h V.K.V._ N._ T L T T R R T ) _ V.V.G.Q.+X=X;X;X;X*X*X;X;X*X&X/.~.W.K.K.K.W.W.~.~.~./.&X&X&X&X/.~.~.~.~./.&X&X*X*X&X&X/./.&X&X&X&X/././.~.W.W.~.~.W.G.y.R T ) V.V.F.F.F.F.F.F.F.K.W.Q./.~.F.V.",
"J R T U U D i , ; ; , i B H B F J R T U U ) _ _ ) ) ) ) U D N , & N A.Q.K.V.V.V.V.V.V.N._ T ) U C C ) V.Q./.&X*X*X&X&X&X&X&X&X&X/.~.W.K.E.W.~.~.~.~.~./.&X&X/.~.~.~.~.~.~./.&X&X&X&X/.~.~.~.~.~.~.~.~.~.~.~.W.K.F.K.Q.Q.G.B.T T _ V.K.Q.oX=X3X5X5X5X1X1X1X;X+X~.",
"T ) _ _ C n , & # ; , < i i n B H H V m m V U U U ) _ ) N i B n , N A.~.W.F.V.V.V.V.V.V.V.V.V._ B i D ` I./.&X&X&X&X&X&X&X&X&X&X/.~.W.W.~.~.~.~.~./.&X&X/.~.~.~.~.~.~.~.~./.&X&X/.~.~.~.~.~.~.~.W.K.W.W.~./.+X+X/.Q.W.W.~.I.N._ F.W.~././.+X=X,X,X;X;X;X*X&X/.~.",
"_ _ ) ) _ _ C n i < < i i i y i n n i i n B H L T U T T U D h , & h ] K.F.V.V.V.V.V.V.F.F.F.K.F._ U L T A.K.K.Q.oX&X/./.&X&X/.~.~.~.~.~.~.~.~./.+X&X&X&X/.~.~.~.~.~.~.~.~.~./.~.~.~.~./.~.~.W.K.K.W.Q.~.~.~.~.~.W.K.F.K./.&X&X&X&X*X;X;X;X=X+X/.&X*X&X&X/.~.W.K.",
"V.` R h.I.Q.G._ I V U U C n i , i i i i i N U U C B H L T D h , & < ) V.V.V.V.F.K.K.K.W.Q.~.W.K.F.N.T H L T B.K.Q.~.~.~.~./.~.~.W.K.E.I.I.W.~.~.~.~./.~.W.W.~.~.~.~.~.~.~./.~.~.W.Q.oX+X/.Q.W.K.F.F.K.I.K.K.F.F.K.K.K.W.~./.&X*X;X;X;X;X;X;X*X&X&X&X/.~.W.K.K.K.",
"W.K.F.K./.oXW.A.R R ` ` R H i i p C U U B C U U B B U U C n i , ; < ^ V.V.V.V.F.K.K.K.W.~.~.W.E.E.F._ U U ) V.V.F.F.K.W.~.~.W.K.K.K.K.K.K.K.K.K.W.K.K.K.K.K.W.K.F.F.K.Q.oX&X/.~.~.~.W.K.F.V.N.V.F.K.F.V.V.N._ V.V.G.Q.~.~.~././.&X*X;X;X*X&X/.~.W.W.~.~.W.K.F.V.",
"&X/.K.V.V.V.V.V.N.N.V.V._ U V B H L U U L H L H B C _ _ C n i , ; < ) V.V.V.V.F.K.K.K.K.K.W.Q.~.~.Q.F.V.) ) _ _ N.B.V.V.K.W.K.K.K.K.F.F.K.K.I.K.K.K.F.F.K.K.F.V.V.F.K.W.~.~.W.W.~.~.W.A.T H H T _ _ ) ) _ N._ V.V.F.K.W.Q./.+X&X&X&X/./.&X&X/.~.~.~.~.Q.G.V.V.V.",
"V.V.V.V.V.V.V._ ) ) _ _ _ _ ) U U U U U C C U ) _ _ _ ) N i < , - h ] K.F.F.K.W.~.~.W.K.K.K.K.W.I.E.K.K.V._ ) ) V.F.K.K.K.K.F.F.K.K.F.V.V.F.K.K.F.V.V.V.V.V.V.N.V.F.K.W.~.~.W.K.E.K.V.) N i n B V V B C _ V.V.V.V.V.V.V.F.F.K.W.~.~.~.~.W.W.~.~.W.K.K.K.F.V.V.V.",
"U ) V.V.V.V.V._ T L T / / T L H H C V V U U U ) _ _ _ _ ) U V c ; h ] E.K.K.K.W.~.~.W.K.F.F.K.K.K.K.K.K.V._ ) _ F.K.K.K.F.V.V.V.V.V._ V.V.V.V.V.V.V.V.V.V.V.) ) N.F.K.W.~.~.W.K.K.K.F.` T L T U U U U ) _ V.V.V.V._ _ V.V.V.V.V.V.F.K.K.K.K.W.K.F.V.V.V.V.V.V._ ",
"U ) _ N.V.V._ ) U U U U U U B n m V U U V V U U U ) _ _ ) D < # # h _ V.V.F.K.K.K.K.K.K.F.V.V.V.V.A.F.F.V.V.V.V.V.V.V.V.V.V.V._ _ _ _ _ _ _ _ _ _ _ _ N.V.V.` _ ) ) V.F.K.E.K.K.K.F.V._ T T _ _ _ _ _ _ _ V.V.V.V.V._ _ _ N.V.V.V.V.V.F.K.K.K.K.F.V.V._ _ _ _ _ ",
"U U L C V b < ; ; < D D N , ; ; - ; ; ; ; ; , < < i i i i , ; # # < b V U U U ) N.V.N._ _ ) C n i i i < < < < i n B B C U U U U U U U U U U U U C B B B B n i h D U U ) N.V.V.V.) D N < < i n C U U U U U ) _ _ _ U < , , N D U U ) _ _ _ _ ) ) _ _ _ _ ) D N < ",
"i , ; - ; - # ; , < : * ; # # # # # # # # # # # # & ; ; # ; , , ; # - - - : < i i i i < ; ; ; ; ; # # ; , < - : : : - ; ; ; ; , ; ; ; ; < < < ; , , ; ; ; ; ; ; ; ; ; , n C T D < ; # - : : ; < b b < , x x , ; ; ; # # ; ; ; ; ; ; ; ; ; ; ; ; , i B n , - - * "
};
