/* XPM */
static const char *wall_t[] = {
/* columns rows colors chars-per-pixel */
"128 128 59 1 ",
"  c #170F07",
". c #1F170B",
"X c #2F1B0B",
"o c #2B230F",
"O c #372313",
"+ c #332B13",
"@ c #3F2F17",
"# c #3F2B1B",
"$ c #2F371F",
"% c #232323",
"& c #272727",
"* c #2F2F2F",
"= c #373F27",
"- c #373737",
"; c gray23",
": c #430000",
"> c #470000",
", c #4F0000",
"< c #530707",
"1 c #5B0000",
"2 c #5B0707",
"3 c #5F0707",
"4 c #670000",
"5 c #670B0B",
"6 c #6B0F0F",
"7 c #730000",
"8 c #7F0000",
"9 c #731313",
"0 c #771717",
"q c #7F1B1B",
"w c #432F1B",
"e c #43331B",
"r c #4B371B",
"t c #533F1F",
"y c #473323",
"u c #4F3B23",
"i c #4F3B27",
"p c #4F3B2B",
"a c #533F2F",
"s c #5F4323",
"d c #5B472B",
"f c #574333",
"g c #5F4B37",
"h c #6B4727",
"j c #7F532F",
"k c #67533F",
"l c #434343",
"z c gray28",
"x c #4B4B4B",
"c c gray31",
"v c gray34",
"b c #5B5B5B",
"n c #6F5743",
"m c gray39",
"M c #831F1F",
"N c #8B2323",
"B c #8F2B2B",
"V c #972F2F",
"C c #9B3333",
/* pixels */
"---&****-ll;--*****;l;;l**;lzl;;llzz--;*l**;--l-;-*--;lzcl;lz;-;-l;zzxxzzzzlzxxl--;zxzcvc;z**--;zxzzlzl--;l*-;;;;zzl;--lll;---*;",
"--r06qM0BNBMq600q0BB0qqBN00B0#-l;zdBqBBqBBBq00B0960MqqqBBMqBq+---;rBqBB0BM090qBq00MN000BBq906o;z;-tB0MN0BBB660N00qBBM0MBBM0Mq+-l",
"&;M11<27233<3,1727744,33<<231<-;;;B69653263<<66<<<62255562252,;;llB14444,,,,1441247,,41111,,>>-;llM14113<13>>311235yy5352<,12<;-",
"*lq423544524433<<<,<3,,,111>1>;;l;Myp<62<3<<<26<0<2:3332253<1>llll0,,>4,11>,411,411>341,11,:,:;-z;0,1,41<46>3439025#y63123<<2>z;",
"-;032,334<<1,<,,<3>>::,>411,,>-;-lM99<92<<<2526523<,3<5<552<,>llll077>7,>1,44,1414>,4,,>11,>><lz-l01,,>234<,<<20623<2,1,332<<<-*",
";lq4,><6313>11>1,,<>:5<<1,,:,:-;;;M925222<5552523241256222<><<l;lz0811,,1,714,414,11,1111,,>>:zl-;04,>:14113<3063<<22<6<26<<<:;*",
"lxV2,522,<<:,,<<,>::<<2114,,2:-;;-B5<655<3332222<2<3<<6223,,1:;;lvB1>44,>4441111:,,1,,,1,1,<>:-lllB1>:1<1,<2<562<<2<<<<<<0<<2:-*",
"-;M><<5<,<<,>>,>>::::,1>>1,,,Oll--q99227<<2<<<2<<<<2<<2<><<,,O;;lcq77,17,,,,>>1,:,,,>>,>>,>,,Ollll04:::2,>22<662<<<<<<<<<<<<<#zx",
";;2,<<<<<><>>:>>>:,>>:,>,,,14ozl;-5<56<<2<2<<<<<<<<<<#6<<,,24e;l-l4,44,,1>,>:,>:::><::,,>,,,1o----2>:::,,,<2<<y<<<<2<<<<::<26ol;",
"ll+,<O#<OO+>:::O##oooOooOOoOo:zl-;e<:OO<###<:::#wp$++Ooo#Oo#=<zlll+,:OO,Oo+,:::ooXoooO+oOOoOo:**-;+::oO,oOy,:<<#y#ooo#oooooOo:lz",
"xxxlzl**;l;*;-&*;;;**-*-;;l;l;;;;l;ll-;xxzl;l;;;lxzz;l--;-zlcxxzxl;lxllxxzzzllzlllzl;;l-;;;ll-llll;xzllllzlxcl-lz;;-l-*&*-;xllvv",
"qqqBBMMMMB96Nq#-;;;tBqBN0BBBqqMVBBMBBqqqBBMMBM@;zzzgBqBM0BBBqqqB0q0NBq00NBqqN0+;;;lr00BBqMMM000B0M0BBqq0BB00M6ollzzaM0M06MMB000B",
"<<37<60061,,56<----B47445624225606590655522692<lxzzB57322<66215311371,41111141>-;-*M24441,<11144,1182143412<2>:;lxxB34256<<02<23",
":323<355,11,,<:l;--q,,>712322552<523<5562253<2>lzlzq22<7<<62<53<,411>444,141,,:;-*;p<1,1,25<1411,4,3<214124<,<:;llzM2<<0<<5yy6<<",
"3<3:23<<:,31><<lzzlq1<:72<<<5553325<2522<353<<<czxzq75<82<2<5431421,,41>>44,><:--;ly,4,7566<4314313><1,1,13<><<llzcq35<9<<<#62<1",
"<2<<5244,<,,:::lcxl03:<222<65525562522536222<<<cxxzM823<22<644241414613611,:>>:*-*l07,3266<74311<553,,11,<<,:<:llxcq925<<<<655<,",
"<<<<6<<11<3,,<:-l;;B2:436y5552266<<<52<6225<<2<lllzB3<652<544112,>,>41251,1,<1:-;--B2>432<33523<2<6<<,,1,21,><:;lxcB3y05<<553<<<",
"<:<<2::<,<2<>:O;**l08815My<2<<<<:::<5<<<<,2<<<#;;lzh98226<,1,><2::,>,,><>:<<,>O;--*077<25<<2<y63<>>>>:<1>><><>O;;zxM96625<<2><:>",
"><<<,::,<<<>>3+--*-1<73<60<2<:<>:::<<<<2<<<<25=-;cz5265yy2,1,><<:>:,>::>>:<<<3=z;--3<43<<2<2<p6<><>,::#2><>><2.-;ll2266<><<<<::>",
"OOy+ooOooOOoOo:&**-+><w#<OO+,:<:OO#oooOo+##+#+:-lxx#<<#y<OO+,::<XOOo..X..oOoO+<xl--+>:O#<##+<<<<###+ooy+oO#$yo:;llz+<<#O<OO+<:::",
";-**&*&*;-**&%%**--;xl;**;;&-lzz;;;;;ll;z;zzllz;;lzzzz;lxxzzxlzzlz;lz-;;-l-;;llzll-l*&&;x;zlx;zcccvczll;lzllz-zzl;ccllllxll-;-*-",
";-**%&&**-;-&*****&;xx***l;**-ll;;lzl;z;cl;zclzz;z;;l;;;zllxxzlz;llxz-*;;lz;-;llx-ll-*-zz;zxzlxccbvlzxz;ll-;--zzzxcvx;-;xllll;;-",
"l-dB0M06MBB00qBq00BBMMMBB00BM@;;l;dB0BBqBBBMqMB0MMBBMBqBBqMBq+lzllsM0ww6NBB669Mqq0MM090BBqMB0ezcbvdBqBM9qBM000BqqMBBq06MBqMM0+lz",
"z;B34,,<<<2<233<,172239322255<;l;;B354352262<<<:<582653522231,zcllN14<,1,<2,>,,<137,<34522252<xxcvB343<<<<<<2360255<<223<222<<lz",
"xxM<,:<,<3<<2,2>121,3442232<3>;;*-02323266622<<,<22<6652232,1>lzl-0<<>66,<:<,:>:3<3,545223<,2<xzlz0<<2<3<1<3530h62<,<5<<232<<<;z",
"zz075>7<<0<<1,43<3<651<<552<<<-*%;0541,2562<><::>25<2<2<532,,>lz;;613>0y:<<2,:>><5<2511>4<>><#lzlz0<<<<33<<22<0023>><<<<33<<<:-;",
";lq7<3<<<<6>1,3<3<32<22<33<<<>**;zM74<>25663:<<:<2222<52<2<>,:zlzx61<2<<>:2<<<<:<<6<2321<>>:w#;zxc02<<<2663>23<632<2<23<<<><<<&-",
"zlB5>53<><>2>11<<<,4<<<225<<2:**llB41<322,>2::><>22<<222<6<<1:;;zx0<:2,>:222<<<<<<>3<11113<<2:*;cvB<<32><<2,225<36<<<<<<<2<<6<&;",
"--0972<4<::>,,1<:<,<>,1<<1,,<O&;z;q7<1,3<>,11>>2,<<,>>2<<2<<,O;;-x665,<3>><<<<<<<::2<,1,<6<,<X*;vlq<2>3<><<2<<5<<<<<:<2<X<#<<O**",
";;3253>><::<:,,:,:>>>>2y,,<25+*z;;52,,<>:1<2,<>,<<<1<<2<<<<24o;z;;<>2<>><><<<<:<<:>,<<,<<<<23o*;lz3<><6<<<<<<<<#<<<:<<2<:<<22o**",
"**+,:OO>Ooo>:::OOO+ooO+oO#+Oo:*;;;#>:O#>OO+<:::OOO+oo#++#OoOo:;l;z+:O#O:OO$OX:X#OOo++Ooo+#+#o:ll;l+<:#y<O#$<:##fp#oo+#ooOO+#o:*&",
"*;--;----;-*-;;-;;ll;;-;;*%*-**------l;llll;*-ll;;;;ll;;;ll-;llllzzxcczl;l;;;-lz;;;xcxl-;;zzc;xcl;;;l-;--l;xzzzcvz;;---&&**--**&",
"-;-;;;;-*****;--llzl-;;;-*&*--;;l;;;-*;ll;-;**-**---;;;llzz;zzlz;;lxxz;llzlzzl;;;-;zzzl;;;lz;*xxl;;xzl*&--lzzz-xl***;;;&*&**&*-&",
"q0900600M099M0+;;;lsBMBBqBBBqq0BqqqBN00qBB00Bq+***-sBqBBqBBB0qqB900Mjq0MBM90M0+lzllsB0BB0BBB00MBM0qBB0hy0000BM+*&**yBqMB0BBM000B",
"31><2<,11><,<<,;;;;B7256354322374414741141,,41<-**-B374332252,351,172<352<:<,<:;lz;B556<60<<23525555<<<<<<<266X-*--h6<350266<235",
"2,><<1>,,:<,><>;-;;q36692322374,421114,14111,2>;;-*q<<<7223223,,:,,2<223<:>::<:lzl;B262<00<>32222<55<<<<<<<<<2#;*;*0552623<<375>",
"3<:,::<,,<3<<<>;;;lq7506y9<4147271,4>>144411,,>xz**q52>8<,2<44,,1><<<226:<<:<<<;-;l0266<26>><<35<<<<<<<<<56<<<#x--;M6<5659<<<35<",
"2<<,11::<<1,:<:lzzzq3266w<321,1,412211,,41,,>,:zl;;q6<4511<5341,,1<3<<6<<::##>:-l;*0<6<<22<::<66:>:32<22<62<<<<l;zz62<355252<<2<",
"<<3>,<>:><3,><:;z;zB53<<X222,4,2,,5<2<1,124,,1:;l;lB4,72,,3431111>2<6<<<<<y#<<<zl-lM2<X<<<<:2<<::<<<<<2<<<<<<<<;;c;033<5>2<<69<<",
"<<<<<<><>,2<,<O;;lzq6262<5<<<,42<1,<<2>1,,1<<<O-l;lq88,<4,,2,,,1::<<<<<<<O<<<<#l;zch<:2:<<:<<3>><<<<<<><<<<<<<#;zzl06373:2<><<3<",
"<<<2<<<<2,<<23+l-zx3355<6<<<<<2,<<<<<1,<2,,<22o;l;l4171>,1,1,>,,:<:::<#<<<<<<3o;ccv6<:2::<:::<<<<<<<:>:<<<<<w6+-*;;<<3325<<<<<<>",
"O#OoooOo+OOoOo<;-ll$<<##<#O+<<::OOO++oOooOOoOo:ll;l+,:OO,OO+,:::oOOoo=#ooO++Oo<lxcc+::oo<y#+>:::#yy++oooo##$#$:-;;-o::OO>O#e<:::",
";zzllll;;lzlz;;--;-;;;;z;ll;-;;;;;ll-ll;l;ll;--lllz--llzllxlzll;-*;;zllllxlzxzll;;lzll-;;zl;zz--***;l-;lll;l;&-;;l;-;-ll;;l;-**-",
"lzl-llx-lzl;ll---;--l;ll**;-----;;l;-;llllzl***llll;-llz;lxlzll;;lzxllzxcxzlll-;;;;;xcllzxzllz;;---;;;--l;;l;;;*-l-;llzxxl--;l--",
"lzu090M6MBM600B0qqBBq00hBqqB0+;---tB0BBqBMMqqqB00qBBqqqBBqqBq+xlzlpp00B0MMM<600<00MB000hh00M0olz-;rM0MN0BMB000B0M0BM000BhMBB0+--",
"l;M<>:<<236<24333<<<<222<223<:----M335<25<<<37<77471444321141,zzl;y:5256<<2::32:<27<<32<<><3<<;;*-0<322,<<2:><2<237<<3232223<<-l",
";l9,,><<25<>,11<<<3<<><<232<2:;-;l012<3<<<:3122517744441132,1>zzx;6><<5<<1<:2<2>2<,>33<<<<<<<<;l-*6:<:3:,<><<<<<323<<52<<32<<:l;",
"*-<22>X<32><>32:<<2<<:,:332<<:;lll91473233<,126<1111112,441,,>xcl;053<5<><:,2233<3:><<<:22<<<:l;*%<<6>5,><>33<6523<226>:<52<::l-",
";;64<O<<<::<><,<><2><<2:12<:,:;l;l0,7,<<33,:<32<4,44,43212,>,:cxll07<3<<<>42<<<<2<<><25<<<><<:-*&*64<1>,<,3232623<5<<2<<<<<:::--",
"llM2:<:<::,<,<>>><<:,>>:<3>><:-llzB1<:>><<,3,,>,2<21111114,,1:xl;lM2>5<<:2<<>:::::<2<<<<<2<<<:--*-M1>4,2<333<<y6<2>3<<<<<3><>X-l",
";-07>::::>:<>>:<,>>:>,><<<<>>O*-ll0344::<><>4>,222<,1,1,<1,,,Oxll-674,,5::<:::<:::><>:<X:<><:O*;;;937<,3><<<#<<<:<<<>:<><2,>:o-;",
";l1,41::,><<:<<:,>>::><<<<<<2o**-;33:2::><>:::1,2,,>,>1,,,,14ollx->>32>>>>,::X::>::>::>::>:<<o-;-;2,43>>,><<#<<:<<<>::,><<><>.*l",
";;o::Oo>OO$<:::OOOoooOo+#Oo#o:-**-+:.oO>OOo::::OOOoo+#ooOOoOo:lxl;o::#O<OOo::X:OOoooo..oOOoOoXllll$<:#o:XO+<OX:OoooooOooOOoO. -l",
";---;--lzl;l*------l;l-l;;-;;------&%%*;l;;ll-;;;;ll;l;-*-;l;;;lllzxzzlxl-;llxzlzzl;&&*;llzl-;;l;;zll;;-*-;;lll;*;-lzzl;;;;;;;-l",
"00900900MM00N0+*-;;tN0BB0MMh906M060MM690MN09B0+--*;sBqBBqBBBqqqB000N06660q66N0oxxzlu06MM9MMM600M006MN9000M00M6+;*;;tM0MM600M009N",
"1<,,::,1>:>,31>-;l;M23333<<2,,,,,:,6<<222<111<,*;-;B471441141144,,17:<,,<>>,1<>xzll01,,2<,22<<2533<34313,:><2<:;-;;M211<<<,<<21,",
"1,:::>>,::1<,1>l;l-0,,>4<<3,,2,,:<<2<232<<3,,<:;zl-q314144717744:3,1:,<<,>,,>,:zzlz6,1,4<:><375<3<<<34<31<,::>:l;;l01,,>113<33>>",
"<>>::::,X>1,,,:lzl-044>7<><:<1<1,:2><<<<<221,,:;ll;q3<<1471111114,1:>1,,:<1,>>:xzll03212<1:3<37>7<>3<<3313>::::;*--0,>:>11<<<<::",
"2>:::::1::><:>:zz;*04<1<<<:<,2,1><<2<<32<<,,:>:lzzl02<:,4414,44,,1,1,>11,,,>:>:xlxxq3,141,1,<>>>4<<2341,4<>::>:*-;-01>:,,<<2><2:",
":::::>:,::><:<:zl;*M1>41>:<,2,,,,<<>3<<<<<3>>,:ll;l0<O<>>>,1,,,1,:,:,>,,,,2>>,:-*lxB11>1>1,,,2>,>>1,1,2,1<<::,:--l;M,>1,>:>,><<>",
"::::>:>,::>::>Ol;;&077,>1::<<:::>:>><<<<::,>><Ol--*9>>:,::111>,1>:::::><>><>:>O---l98141>1,>,:1,,<,,,2,1>:::>:o*llz0:>>1::,,>:::",
":::>>>:,>::<<<o****1141:::><:::::>:>>::<::><<2o;--l2>,,>>2>1,,>,>>:::::,>>:>>1o-;;l441,,4,>:::,>,,,1>1,1,:::,,o;;-l1::>><<>,:>::",
"XXXoooOoooooOo:;**-+>:Oo:OO+::::OoOoooOooOOoOo:-;;-o::OO,OO+,:::XOO...OoooOoOo:-;;l+,:XX:oXo::::OOOoooOoooooXo:l;;lo>:Oo:OOo::::",
"**-llll;;&%*;l;x;-;-&;-;;l;;-;;--;;*-;;*-;l;l-;;;;-*ll;;;z--l;lzll;;--lllzlll;;;llzzzl;;lclllllxxzlz;lllzzlxcxxl-;llz;l;zl;l;*l-",
"cctM9BB0MNB00qB0q0BBqqqBBqqB0+xzzbtM9BN0MMN000N000MN000NM90N0+xll;sB0BN0BBMqq0B066pBMqqBM90N0o;*;ltB0BBMM006q0Bq000q069NN00M0+zx",
"vcM4,141141,>,444,4874441,14,,xlxvM444111,,1114,4741,141,,,11,lxxlB4,4744441,4711><97411>,,4,>;;llM34<23,:>,<3411,1>,11411,1,:z;",
"xv014,7141,177>1,,,14,14141,,>xzxx01811,,174:1,,,14,1,1,,1,>1:;lclq4718141,174>1,,,44,11,1<<2:lzz;0<,:3,,1,,1<1,4,1:>14,11,:,:xz",
"xv04,1417,1,17171,1,>141441,>>xxxv07718,4114,4,>1>>11:>:>>>,>:-lxlq747448,,4,,4411,>>,1413<><>lxz;043:71>,,34114,4>>,,,>11,:::zl",
"bb01:,14,4>,>1,4111441,41,>>,:xxxvq4441411,1:1,,,11,,,,:::::::-;zxq41474,4,,141,11,,1,>1,,>:<:zxz-07<1,,<:223231111<,11,,1>:>:xv",
"bbN,>>1:,,,,4:1>,4,1,1,111:>1:xxxxB,1,41,,1>>::4>,>,,,,,,1::>:-;lxB44,4>111:,,1,1,,>>,<<,1>><:l;;-B3,41<:,<<<,,,,1>1,,,,,4>>,:lx",
"cc01171:,,>,>4,,1,111,1,,,>,,Oxxzx084>4,>,>,,,,>11,>>>,:>,:::X--ll07171>5,,<,,,1,<>,,:,>><>>>X--;l0772<4::>><>,>::>,>:,:>,>:>occ",
"xc1111,4,::>,1,1>,1,1,11,,>14ocvxv4141>>,::::>::>:>>::,::::,>.-;l;111,,1>>><::,>>,>>,:>1>>>,1.;lll2<62>>,:,<<<>:>:,>::<<:>>,1obc",
"cc+>:OO,OOo>:::OOOoooOooOOoOo:cvxv+>:Xo>OXo::::XoOooooooXXoO. -lll+>:oO:OOOOO.+o#ooooo.oXOoOo:;;l;+,:oO>OO+>:::XOOoooooooOoXo:bc",
"vvcxcvvvvxzcvxxxvzcxzxxxvvvcvvcxxxxmbbccz;xzxxxxvvbz;;;l;;z;--;ll-l;-;cx-;z-*%%&-;l;lll-*;---;-;;lzz;lzvclxzlxxlzvzvvzllccxcvbxc",
"vvzxvbvmvccvvxxvmxccxxxlvbvvczzcvcxmmbxczccccczcbbc--;;;;l;-*;;--;;;**ll;;;l-%%&;l;;lll;;;;;;-;l;--l-zlcxxx;;lllzx;cxlzlcvvmbczc",
"699BBqqqNM9qB9ocmmctN9M06BBN966q090NBqq0MN00N9ocbvzrM0BM6MMM656M69600609MM00M6o&zz;tM0BM6MBB0M0M626BBq09BBq0M0olcl-rNqNM0MMB09<0",
",17744441,,14,>vvxzM,71,1,,11,111147,1444,1,1,:xxczN4722,>>1>>,,,,,1>,116>,<1,>ll--M1752,:<52y05<:,7111,11114,>xl-*M144412,<3,>>",
",,4714441111<,:vxzz011>4,,1114,,,411,441,,,,>,:l;zz017<,,,>,141,>,>,:111<,<,><:l;ll01,,3::<666<2<2,2,43,<,41,,:l;-;018,11<474:1,",
",4,,4411,411,>:bxzzq77>4,,,>11,11,4>,11,>,,,>>:;lzz0<6,,,,144:,,1,1:,1,,>11,>>:;lzzq73<7<>6w53<5923<232,<54,:><z;;l977,7>4,4714<",
",,141,11,,,>:::bbxl0711,,,>111,1,,:111441,,>:::;lzl05411:1,,3,4,,1,1,,12,<<>:::l;l;07>2<2y<563<523252>11y0<:::#;l;z0341,3<,>1,42",
"1:,,1,1,,,1:>,:bvccN4>441>111,,,>:,,1,11,>,>:::;xlzM141:,,::::1>,>,>1,,,,<5><,:;*--M2:<2<<552<<<<<<<3<,<yu<::<<z;-;B>1>3<<<1>,>:",
",<,,,1,<>>1>>,Ovbcx077114>:,>>:>::>,,,>,::::::olx;-6:1:,>,:::>>>,:>>,:>,><2:::ol---93<><5<<<::<<XX:<6>>,<<>::<O;--;072>2<><:1,<<",
"><::,>>,>>,,,4oxxll>,74,,,:,>::::::,,::,::::>,oxl;*<71:>>>>:1>,,:>:>>::,><:::,+;l;;2<2<<<<<<<::::::<,::<>>::>5o--;-<<06<<<:,>><<",
"OOO.+o#oooOoOo:l;;;o>:OO,OXo>:::OoOoooO..X..X.:cl;;+>:oo:ooo::::OOOoooOooo..Xo:z;**+::OO<O##<:::ooOoooOooo#oOo:**-;oXO##<OO+,:::",
"vmbbvlzlccbzzxbz;--;bvxcvxclxcvl**;;--zc;-xxzcvzlzlzzzzl;***;l;*&*&*lzczl*lllxz;;**;;;*--;lzzl-;ll-*----;z-;zl;-l;;***-;vllzxzzx",
"bmmvvzxlcbbxcvvz---;cvcccll;xcv-*--lllzllllxxxl-;lll*;;;***-l;--l&&*;;zz;-xlzz;--*-**l;-lllxc;;z;zl*--l;l;-;l;*-;-****-lxlxxvczc",
"xztN0MM0BCB000M666MN000BM96q0+l***rM0NN0NMM699M6960M660M0<6M0o*;l*tM9NN0NBBBM0N00MBMh00BBqMa0+--;;uMqNM0BBM0M6066<y6600NNqqBq$vx",
"zvh22<2111422<,>,,4,,111>,,,,,l&&-q,411,,,1,,11,,,1>>,21,,,1,>-ll-N>141135623423<352,134<<<<:>;-;zB25303<23223<<<><<<665<2241<vv",
"vc0<<:2<,4223,,>1,1>111>>1>:1:l*-l0>>:1,<1,>,,,>1,,>11<,,1,>,:--l-0><7<3<<555>2<<<36<33,<6<<<:xl;zM<2<6223226<<:<<>:<662242,1>bm",
"bx035<6,:1,43111,1>,1,,:11>>>:;zll044:4,<<:,,,11,1><1,,:11,<<>----045437>3<35<<<<6yy532,23<>><cl;xq96<q066<50<33<2><326<542,<>bm",
"vc93<2<><,414,1,1,1,,11,,,>:>:lcl;97,3,<<<4,,,1,1,1<,,2>>,::,:--l;971552322<2:<<<6006<3<<<<<>:;lzx05<500y#95323<3<3<<562<<<:<:vv",
"cc0<<52,,114,,,,:,>1>>,,,1>>,:ccl*q1,71,>11,>,,,>,><>,<,,4,>,:-ll;M1>3<53600:>:<6<2<362223y<<:l;;cM2>33<<222<<2<><<12<2<<3<y6<vv",
"xz666<<5<:,,>>,:::>,>>,::>:::occz;977,,4>>,>>,,>:>><>,1,,1,,>O-l-;0774<52<y:,:y<<2<<<22:<<yy:Ol;xl056><6<><<>><><y<,<<2:<<<<<ycv",
"x;2<32<<6,<,:>>:::::::,::::,1oxzz;1,4,::,:<>:,>:>:>>:<2<>>,11o;-*;4274,<2<<::<#:<<<<><2<><<62+llzl366<>:<><<::<###,,>>2<<<w66+zl",
"zl+<:OO#yO+,::XOOo...XooXooOo:zlzz+>:oo:OO+>:::OOOooo#+oOooOo:;;-l+,:OO,OOo::X:OO#+o+OooO#oOo:-lxl$y#OO>OO+<:::###oo+#$$yy=p+:;x",
"zczlllzlzxxxz;;;lxxlll--;l;llllxzxz;;;zl;lzxzzzzzzzl;-;zzl-&*;xzlllll;llzl;-;--lxl-*--*;;lzzz-lxcxllzlzlllcx;xxzcczxvbccbcvvxvzz",
"xxzllzllclzzl---;zzl;;---l-lxvcx;ccl;llzcxxllzlxzzzl;;lvll***;xxzzl;xlzzlll;;-*lxll;*--*;;zl;lxxvczlllxlzxvvxzzzvvvvxzxcvbxxccxl",
"00qBBM00NBq006o-;--tM0NN0BBNqqqN000NB000NBqqB0+zl;lsBqBB0NM0690Bq00BC060BM9MBM=-z;ltu0Mq0MMM990M660BB0q0BBq0B0+xbmbkB0BjhBBMMh0M",
"<<596#<662<<2,<xl*lM14411<,111441<47,<444<111,>lz-lB24333<,1<,34,,27<<23422600w;lxzM<4232::<<<62<><5<<55<w6<5<<lvmvB552002266w<<",
":<25<52<<<3<<<:x-&l0141111,,474423874144<,41>,:zllzq3232334<4414<323<332,<32<0#;zvx0<<<5,>,>:<0<>2<5:3366iy<<2:lccl62<<9625<66<:",
"::2<23<<:23<><:l--z027,1>,174:412147,41,:,1,>>:z;;;q32<<47,11,1,5<6663,,,332<<:*;vz945>5>>,:,2632<6<<3<<<0#6<<Oczl-02<<6<<<<66<:",
":<<2<252<<<>:::zx;lq94<4>1,4714,<4,>1441::1,:>Xl;;l04,:13523>44:<33511442<<<:::&;l*<2<2<,2:,<2<425632233<<<<:<:vxczq5<5<<<>562<>",
"<O<<6<<2623::>:lll;B65<:1,<<1,1,,,411,11,,3<<<:zlllB<,312<,<>1,><,<,41112<<::::--**M2>3<<<<,2<<<<<<>322<<<2:><:xcvxB<:2<<:<22<<:",
"y#O:<:<6y<6#<>O;z;;0<3:,<1<6>1>>,:,,1,>1,,2<<<Ollll9><>4,,<<<,><,:>,,>,,>><:>:X***;944<<2##<:,<1,><<2<><<:>:><Occc;923><3::<<<:<",
":::<<::5y<<>,3ol;;z383:,<>,<1,,>:>><,1:,,,,,,1oll;*<:>>,,1<2,<:>:>>>>>:::>>:,>.*-;-,:2<>>6w<>>><<><w<::<>:>><<ocvx-<>42::<<<<:<<",
"Oooo+$#+$OO+#o:lzbv+,:o+<OX+>:::XXooooOooOOoOo:zz--o::OO,OO+,:::Oo#oooo.oOOoo.:*;-*o::oO>oO+<:::Ooo.ooOooOy+Oo:vvxl+>:Oo<oO+<XO<",
"zzlccxl--*xxxl;;xvvvcxl;;-*;llxl-**--;;;**-;lz;ll-***--;zzxxlll;;;;zx-;*zll---**--%*;lll;;ll---ll;*-llll;;lzxclllxz;*;-l**;l;;ll",
"xxtB0MBqMBB90qBqq0MNqqqBBq0Nq+ll;-rM0BM600M000M000MM000BBqqB0+llllsN0M06BBM900M00666660MM99M0ollllw00BM0MNBq00B00qNM000MB00h0+x;",
"xzB25333<<2,,11>>14,,44421,42>;;;-N4135<<<3<<373,>,874441114,,zll-M141,12<2,,12,,14>>232<><3<:-;ll62>2411141<34,,,174111<<<5<<z;",
"xcq22<4<<3<<3,>:,,1>4431141<<:-*--034<6,1<<374,<>>,47141141,1>ll**6>,>1,,1,,1,,:,<1:<<3<,3<><:l;;l621,4>111374:,:,,64<,2:<<><:;l",
"xcM65>4>:,,65,1,,3>13,,,41<>::**-;0537447,3<34,<>:4,,334441,,>lz*-044>7,>,:11,11,1::><<>13,:::l;ll6414117>1<11:1,,<:>511<2<:::lc",
"cl07<1>>>>453,1,324,,111,,::::;;lx03,144,3<<<1>1<1234<<111,>,:;l;l07,1,,,>411,,:1,1>,23<<<::::-zll61,247,1><>,:1,2>1,<>1<<>:::zc",
";;B1>3,><133,,,,,<,1<,,12,::>:zxllB44>3>1<<<3<<,,3<2,,:,,4,,1:;---0,:41,>111<,>,>,>,,,,,,1>>>:;lz;M1,:1,1,>,1>,,>,>1>2><<6:::Olz",
";lq77>:1#<1>>>,>:::,>>,<w<:::Oxcvc07371>1<<<>3<21,<22,,,,1,,>#l---6471,4>>,:<:>>::>,:>,>:,>>>Ozzl;07141,4,>,>11,:<,,<>,>><:::O-l",
"lz2,4,::<>1>:>::::>:::<<y<:,1ollcc111<<4,<<><<,1,,2,,,1<<<,<6+;-ll1,41>,,>,::>>:>:>:>:,>>>,,1olllz1441,4,><>>,>>:>,>2>22<>::>oxl",
"zz+,:oo:oO+<:::XoooooOooy#oOo:llxz+<:OO>OO+>:::OOOoooOooOOoO+:zzllo>:oO,OO+::::OOOo+oOooOOooo:;;xc+>:Oo:Xoo::::OOOoooO+$#OoX.:zz",
"zxlll;*&**--**-;;--&***;;;ll;zzzlllx;--;-*-;;l;;;---llllll;-;lzzl;ll;-;zcbzzzzzzzzll-xxzllz;-l;lzcxlxxzll-zxl;zlxcl;--lxx;*&*;lx",
"xl;;;**-*&*-;;;;;**&***-lcxl;zl;l;;;l;--;;;-lllx;z;-;-llll;;;lzllllz;-lxcvzzvllzll;;-lzlzlllzl;zlllzxxz;;;z;--lxcll;;ll-**&&--lz",
"0q0MN000NBq0N0o****uq600hnjBqq0B0q0BB000BN00B0+xzzlsB0BBqBMM90qB000N0660NNqqB0+l;l-tN0NB0MNB099M000MN006qM90N0+xvl-eM0M06BBBqqqB",
"1<373,133,,,<<:***;N<2<<66624413<37<5523<2<141,zllzB37433<,311441117>:,441114,>;ll;N1714,>141,11,,47,,111,>,11>lll*0<<4,,112<371",
"22<1,:21,,1<><:**--0<>:33533441134362373223<,1>zllxq,2<722422411,4,1:1441141,,:llzl0114,,17144111,,>,1111,,>>1:l;l*9<:0<1,,11<>1",
"6<1::>:,>53<>>:*&**034>7<7<512287<3<<<<2<,2,>>>;llz645,7<,1<6514414>,411,441,,:l;;x01,>>,71,,,,,,,1>,::,>1,>>>:z;l*612957>1,<3<4",
"<<<1>::,>,,>:,:-***0722<5538<5<33<5<>2<<2:>>>>:;;;z0813<<1>6552414141144111,:>:;-;l01::>1114>11>11,,::>1<,<>:>:;-;;67295<3<<:<<5",
"<<>,:::,,,1>>1:-;--M3<43235206<<2,3<<<22<<3,,1:-l;;B4>43<><332221,1,4111,14>:,:l;l;M,:,,1>,1,,,,>,,::::,<14,>,:-l-lN1>,>2<<<><5<",
"2<,,,:><><2:>:O-l;l079<<<2<60223<1<<3<<<<<,,>,O-ll;087<14<<<>,,2>:<,1,,1>,1:>,Olll-6:,:1>,1,,:>,>:>::::<<>,,,>O---;0771:2<<#<2<5",
"2<<::::<>>>><,o-;-;3273>52>52<2<32<<<<<<,<>>,1olzzz3<66<,<>1,><<:>:>,>>1>,,>,4olll*1:::>,1,,>>:>>>>,:>:,<>:,,1o--;;3<925:,<:<>>>",
"OOoooooooOOoOo:-;;-+<:OO<OO$<::<yOOo++#+oOOooo:lllz+<OOO,OO+,:::OOOoooOooOO.Oo:l---o::OO,OOo::::OOooooOoooOooo:---l+<>##>OOo::::",
"ll*&&&&&;ll;--**-;-l;l;ll*;ll;;;;--l;;-****-*-;l;l;ll;lzl-;zzl;;xzxxxxzxxxcz;;;--*-lzxvvxll;*;l--lzl-lll-**&*;ll;l;ll;-l-;x-;;ll"
};
