/* XPM */
static const char *wall_t2[] = {
/* columns rows colors chars-per-pixel */
"128 128 107 2 ",
"   c #0B0B0B",
".  c #170F07",
"X  c #1F170B",
"o  c #131313",
"O  c #1B1B1B",
"+  c #2F1B0B",
"@  c #2B230F",
"#  c #372313",
"$  c #332B13",
"%  c #3F2F17",
"&  c #3F2B1B",
"*  c #2F371F",
"=  c #000023",
"-  c #00003B",
";  c #232323",
":  c #272727",
">  c #2F2F2F",
",  c #373F27",
"<  c #373737",
"1  c gray23",
"2  c #430000",
"3  c #470000",
"4  c #4F0000",
"5  c #530707",
"6  c #5B0000",
"7  c #5B0707",
"8  c #5F0707",
"9  c #670000",
"0  c #670B0B",
"q  c #6B0F0F",
"w  c #730000",
"e  c #7F0000",
"r  c #731313",
"t  c #771717",
"y  c #7F1B1B",
"u  c #432F1B",
"i  c #43331B",
"p  c #4B371B",
"a  c #533F1F",
"s  c #473323",
"d  c #4F3B23",
"f  c #4F3B27",
"g  c #4F3B2B",
"h  c #533F2F",
"j  c #5F4323",
"k  c #5B472B",
"l  c #574333",
"z  c #5F4B37",
"x  c #6B4727",
"c  c #7F532F",
"v  c #67533F",
"b  c #000047",
"n  c #000053",
"m  c #434343",
"M  c gray28",
"N  c #4B4B4B",
"B  c gray31",
"V  c gray34",
"C  c #5B5B5B",
"Z  c #6F5743",
"A  c #775F4B",
"S  c #7B634F",
"D  c #6F7357",
"F  c gray39",
"G  c gray42",
"H  c #6F6F6F",
"J  c #777777",
"K  c gray50",
"L  c #8B0000",
"P  c #831F1F",
"I  c #A70000",
"U  c #BF0000",
"Y  c #8B2323",
"T  c #8F2B2B",
"R  c #972F2F",
"E  c #9B3333",
"W  c #A33B3B",
"Q  c #A73F3F",
"!  c #875733",
"~  c #AF4747",
"^  c #836B57",
"/  c #9F876F",
"(  c #0000B3",
")  c #0000CB",
"_  c #0000E3",
"`  c blue",
"'  c #5353FF",
"]  c #7373FF",
"[  c #838383",
"{  c #8B8B8B",
"}  c #939393",
"|  c #979797",
" . c #9F9F9F",
".. c #A7A7A7",
"X. c gray67",
"o. c gray70",
"O. c #B7B7B7",
"+. c gray75",
"@. c gray78",
"#. c #CBCBCB",
"$. c LightGray",
"%. c gray86",
"&. c #DFDFDF",
"*. c #E7E7E7",
"=. c #EFEFEF",
"-. c #E7E7FF",
";. c white",
/* pixels */
"< < < : > > > > < m m 1 < < > > > > > 1 m 1 1 m > > 1 m M m 1 1 m m M M < < 1 > m > > 1 < < m < 1 < > < < 1 m M B m 1 m M 1 < 1 < m 1 M M N N M M M M m M N N m < < 1 M N M B V B 1 M > > < < 1 M N M M m M m < < 1 m > < 1 1 1 1 M M m 1 < < m m m 1 < < < > 1 ",
"< < p t q y P t T Y T P y q t t y t T T t y y T Y t t T t & < m 1 M k T y T T y T T T y t t T t r q t P y y y T T P y T y $ < < < 1 p T y T T t T P t r t y T y t t P Y t t t T T y r t q @ 1 M 1 < a T t P Y t T T T q q t Y t t y T T P t P T T P t P y $ < m ",
": 1 P 6 6 5 7 w 7 8 8 5 8 4 6 w 7 w w 9 9 4 8 8 5 5 7 8 6 5 < 1 1 1 T q r q 0 8 7 q 8 5 5 q q 5 5 5 q 7 7 0 0 0 q 7 7 0 7 4 1 1 m m T 6 9 9 9 9 4 4 4 4 6 9 9 6 7 9 w 4 4 9 6 6 6 6 4 4 3 3 < 1 m m P 6 9 6 6 8 5 6 8 3 3 8 6 6 7 8 0 s s 0 8 0 7 5 4 6 7 5 1 < ",
"> m y 9 7 8 0 9 9 0 7 9 9 8 8 5 5 5 4 5 8 4 4 4 6 6 6 3 6 3 1 1 m 1 P s g 5 q 7 5 8 5 5 5 7 q 5 t 5 7 2 8 8 8 7 7 0 8 5 6 3 m m m m t 4 4 3 9 4 6 6 3 4 9 6 6 4 9 6 6 3 8 9 6 4 6 6 4 2 4 2 1 < M 1 t 4 6 4 9 6 5 9 q 3 8 9 8 r t 7 0 & s q 8 6 7 8 5 5 7 3 M 1 ",
"< 1 t 8 7 4 8 8 9 5 5 6 4 5 4 4 5 8 3 3 2 2 4 3 9 6 6 4 4 3 < 1 < m P r r 5 r 7 5 5 5 7 0 7 q 0 7 8 5 4 8 5 0 5 0 0 7 5 4 3 m m m m t w w 3 w 4 3 6 4 9 9 4 6 9 6 9 3 4 9 4 4 3 6 6 4 3 3 5 m M < m t 6 4 4 3 7 8 9 5 4 5 5 7 t q 7 8 5 7 4 6 4 8 8 7 5 5 5 < > ",
"1 m y 9 4 3 5 q 8 6 8 3 6 6 3 6 4 4 5 3 2 0 5 5 6 4 4 2 4 2 < 1 1 1 P r 7 0 7 7 7 5 0 0 0 7 0 7 8 7 9 6 7 0 q 7 7 7 5 3 5 5 m 1 m M t e 6 6 4 4 6 4 w 6 9 4 9 6 9 4 6 6 4 6 6 6 6 4 4 3 3 2 M m < 1 t 9 4 3 2 6 9 6 6 8 5 8 t q 8 5 5 7 7 5 q 5 7 q 5 5 5 2 1 > ",
"m N R 7 4 0 7 7 4 5 5 2 4 4 5 5 4 3 2 2 5 5 7 6 6 9 4 4 7 2 < 1 1 < T 0 5 q 0 0 5 8 8 8 7 7 7 7 5 7 5 8 5 5 q 7 7 8 4 4 6 2 1 1 m V T 6 3 9 9 4 3 9 9 9 6 6 6 6 2 4 4 6 4 4 4 6 4 6 4 5 3 2 < m m m T 6 3 2 6 5 6 4 5 7 5 0 q 7 5 5 7 5 5 5 5 5 5 t 5 5 7 2 < > ",
"< 1 P 3 5 5 0 5 4 5 5 4 3 3 4 3 3 2 2 2 2 4 6 3 3 6 4 4 4 # m m < < y r r 7 7 w 5 5 7 5 5 5 7 5 5 5 5 7 5 5 7 5 3 5 5 4 4 # 1 1 m B y w w 4 6 w 4 4 4 4 3 3 6 4 2 4 4 4 3 3 4 3 3 4 3 4 4 # m m m m t 9 2 2 2 7 4 3 7 7 5 q q 7 5 5 5 5 5 5 5 5 5 5 5 5 5 & M N ",
"1 1 7 4 5 5 5 5 5 3 5 3 3 2 3 3 3 2 4 3 3 2 4 3 4 4 4 6 9 @ M m 1 < 0 5 0 q 5 5 7 5 7 5 5 5 5 5 5 5 5 5 5 & q 5 5 4 4 7 9 i 1 m < m 9 4 9 9 4 4 6 3 4 3 2 4 3 2 2 2 3 5 2 2 4 4 3 4 4 4 6 @ < < < < 7 3 2 2 2 4 4 4 5 7 5 5 s 5 5 5 5 7 5 5 5 5 2 2 5 7 q @ m 1 ",
"m m $ 4 5 # & 5 # # $ 3 2 2 2 # & & @ @ @ # @ @ # # @ # @ 2 M m < 1 i 5 2 # # 5 & & & 5 2 2 2 & u g * $ $ # @ @ & # @ & , 5 M m m m $ 4 2 # # 4 # @ $ 4 2 2 2 @ @ + @ @ @ # $ @ # # @ # @ 2 > > < 1 $ 2 2 @ # 4 @ # s 4 2 5 5 & s & @ @ @ & @ @ @ @ @ # @ 2 m M ",
"N N N m M m > > 1 m 1 > 1 < : > 1 1 1 > > < > < 1 1 m 1 m 1 1 1 1 m 1 m m < 1 N N M m 1 m 1 1 1 m N M M 1 m < < 1 < M m B N N M N m 1 m N m m N N M M M m m M m m m M m 1 1 m < 1 1 1 m m < m m m m 1 N M m m m m M m N B m < m M 1 1 < m < > : > < 1 N m m V V ",
"y y y T T P P P P T r q Y y & < 1 1 1 a T y T Y t T T T y y P R T T P T T y y y T T P P T P % 1 M M M z T y T P t T T T y y y T t y t Y T y t t Y T y y Y t $ 1 1 1 m p t t T T y P P P t t t T t P t T T y y t T T t t P q @ m m M M h P t P t q P P T t t t T ",
"5 5 8 w 5 q t t q 6 4 4 0 q 5 < < < < T 9 w 9 9 0 q 7 9 7 7 0 q t q 0 r t q 0 0 0 7 7 q r 7 5 m N M M T 0 w 8 7 7 5 q q 7 6 0 8 6 6 8 w 6 4 9 6 6 6 6 6 9 6 3 < 1 < > P 7 9 9 9 6 4 5 6 6 6 9 9 4 6 6 e 7 6 9 8 9 6 7 5 7 3 2 1 m N N T 8 9 7 0 q 5 5 t 7 5 7 8 ",
"2 8 7 8 5 8 0 0 4 6 6 4 4 5 2 m 1 < < y 4 4 3 w 6 7 8 7 7 0 0 7 5 0 7 8 5 0 0 q 7 7 0 8 5 7 3 m M m M y 7 7 5 w 5 5 q 7 5 0 8 5 4 9 6 6 3 9 9 9 4 6 9 6 4 4 2 1 < > 1 g 5 6 4 6 4 7 0 5 6 9 6 6 4 9 4 8 5 7 6 9 6 7 9 5 4 5 2 1 m m M P 7 5 5 t 5 5 0 s s q 5 5 ",
"8 5 8 2 7 8 5 5 2 4 8 6 3 5 5 m M M m y 6 5 2 w 7 5 5 5 0 0 0 8 8 7 0 5 7 0 7 7 5 8 0 8 5 5 5 B M N M y w 0 5 e 7 5 7 5 0 9 8 6 9 7 6 4 4 9 6 3 3 9 9 4 3 5 2 < < 1 m s 4 9 4 w 0 q q 5 9 8 6 9 8 6 8 3 5 6 4 6 4 6 8 5 3 5 5 m m M B y 8 0 5 r 5 5 5 & q 7 5 6 ",
"5 7 5 5 0 7 9 9 4 5 4 4 2 2 2 m B N m t 8 2 5 7 7 7 5 q 0 0 7 0 0 q 7 0 7 7 0 8 q 7 7 7 5 5 5 B N N M P e 7 8 5 7 7 5 q 9 9 7 9 6 9 6 9 q 6 8 q 6 6 4 2 3 3 2 > < > m t w 4 8 7 q q 5 w 9 8 6 6 5 0 0 8 4 4 6 6 4 5 5 4 2 5 2 m m N B y r 7 0 5 5 5 5 q 0 0 5 4 ",
"5 5 5 5 q 5 5 6 6 5 8 4 4 5 2 < m 1 1 T 7 2 9 8 q s 0 0 0 7 7 q q 5 5 5 0 7 5 q 7 7 0 5 5 7 5 m m m K @.@.O.@.@.$.@.$.@.@.$.$.@.@.O...@.@.$.$.@.@...O.@.@.K 2 < 1 < < T 7 3 9 8 7 5 8 8 0 7 8 5 7 5 q 5 5 4 4 6 4 7 6 4 3 5 2 1 m N B T 8 s t 0 5 5 0 0 8 5 5 5 ",
"5 2 5 5 7 2 2 5 4 5 7 5 3 2 # 1 > > m t e e 6 0 P s 5 7 5 5 5 5 2 2 2 5 0 5 5 5 5 4 7 5 5 5 & 1 1 K @.| K N m 1 m M m N N M N N N B C B C V V V V V V C | O.K 1 < < > t w w 5 7 0 5 5 7 5 s q 8 5 3 3 3 3 2 5 6 3 3 5 3 5 3 # 1 1 M N P r q q 7 0 5 5 7 3 5 2 3 ",
"3 5 5 5 4 2 2 4 5 5 5 3 3 8 $ < < > < 6 5 w 8 5 q t 5 7 5 2 5 3 2 2 2 5 5 5 5 7 5 5 5 5 7 0 , < 1 @.| K F X.X. .[ V N M V J } O.O.X.{ V J +.@.J V  .@.#.K | O.M 1 < < 8 5 9 8 5 5 7 5 7 5 g q 5 3 5 3 4 2 2 & 7 3 5 3 3 5 7 X < 1 m m 7 7 q q 5 3 5 5 5 5 2 2 3 ",
"# # s $ @ @ # @ @ # # @ # @ 2 : > > < $ 3 5 u & 5 # # $ 4 2 5 2 # # & @ @ @ # @ $ & & $ & $ 2 < m @.K C } %.=.=.X. .N B } @.%.=.%.o.[ C @.&.=.$. .&.$.=...F X.N m < < $ 3 2 # & 5 & & $ 5 5 5 5 & & & $ @ @ s $ @ # & * s @ 2 1 m m M $ 5 5 & # 5 # # $ 5 2 2 2 ",
"1 < > > : > : > 1 < > > : ; ; > > < < 1 N m 1 > > 1 1 : < m M M 1 1 1 1 1 m m 1 M 1 M M m M M 1 1 O.M K =.%.m V %.O.F C @.%...F F J F B $.=.%.=.;.*.=.&. .N X.M m m < m > : : 1 N 1 M m N 1 M B B B V B M m m 1 m M m m M < M M m 1 B B m m m m N m m < 1 < > < ",
"1 < > > ; : : > > < 1 < : > > > > > : 1 N N > > > m 1 > > < m m 1 1 m M m 1 M 1 B m 1 C J H H G J +.N { %.X.H [ %.@.K V o.%.| G o.@.} C +.=.%.} =.{ =.$...N O.B N < m m < > < M M 1 M N M m N B B C V m M N M 1 m m < 1 < < M M M N B V N 1 < 1 N m m m m 1 1 < ",
"m < k T t P t q P T T t t y T y t t T T P P P T T t t T P % 1 1 m 1 k T t T T y T T ~ ^ ^ / O.@.+.%.M  .%.| { K ..$...B H @.$.+.%.&.{ C +.&.+.K F K %.$...C X.o...S T P t r t T T y P T t i M B C V k T y T P r y T P t t t T y y P T T y t q P T y P P t $ m M ",
"M 1 T 8 9 4 4 5 5 5 7 5 7 8 8 5 4 6 w 7 7 8 r 8 7 7 7 0 0 5 1 m 1 1 T 8 0 9 8 0 7 y T ^ O.@.+.+.+.=.m | +.G m m K X. .V B G } $.+.$.| C #.%.+.C F J $.$. .K O.X.o.O.X.Z x y 0 0 7 7 7 0 7 5 N N B V T 8 9 8 5 5 5 5 5 5 7 8 q t 7 0 0 5 5 7 7 8 5 7 7 7 5 5 m M ",
"N N P 5 4 2 5 4 5 8 5 5 7 4 7 3 6 7 6 4 8 9 9 7 7 8 7 5 8 3 1 1 > < t 7 8 7 8 7 ! ^ @.$.@.+.O.O.o.%.G C C V V V V V V C B C B N N N M N N m M m 1 m N N K { O.{ | o.+.@.O.S c P 7 8 5 4 7 5 N M m M t 5 5 7 5 8 5 6 5 8 0 8 t x q 7 5 4 5 0 5 5 7 8 7 5 5 5 1 M ",
"M M t w 0 3 w 5 5 t 5 5 6 4 9 8 5 8 5 q 0 6 5 5 0 0 7 5 5 5 < > ; 1 t 0 9 6 4 x #.%.#.@.O.o.X... .| O.@.@.O...@.@.$.$.@.@...O.@.@.$.$.@.@.$.@.$.@.@.O.@.@.O.{ } } |  .O.@.#.O.z t 5 3 3 5 & m M m M t 5 5 5 5 8 8 5 5 7 7 5 t t 7 8 3 3 5 5 5 5 8 8 5 5 5 2 < 1 ",
"1 m y w 5 8 5 5 5 5 q 3 6 4 8 5 8 5 8 7 5 7 7 5 8 8 5 5 5 3 > > 1 M P w 9 5 s &.%.#.+.X. .| } { { [ K H F n = = = = = = = = = n = = = = = = = = = n m M F J [ { | |  ...o.#.$.#.v 3 3 2 u & 1 M N B t 7 5 5 5 7 q q 8 3 7 8 5 q 8 7 5 7 5 7 8 5 5 5 3 5 5 5 : < ",
"M m T 0 3 0 8 5 3 5 3 7 3 6 6 5 5 5 4 9 5 5 5 7 7 0 5 5 7 2 > > m m T 9 t J %.$.@.O. .} { [ K J G F = = = n = = = = = = = = = n = = = = = = = = = n = = = M F [ } | ....X.O.O.+.@.P 5 5 7 2 > 1 B V T 5 5 8 7 3 5 5 7 4 7 7 0 5 8 q 5 5 5 5 5 5 5 7 5 5 q 5 : 1 ",
"< < t r w 7 5 9 5 2 2 3 4 4 6 5 2 5 4 5 3 4 6 5 5 6 4 4 5 # : 1 M 1 y Z @.$.@.+.o. .{ K J H F V = = = = = n b = = = = = = = = n = = = = = = = = b n = = = = = M G {  . . .o.o.o.+.%.O.4 5 + > 1 V m y 5 7 3 8 5 3 5 5 7 5 5 0 5 5 5 5 5 2 5 7 5 + 5 & 5 5 # > > ",
"1 1 8 7 0 8 3 3 5 2 2 5 2 4 4 2 4 2 3 3 3 3 7 s 4 4 5 7 0 $ > M 1 B ^ $.$.#.+. .{ [ J F C C = = = = = = = b n = = = = = = = = n = n = = = = = = n b = = = = = = = N V G K | ....O.$.%.$.8 @ > 1 m M 8 5 3 5 q 5 5 5 5 5 5 5 5 & 5 5 5 2 5 5 7 5 2 5 5 7 7 @ > > ",
"> > $ 4 2 # # 3 # @ @ 3 2 2 2 # # # $ @ @ # $ @ # & $ # @ 2 > 1 N F #.#.@.O.} [ J F C C b = = = = = = = = = n = = = = = = = = n = = = = = = = = n = = = = = = = = = b M N C { |  .#.#.$.%.2 m m 1 m $ 5 2 & s 5 # & * 5 2 & & l g & @ @ $ & @ @ # # $ & @ 2 > : ",
"> 1 < < 1 < < < < 1 < > < 1 1 < 1 1 m m 1 1 < 1 1 > ; > < > > m N @.+.+.o.| [ G V V = b n b = = = = = = = = n = = b ` n n n n n n n n n n b = = n = = = = = = = = b n b = N F [ }  .O.@.$.&.N B m 1 1 1 m < 1 < < m 1 N M M M B V M 1 1 < < < : : > > < < > > : ",
"< 1 < 1 1 1 1 < > > > > > 1 < < m m M m < 1 1 1 < > : > < < N N @.+.O.o.| { J V N = = = b n = = = n = = = b n n n n b = = = = n = = = = b n n n n b = _ = = = = = n b = = = < H [ { |  .+.$.%.F B 1 1 N M m > : < < m M M M < N m > > > 1 1 1 : > : > > : > < : ",
"y t r t t q t t P t r r P t $ 1 1 1 m j T P T T y T T P 5 5 z @.@.+.X. .{ [ C V = = = = = n b = = = b n n n b n = = = = = = = n = = = ` = = = n b n n n b = = = b n = = = = = m H { { } | O.#.%.Q T T T T t x s t t t t T P $ > : > > s T y P T t T T P t t t T ",
"8 6 3 5 7 5 4 6 6 3 5 4 5 5 4 1 1 1 1 T w 7 0 q 8 8 2 2 # l #.@.+.o. .{ [ H = = = = = = = b n = b n n b = = = n = = = = = = = n = = = n = = = n = = = b n n b = n b = = = = = = = C [ { } { o.$.%.c 5 y 5 5 5 5 5 5 5 7 q q + < > < < x q 5 8 0 t 7 q q 5 7 8 0 ",
"7 4 3 5 5 6 3 4 4 2 5 4 3 5 3 1 < 1 1 y 8 q q r 5 3 2 2 h @.@.+.o...} [ J = = = = = = = = = n - n = = = = = = n = = = = = = = n = = n ] n = = n = = = n = = n - n = = = = = = = = = C [ { { | O.$.*.y 5 5 5 5 5 5 5 5 5 5 7 & 1 > 1 > t 0 0 7 q 7 8 5 5 8 w 0 3 ",
"8 5 2 4 2 2 5 4 4 5 8 5 5 5 3 1 1 1 m y w 0 t q s 5 2 5 X.+.O.o. .{ J F n - = = = = = = = - n n b = = = = = = n b = = = = = = n = = = n = = b n = = = = = = b n n - = = = = = = = - n C J K [  .+.&.#.y 7 5 5 5 5 0 q 5 5 5 & N < < 1 P q 5 0 q 0 r 5 5 5 8 0 5 ",
"7 5 5 4 6 6 2 2 5 5 6 4 2 5 2 m M M M y 8 7 q q @ 2 5 A o.X...| [ J G = - n - = = = = - n n b - n = = = = = = b n = = = = = = n V M V = = = n b = = = = = = n - b n n n = = = = - n - = C J J [ o.$.*.^ q 5 7 7 5 q 7 5 5 5 5 m 1 M M q 7 5 8 0 0 7 0 7 5 5 7 5 ",
"5 5 8 3 4 5 3 2 3 5 8 4 3 5 2 1 M 1 M T 0 8 5 5 X 2 l o.X. .{ K H F = = = - n - = = b n b = = = n b = ( = = = = n = = = = = = n = = = = = = n = = = = = = b n = = = b n b = = - n - = = = C J J { O.$.%.v 5 7 5 5 5 5 5 5 5 5 1 1 B 1 t 8 8 5 0 3 7 5 5 q r 5 5 ",
"5 5 5 5 5 5 3 5 3 4 7 5 4 5 # 1 1 m M y q 7 q 2 2 g +.X. .} K G F C = = = = - n - - n ` = = = = b n = = = = = = n b = = = = = n = = = = = b n = = = = = = n b = = = = - n - - n - = = = = 1 F J J { #.#.@.Z 5 5 5 5 5 5 5 5 & 1 M M m t q 8 w 8 2 7 5 3 5 5 8 5 ",
"5 5 5 7 5 5 5 5 7 4 5 5 7 8 $ m < M N 8 8 0 8 2 5 X.o. .} K H F V = = = = = = - n b - = = = = = = n b = = = = = b n = n = = = n = = = = = n b = = = = = b n = = = = = = - b n - = = = = = = N V H J  .#.@...5 5 5 5 5 5 u q $ < > 1 1 5 5 8 8 7 0 5 5 5 5 5 5 3 ",
"# & # @ @ @ # @ $ # # @ # @ 5 1 < m m * 5 5 # @ Z o. .} K H F V = = = = = = = - b n - = = = = = = = n b | = = = = n = = = = = n = = = = = n = = = = = b n = = = = = = = - n b - = = = = = = = B V J { o.@.O.h @ @ & & * & * 2 < 1 1 < @ 2 2 # # 3 # & i 5 2 2 2 ",
"1 M M m m m m 1 1 m M m M 1 1 < < 1 < 1 1 1 < > ....| [ J F V = = = = = = = - n - - n - = = = = = = b n = = = = = n b n n n n n n n n n b n = = = = = n b = = = = = = - n - - n - = = = = = = = B C [  .+.+.X.M m m 1 m 1 : < 1 1 m 1 < 1 < m m 1 1 m 1 < > > < ",
"m M m < m m N < m M m 1 m m < < < 1 < < m 1 > C o. .{ J G V V b = = = K = - n - = = - n - = = = = = = n b = = b n n n b - = = n = = - b n n n b = = b n = = ` = = = - n - = = - n - = = = = = b 1 M J { O.@.@.G C 1 1 m 1 1 1 > < m < 1 m m M N N m < < 1 m < < ",
"m M d t r t P q P T P q t t T t y y T T y q t X...} K J G B b n b = = = = n b ) ' ) = - n - = = = = = b n b n n - b n = = = = n = = = = n b - n n b n b = = = = = - n - = = = = b n = = = = b n b < F {  .O.@.o.~ W T t t t T t P t T P t t t T x P T T t $ < < ",
"m 1 P 5 3 2 5 5 7 8 q 5 7 9 8 8 8 5 5 5 5 2 z o. .{ K J C V = b n n b = b n = ' -.' = = - n - = = = = - n n - = = = n = ] = = n = = = = n = = = - n n - = = = = - n - = = ( = = = n b = b n n b = > B { }  .+.+.A q q 2 3 5 7 5 7 8 w 5 5 8 7 8 7 7 7 8 5 5 < m ",
"1 m r 4 4 3 5 5 7 0 5 3 4 6 6 5 5 5 8 5 3 2  ...| { K H C > = = = b n n b - = ) ' ) = = = - n - = = b n b n b = = = n = = = = n = = ` = n = = = b n b n b = = - n - = = = = = = = - b n n b = = = = B J |  .o.O. .q 5 5 5 5 5 5 8 7 8 5 5 0 7 5 5 8 7 5 5 2 m 1 ",
"> < 5 7 7 3 + 5 8 7 3 5 3 8 7 2 5 5 7 5 2 l o. .} [ J G C = = = = = = b n b = = = = V M V = ] n - n n b = b b = = = n b = = = n = = = b n = = = b b = b n n - n - = = = = = = = = b n b = = = = = = V H |  .X.O.O.q 5 8 8 5 q 0 7 8 5 7 7 q 3 2 5 0 7 5 2 2 m < ",
"1 1 q 9 5 # 5 5 5 2 2 5 3 5 4 5 3 5 7 3 2 J X. .} [ J F > = = = = = b n = n n b = = = = = = = - n - = = = = n b = = b n = = = n = = = n b = = b n = = = = - n - = = = = = = = b n n = n b = = = = = > H }  ...O.O.S q 7 8 7 q 7 8 5 0 5 5 7 5 5 5 5 5 2 2 2 < < ",
"m m P 7 2 5 2 5 2 2 4 5 4 5 3 3 3 5 5 2 2 X.o. .{ [ J > = = = = = = n b = = b n n b = = = = = n - n - = = = b o.= = = n = = = n = = = n = = = n b = = = - n - n = = = = = b n n b = = b n = = = = = = H { |  .o.O. .P 8 5 5 s q 5 7 3 8 5 5 5 5 5 8 3 5 3 + < m ",
"1 < t w 3 2 2 2 2 3 2 5 3 3 2 5 4 3 3 2 # #.o. .{ [ H = = = = = = b n = = = = = b n b = = = b n = - n - = = = n b = = n = = = n = = = n = = b n = = = - n - = n b = = = b n o.= = = = = n b = = = = = > { |  .X.O.+.q 5 & 5 5 5 2 5 5 5 3 2 5 3 5 7 4 3 2 @ < 1 ",
"1 m 6 4 9 6 2 2 4 3 5 5 2 5 5 2 4 3 3 2 v @.o.| { K G = = = = = = n b = = = = = = = n n b = n b = = - n - = = b n = = n b = = n = = b n = = n b = ] - n - = = b n = b n n = = = = = = = b n = = = = = = H | |  .X.O.^ 5 & 5 5 2 5 5 5 3 2 2 4 3 5 5 3 5 3 X > m ",
"1 1 @ 2 2 # @ 3 # # * 5 2 2 2 # # # @ X  .+.X.| { [ > = = = = = = n = = = = = = = = = b n n b = ] = = - n - = = n b = b n = = n = = n b = b n = = - n - = = = = b n n b = = = = = = = = = n = = = = = = > | | |  .X.| x # + 2 # @ @ @ @ @ # @ @ # # @ # X . < m ",
"1 < < < 1 < < m M m 1 m > < < < < < < B O.O...} [ J n n n b = = b n = = = ` = = = = = = b n n b = = = = - n - = = n b = o.= = n = = n = b n = = - n - = = = = b n n b = = = = = = ( = = = n b = = b n n n } } } |  . .G N m m 1 > 1 < m M M m 1 1 1 1 1 1 1 < m ",
"t t r t t r t t P P t t Y t $ > < 1 1 D +.o. .{ K G = = b n n n n b - = = = = = = = = = n - b n n b = = = - n - = b n = n b = n = b n = n b = - n - = = = b n n b - n = = = K = = = = = - b n n n n b = = J { } } |  .S E q $ 1 > 1 1 a P t P P q t t P t t r Y ",
"6 5 4 4 2 2 4 6 3 2 3 4 8 6 3 < 1 m m S O.X.| { K F = = = = = = b n n n n b = = = = = b n = = = b n n b = = - n - = n b b n = n = n b b n = - n - = = b K n b = = = n b = = = = = b n n n n b = = = = = = G [ { { } { v q 5 2 1 < 1 1 P 7 6 6 5 5 5 4 5 5 7 6 4 ",
"6 4 2 2 2 3 3 4 2 2 6 5 4 6 3 m 1 m <  .o. .} [ J > = = = = = = n = = = b n n n b = - n b = = = = = b n b = = - n - b n = n = n = n = n b - n - = = b n b = = = = = b n - = b n n n b = = = n = = = = = = > K { { { [ g 3 3 2 m 1 1 m t 6 4 4 3 6 6 8 5 8 8 3 3 ",
"5 3 3 2 2 2 2 4 + 3 6 4 4 4 2 m M m < @.o. .{ [ J = = = = ] = b n = = = = = = b n n n n - = = = = = = b n n b = - n - n b n = n = n b n - n - = b n n b = = = = = = - n n n n b = = = = = = n b = = = = = = J [ { [ K B 2 2 2 1 > < < t 4 3 2 3 6 6 5 5 5 5 2 2 ",
"7 3 2 2 2 2 2 6 2 2 3 5 2 3 2 M M 1 > +.X.| { K J = = = = = = n b = = = = = = = = = b n n n n b - = = = = b n n b - n - n n b n b n n - n - b n n b = = = = - b n n n n b = = = = = = = = = ` n = = = = = = [ { } [ K H 2 3 2 > < 1 < t 6 3 2 4 4 5 5 7 3 5 7 2 ",
"2 2 2 2 2 3 2 4 2 2 3 5 2 5 2 M m 1 : O...} [ J H = = = = = = | = = = = = = = = = = n b = = - b n n n n b = = = n n - n b n b n b n b K - n n = = = b n n n n b - = = b n = = = = = = = = = = n = = = = = = { | } { K H 2 4 2 < < m 1 P 4 3 6 4 3 2 3 4 3 5 5 3 ",
"2 2 2 2 3 2 3 4 2 2 3 2 2 3 # m 1 1 O X.| { K H G = = = = = = n = = = = = ) = = = = n = = = = = = = = b n n n b = = n b n b n n n b n b n = = ] n n n b = = = = = V M V n = = = = = = = = = = n = = = = = = | | } [ K J 3 2 @ > m m M t 2 3 3 6 2 2 4 4 3 2 2 2 ",
"2 2 2 3 3 3 2 4 3 2 2 5 5 5 @ > > > : | { [ K H F = = = = = = n = = = = ) -.) = = ( n = = = = = = ( = = = = b | n n n n b n b n b n b n n n n n b = = = = = = = = = = = ) ' ) = = = = = = = ( n = = = = = = {  .} { [ J 4 4 @ 1 1 < m 6 2 2 3 3 5 5 3 4 2 3 2 2 ",
"+ + + @ @ @ # @ @ @ @ @ # @ 2 1 > > > [ [ [ K H F = = = = = = n = = = = = ) = = = = n = = = = = = = = = = = = = = = = b n b n o.n b n b = = = = = = = = = = = = = = = = ' -.' = = = = = = = = n = = = = = = |  .} [ [ G + @ 2 m 1 1 m @ 3 2 # @ 2 # # @ 2 2 2 2 ",
"> > < m m m m 1 1 : ; > 1 m 1 N 1 < < H K K J H G n n n n n n n n n n n n n n n n n ] n n n n n n n n n n n n n n n n n n n n n n n n n n n n n n n n n n n n n n n n n ) ' ) n n n n n n n n n n n n n n n ....| { [ F B N N m < 1 m m M 1 m 1 M m 1 m 1 > m < ",
"B B a P r T T t P Y T t t y T t y t T B J J K J G = = = = = = n = = = = = = = = = = n = = = = = = = = = = = = = = ] = b n b n n n b n b = = = = = = = = = = = = = = = = n = = = = = = = = = = n = = = = = =  .X.} { K B y t T y t t t y t q r Y Y t t P t $ M N ",
"V B P 9 4 6 9 6 6 9 6 4 3 4 9 9 9 4 9 M G K [ K J = = = = = = n = = = = = = = = = = n = = = = = = = = = = = b n n n n n b n b n b n b n n n n n b = = = = = = ` = = = = n = = = = = = = = = = n = = = = = = X.o.| } [ V 5 8 9 6 6 4 6 3 4 6 6 9 6 6 4 6 4 2 M 1 ",
"N V t 6 9 4 w 6 9 6 4 6 w w 3 6 4 4 4 M G K [ [ [ = = ` = = = n = = = = = = = = = = n = = = = = = = K b n n n b = = n b n b n n n b n b n = = b n n n b = = = = = ] = = n = = = = = = = = = = n = = = = = = o.X.| { K V 6 5 6 4 9 4 6 2 3 6 9 4 6 6 4 2 4 2 N M ",
"N V t 9 4 6 9 6 w 4 6 4 6 w 6 w 6 4 4 N H [ [ [ { = = = = = = n ) = ] = = = = = = = n b = = - b n n n n b = = = n n - n b n b n b n b n - n n = = = b n n n n b - = = b n = = = = = = = = = = n = = = = = = o.X.| { J V 9 6 6 9 4 9 3 3 4 4 4 3 6 6 4 2 2 2 M m ",
"C C t 6 2 4 6 9 4 9 3 4 3 6 4 9 6 6 3 m J [ { [ { = = = = = = ) -.) = = = = = = = = b n n n n b - = = = = b n n b - n - n n b n b n n - ] - b n n b = = = = - b n n n n b = = = = = = = = = b n = = K = = = X. .{ [ F V 8 7 8 6 6 6 6 5 4 6 6 4 4 6 3 2 3 2 N V ",
"C C Y 4 3 3 6 2 4 4 4 4 9 2 6 3 4 9 2 < F K { { { = = = = = = b ) = M V M = = b n n n n - = = = = = = b n n b = o.n - n b n = n = n b n - n - = b n n b = = = = = = - n n n n b = = = = ] = n b = = = = = = ..} [ [ C C 5 4 4 4 4 6 3 6 4 4 4 4 4 9 3 3 4 2 m N ",
"B B t 6 6 w 6 2 4 4 3 4 3 9 4 4 6 4 2 2 N J { { { F = = = = = = n = = = b n n n b = - n b = = = = = b n b = = - n - b n = n = n = n = n b - n - = = b n b = = = = = b n - = b n n n b = = = n = = = = = = ^  .{ [ K V 3 5 3 4 3 2 2 3 4 3 2 4 2 3 4 3 2 3 @ B B ",
"N B 6 6 6 6 4 9 4 2 2 3 4 6 4 6 3 4 2 2 1 H [ } } K = = = = = = b n n n n b = = = = = b n = = = b n n b = = - n - = n b b n = n = n b b ] = - n - = = b n n b = = = n b = = = = = b n n n n b = = = = = = [ } [ K J N 5 5 5 3 2 3 2 4 3 2 2 5 5 2 3 3 4 6 @ C B ",
"B B $ 3 2 # # 4 # # @ 3 2 2 2 # # # X X > G [ { } } = = b n n n n b - = = = = = = = = ` n - b n n b = = = - n - = b n = n b = n = b n = n b = - n - = = K b n n b - n = = = = = = = = = - b n n n n b = = [ [ K J G N 3 2 2 2 + # # @ @ @ @ @ @ @ # @ + @ 2 C B ",
"V V B N B V V V V N M B V N N N V M > > < G K { } } n n n b o.= b n = = = = = = = = = = b n n b = = = = - n - = = n b = n = = n = = n = b n = = - n - = = = = b n n b = = = = = = = = = = n b = = b n n n K [ K J F B M m N N m M V M V V M m m B B N B V C N B ",
"V V M N V C V F V B B V V N N V F N > > < H K [ } { [ = = = = = = n = = = = = = = = = b n n b = = = = - n - = = n b = b n = = n = = n b = b n = = - n - = = = = b n n b = = = = ( = = = = n = = = = = = G [ [ K J F N 1 1 m m m M N 1 B N m M m B V V F C B M B ",
"q r r T T y y y Y P r y T r @ B F F < $ u C J K { } { = = = = = = n b = = = = = = = n n b = n b = = - n - = = b n = = n b = = n = = b n = = n b = = - n - = = b n = b n n = = = o.= = = b n = = = = = = { { { K J V t t P t @ m B m < p Y y Y P t P P T t r 5 t ",
"4 6 w w 9 9 9 9 6 4 4 6 9 4 3 V V N > 7 2 < H J [ } } = = = = = = b n = = = = = b n b = = = b n = - n - = = = n b = = n = = = n = = = n = = b n = = = - n - = n b = = = b n b = = = = = n b = = = = = = | } { K H N 6 6 9 4 3 N m < > P 6 9 9 9 6 7 4 5 8 4 3 3 ",
"4 4 9 w 6 9 9 9 6 6 6 6 5 4 2 V N M 1 5 2 : C J [ { | [ = = = = = = n b = = b n ] b = = = = = n - n - = = = b n = = = n = ` = n = = = n = = = n b = = = - n - n = = = = = b n n b = = b ` = = = = = =  ...| { [ C h 9 6 4 4 2 m 1 < 1 t 6 e 4 6 6 5 9 w 9 2 6 4 ",
"4 9 4 4 9 9 6 6 4 9 6 6 4 3 2 C N M M 7 4 5 m J [ { |  .= = = = = = b n = n n b = = = = = = = - n - = = = ] n b = = b n = = = n = = = n b = = b n = = = = - n - = = = = = = = b n n = n b = = = = = = @.X.| } K B q 9 4 2 3 5 M 1 1 m r w w 4 w 3 9 4 9 w 6 9 5 ",
"4 4 6 9 6 4 6 6 4 4 4 3 2 2 2 C C N m q 4 2 1 F [ { }  .{ = = = = = = b n b = = = = = = = = - o.- n n b = b b = = = n b = = = n = = = b n = = = b b = b n n - n - = = = = = = = = b n b = = = = = = ..@. .| { C M t 5 2 2 2 & 1 m 1 M t 8 9 6 4 8 5 4 3 6 4 9 7 ",
"6 2 4 4 6 4 6 4 4 4 6 2 3 4 2 C V B B P 3 2 s B [ { } |  .= = = = b n n b - = = = = ` = = - n - = = b n b n b = = = n = = = = n ) ' ) = n = = = b n b n b = = - n - = = = = = = = - b n n b = = = = @.o. .| J > > d 5 2 2 5 5 M 1 < 1 T 3 6 3 8 5 5 5 6 3 4 3 2 ",
"4 5 4 4 4 6 4 5 3 3 6 3 3 4 # V C B N t 3 3 2 M [ { { }  .} = b n n b = b n = = = = = = - n - = = = = - n n - = = = n = = = = n ' -.' = n = = = - n n - = = = = - ] - = = = = = = n b = b n n b = o.+. . .} 1   3 5 3 2 2 5 # 1 < < 1 t w 7 3 7 5 3 5 2 6 4 5 5 ",
"3 5 2 2 4 3 3 4 3 3 4 4 4 9 @ N N m m 3 2 2 2 1 H [ [ { | O.b n b = = = = n | = = = = - n - = = = = = b n b n n - b n = = = = n ) ' ) = n b - n n b n b = = = = = - n - = = = = b n = = = = b n b #... .| C ; . 3 3 2 2 3 0 @ < < 1 < 5 5 t q 5 5 5 2 4 3 3 5 5 ",
"# # # X $ @ & @ @ @ # @ # @ 2 m 1 1 1 @ 3 2 X @ B K { { } +.X.b = = = = = - n - = = - n - = = = = = = n b = = b n n n b - V M V = = - b n n n b = = b n = = = = = = - n - = = - n - = = = = = b ..o.| } { < O @ @ @ & @ # @ 2 > > < 1 @ + # & & 5 # # $ 4 2 2 2 ",
"V F C C V m M m B B C M M N C M 1 < < 1 C V > > M H K { } +.@.= = = = = = ( - n - - n - = = = = = = b n = = = = = n b n n n n n n n n n b n = = = = = n b = = = = = = - n - - n - = = = = = = = O.| } K F : O < 1 M < 1 M m 1 < m 1 1 > > > < 1 V m m M N M M N ",
"C F F V V M N m B C C N B V V M < < < 1 B V M > > F H K { O.@.+.= = = = = = = - b n - = = = = = = = n b = = = = | n = = = = = n = = = = = n = = = = = b n = = = = = = = - n b - = = ( = = = = @... .[ H N : > 1 m 1 < 1 m 1 > < 1 < > > > > < m N m N N V B M B ",
"N M a Y t P P t T E T t t t P q q q P Y t t t q q < B K [  .+.@.O.= = = = = = - n b - = = = = = = n b = = = = = b n = = = = = n = = = = = n b = = = = = b n = = = = = = - b n - = = = = = = #.+.o.| [ F B : 5 q T T P t P q t q q 5 s q q t t Y Y y y T y * V N ",
"M V x 7 7 5 7 6 6 6 9 7 7 5 4 3 4 4 9 4 4 6 6 4 2 + m G J { X.@.O. .= = = = - n - - n - = = = = b n = = = = = = n b = = n = = n = = = = = b n = = = = = = n b = = = = - n - - n - = = = = H +.O...} K F M 2 5 2 5 7 8 7 7 8 5 5 5 3 5 5 5 q q 0 5 7 7 9 6 5 V V ",
"V B t 5 5 2 7 5 4 9 7 7 8 4 4 3 6 4 6 3 6 6 6 3 2 2 . B K K } o.O.+.H = = - n - = = b n b = = = n b = = = = = = n = = = = = = n = = = = ( = n = o.= ( = = b n = = = b n b K = - n - = = = @.+.o.| [ H V + 2 2 3 7 8 7 7 q 5 5 2 5 5 3 2 5 q q 7 7 9 7 4 6 3 C F ",
"C N t 8 0 5 q 4 2 6 4 9 8 6 6 6 4 6 3 4 6 4 4 2 4 3 + + J { { | X.+.@.= - n - = = = = - n n b - n = = = = = = b n = = = = = = n = = = = = = n b = = = = = = n - b n n - = = = = - n - = H +.O. .[ H C & 2 2 5 r q q 5 0 t 5 8 8 5 7 3 5 8 7 q 5 0 9 7 4 5 3 C F ",
"V B r 8 5 7 5 3 5 4 9 6 9 4 6 4 6 4 6 4 4 6 6 4 4 4 2 . m { } |  .+.@.H n - = = = = = = = - n n b = = = = = = n b = = = = = = n = = = = = = b n = = = = = = b n n - = = = = = = = - n H +.O. .[ F B m 3 2 2 q t s & r 0 8 7 8 5 8 5 8 5 5 0 q 7 5 5 5 2 5 2 V V ",
"B B t 5 5 0 7 4 4 6 6 9 4 4 4 4 2 4 3 6 3 3 4 4 4 6 3 + . N [  . . .+.+.H = = = = = = = = = n - n ] = = = = = n = = = = = = = n = = = = = = = n = = = = = = n - n = = = = = = = = = H +.O. .[ F M > q 2 2 5 8 5 5 7 7 7 5 5 7 5 3 5 5 6 7 5 7 5 5 8 5 s q 5 V V ",
"N M q q q 5 5 0 5 2 4 4 3 3 4 2 2 2 3 4 3 3 4 2 2 3 2 2 + . V [  . . .X.+.H = = = = = = = b n = b n n b = ( = n = = = = = = = n = = = = = = = n = = = b n n b = n b = = = = = = = H @.+.X.} G N > + 5 3 5 3 5 q 5 3 5 5 3 3 5 3 5 s 5 4 5 5 7 2 5 5 5 5 5 s B V ",
"N 1 7 5 8 7 5 5 q 4 5 4 2 3 3 2 2 2 2 2 2 2 4 2 2 2 2 3 2 X > B { } |  ...#.@.H = = = = = n b = = = b n ( o.( n = = = = = = = n = = = = = = = n b n n n ` = = = b n = = = = = | @.#.@.o.} J B 1 + 2 2 5 q 5 3 2 5 3 5 5 2 2 5 & & & 4 4 3 3 7 5 5 5 u q q $ M m ",
"M m $ 5 2 # # & s # $ 4 2 2 + # # @ X X X + @ @ + @ @ # X 2 > > C [ } | | ..$.$.H = = = b n = = = = = = = ( V M V n b = = = = n = = = = b n n n n b = = = = = = = n b = = = O.o.+.O.o.} J B m + + # X s & # # 3 # # $ 5 2 2 2 & & & @ @ $ & * * s s , g $ 2 1 N ",
"M B M m m m M m M N N N M 1 1 1 m N N m m m < < 1 m 1 m > : > < < B J K {  .o.@.@.H = b n b = = = = = = = = n = = b n ( n n n n n n n n n b = = n = = = = = = = = b n b = o.X..... .{ H B m > > : < 1 m M m M m m m B N 1 N N M B B M N V C B B C B V V N V M M ",
"N N M m m M m m B m M M m < < < 1 M M m 1 1 < < < m < m N 1 < < : 1 M F J { | o.+.+.O.X.b = = = = = = = = = n = = = = = = = = n = = = = = = = = n = = = = = = = = = b o.O.o. .{ K J C N m > > M < M M m m m N m M N V V N M M M V V V V N M N B V C N N B B N m ",
"t t y T T P t t Y T y t t q @ < 1 < < a P t Y Y t T T Y y y r q 5 5 5 m B J [ { | O.O.O.@.o.= = = = = = = b n = = = = = = = = n = = = n = = = = n b = = = = = = = o.#.#.@.| [ J G N m 1 5 5 5 5 2 8 t T T t y t T T y t T t $ N C F C v T t T c x T T P P x t P ",
"5 5 0 r q & 5 q q 7 5 5 7 4 5 N m > m P 6 9 9 6 6 5 4 6 6 6 9 9 6 5 4 4 > V G J K { | | ..+.#.O.H = = = = n b = = = = = = = = n = = = = = = = = b n = = = = H o.#.@.@.O.| [ J F m 1 > 2 2 2 5 5 5 3 5 0 5 5 0 0 5 u q 5 0 5 5 m V F V T 0 0 7 t t 7 7 q q u 5 5 ",
"2 5 7 0 5 0 7 5 5 5 8 5 5 5 2 N < : m t 6 9 6 6 6 6 4 4 9 w 9 9 7 8 e 9 6 2 1 C H K K [ K { ..X.O...H = = n = = = = = = = = = n = = = = = = = = = n = = H O.#.@.+.+.| } { J C m > + 2 2 2 5 t 5 3 7 5 0 2 8 8 q q f s 5 5 7 2 m B B m q 7 5 5 r q 7 0 5 q q 5 2 ",
"2 2 7 5 7 8 5 5 2 7 8 5 3 5 2 m < < M t 7 w 4 6 3 4 6 w 9 2 9 6 7 6 9 w 4 9 2 > B C H H J J J [ {  .o.@.X.H = = = = = = = = = n = = = = = = = = = H X.$.#.@.+.o.| { [ K C 1 : : 2 2 2 2 4 7 q 8 7 5 q 5 5 8 5 5 5 t & q 5 5 # B M m < t 7 5 5 q 5 5 5 5 q q 5 2 ",
"2 5 5 7 5 7 0 7 5 5 5 3 2 2 2 M N 1 m y r 9 5 9 3 6 4 9 w 6 9 4 5 9 4 3 6 9 9 2 o > M B G H G G G H { ..+.} X.X.H > N N G G J J J G G N N > H +.X.} @.O.X.| { K K J G m < : ; 5 4 7 2 4 5 7 5 9 7 0 q 8 7 7 8 8 5 5 5 5 2 5 2 V N B M y 0 5 0 5 5 5 3 0 q 7 5 3 ",
"5 # 5 5 q 5 5 7 q 7 8 2 2 3 2 m m m 1 T q 0 5 2 6 4 5 5 6 4 6 4 4 4 9 6 6 4 6 2 2 + O 1 N C F F F F F G C ..X.o.o.o.O.O.O.O.O.O.O.O.O.O.+.+.@.@.@.+.[ K K J J J G m > > ; + 8 5 5 5 5 4 7 5 5 5 5 5 5 3 8 7 7 5 5 5 7 2 3 5 2 N B V N T 5 2 7 5 5 2 5 7 7 5 5 2 ",
"s & # 2 5 2 5 q s 5 q & 5 3 # 1 M 1 1 t 5 8 2 4 5 6 5 q 3 6 3 3 4 2 4 4 6 4 3 4 2 2 2 + ; 1 B V V V V V m }  .....X.O 6 L e U I L 6 L 6 O o.o.o.X.} m H H H F m ; O ; 5 3 4 5 5 7 & & 5 2 4 5 6 4 3 5 5 7 5 3 5 5 2 3 2 3 5 # B B B 1 r 7 8 3 5 8 2 2 5 5 5 2 5 ",
"2 2 2 5 5 2 2 0 s 5 5 3 4 8 @ m 1 1 M 8 e 8 2 4 5 3 4 5 6 4 4 3 2 3 3 5 4 6 2 4 2 2 2 2 2 + O > m B N M M H J J J K { } } } } } } } } } { [ [ [ K J m C m : ; O ; 2 4 4 2 3 5 3 3 q u 5 3 3 3 5 5 3 5 u 5 2 2 5 3 2 3 3 5 5 @ B V N < 5 3 9 7 2 2 5 5 5 5 2 5 5 ",
"# @ @ @ $ * & $ * # # $ & @ 2 m M C V $ 4 2 @ $ 5 # + $ 3 2 2 2 + + @ @ @ @ # @ @ # + X X . . ; O O ; > > C F G H > V G V K G V G K V J V > J J H H < : : ; + ; : : ; X 2 2 @ # 3 @ # $ 5 2 2 2 # @ @ X @ @ # @ @ # s $ # @ 2 V V N m $ 3 2 # @ 5 @ # $ 5 + # 5 ",
"M M m B B N m < < > N N N m 1 1 N V V V B N m 1 1 < > 1 m m N m < > > < < 1 1 1 > > < < < < > > > O O ; O N N m > V | C | [  .[  .J  .m  .< > N C M > ; ; : > > 1 1 < < < m m m 1 1 m m < < < m m 1 > < m m m m 1 1 m M N B m m m N M 1 > 1 < m > > 1 m 1 1 m m ",
"N N a T t P T y P T T r t y T y y t P Y y y y T T y t Y y $ m m 1 < p P t T P q t t P t t t P t t t P t 5 O > > V J C | G @.[ @.J @.V | V J V > m . q 5 5 5 q 5 5 5 q q q q t P P r r P t @ m m m m u t t T P t P Y T y t t T t t y Y P t t t P T t t x t $ N 1 ",
"N M T 7 0 8 8 8 5 5 7 4 4 6 6 3 3 6 9 4 4 9 9 9 7 6 4 9 7 3 1 1 1 < Y 9 6 8 0 5 5 5 8 5 5 8 w 8 4 3 4 e w 3 ; . m V | J [ {  . .{ { [ J G V m . ; 2 2 2 4 2 2 2 2 6 9 3 3 7 8 7 5 3 5 8 5 2 < 1 m m q 7 3 7 9 6 6 6 9 6 5 8 9 4 4 4 6 w 9 6 6 6 5 5 5 0 5 5 M 1 ",
"N B y 7 7 5 9 5 5 8 5 5 8 4 3 2 4 4 6 3 9 9 8 6 6 9 6 5 5 2 < > < < t 8 9 5 q 4 6 5 5 8 w 9 4 5 3 3 4 9 w 6 6 4 : > M M M B V V V B M M 1 > : q 2 4 2 4 2 2 2 2 4 5 6 2 5 5 8 5 4 8 5 3 5 2 m 1 1 m q 7 6 4 9 3 6 6 6 8 w 9 2 4 2 4 4 q 9 5 4 7 2 5 5 3 5 2 1 m ",
"N B P q 0 3 9 3 2 4 4 q 0 4 6 4 4 8 3 6 8 4 4 4 9 6 5 3 2 2 > > < 1 t 0 8 w 9 9 w 4 8 5 8 9 4 5 3 2 9 4 4 8 8 9 9 +   O ; O ; : : ; O ;   O 4 4 2 2 q 2 2 3 6 6 4 6 2 2 3 5 5 3 6 8 4 2 2 2 m 1 m m q 9 6 9 6 6 w 3 6 5 6 6 2 6 4 4 5 2 3 0 6 6 5 7 5 2 2 2 m B ",
"B m t w 5 6 3 3 3 3 9 0 8 4 6 4 8 7 9 4 4 6 6 6 4 4 2 2 2 2 1 1 m N t 8 4 6 9 9 4 8 5 5 5 6 3 6 5 6 7 8 9 5 5 6 6 6 4 3 4 2 > > > > 5 2 2 2 2 2 4 2 3 4 6 4 4 2 6 4 6 3 4 7 8 5 5 5 2 2 2 2 < M m m q 6 4 7 9 w 4 6 3 5 3 4 2 6 4 7 3 6 4 5 3 6 5 5 3 2 2 2 M B ",
"1 1 T 6 3 8 4 3 5 6 8 8 4 4 4 4 4 5 4 6 5 4 4 6 7 4 2 2 3 2 M N m m T 9 9 3 8 3 6 5 5 5 8 5 5 4 4 8 5 7 4 4 2 4 4 9 4 4 6 2 1 m < > t 4 2 9 4 2 2 6 6 6 5 4 3 4 3 4 3 4 4 4 4 4 4 6 3 3 3 2 1 m M 1 P 6 4 2 6 4 6 4 3 4 6 3 4 4 3 4 3 6 3 7 3 5 5 q 2 2 2 # m M ",
"1 m y w w 3 2 6 & 5 6 3 3 3 4 3 2 2 2 4 3 3 4 5 u 5 2 2 2 # N B V B t w 8 w 6 3 6 5 5 5 3 8 5 7 6 4 5 7 7 4 4 4 4 6 4 4 3 & 1 < > < q 9 w 6 4 9 3 3 4 2 5 2 3 3 2 2 3 4 2 3 4 3 2 4 3 3 3 # M M m 1 t w 6 9 6 4 9 4 3 4 3 6 6 4 2 5 4 4 5 3 4 3 3 5 2 2 2 # < m ",
"m M 7 4 9 4 2 2 5 3 6 3 2 3 2 2 2 2 3 2 2 2 5 5 s 5 2 4 6 @ m m B B 6 6 6 5 5 9 4 5 5 3 5 5 4 6 4 4 7 4 4 4 6 5 5 5 4 5 q $ m < < < 6 4 9 6 3 4 4 3 4 2 2 3 3 2 3 2 3 2 3 2 4 3 3 3 4 4 6 @ m m m M 6 9 9 6 4 9 4 3 5 3 3 4 3 3 2 3 4 3 7 3 7 7 5 3 2 2 3 @ N m ",
"M M $ 4 2 @ @ 2 @ # $ 5 2 2 2 + @ @ @ @ @ # @ @ s & @ # @ 2 m m N M $ 5 2 # # 3 # # $ 3 2 2 2 # # # @ @ @ # @ @ # # @ # $ 2 1 < m m @ 3 2 @ # 4 # # $ 2 2 2 2 # # # @ $ @ # @ @ # # @ @ @ 2 1 1 N B $ 3 2 # @ 2 + @ @ 2 2 2 2 # # # @ @ @ # $ * & # @ + X 2 M M ",
"M N m m m 1 > : > > < < > > < 1 1 < < : > > > 1 1 1 m m 1 M M M m m m N 1 < < 1 < > < 1 1 m 1 1 1 < < < m m m m m m 1 < 1 m M M m 1 m m 1 < 1 M B C M M M M M M M M m m < N N M m m M 1 < m 1 m M B N m N N M m m < M N m 1 M m N B m 1 < < m N N 1 > : > 1 m N ",
"N m 1 1 1 > > < > : > < 1 1 1 1 1 > > : > > > < m B N m 1 M m 1 m 1 1 1 m 1 < < 1 1 1 < m m m N 1 M 1 < 1 < m m m m 1 1 1 m M m m m m M 1 < m N B V M M V m m M m m 1 1 < m M m M m m m M m 1 M m m m M N N M 1 1 1 M 1 < < m N B m m 1 1 m m < > > : : < < m M ",
"t y t P Y t t t Y T y t Y t @ > > > > d y q t t x Z c T y y t T t y t T T t t t T Y t t T t $ N M M m j T t T T y T P P r t y T t t t Y t q q t Y Y y y T t $ m 1 m < a Y t Y T t P Y T t r r P t t t P Y t t q y P r t Y t $ N V m < i P t P t q T T T y y y T ",
"6 5 8 w 8 4 6 8 8 4 4 4 5 5 2 > > > 1 Y 5 7 5 5 q q q 7 9 9 6 8 5 8 w 5 0 0 7 8 5 7 5 6 9 6 4 M m m M T 8 w 9 8 8 5 4 8 6 6 9 9 6 6 6 w 3 2 4 9 9 6 6 6 9 4 3 1 m m 1 Y 6 w 6 9 4 3 6 9 6 4 6 6 4 4 9 w 4 4 6 6 6 4 3 4 6 6 3 m m m > t 5 5 9 4 4 6 6 7 5 8 w 6 ",
"7 7 5 6 4 2 7 6 4 4 6 5 3 5 2 > > < < t 5 3 2 8 8 0 8 8 9 9 6 6 8 9 8 q 7 8 w 8 7 7 8 5 4 6 3 M m m N y 4 7 5 w 7 7 9 7 7 9 6 6 4 9 4 6 2 6 9 9 6 6 9 6 4 4 2 m m M m t 6 6 9 4 4 6 w 6 9 9 6 6 6 4 4 3 4 6 6 6 6 4 4 3 3 6 2 m 1 m > r 5 2 t 5 6 4 4 6 6 5 3 6 ",
"q 5 6 2 2 3 2 4 3 0 8 5 3 3 2 > : > > t 8 9 3 w 5 w 5 0 6 7 7 e w 5 8 5 5 5 5 7 5 4 7 4 3 3 3 1 m m M q 9 0 4 w 5 4 6 5 q 0 6 9 9 6 9 3 4 9 6 6 4 9 9 6 4 4 2 m 1 1 N t 6 4 3 3 4 w 6 4 4 4 4 4 4 4 6 3 4 2 2 4 3 6 4 3 3 3 2 M 1 m > q 6 7 r 0 w 3 6 4 5 8 5 9 ",
"5 5 5 6 3 2 2 4 3 4 4 3 2 4 2 < > > > t w 7 7 5 0 0 8 e 5 0 5 8 8 5 0 5 3 7 5 5 7 2 3 3 3 3 2 1 1 1 M t e 6 8 5 5 6 3 q 0 0 7 9 6 9 6 9 6 6 9 9 6 6 6 4 2 3 2 1 < 1 m t 6 2 2 3 6 6 6 9 3 6 6 3 6 6 4 4 2 2 3 6 5 4 5 3 2 3 2 1 < 1 1 q w 7 r 0 5 8 5 5 2 5 5 0 ",
"5 5 3 4 2 2 2 4 4 4 6 3 3 6 2 < 1 < < P 8 5 9 8 7 8 0 7 t q 5 5 7 4 8 5 5 5 7 7 5 5 8 4 4 6 2 < m 1 1 T 9 3 9 8 5 3 5 8 8 7 7 7 6 4 6 4 9 6 6 6 4 6 9 3 2 4 2 m 1 m 1 P 4 2 4 4 6 3 4 6 4 4 4 4 3 4 4 2 2 2 2 4 5 6 9 4 3 4 2 < m < m Y 6 3 4 3 7 5 5 5 3 5 0 5 ",
"7 5 4 4 4 2 3 5 3 5 7 2 3 2 # < m 1 m t w r 5 5 5 7 5 q t 7 7 8 5 6 5 5 8 5 5 5 5 5 4 4 3 4 # < m m 1 t e w 5 6 9 5 5 5 3 4 4 7 3 2 5 4 6 4 4 6 3 4 6 2 3 4 # m m m < q 2 4 2 6 3 4 6 4 4 2 3 4 3 2 3 2 2 2 2 5 5 3 4 4 4 3 # < < < 1 t w w 6 2 7 5 5 & 5 7 5 0 ",
"7 5 5 2 2 2 2 5 3 3 3 3 5 4 @ < 1 < 1 8 7 w 8 3 0 7 3 0 7 5 7 5 8 7 5 5 5 5 5 5 4 5 3 3 4 6 @ m M M M 8 5 q q 5 4 5 3 6 4 3 5 5 2 3 2 3 4 3 3 6 3 4 4 3 4 9 @ m m m > 6 2 2 2 3 4 6 4 4 3 3 2 3 3 3 3 4 2 3 2 4 5 3 2 4 4 6 @ < < 1 1 8 5 r 7 0 2 4 5 2 5 3 3 3 ",
"# # @ @ @ @ @ @ @ # # @ # @ 2 < 1 1 < $ 5 2 # # 5 # # * 5 2 2 5 s # # @ $ $ & $ @ # # @ @ @ 2 m m m M $ 5 # # # 4 # # $ 4 2 2 2 # # # @ @ @ # @ @ # # X # @ 2 m < < < @ 2 2 # # 4 # # @ 2 2 2 2 # # @ @ @ @ # @ @ @ # @ @ @ 2 < < < m $ 5 3 & & 3 # # @ 2 2 2 2 ",
"m m > : : : : : 1 m m 1 < < > > < 1 < m 1 m 1 m m > 1 m m 1 1 1 1 < < m 1 1 < > > > > < > < 1 m 1 m 1 m m 1 m M m < 1 M M m 1 1 N M N N N N M N N N B M 1 1 1 < < > < m M N V V N m m 1 > 1 m < < m M m < m m m < > > : > 1 m m 1 m 1 m m 1 < m < 1 N < 1 1 m m "
};
