/* XPM */
static const char *wall_t1[] = {
/* columns rows colors chars-per-pixel */
"128 128 103 2 ",
"   c black",
".  c #070707",
"X  c #0B0B0B",
"o  c #170F07",
"O  c #1F170B",
"+  c #131313",
"@  c #1B1B1B",
"#  c #2F1B0B",
"$  c #2B230F",
"%  c #232B0F",
"&  c #372313",
"*  c #332B13",
"=  c #3F2B1B",
"-  c #2F371F",
";  c #232323",
":  c #272727",
">  c #2F2F2F",
",  c #373F27",
"<  c #373737",
"1  c gray23",
"2  c #430000",
"3  c #470000",
"4  c #4F0000",
"5  c #530707",
"6  c #5B0000",
"7  c #5B0707",
"8  c #5F0707",
"9  c #670000",
"0  c #670B0B",
"q  c #6B0F0F",
"w  c #730000",
"e  c #7F0000",
"r  c #731313",
"t  c #771717",
"y  c #7F1B1B",
"u  c #432F1B",
"i  c #43331B",
"p  c #4B371B",
"a  c #533F1F",
"s  c #473323",
"d  c #4F3B23",
"f  c #4F3B27",
"g  c #4F3B2B",
"h  c #533F2F",
"j  c #5F4323",
"k  c #5B472B",
"l  c #574333",
"z  c #5F4B37",
"x  c #6B4727",
"c  c #7F532F",
"v  c #67533F",
"b  c #000047",
"n  c #000053",
"m  c #00006B",
"M  c #434343",
"N  c gray28",
"B  c #4B4B4B",
"V  c gray31",
"C  c gray34",
"Z  c #5B5B5B",
"A  c #6F5743",
"S  c #775F4B",
"D  c #6F7357",
"F  c gray39",
"G  c gray42",
"H  c #6F6F6F",
"J  c #7B7F63",
"K  c #777777",
"L  c gray50",
"P  c #831F1F",
"I  c #8B2323",
"U  c #8F2B2B",
"Y  c #972F2F",
"T  c #9B3333",
"R  c #836B57",
"E  c #8B735B",
"W  c #937B63",
"Q  c #9B7F6B",
"!  c #A76B6B",
"~  c #9F876F",
"^  c #A78F77",
"/  c #AF977F",
"(  c #000083",
")  c #00009B",
"_  c #0000B3",
"`  c #0000CB",
"'  c #0000E3",
"]  c blue",
"[  c #1B1BFF",
"{  c #3737FF",
"}  c #838383",
"|  c #8B8B8B",
" . c #939393",
".. c #979797",
"X. c #9F9F9F",
"o. c #B79F87",
"O. c #BFA78F",
"+. c gray67",
"@. c gray70",
"#. c #B7B7B7",
"$. c gray75",
"%. c gray78",
"&. c #CBCBCB",
/* pixels */
"< < < : > > > > < M M 1 < < > > > > > 1 M 1 1 M > > 1 M N M 1 1 M M N N < < 1 > M > > 1 < < M < 1 < > < < 1 M N V M 1 M N 1 < 1 < M 1 N N B B N N N N M N B B M < < 1 N B N V C V 1 N > > < < 1 N B N N M N M < < 1 M > < 1 1 1 1 N N M 1 < < M M M 1 < < < > 1 ",
"< < p t q y P t U I U P y q t t y t U U t y y U I t t U t = < M 1 N k U y U U y U U U y t t U t r q t P y y y U U P y U y * < < < 1 p U y U U t U P t r t y U y t t P I t t t U U y r t q $ 1 N 1 < a U t P I t U U U q q t I t t y U U P t P U U P t P y * < M ",
": 1 P 6 6 5 7 w 7 8 8 5 8 4 6 w 7 w w 9 9 4 8 8 5 5 7 8 6 5 < 1 1 1 U q r q 0 8 7 q 8 5 5 q q 5 5 5 q 7 7 0 0 0 q 7 7 0 7 4 1 1 M M U 6 9 9 9 9 4 4 4 4 6 9 9 6 7 9 w 4 4 9 6 6 6 6 4 4 3 3 < 1 M M P 6 9 6 6 8 5 6 8 3 3 8 6 6 7 8 0 s s 0 8 0 7 5 4 6 7 5 1 < ",
"> M y 9 7 8 0 9 9 0 7 9 9 8 8 5 5 5 4 5 8 4 4 4 6 6 6 3 6 3 1 1 M 1 P s g 5 q 7 5 8 5 5 5 7 q 5 t 5 7 2 8 8 8 7 7 0 8 5 6 3 M M M M t 4 4 3 9 4 6 6 3 4 9 6 6 4 9 6 6 3 8 9 6 4 6 6 4 2 4 2 1 < N 1 t 4 6 4 9 6 5 9 q 3 8 9 8 r t 7 0 = s q 8 6 7 8 5 5 7 3 N 1 ",
"< 1 t 8 7 4 8 8 9 5 5 6 4 5 4 4 5 8 3 3 2 2 4 3 9 6 6 4 4 3 < 1 < M P r r 5 r 7 5 5 5 7 0 7 q 0 7 8 5 4 8 5 0 5 0 0 7 5 4 3 M M M M t w w 3 w 4 3 6 4 9 9 4 6 9 6 9 3 4 9 4 4 3 6 6 4 3 3 5 M N < M t 6 4 4 3 7 8 9 5 4 5 5 7 t q 7 8 5 7 4 6 4 8 8 7 5 5 5 < > ",
"1 M y 9 4 3 5 q 8 6 8 3 6 6 3 6 4 4 5 3 2 0 5 5 6 4 4 2 4 2 < 1 1 1 P r 7 0 7 7 7 5 0 0 0 7 0 7 8 7 9 6 7 0 q 7 7 7 5 3 5 5 M 1 M N t e 6 6 4 4 6 4 w 6 9 4 9 6 9 4 6 6 4 6 6 6 6 4 4 3 3 2 N M < 1 t 9 4 3 2 6 9 6 6 8 5 8 t q 8 5 5 7 7 5 q 5 7 q 5 5 5 2 1 > ",
"M B Y 7 4 0 7 7 4 5 5 2 4 4 5 5 4 3 2 2 5 5 7 6 6 9 4 4 7 2 < 1 1 < U 0 5 q 0 0 5 8 8 8 7 7 7 7 5 7 5 8 5 5 q 7 7 8 4 4 6 2 1 1 M C U 6 3 9 9 4 3 9 9 9 6 6 6 6 2 4 4 6 4 4 4 6 4 6 4 5 3 2 < M M M U 6 3 2 6 5 6 4 5 7 5 0 q 7 5 5 7 5 5 5 5 5 5 t 5 5 7 2 < > ",
"< 1 P 3 5 5 0 5 4 5 5 4 3 3 4 3 3 2 2 2 2 4 6 3 3 6 4 4 4 & M M < < y r r 7 7 w 5 5 7 5 5 5 7 5 5 5 5 7 5 5 7 5 3 5 5 4 4 & 1 1 M V y w w 4 6 w 4 4 4 4 3 3 6 4 2 4 4 4 3 3 4 3 3 4 3 4 4 & M M M M t 9 2 2 2 7 4 3 7 7 5 q q 7 5 5 5 5 5 5 5 5 5 5 5 5 5 = N B ",
"1 1 7 4 5 5 5 5 5 3 5 3 3 2 3 3 3 2 4 3 3 2 4 3 4 4 4 6 9 $ N M 1 < 0 5 0 q 5 5 7 5 7 5 5 5 5 5 5 5 5 5 5 = q 5 5 4 4 7 9 i 1 M < M 9 4 9 9 4 4 6 3 4 3 2 4 3 2 2 2 3 5 2 2 4 4 3 4 4 4 6 $ < < < < 7 3 2 2 2 4 4 4 5 7 5 5 s 5 5 5 5 7 5 5 5 5 2 2 5 7 q $ M 1 ",
"M M * 4 5 & = 5 & & * 3 2 2 2 & = = $ $ $ & $ $ & & $ & $ 2 N M < 1 i 5 2 & & 5 = = = 5 2 2 2 = u g - * * & $ $ = & $ = , 5 N M M M * 4 2 & & 4 & $ * 4 2 2 2 $ $ # $ $ $ & * $ & & $ & $ 2 > > < 1 * 2 2 $ & 4 $ & s 4 2 5 5 = s = $ $ $ = $ $ $ $ $ & $ 2 M N ",
"B B B M N M > > 1 M 1 > 1 A A z 1 1 1 > > < > < 1 1 M 1 M 1 1 1 1 M 1 M M < 1 B B N M 1 M 1 1 1 M B N N 1 M < < 1 < N M V B B N B M 1 M B M M B B N N N M M N M M M N M 1 1 M < 1 1 1 M M < M M M M 1 B N M M M M N M B V M < M A A l < M < > : > < 1 B M M C C ",
"y y y U U P P P P U r q I S R S l < < J Q ! / / / o.o.O.o.o.O.O.+.+.+.@.@.@.@.#.#.$.#.$.$.$.$.$.$.%.%.%.%.%.%.&.&.&.&.&.&.&.&.&.&.&.&.&.&.&.&.&.&.%.%.%.%.$.$.$.$.$.$.#.$.#.$.#.#.@.@.@.+.+.+.+.O.O.o.O.O.o./ / / / ^ ~ ~ q $ S E S z h P t P t q P P U t t t U ",
"5 5 8 w 5 q t t q 6 4 4 0 v W S l l g  . . .X.X.X.X.X.X.X.X.X.X.X.X.X.X.X.X.X.X.X.X.X.X.X.X.X.X.X.X.X.X.X.X.X.X.X.X.X.X.X.X.X.X.X.X.X.X.X.X.X.X.X.X.X.X.X.X.X.X.X.X.X.X.X.X.X.X.X.X.X.X.X.X.X.X.X.X.X.X.X.X.X.X.X.X.X.X.X.v S R Q v = U 8 9 7 0 q 5 5 t 7 5 7 8 ",
"2 8 7 8 5 8 0 0 4 6 6 4 4 z A z & O o G G L L L L L L L L L L L L L L L L L L L L L L L L L L L L L L L L L L L L L L L L L L L L L L L L L L L L L L L L L L L L L L L L L L L L L L L L L L L L L L L L L L L L L L L L & & l A z = P 7 5 5 t 5 5 0 s s q 5 5 ",
"8 5 8 2 7 8 5 5 2 4 8 6 3 l f u # + + C C C C C C C C C C C C C C C C C C C C C C C C C C C C C C C C C C C C C C C C C C C C C C C C C C C C C C C C C C C C C C C C C C C C C C C C C C C C C C C C C C C C C C C C C C + + s s u & y 8 0 5 r 5 5 5 = q 7 5 6 ",
"5 7 5 5 0 7 9 9 4 5 4 4 2 O o .   + + 1 1 < < < < < < 1 1 1 1 1 1 1 1 1 1 1 1 1 1 1 1 1 1 1 1 1 1 1 1 1 1 1 1 1 1 1 1 1 1 1 1 1 1 1 1 1 1 1 1 1 1 1 1 1 1 1 1 1 1 1 1 1 1 1 1 1 1 1 1 1 1 1 1 1 1 1 1 1 1 1 1 1 1 1 1 1 1 + + O o o . y r 7 0 5 5 5 5 q 0 0 5 4 ",
"5 5 5 5 q 5 5 6 6 5 8 4 3 + . . + + + G Z m n n n m m m m m m m m m m ( m m ( m m m m ( m m ( ( ( ( ( ( ( ( ( ( ( ( ( ( ( m m ( ( m m m m m n n n n n n n n n m n n m m n n m m n n n n m n n n n n n n n n n n n m n G Z + + + + + + U 8 s t 0 5 5 0 0 8 5 5 5 ",
"5 2 5 5 7 2 2 5 4 5 7 5 2 O + + + @ @ L H m m m m m m m ( ( ( ( ( ( m ( ( ( ( ( ( ( ( ( ( ( ( ( ( ( ( ( ( ( ( ( ( ( ( ( ( ( ( ( ( m m m m m n n n m n m n m m n n m m m n n n n m n n n n n n n n n n n m m m n n n n L H o O : @ @ B P r q q 7 0 5 5 7 3 5 2 3 ",
"3 5 5 5 4 2 2 4 5 5 5 2 2 2 O @ @ + + X.| ( ( m m m ( ( ( ( ) ) ) ) ( ( ( ( ( ( ( ( ( ( ( ) ) ) ) ) ) ) ( ( ) ) ) ) ) ) ( ( ( ( ( m m m m m m m m m m m m m m m m n m m m m m m m n n n n n n n n n n n n n m n n n n X.| o X ; > M M 7 7 q q 5 3 5 5 5 5 2 2 3 ",
"& & s * $ $ & $ $ & & $ # O O # # + + X.| ( ( m m m ( ( ( ) ) ) ) ) ( ( ( ( ( m ( ( ( ( ( ( ) ) ) ) ) ) ( ( ) ) ) ) ( ( ( ( ( ( ( m m ( m m m m m m ( ( m m m m n n n n m m n m m n n n m n n n n n m n n n m n n n n X.| X o ; < M N * 5 5 = & 5 & & * 5 2 2 2 ",
"1 < > > : > : > 1 < > : @ > : : > + X X.| ( m m ( ( m ( ) ( ( ) ) ( ( ( ( ( ( ( ( ( ( ( ( ) ( ) ( ) ( ) ( ( ) ) ) ) ) ( ( ( ) ( ( m ( m m m n m m ( m m m m m m m m n n n n n m n n m m m n n n n m n n n n n n n n n X.| + @ : < 1 V V M M M M B M M < 1 < > < ",
"1 < > > ; : : > > < 1 > : : @ : O + . X.| ( ( ( m m m ( ( ( ( ( ( ( ( ( ( ( ( ( ( ( ( ( ( ( ( ( ( ( ( ( ( ( ( ) ) ) ) ( ) ( ) ( ( ( ( ( m m m m ( ) ) ( ( ' ' ' ' ' ` ) n m m n n n n n n n n n n n n n n n n n n n n X.| + @ > 1 B V C B 1 < 1 B M M M M 1 1 < ",
"M < k U t P t q P U U r q 7 5 # O o o X.| ( ( ( m ( ( ( ( ( ( ( ( ( ( m ( ( m ( ( ( ( ( ( ( ( ( m m m m m ( ( ) ) ) ( ( ( ( ( ( ( ( ( ( ( m m m ` ] ] ] ] ' ' ' ' ' _ ) _ _ _ ( n n n n n n n n n n m m n n n n n n n X.| O & 5 t P U U y t q P U y P P t * M N ",
"N 1 U 8 9 4 4 5 5 5 7 5 5 3 2 4 2 O o X.| m m ( m ( ( ( ( ( ( ( ( ( m m ( ( ( ( m ( ( ' ' ' ' ' ( ( ( ( ( ( ( ( ( ) ) ) ( ( ( ( ( ( ( ( m n ) ' [ [ ] ] ' ' ` ` ` _ ) ) ` ` _ ) _ _ ) n n n n n n n n n n n n n m n m X.| o 2 5 5 0 0 5 5 7 7 8 5 7 7 7 5 5 M N ",
"B B P 5 4 2 5 4 5 8 5 5 5 2 6 4 2 2 O X.| ( ( ( ( ( ( m ( ( ( ( ( ( ( m ( ( ) ) ' ] ] ] ] ] ] [ [ [ [ ' ) ) ( ( ( ( ( ( ( ( ( ( ( ( ( ( _ ' ' ' ] ] ' ) m m n n n n n n n n n n ) ) ` ' ) m n n n n n n n n n n n n n X.| o 2 p 0 7 5 4 5 0 5 5 7 8 7 5 5 5 1 N ",
"N N t w 0 3 w 5 5 t 5 5 6 3 4 2 4 2 O X.| m ( ( ( m m ( ( ( ( m ( ( ( m ( ' ] ] ] ] ] ] ] ] [ { { { [ { { [ ' ( ( ( ( ( ( ( ( ( ( ( _ ] ' ' ' ] ' ` ( m m m m m m n n n n n n n n n m ) ) ` ( n n n n n n n n n n n n X.| o 2 5 5 7 3 3 5 5 5 5 8 8 5 5 5 2 < 1 ",
"1 M y w 5 8 5 5 5 5 q 3 6 4 5 2 2 2 o X.| m ( ( ( ( ( ( ( ( ( m m m ( ' ] ] ] ' ( ( ( ( ( ) ) ) ) ) ) ' [ [ { ] ( m ( ( ( ( ( ( ( ) ] ] ] ' ] ] ` m m m m n m n n n n n n n n n n n n n n _ _ m n n n n n n n n n n n X.| o o 5 5 7 5 7 5 7 8 5 5 5 3 5 5 5 : < ",
"N M U 0 3 0 8 5 3 5 3 7 3 6 4 3 2 2 o X.| ( ( ( ( ( ( ( ( m m m m ( ' { ] ) m m m m m m ( ( ( m ( ( m m m ) ] ] ] ' ( ( ( ( ( ( ) ] ] ] ' ] ] ` m m m m m m m n n n n n n n n n n n n n n n ) _ m n n n n n n n n n n X.| o 2 2 5 0 5 5 5 5 5 5 5 7 5 5 q 5 : 1 ",
"< < t r w 7 5 9 5 2 2 3 4 4 4 2 4 2 o X.| m ( ( ( ( ( m m m n n m ' [ [ _ m m m m m ( ( ( ( ( ( ( ( ( m m m ( _ ] [ ' ( ( ( m ( ] ] ] ' ] ] ' m m m m m m n m m n n n n n n n n n n n n n n m ` _ m n n n n n n n n n X.| o 2 2 3 5 5 5 2 5 7 5 # 5 = 5 5 & > > ",
"1 1 8 7 0 8 3 3 5 2 2 5 2 4 3 2 2 2 o X.| ( ( ( ( ( ( ( m m m m ' [ { _ ( m m ( ( m ( ( ( ( m m m m m m n m m m ) ] [ ' ( m ) ' ' ] ' ] ] ` m m m m m m m m n n n n n n n n n n n n n n n n n ( ` ) n n n n n n n n n X.| o 2 $ 3 5 5 2 5 5 7 5 2 5 5 7 7 $ > > ",
"> > * 4 2 & & 3 & $ $ 3 2 2 $ # $ 2 O X.| ( ( ( ( ( ( ( m m m _ ] [ ` ( ( m m m ( ( ( ( ( ( m m m m m m n n m m m ) ] [ ` ( ] ' ] ] ' ' ' m m m ( ( m ( m m m m n n n n n n n n n n n n n n n m _ _ ( n n m n n n n n X.| O O s s = $ $ * = $ $ & & * = $ 2 > : ",
"> 1 < < 1 < < < < 1 < > < < > : : ; ; X.| ( ( ( ( ( m m m m m ' ] ' ( m m m m m ( ( ( ( ( ( ( m m m m n n n n n n m ) ] ( ' ] ' ] ] ] ] ' m m m m m m ( m m m m m m m n n n n n n n n n n n n n ) _ ' ( n m m n n n n X.| ; : 1 V N 1 1 < < < : : > > < < > > : ",
"< 1 < 1 1 1 1 < > > > > > < > : : : : X.| ( ( ( ( ( m m m m m ' ' _ m m m m m ( ( ( ( ( ( ( m m m m m m n n m m n m m m ( ' ' ' ] ] ] ] ) m m ( ( ( m m m m m m m m m m n n n n n n n n n n n n n ` ' ` m m n n n n n X.| ; ; 1 1 > > > 1 1 1 : > : > > : > < : ",
"y t r t t q t t P t r r P r $ : ; ; ; X.| ( ( ( ( ( ( ( m m _ ' ' m m m m m ( ( ( ) ( ( ( ( m m m m m m m n n n m m m n ) ' ] ] ] [ ] ' ( m m m m m m m m m m m ( m m n n n n n n n n n n n n n n ' ' ' m n n n m n n X.| 5 O : ; > > s U y P U t U U P t t t U ",
"8 6 3 5 7 5 4 6 6 3 5 4 5 5 2 : ; ; @ X.| ( ( ( ( ( ( ( ( m ] ] ' m m m m m m ( ( ( ( ( ( m ( m m m m m m n n n n m m m ' ' [ ] [ ] [ ) ( m m m m m m m m n m m m m m n m n n n n n n n n n n n n ' ' ' n n n n n n m X.| 2 O > > < < x q 5 8 0 t 7 q q 5 7 8 0 ",
"7 4 3 5 5 6 3 4 4 2 5 4 3 5 2 : ; ; @ X.| ( ( m m ( ( ( m m ] ] ] m m m m m m ( ( ( ( ( ( m m m m m m m n n n n n n n _ ] ] ] ' ' ] ' ( ( m m m ( m n n n n n n m m m m m n n n n n n m n n n n n ' ' ' m n n m n m n X.| 2 $ > > 1 > t 0 0 7 q 7 8 5 5 8 w 0 3 ",
"8 5 2 4 2 2 5 4 4 5 8 5 5 5 2 > ; ; ; X.| m ( ( ( ( m m m m ' ] ] m m m ( ( ( m m ( m m m m m ( m m m n n n n n n n m ' ] ] ] ' ' ] ` ( ( ( ( m ( m n m n n n n n m m m m m n n n n n n n n n n m ' ] ] m m n n n n n X.| 2 $ 1 < < 1 P q 5 0 q 0 r 5 5 5 8 0 5 ",
"7 5 5 4 6 6 2 2 5 5 6 4 2 5 2 > > : : X.| m ( ( ( ( m m m ( ) ] ] _ m ( ( ( m m m m m m m m m m m m n n n n n n m m _ ' ' ' ' ' ' ] ) ( m ( ( m m n n n m n n n n m m m m m n n n n n n m n m m m ] ] ' n m m n n n n X.| 2 2 < < N N q 7 5 8 0 0 7 0 7 5 5 7 5 ",
"5 5 8 3 4 5 3 2 3 5 8 4 3 5 2 > > ; : X.| ( ( ( ) ( ( m m m ) { [ ' m m ( ( ( ( ( ( m m m m n m n n n m n n n m m ( ' ' ' ' ' ' ] ' m m ( ( m m m n n n n n n n n m n n m n m m m m n m m m m m m ' ' ( m n n n n n n X.| 2 2 < < V 1 t 8 8 5 0 3 7 5 5 q r 5 5 ",
"5 5 5 5 5 5 3 5 3 4 7 5 4 5 & > : : : X.| m ( ( ( ( ( m m ( ( ' [ ] m m m ( ( m m m m m n m n m n n n n n n m m ) ' ' ' ' ' ' ' ' ( ) m m m m m m n n n n n n n n n n n m m m m m m m m ( m m m ` ] _ m n n n n n n n X.| 2 & > M N M t q 8 w 8 2 7 5 3 5 5 8 5 ",
"5 5 5 7 5 5 5 5 7 4 5 5 7 8 * < : > : X.| ( ( ( ( ( m m m m ( ' [ { ' m m m ( m m m n m m n m n n n n n m m n ( ' ' ' ' ' ' ' ` m ) ' _ m m m m m m n n n n n n n n m n m m m m m m m m ( ( m ( ' ' ( m n n n n n n m X.| 5 $ > > 1 1 5 5 8 8 7 0 5 5 5 5 5 5 3 ",
"& = & $ $ $ & $ * & & $ & $ 5 < : > : X.| ( ( ( ( m m ( m m m ( ' [ ] ' m m m m m m n n m m n n n n m m m m ( ] ' ' _ ' ' ' ` ( m m ` ] ` ( m m m m m n n n n n n n n n n n n n n n m m m m m ) ] ' m m m n n n n n m X.| % 2 > < 1 < $ 2 2 & & 3 & = i 5 2 2 2 ",
"1 N N M M M M 1 1 M N M N 1 1 > > : ; X.| ( ( ( ( ( ( ( m m ( m ( ] ] ' ' ( m n m n m m m m m m n m m m m ) ' ' ' ' ` _ ' ' m m m n m ' ] ' m m m m n n n n n n n n n n n n m n n n n m m m ) ] ] ' ( m m m m m n m m X.| @ > > < M 1 < 1 < M M 1 1 M 1 < > > < ",
"M N M < M M B < M N M 1 M M < < > : ; X.| m m m ( ( ( m m m m m m ( ' ] ] ] _ ( n n m m m m m m m m m ( ` ] ' ' ' ' ' _ ` n n n n n m m ' ] ` m m m m n n n n n n n n n n n n n n n m n n ( ' ] ' m m m m m ( m n m m X.| : > : > M < 1 M M N B B M < < 1 M < < ",
"M N d t r t P q P U P q t t U r r q q X.| ( m m m m ( ( m m m m m m ( ' ' ' ' ' ' ` n m m m m m m _ ' ' [ [ ' ' ' ' _ ) n n m n n m m m m ` ] ` m m n n n n n n n n n n n n n n n n n n m ' ] ' m m m m m m m m m m m X.| 5 P q t t U P t t t U x P U U t * < < ",
"M 1 P 5 3 2 5 5 7 8 q 5 7 9 8 7 5 2 2 X.| m m m m m m ( m m m m m m m m ( ` ' ' ' ] ' ' ] ' ' ' ' ] ' ] ] ] ' ' ' ) m n n n n n n m m m n n _ ' ' ) m n n n n n n n n n n n n n n n m ( ' ' _ m n m m m m m m m n m m X.| 2 3 3 5 8 w 5 5 8 7 8 7 7 7 8 5 5 < M ",
"1 M r 4 4 3 5 5 7 0 5 3 4 6 6 5 5 2 2 X.| m m ( m m m ( ( m m n m m n n n n ( ( ' ' ' ] ] ' ' ' ' ] ' ' ' ' ` ) ( n n n n n n n n n m m n n n _ ' ' ' ( ( n n n n n n n n n n n m m ' ' ] ` n n n n n m m m m m m m m X.| 2 2 3 7 7 8 5 5 0 7 5 5 8 7 5 5 2 M 1 ",
"> < 5 7 7 3 # 5 8 7 3 5 3 8 7 2 5 2 2 X.| n m m m m m ( m m m m n n m m n n n n m ( ( ( ( ( m m m m m ( ( ( m n n n n n n n n n n n m n n n n n m ` ' ' ' ' _ ) _ ' ' _ ) ) ( ( ) ) ' ' ( m n n n n n m n n m m m m m X.| 2 5 7 5 8 5 7 7 q 3 2 5 0 7 5 2 2 M < ",
"1 1 q 9 5 & 5 5 5 2 2 5 3 5 4 5 2 2 2 ..| n n m n m m ( ( m m m n n m m n n n n n n m n n m m m m n n m n n n n n n n n n n n n n n m m m m m m m n ( ` ' ' ' ' ' ' ' ' ' ` _ ) ) _ m m m n n n n n m n m m m m ( m m X.| 2 5 5 7 5 0 5 5 7 5 5 5 5 5 2 2 2 < < ",
"M M P 7 2 5 2 5 2 2 4 5 4 5 3 3 2 2 2 X.| n n m m m m m m m m m n m m m n n n n n n n n n m m m m n m n n n n n n n m n n n n m m m m m m m m m m m n n m ( _ ) _ ' ' ] ` ( ( m n n m m n n n m m m m m m m m m m m m X.| 2 & 7 5 7 3 8 5 5 5 5 5 8 3 5 3 # < M ",
"1 < t w 3 2 2 2 2 3 2 5 3 3 2 5 3 2 2 ..| n n n n m m ( m m m m m m n m n n n n n n m n n n m m n m m n n n n n n n n n m m n m m m m m m m m m n n n m m m m m m m ( ) m m n n n n m n m m m m m n n m m n n n m n n X.} 2 2 2 2 5 5 5 3 2 5 3 5 7 4 3 2 $ < 1 ",
"1 M 6 4 9 6 2 2 4 3 5 5 2 5 5 2 2 2 2 X.| n n n n m m m m m n m m n n m n n m n n n m n n m m m m m m n n n n n n n n m m m m m m m m m ( ( ( m m m m m m m m m n n m m m m m m m m m m m m m m m n n m m m n n n n n X.| o o 2 5 5 5 3 2 2 4 3 5 5 3 5 3 O > M ",
"1 1 $ 2 2 & $ 3 & & - 5 2 2 2 & $ O O  .| m n n n n m n m m m n n n n m ( ) ( n n n n n m m m m m n n n n n n n n m m m m n m m m n n m ( ) ( ( m m m m m m m n n m m m m m m m m m n m m m m m n n n n n m n n n n n X.L o o O O $ $ $ $ & $ $ & & $ & O o < M ",
"1 < < < 1 < < M N M 1 M > < < < > : ; X.| m n n n m n n m m m m n n ( ) _ ' ` _ _ ) m m m m m m m n n n n n n n m m m m m m ( ' ' ' ' ' ' ] ) ( ( m ( m m ( m m n m m ) ' ' ` _ n m m m n n _ ) ) ) m n n m n n n n n X.| @ @ ; : 1 < M N N M 1 1 1 1 1 1 1 < M ",
"t t r t t r t t P P t t I t * > > : ; | | n n n n n n n m m m n ( ' ` _ _ ` ` ' ' ' _ n n m m m m n n n n n n n m m m _ ' ' ' ] ' ' ' ] [ [ _ ( ( ( ( ( ( m m m m m m ' ] ' ] ' ' m m m m ` ` _ _ _ _ n n n n n n n n X.L o o : : 1 1 a P t P P q t t P t t r I ",
"6 5 4 4 2 2 4 6 3 2 3 4 8 6 3 < > > ; X.| n n n n n n n n m m ) ' ' ' ' ' ` ` ` ' ' ' ( n m m n m m n m n n n n n m ' ] ' ' ] ' ' ' ' ] ] ] ) ( ( ( ( ( m m m m m m _ ] ] ] ] ' ] ' ( m ' ' _ ` ` _ _ ( n n n n n n n X.| o o > < 1 1 P 7 6 6 5 5 5 4 5 5 7 6 4 ",
"6 4 2 2 2 3 3 4 2 2 6 5 4 6 3 M > > ; | | n n n n n n n n n ) ' ' ' ' _ ` ' ' ' ' ' ' ' n n m m m m m m n n m m ( ' ' ' ' ] ' ' ' ' ' ' ' ] ( m m m m m ( ( ( m m m ' ' ] ] ] ] ] ] ' ' ' ' ' ' ' ' ' ' m m n n n n n X.K o 2 < < 1 M t 6 4 4 3 6 6 8 5 8 8 3 3 ",
"5 3 3 2 2 2 2 4 # 3 6 4 4 4 2 M 1 > ; | | n n n n n n n n n _ ' ' ' ' ( n n n ( ' ' ' ' ) n n m n m m m m n m n m ' ' ' ] ] ' m n n n m m m m m m m m m m ( ( m m m ' ] ] ] ] ] ] [ ] ' ' ' ' ' ' ' ` ' n n n n n n n X.K o 2 < > < < t 4 3 2 3 6 6 5 5 5 5 2 2 ",
"7 3 2 2 2 2 2 6 2 2 3 5 2 3 2 M 1 : @ } | n n n n n n n n m _ ' ` ' ) n n m n n ' _ ' ' _ n n m n n m m m m n n m ' ] ] [ [ ' m n ) ) _ _ _ ( m n m ( m m m m m m m ' ] ] ] ' ' ] ] [ ] ' ' ` ' ' _ _ _ n n n n n n n X.K 2 2 : < 1 < t 6 3 2 4 4 5 5 7 3 5 7 2 ",
"2 2 2 2 2 3 2 4 2 2 3 5 2 5 2 M < : @ } | n n n n n n n n n ) ' ' ' n n n n m m ( ' ' ' _ m m m m m m m m m n n ( ] ] ] [ ] ) ( ` ' ' ' ] ] ( m m ( m m m m m m m m ' ] ' ' ' ) ) [ { ] ' ( ) ' ' ' ` _ n n n n n n n X.H 2 2 > < M 1 P 4 3 6 4 3 2 3 4 3 5 5 3 ",
"2 2 2 2 3 2 3 4 2 2 3 2 2 3 & M > : @ } | n n n n n n n n n ) ' ' ' ' ' ' ] ] ] ' ' ' ' _ n n m m m m m m m m m ( ] [ ] ] ] ) m m ( ' ' ' ' ( m m m m m m m m m m m ' ' ' ' ' ) m ) [ [ ) m ( ' ' ` ` ) n n n n n n n X.H o O : M M N t 2 3 3 6 2 2 4 4 3 2 2 2 ",
"2 2 2 3 3 3 2 4 3 2 2 5 5 5 $ > : ; @ L | n n n n n n n n m ` ] ' ' ' ' ] ] ] ] ] ' ' ' _ m m m m m n m m m m m m ' ] [ ] ] ' _ _ ` ' ] ] ' ( m m m m n n m m m m m ' ] ] ' ] ) m m ) _ ( ( ) ' ' _ ) ( n n n n n n n X.H o O < 1 < M 6 2 2 3 3 5 5 3 4 2 3 2 2 ",
"# # # $ $ $ & $ $ $ $ $ & $ 2 < : ; ; L | n n n n n n n n n _ ' ' ' ` ' ' ' ' ' ' ] ' ] ' ( m n m m m m m m m m m m ' [ ] ' ' ' ' ' ' ' ] ' m m m m m n m m m m m m ' ' ] ] ] ) m ( ( m m m ) ' ` _ _ ) n n n n n n n X.G o o < < 1 M $ 3 2 & $ 2 & & $ 2 2 2 2 ",
"> > < M M M M 1 1 : ; > 1 M 1 N > : ; L | n n n n n n n n n _ ' ] ' m n n n m m m ' ' ] ' ( m m m m m m m m m m m m m ' ] ] ] ' ' ] ' ' ' ' m m m m m m m m m m m m ' ' ' ' ' ) m m m m m m ) ' ` ` ` ) n n n n n n n X.H @ : > < 1 M M N 1 M 1 N M 1 M 1 > M < ",
"V V a P r U U t P I U t t y U r q 5 5 L | n n n n n n n n n ( ' ] ' ( n n n m m ( ' ] ] ' ( ( m m m m ( m m m m m m m m ( ) ' ' ' ' ' ' ' ) n n m m m m m m m m m m ' ] ' ' ] ) m m m m m m ) ' ' ' ' _ n n n n n n n X.G O & q r t t y t q r I I t t P t * N B ",
"C V P 9 4 6 9 6 6 9 6 4 3 4 9 9 4 2 2 K | n n n n n n n n n n m ( ( m m n n m n m ( ) ) ) ( ( m m m m m ( m ( ( m m m n m m ( ( ( m ( ( ( m n n m m n m m m m m m m ) ) ( ) ) m m m m m m m m ( ( m m m n n n n n n n X.F o 2 2 4 4 6 3 4 6 6 9 6 6 4 6 4 2 N 1 ",
"B C t 6 9 4 w 6 9 6 4 6 w w 3 4 2 2 2 K | n n n n n n n n n n n m n m m n n n n m m m m ( m m m n m m m m m ( ( m m m m m m m m m n m m m m m m m m m m m m m m m m m m m m m ( ( ( ( ( ( m m n m n n n n n n n n n n X.F o 2 2 6 4 6 2 3 6 9 4 6 6 4 2 4 2 B N ",
"B C t 9 4 6 9 6 w 4 6 4 6 w 6 9 4 2 2 H | n n n n n n n n n n n n n m m m n m m m ( m m m m m m m n m m m m m ( ( ( m m m m ( m m m m m m m m m m m m m m m m m m m m m m m m ( ( ( ( ( ( m m n n n n n n n n n n n n X.F o 2 4 3 9 3 3 4 4 4 3 6 6 4 2 2 2 N M ",
"Z Z t 6 2 4 6 9 4 9 3 4 3 6 4 6 4 2 2 H | n n n n n n n n n m n m m m m m m m m m m m ( m ( m m n m m m m m m m ( ( ( m m ( ( ( m m m m m m m m ( ( m m m m m m m m m m m ( ( ( ( ( ( ( ( m m m m m m n n n n n n n n X.F o 2 2 4 6 6 5 4 6 6 4 4 6 3 2 3 2 B C ",
"Z Z I 4 3 3 6 2 4 4 4 4 9 2 6 2 2 3 2 H | n n n n n n n n n n m m m ( m m m m m ( ( ( ( ( m m m m n n m m m m m ( m ( m ( ( m ( m m m m m m m m m m m m m m m m m m m ( ( ( ( ( ( ( ( ( ( ( m m m m m m n n n n n n n X.Z o 2 2 4 6 3 6 4 4 4 4 4 9 3 3 4 2 M B ",
"V V t 6 6 w 6 2 4 4 3 4 3 9 4 4 4 2 2 G | n n n n n n n n n n m m m ( m m m ( ( ( ( ( ( m m m n n n n n m m m m ( m m m m ) ' ' ' ' ' ' ' ) m m m ( m m m m m m m m m m ( ( ( ) ) ( ( ( ( m m m m m m m n n n n n n n X.Z o 2 2 2 2 3 4 3 2 4 2 3 4 3 2 3 $ V V ",
"B V 6 6 6 6 4 9 4 2 2 3 4 6 4 6 2 2 2 F | n n n n n m m n n n m ( ( ( ( ( m m ( ( ( ( ( ( m m m m n n n m m m m m m m ` ' ] ' ' ] ] ] ] ' ' ( m m m n n m ( ( ( m m m m ( ( ) ) ) ( ) ( ) ( ( m m m n n n n n n n n n X.Z o 2 2 2 2 4 3 2 2 5 5 2 3 3 4 6 $ Z V ",
"V V * 3 2 & & 4 & & $ 3 2 2 2 & & # O F | ( m m n n m n n n m m ( ( ( ( ( ( ( ( ( ( ( ( ( m m m m m n n n n m m m m ` ' ' ' ' ' ' ' ' _ m m m m m m m m m ( ( ( m ( ( ( ( ( ( ) ( ( ( ( ( ( ( m m m m n n n n n n n n X.V o 2 O & & $ $ $ $ $ $ $ & $ # $ 2 Z V ",
"C C V B V C C C C B N V C B B B C M 1 H | ( m m m m m m m m ( ( m ( m m ( ( ( m ( ( ( m ( m m m m m m n n n m m ( ' ' ' ' ' ' ' ' ' ) m m m m m m m m m ( m ( ( m ( m ( ( ( ( ( ( ( ( ( ( ( m m m m m n n n m n m n n ..V : > < M C N C C N M M V V B V C Z B V ",
"C C N B C Z C F C V V C C B B C F N M H | m m m m m m m m m m ( m ( m ( ( ( ( m ( ( ( ( ( m ( m m m n n n n n m ' ' ' ' ' ' ' ' ' ) ( ( ( m m m m m m m m m ( ( m ( ( ( ( ( ( ) ) ) ) ( ( m m m n n m n m n m m n n m } M : > < M B 1 V B M N M V C C F Z V N V ",
"q r r U U y y y I P r y U r $ V F F N D X.( m m m m m m m m m m m m ( ( ( ( ( ( ( ( ( ( ( ( m ( m m m m n n n ) ' ' ' ' ' ' ' ' ` m m m m m m m m m m m m m m ( ( ( ( ( ( ( ( ) ) ) ( ( ( m m m m m m m m m n n n b n H g 5 O < N M < p I y I P t P P U t r 5 t ",
"4 6 w w 9 9 9 9 6 4 4 6 9 4 3 C C B M t L X.m m n m m m m m m m ( ( ( ( ( ( ( ) ( ( ( ( ( ( ( ( ( ( m m m m ( ' ' ' ' ' ' ' ' ' ( m m n n n m m m m m m m m m m m ( ( ( ( ( ( ) ) ) ( ( ( ( ( m m m m m m m n n n b H C o 2 2 M M < > P 6 9 9 9 6 7 4 5 8 4 3 3 ",
"4 4 9 w 6 9 9 9 6 6 6 6 5 4 2 C B N N r 3 G ..m n n m m m m m m m ( ( ( ( ( ( ) ) ( ( ( ( ( m ( ( ( m m m m ` ' ' ' ' ' ' ' ' ' m n m n n n m m m m m m m m m m m ( ( ) ( ) ( ) ) ) ( ) ( ( ( ( ( m m m m m m m b H C o 2 5 2 1 1 < 1 t 6 e 4 6 6 5 9 w 9 2 6 4 ",
"4 9 4 4 9 9 6 6 4 9 6 6 4 3 2 Z B N N t 9 + B | n n m m m m n m m m ( ( ( ( ) ( ( ( ( ( ( ( m m ( ( m m m m ' ] ' ' ] ' ] ' ' _ n n n n n n n n m m m m m m ( m ( ( ( ( ( ( ( ( ( ( ( ( ( ( ( ( m m m m m m m n K C o 2 5 9 3 M 1 1 M r w w 4 w 3 9 4 9 w 6 9 5 ",
"4 4 6 9 6 4 6 6 4 4 4 3 2 2 2 Z Z B M t 9 3 + V | n m m m m m m m m ( m ( ( ) ) ( ( ( ( ( ( ( ( ( ( m ( ( ) ] ] ' ] ] ] ' ' ' ' m n n m m m m m m ( ( ( ) ) ( m ( ( ) ( ( ( ( ( ( ( ( ( ( ( ( ( m m m m m m n K C o O 2 5 2 = 1 M 1 N t 8 9 6 4 8 5 4 3 6 4 9 7 ",
"6 2 4 4 6 4 6 4 4 4 6 2 3 4 2 Z C V V I 9 2 4 o B H m m m m m m m m m ( ( ( ) ) ) ) ) ) ( ( ( ( ( ( ( ( m ) ] ] ' ' ' ' ' ' ` ' m m n n m m m m m m m m _ ) m ( ( ( ( ) ) ( ( ( ( ( ( ) ) ( ( ( ( m m m m m L Z o O 2 2 2 5 5 N 1 < 1 U 3 6 3 8 5 5 5 6 3 4 3 2 ",
"4 5 4 4 4 6 4 5 3 3 6 3 3 4 & C Z V B t w 9 3 2 o B L m m m m m m ( ( ( ( ) ) ) ) ) ) ) ( ) ( ( ( ( ( ( ( _ ] ] ' ' ' ' ' ' ` ' _ n n n m m m m m m m m ' ) m ( ( ( ( ( ) ( ( ( ( ( ( ( ( ( ( m ( m m m m } F o O 5 9 5 2 5 & 1 < < 1 t w 7 3 7 5 3 5 2 6 4 5 5 ",
"3 5 2 2 4 3 3 4 3 3 4 4 4 9 $ B B M M 3 4 w 6 2 2 o B L ( m m m ( ( ( ( ( ) ) ) ) ) ) ( ( ) ) ( ( ( ) ( ( ` { ] ' ] ' ' ' ' ' ' ' ( n n m m m m m m m ( ' ) m m ( ( ( ( ( ( ( ( ( ( ( ( ( ( ( m m m m m | G o O 2 5 2 2 2 0 $ < < 1 < 5 5 t q 5 5 5 2 4 3 3 5 5 ",
"& & & O * $ = $ $ $ & $ & $ 2 M 1 1 1 $ 3 2 & # 2 + . V } m m m m m ( ( ( ( ) ( ) ) ( ) ( ) ) ) ) ) ) ( ) _ { { ] ' ' ' ' ' ' ' ' ' m n n n m m n n ) ' ' ) m m m m ( ( ( ( ( ( m m m ( m ( ( ( m n n  .H X O o o O & $ & $ 2 > > < 1 $ # & = = 5 & & * 4 2 2 2 ",
"C F Z Z C M N M V V Z N N B Z N 1 < < 1 Z C B N 1 ; + X V | ( ( m m m m ( ( ) ( ( ( ( ( ( ( ) ) ) ) ) ) ) ` { [ ] ' ' ' ' ' ' ' ' ' ' _ m ( ( m m _ ' ' ' ) m m m m ( ( ( ( ( m m m m m ( ( ( m m m  .H @ @ @ @ : < > 1 N M 1 < M 1 1 > > > < 1 C M M N B N N B ",
"Z F F C C N B M V Z Z B V C C N < < < 1 V C V B 1 < ; X X F X.m m m m ( ( ( ( ( ( ( ( ( ( ) ( ( ) ) ) ) ) ` [ ] ' ' ' ' ' ' ] ' ' ' ' ] ' ' ' ' ' ' ' ' ' ( m m m ( ( ( ( m m m m m m m ( ( ( m m  .H + @ @ : : < < < 1 M 1 > < 1 < > > > > < M B M B B C V N V ",
"B N a I t P P t U T U t t t P q q q P I t t t U r 2 2 o . . G X.m m m ( m ( m m m m ( ( ( ( ) ) ) ) ) ) ) ) ' ] ] ] ' ' ' ' ' ' ' ] ] ] ] ] ] ] ' ' ' ] ' ( ( ( ( ( ( ( ( m m m m m m m m m m n  .F O 5 5 q q q I U P t P q t q q 5 s q q t t I I y y U y - C B ",
"N C x 7 7 5 7 6 6 6 9 7 7 5 4 3 4 4 9 4 4 6 6 6 2 2 2 2 $ . . K ..( ( ( ( m m m m m ( ( ( ) ( ( ) ) ) ( ( ( ' [ ] ] ] ] ' ] ] ] ] ] ] ] ] ' ' ] ' ' ' ] _ ( ( ( ( ( m m m m m m m m m m m m n | Z @ # 2 3 3 q 7 5 7 8 7 7 8 5 5 5 3 5 5 5 q q 0 5 7 7 9 6 5 C C ",
"C V t 5 5 2 7 5 4 9 7 7 8 4 4 3 6 4 6 3 6 6 6 3 3 4 4 2 2 $ X X K | ( ( ( m m m m m m ( ( ( ( ( ) ( ) ( ( ) _ { ] ] ] ] ] ] ' ] ] ] ] ] ' ' ' ] ] ] ] ' ( ( ( m ( m m n n m m m m m m m m m K B + @ # 2 3 3 0 7 7 8 7 7 q 5 5 2 5 5 3 2 5 q q 7 7 9 7 4 6 3 Z F ",
"Z B t 8 0 5 q 4 2 6 4 9 8 6 6 6 4 6 3 4 6 4 4 2 6 6 2 4 2 2 + + + G } m ( ( ( ( ( m m ( ( ( m ( ( ) ) ) ( ( ) _ [ ] ] ' ' ' ' ] ] [ [ ] ] ] ] ] ] ] [ ` ( ( ( ( ( m m m n m m m m ( ( ( m H M + + @ 5 7 0 5 y t q q 5 0 t 5 8 8 5 7 3 5 8 7 q 5 0 9 7 4 5 3 Z F ",
"C V r 8 5 7 5 3 5 4 9 6 9 4 6 4 6 4 6 4 4 6 6 4 4 4 3 4 2 2 ; @ + + F K m m ( m ( ( m ( ( ( ( ( ( ) ) ) ) ) ( ) ' [ ] ] ' ' ' ' ] [ [ ] ] ] ] ] ] [ ' ( ( ( ( m ( m m m n m m m ( ( ( m F M + + @ : 5 7 5 0 t t s = r 0 8 7 8 5 8 5 8 5 5 0 q 7 5 5 5 2 5 2 C C ",
"V V t 5 5 0 7 4 4 6 6 9 4 4 4 4 2 4 3 6 3 3 4 4 4 6 3 3 3 2 > : @ + O Z H m n m m m m ( ( ( ( ( ( ) ) ) ) ) ) ) ) ' [ [ ] ] ] ' ] ] [ [ ] ] ] ] { ' ( ( ( ( ( ( ( m m m m m m m ( m m F M o @ @ @ < t 5 3 8 8 5 5 7 7 7 5 5 7 5 3 5 5 6 7 5 7 5 5 8 5 s q 5 C C ",
"B N q q q 5 5 0 5 2 4 4 3 3 4 2 2 2 3 4 3 3 4 2 2 3 2 2 2 $ 1 > ; @ o o C G n n n m m ( ( ( ( ( ( ) ) ) ) ) ) ) ( ( ` ] ] ] ] ' ] ] [ ] [ { { ] ' ) ) ) ( ( ( ( ( m m m m m m m m m F M O o ; @ > < r 0 q 3 5 q 5 3 5 5 3 3 5 3 5 s 5 4 5 5 7 2 5 5 5 5 5 s V C ",
"B 1 7 5 8 7 5 5 q 4 5 4 2 3 3 2 2 2 2 2 2 2 4 2 2 2 2 4 6 $ M < > @ o . . V F b n n m m ( ( ( ( ( ( ( ( ) ) ) ) ( ( ( ) ' ] [ ] ] ] [ [ [ ] ' ) ) ) ) ) ( ( ( ( m m n m m m ( m m G M # 2 O : > < 1 7 q q 5 3 2 5 3 5 5 2 2 5 = = = 4 4 3 3 7 5 5 5 u q q * N M ",
"N M * 5 2 & & = s & * 4 2 2 # & & $ O O O # $ $ # $ $ & $ 2 M 1 < : o . . . V F b n n m m ( ( ( ( ( ( ( ( ) ) ) ( ( ) ) ) ( _ ' ` ` ` ' _ ) ) ) ) ) ) ( ( ( ( ( m n n n m m m ( K M X o o o : < M M - s = & & 3 & & * 5 2 2 2 = = = $ $ * = - - s s , g * 2 1 B ",
"N V N M M M N M N B B B N 1 1 1 M B B M M M < < 1 M 1 M M M M N 1 < ; + X X X B Z b n n m m m ( ( ( ( ( ( ( ( ) ) ) ( ( ) ( ( ( ( ( ( ) ) ) ) ) ) ) ) ( ( ( m m m m m m m m m K M + @ ; : : < M B B M M N M N M M M V B 1 B B N V V N B C Z V V Z V C C B C N N ",
"B B N M M N M M V M N N M < < < 1 N N M 1 1 < < < M < M B C V B < M > @ + + + + B Z b n n m m m ( ( ( ( ( ( ( ( ) ) ) ( ( ( ( ) ( ( ( ( ( ) ) ) ) ) ( ( ( ( m m m m m m n m H M + @ @ ; : > M N C V N M M M B M N B C C B N N N C C C C B N B V C Z B B V V B M ",
"t t y U U P t t I U y t t q $ < 1 < < a P t I I t U U I y y y I t r q q & # O O O B Z b n n m m ( ( ) ) ) ( ( ( ( ( ( ( ) ( ) ) ) ( ( ( ) ) ) ) ) ( ( ( m ( m m m m n m b G 1 # O # 5 5 5 0 r P q q t U U t y t U U y t U t * B Z F Z v U t U c x U U P P x t P ",
"5 5 0 r q = 5 q q 7 5 5 7 4 5 B M > M P 6 9 9 6 6 5 4 6 6 6 9 9 6 5 6 6 2 2 2 o o o B Z b n n m ( ( ( ( ( ( ( ( ) ) ) ) ) ) ) ) ) ) ) ) ) ( ( ( ( ) ( ( ( ( m m m m m m H 1 # @ 3 5 5 3 2 5 q 7 5 3 5 0 5 5 0 0 5 u q 5 0 5 5 M C F C U 0 0 7 t t 7 7 q q u 5 5 ",
"2 5 7 0 5 0 7 5 5 5 8 5 5 5 2 B < : M t 6 9 6 6 6 6 4 4 9 w 9 9 7 8 e 9 4 2 4 2 O o o B Z b n n m ( ( ( ( ( ( ( ) ) ) ) ) ) ) ) ) ) ) ) ) ) ( ( ( ( ( ( ( ( ( ( m m m L M # @ 2 2 3 5 2 2 5 t 5 3 7 5 0 2 8 8 q q f s 5 5 7 2 M V V M q 7 5 5 r q 7 0 5 q q 5 2 ",
"2 2 7 5 7 8 5 5 2 7 8 5 3 5 2 M < < N t 7 w 4 6 3 4 6 w 9 2 9 6 7 6 9 w 3 4 2 4 2 $ o o B Z b b n m ( ( ) ) ( ( ( ) ) ) ) ) ) ) ) ) ) ) ) ) ) ( ( ) ( ) ( ) ( ( ( ( } B # @ 2 2 5 2 3 2 4 7 q 8 7 5 q 5 5 8 5 5 5 t = q 5 5 & V N M < t 7 5 5 q 5 5 5 5 q q 5 2 ",
"2 5 5 7 5 7 0 7 5 5 5 3 2 2 2 N B 1 M y r 9 5 9 3 6 4 9 w 6 9 4 5 9 4 3 4 6 4 2 4 2 O O . N C Z F H L } | | | | | | |  . . .....X.X.X.X.X.X.X.X.X.X.X.X.X.X.X.X...} V # @ 2 2 2 2 3 2 3 5 7 5 9 7 0 q 8 7 7 8 8 5 5 5 5 2 5 2 C B V N y 0 5 0 5 5 5 3 0 q 7 5 3 ",
"5 & 5 5 q 5 5 7 q 7 8 2 2 3 2 M M M 1 U q 0 5 2 6 4 5 5 6 4 6 4 4 4 9 6 6 3 4 3 4 4 2 O O o N N B B C C Z Z F F F F F F G H H K K L L L L L L L L L L L L L L L H B + @ 2 2 3 3 2 3 5 4 7 5 5 5 5 5 5 3 8 7 7 5 5 5 7 2 3 5 2 B V C B U 5 2 7 5 5 2 5 7 7 5 5 2 ",
"s = & 2 5 2 5 q s 5 q = 5 3 & 1 N 1 1 t 5 8 2 4 5 6 5 q 3 6 3 3 4 2 4 4 6 4 2 4 2 4 2 2 : O o @ + + @ # o o o 2 o o o o o o o o o o o o o o o o o o o o o o o + + + @ O 3 3 2 3 5 = = 5 2 4 5 6 4 3 5 5 7 5 3 5 5 2 3 2 3 5 & V V V 1 r 7 8 3 5 8 2 2 5 5 5 2 5 ",
"2 2 2 5 5 2 2 0 s 5 5 3 4 8 $ M 1 1 N 8 e 8 2 4 5 3 4 5 6 4 4 3 2 3 3 5 4 6 2 4 3 2 4 4 2 2 o @ @ @ + o o o o 2 2 2 2 2 2 2 o o o o o o o o o o o o o o o o . + @ ; ; 2 2 3 3 2 2 q u 5 3 3 3 5 5 3 5 u 5 2 2 5 3 2 3 3 5 5 $ V C B < 5 3 9 7 2 2 5 5 5 5 2 5 5 ",
"& $ $ $ * - = * - & & * = $ 2 M N Z C * 4 2 $ * 5 & # * 3 2 2 2 # # $ $ $ $ & $ $ & $ O # O o : : @ @ o o o O O 2 O O O 2 o o o O o O o o o o X o o o o o X o @ ; ; ; O 2 2 $ & 3 $ & * 5 2 2 2 & $ $ O $ $ & $ $ & s * & $ 2 C C B M * 3 2 & $ 5 $ & * 5 # & 5 ",
"N N M V V B M < < > B B B M 1 1 B C C C V B M 1 1 < > 1 M M B M < > > < < 1 1 1 > > < < 1 1 > > > : @ ; ; : : : > > > > > > > : : : : > > ; ; @ : ; ; @ @ @ @ @ ; : @ : < M M M 1 1 M M < < < M M 1 > < M M M M 1 1 M N B V M M M B N 1 > 1 < M > > 1 M 1 1 M M ",
"B B a U t P U y P U U r t y U y y t P I y y y U U y t I y * M M 1 < p P t U P q t t P t t r t q q q r t q q q y t q q y q $ < < < < p t 0 q 5 5 q q 5 5 5 5 q 7 0 7 0 0 q q t P P r r P t $ M M M M u t t U P t P I U y t t U t t y I P t t t P U t t x t * B 1 ",
"B N U 7 0 8 8 8 5 5 7 4 4 6 6 3 3 6 9 4 4 9 9 9 7 6 4 9 7 3 1 1 1 < I 9 6 8 0 5 5 5 8 5 5 8 w 7 4 2 4 w 9 6 6 6 4 4 4 6 3 3 M 1 1 > y 4 6 4 2 4 3 2 3 2 2 3 5 3 3 6 9 3 3 7 8 7 5 3 5 8 5 2 < 1 M M q 7 3 7 9 6 6 6 9 6 5 8 9 4 4 4 6 w 9 6 6 6 5 5 5 0 5 5 N 1 ",
"B V y 7 7 5 9 5 5 8 5 5 8 4 3 2 4 4 6 3 9 9 8 6 6 9 6 5 5 2 < > < < t 8 9 5 q 4 6 5 5 8 w 9 4 5 3 3 4 9 w 6 9 6 6 9 6 4 6 3 M M > > q 3 4 3 6 4 3 4 3 3 4 3 4 2 4 5 6 2 5 5 8 5 4 8 5 3 5 2 M 1 1 M q 7 6 4 9 3 6 6 6 8 w 9 2 4 2 4 4 q 9 5 4 7 2 5 5 3 5 2 1 M ",
"B V P q 0 3 9 3 2 4 4 q 0 4 6 4 4 8 3 6 8 4 4 4 9 6 5 3 2 2 > > < 1 t 0 8 w 9 9 w 4 8 5 8 9 4 5 3 2 9 4 4 8 8 9 9 9 6 4 4 3 M N > < t 9 9 3 w 4 3 4 2 6 6 4 6 6 4 6 2 2 3 5 5 3 6 8 4 2 2 2 M 1 M M q 9 6 9 6 6 w 3 6 5 6 6 2 6 4 4 5 2 3 0 6 6 5 7 5 2 2 2 M V ",
"V M t w 5 6 3 3 3 3 9 0 8 4 6 4 8 7 9 4 4 6 6 6 4 4 2 2 2 2 1 1 M B t 8 4 6 9 9 4 8 5 5 5 6 3 6 5 6 7 8 9 5 5 6 6 6 4 3 4 2 1 M 1 M t w 4 6 4 4 4 3 9 6 6 4 4 2 6 4 6 3 4 7 8 5 5 5 2 2 2 2 < N M M q 6 4 7 9 w 4 6 3 5 3 4 2 6 4 7 3 6 4 5 3 6 5 5 3 2 2 2 N V ",
"1 1 U 6 3 8 4 3 5 6 8 8 4 4 4 4 4 5 4 6 5 4 4 6 7 4 2 2 3 2 N B M M U 9 9 3 8 3 6 5 5 5 8 5 5 4 4 8 5 7 4 4 2 4 4 9 4 4 6 2 1 < < < t 4 2 9 6 4 3 6 6 6 5 4 3 4 3 4 3 4 4 4 4 4 4 6 3 3 3 2 1 M N 1 P 6 4 2 6 4 6 4 3 4 6 3 4 4 3 4 3 6 3 7 3 5 5 q 2 2 2 & M N ",
"1 M y w w 3 2 6 = 5 6 3 3 3 4 3 2 2 2 4 3 3 4 5 u 5 2 2 2 & B V C V t w 8 w 6 3 6 5 5 5 3 8 5 7 6 4 5 7 7 4 4 4 4 6 4 4 3 = M < < < q 9 w 6 4 9 3 3 4 2 5 2 3 3 2 2 3 4 2 3 4 3 2 4 3 3 3 & N N M 1 t w 6 9 6 4 9 4 3 4 3 6 6 4 2 5 4 4 5 3 4 3 3 5 2 2 2 & < M ",
"M N 7 4 9 4 2 2 5 3 6 3 2 3 2 2 2 2 3 2 2 2 5 5 s 5 2 4 6 $ M M V V 6 6 6 5 5 9 4 5 5 3 5 5 4 6 4 4 7 4 4 4 6 5 5 5 4 5 q * 1 < M M 6 4 9 6 3 4 4 3 4 2 2 3 3 2 3 2 3 2 3 2 4 3 3 3 4 4 6 $ M M M N 6 9 9 6 4 9 4 3 5 3 3 4 3 3 2 3 4 3 7 3 7 7 5 3 2 2 3 $ B M ",
"N N * 4 2 $ $ 2 $ & * 5 2 2 2 # $ $ $ $ $ & $ $ s = $ & $ 2 M M B N * 5 2 & & 3 & & * 3 2 2 2 & & & $ $ $ & $ $ & & $ & * 2 N N M M $ 3 2 $ & 4 & & * 2 2 2 2 & & & $ * $ & $ $ & & $ $ $ 2 1 1 B V * 3 2 & $ 2 # $ $ 2 2 2 2 & & & $ $ $ & * - = & $ # O 2 N N ",
"N B M M M 1 > : > > < < > > < 1 1 < < : > > > 1 1 1 M M 1 N N N M M M B 1 < < 1 < > < 1 1 M 1 1 1 < < < M M M M M M 1 < 1 M N N M 1 M M 1 < 1 N V Z N N N N N N N N M M < B B N M M N 1 < M 1 M N V B M B B N M M < N B M 1 N M B V M 1 < < M B B 1 > : > 1 M B ",
"B M 1 1 1 > > < > : > < 1 1 1 1 1 > > : > > > < M V B M 1 N M 1 M 1 1 1 M 1 < < 1 1 1 < M M M B 1 N 1 < 1 < M M M M 1 1 1 M N M M M M N 1 < M B V C N N C M M N M M 1 1 < M N M N M M M N M 1 N M M M N B B N 1 1 1 N 1 < < M B V M M 1 1 M M < > > : : < < M N ",
"t y t P I t t t I U y t I t $ > > > > d y q t t x A c U y y t U t y t U U t t t U I t t U t * B N N M j U t U U y U P P r t y U t t t I t q q t I I y y U t * M 1 M < a I t I U t P I U t r r P t t t P I t t q y P r t I t * B C M < i P t P t q U U U y y y U ",
"6 5 8 w 8 4 6 8 8 4 4 4 5 5 2 > > > 1 I 5 7 5 5 q q q 7 9 9 6 8 5 8 w 5 0 0 7 8 5 7 5 6 9 6 4 N M M N U 8 w 9 8 8 5 4 8 6 6 9 9 6 6 6 w 3 2 4 9 9 6 6 6 9 4 3 1 M M 1 I 6 w 6 9 4 3 6 9 6 4 6 6 4 4 9 w 4 4 6 6 6 4 3 4 6 6 3 M M M > t 5 5 9 4 4 6 6 7 5 8 w 6 ",
"7 7 5 6 4 2 7 6 4 4 6 5 3 5 2 > > < < t 5 3 2 8 8 0 8 8 9 9 6 6 8 9 8 q 7 8 w 8 7 7 8 5 4 6 3 N M M B y 4 7 5 w 7 7 9 7 7 9 6 6 4 9 4 6 2 6 9 9 6 6 9 6 4 4 2 M M N M t 6 6 9 4 4 6 w 6 9 9 6 6 6 4 4 3 4 6 6 6 6 4 4 3 3 6 2 M 1 M > r 5 2 t 5 6 4 4 6 6 5 3 6 ",
"q 5 6 2 2 3 2 4 3 0 8 5 3 3 2 > : > > t 8 9 3 w 5 w 5 0 6 7 7 e w 5 8 5 5 5 5 7 5 4 7 4 3 3 3 1 M M N q 9 0 4 w 5 4 6 5 q 0 6 9 9 6 9 3 4 9 6 6 4 9 9 6 4 4 2 M 1 1 B t 6 4 3 3 4 w 6 4 4 4 4 4 4 4 6 3 4 2 2 4 3 6 4 3 3 3 2 N 1 M > q 6 7 r 0 w 3 6 4 5 8 5 9 ",
"5 5 5 6 3 2 2 4 3 4 4 3 2 4 2 < > > > t w 7 7 5 0 0 8 e 5 0 5 8 8 5 0 5 3 7 5 5 7 2 3 3 3 3 2 1 1 1 N t e 6 8 5 5 6 3 q 0 0 7 9 6 9 6 9 6 6 9 9 6 6 6 4 2 3 2 1 < 1 M t 6 2 2 3 6 6 6 9 3 6 6 3 6 6 4 4 2 2 3 6 5 4 5 3 2 3 2 1 < 1 1 q w 7 r 0 5 8 5 5 2 5 5 0 ",
"5 5 3 4 2 2 2 4 4 4 6 3 3 6 2 < 1 < < P 8 5 9 8 7 8 0 7 t q 5 5 7 4 8 5 5 5 7 7 5 5 8 4 4 6 2 < M 1 1 U 9 3 9 8 5 3 5 8 8 7 7 7 6 4 6 4 9 6 6 6 4 6 9 3 2 4 2 M 1 M 1 P 4 2 4 4 6 3 4 6 4 4 4 4 3 4 4 2 2 2 2 4 5 6 9 4 3 4 2 < M < M I 6 3 4 3 7 5 5 5 3 5 0 5 ",
"7 5 4 4 4 2 3 5 3 5 7 2 3 2 & < M 1 M t w r 5 5 5 7 5 q t 7 7 8 5 6 5 5 8 5 5 5 5 5 4 4 3 4 & < M M 1 t e w 5 6 9 5 5 5 3 4 4 7 3 2 5 4 6 4 4 6 3 4 6 2 3 4 & M M M < q 2 4 2 6 3 4 6 4 4 2 3 4 3 2 3 2 2 2 2 5 5 3 4 4 4 3 & < < < 1 t w w 6 2 7 5 5 = 5 7 5 0 ",
"7 5 5 2 2 2 2 5 3 3 3 3 5 4 $ < 1 < 1 8 7 w 8 3 0 7 3 0 7 5 7 5 8 7 5 5 5 5 5 5 4 5 3 3 4 6 $ M N N N 8 5 q q 5 4 5 3 6 4 3 5 5 2 3 2 3 4 3 3 6 3 4 4 3 4 9 $ M M M > 6 2 2 2 3 4 6 4 4 3 3 2 3 3 3 3 4 2 3 2 4 5 3 2 4 4 6 $ < < 1 1 8 5 r 7 0 2 4 5 2 5 3 3 3 ",
"& & $ $ $ $ $ $ $ & & $ & $ 2 < 1 1 < * 5 2 & & 5 & & - 5 2 2 5 s & & $ * * = * $ & & $ $ $ 2 M M M N * 5 & & & 4 & & * 4 2 2 2 & & & $ $ $ & $ $ & & O & $ 2 M < < < $ 2 2 & & 4 & & $ 2 2 2 2 & & $ $ $ $ & $ $ $ & $ $ $ 2 < < < M * 5 3 = = 3 & & $ 2 2 2 2 ",
"M M > : : : : : 1 M M 1 < < > > < 1 < M 1 M 1 M M > 1 M M 1 1 1 1 < < M 1 1 < > > > > < > < 1 M 1 M 1 M M 1 M N M < 1 N N M 1 1 B N B B B B N B B B V N 1 1 1 < < > < M N B C C B M M 1 > 1 M < < M N M < M M M < > > : > 1 M M 1 M 1 M M 1 < M < 1 B < 1 1 M M "
};
