/* XPM */
static const char *arm1a0[] = {
/* columns rows colors chars-per-pixel */
"128 128 236 2 ",
"   c #040404",
".  c #0B0B0B",
"X  c #0E1C09",
"o  c #0C1708",
"O  c #161E07",
"+  c #13160D",
"@  c #151C0B",
"#  c #181E0B",
"$  c #171D07",
"%  c #110E10",
"&  c #131412",
"*  c #161B12",
"=  c #191C11",
"-  c #1C1C1C",
";  c #221F1B",
":  c #261F17",
">  c #172007",
",  c #182007",
"<  c #15230B",
"1  c #1B230A",
"2  c #162B0D",
"3  c #1C2B0D",
"4  c #17300E",
"5  c #1B320F",
"6  c #1C2312",
"7  c #1B2B12",
"8  c #1A2416",
"9  c #1B3411",
"0  c #1D3C14",
"q  c #1A3513",
"w  c #0F200A",
"e  c #20270D",
"r  c #212A0E",
"t  c #222D11",
"y  c #23221B",
"u  c #2C231B",
"i  c #232C1C",
"p  c #222615",
"a  c #33261A",
"s  c #36291C",
"d  c #3B2C1C",
"f  c #223312",
"g  c #213C14",
"h  c #26371C",
"j  c #232323",
"k  c #2A2A25",
"l  c #2C2C2C",
"z  c #272824",
"x  c #342C24",
"c  c #3A2E23",
"v  c #332F2B",
"b  c #2C3325",
"n  c #2B3527",
"m  c #34312D",
"M  c #3D342B",
"N  c #333B2C",
"B  c #3C3326",
"V  c #343434",
"C  c #3B3633",
"Z  c #353C33",
"A  c #3C3C3C",
"S  c #393937",
"D  c #2F3031",
"F  c #771718",
"G  c #412F1C",
"H  c #43301E",
"J  c #413222",
"K  c #40352A",
"L  c #453837",
"P  c #543234",
"I  c #692628",
"U  c #673636",
"Y  c #753335",
"T  c #5F1C20",
"R  c #1E4216",
"E  c #1F4518",
"W  c #224316",
"Q  c #224519",
"!  c #244B1A",
"~  c #2A4C1B",
"^  c #244717",
"/  c #26521C",
"(  c #29551E",
")  c #2A591F",
"_  c #2A4624",
"`  c #32472D",
"'  c #2C5C21",
"]  c #2C5422",
"[  c #33582A",
"{  c #3D433C",
"}  c #3C4B3B",
"|  c #364635",
" . c #385635",
".. c #2F5130",
"X. c #2E6223",
"o. c #2F6924",
"O. c #316525",
"+. c #326A26",
"@. c #35642C",
"#. c #356D29",
"$. c #386E2D",
"%. c #337127",
"&. c #36732B",
"*. c #39752C",
"=. c #3A7B2E",
"-. c #37792C",
";. c #3B6834",
":. c #3C7E31",
">. c #3C7631",
",. c #41423C",
"<. c #4B4337",
"1. c #4C4B38",
"2. c #43743B",
"3. c #416B3B",
"4. c #3F3F40",
"5. c #4C3E41",
"6. c #3F4040",
"7. c #444444",
"8. c #454A43",
"9. c #4B4B4B",
"0. c #494846",
"q. c #584647",
"w. c #4A5549",
"e. c #54534D",
"r. c #535353",
"t. c #5B5B5B",
"y. c #575957",
"u. c #4F4F50",
"i. c #684649",
"p. c #794A4B",
"a. c #6A5853",
"s. c #446941",
"d. c #497746",
"f. c #576E54",
"g. c #61615C",
"h. c #5D6262",
"j. c #636364",
"k. c #6B6B6B",
"l. c #686764",
"z. c #77736E",
"x. c #747474",
"c. c #7B7B7B",
"v. c #767775",
"b. c #6C7166",
"n. c #5E5F60",
"m. c #971617",
"M. c #8F0E0F",
"N. c #A90909",
"B. c #B60404",
"V. c #AA1919",
"C. c #832424",
"Z. c #913031",
"A. c #AF3030",
"S. c #CB1616",
"D. c #D53131",
"F. c #E32626",
"G. c #EA3B3B",
"H. c #864848",
"J. c #834F51",
"K. c #984F51",
"L. c #A65556",
"P. c #B85555",
"I. c #AE4849",
"U. c #916E70",
"Y. c #B06F71",
"T. c #815D60",
"R. c #D05151",
"E. c #E94F4F",
"W. c #CF696A",
"Q. c #EB7373",
"!. c #853E40",
"~. c #3C812F",
"^. c #3D8331",
"/. c #3F8833",
"(. c #418B35",
"). c #448D39",
"_. c #428537",
"`. c #45953A",
"'. c #499C3D",
"]. c #46953A",
"[. c #4BA13F",
"{. c #4C9843",
"}. c #558A4F",
"|. c #4DA441",
" X c #4FA943",
".X c #52AD46",
"XX c #54AD49",
"oX c #53B147",
"OX c #54B249",
"+X c #56BA4D",
"@X c #58BB4E",
"#X c #5AB152",
"$X c #70916F",
"%X c #6EAF69",
"&X c #63AA5C",
"*X c #5ECB55",
"=X c #5BC351",
"-X c #59C04F",
";X c #62D359",
":X c #66DC5D",
">X c #61D057",
",X c #60CF57",
"<X c #6AE461",
"1X c #6EEC65",
"2X c #71F369",
"3X c #68E05F",
"4X c #7F7F80",
"5X c #B67E81",
"6X c #848483",
"7X c #8B8B8B",
"8X c #888983",
"9X c #939393",
"0X c #9C9C9C",
"qX c #989898",
"wX c #91918A",
"eX c #B48F8F",
"rX c #8DAC8C",
"tX c #A4A4A4",
"yX c #AAAAAB",
"uX c #AAB8A9",
"iX c #B3B3B3",
"pX c #BBBBBB",
"aX c #B8A6A6",
"sX c #A0B19F",
"dX c #D28C8D",
"fX c #F09091",
"gX c #D4B0B1",
"hX c #F4ADAD",
"jX c #CF9CA0",
"kX c #C4C4C4",
"lX c #C8C8C8",
"zX c #D8C8C8",
"xX c #F0CECE",
"cX c #EAE0E0",
"vX c None",
"bX c black",
/* pixels */
"vXvXvXvXvXvXvXvXvXvXvXvXvXvXvXvXvXvXvXvXvXvXvXvXvXvXvXvXvXvXvXvXvXvXB.B.B.B.vXvXvXvXvXvXvXvXvXvXvXvXvXvXvXvXvXvXvXvXvXvXvXvXvXvXvXvXvXvXvXvXvXvXvXvXvXvXvXvXvXvXvXvXvXvXvXvXvXvXvXvXvXvXvXvXvXvXvXvXvXvXvXvXvXvXvXvXvXvXvXvXvXvXvXvXvXvXvXvXvXvXvXvXvXvXvXvXvXvX",
"vXvXvXvXvXvXvXvXvXvXvXvXvXvXvXvXvXvXvXvXvXvXvXvXvXvXvXvXvXvXvXvXvXvXB.B.B.B.vXvXvXvXvXvXvXvXvXvXvXvXvXvXvXvXvXvXvXvXvXvXvXvXvXvXvXvXvXvXvXvXvXvXvXvXvXvXvXvXvXvXvXvXvXvXvXvXvXvXvXvXvXvXvXvXvXvXvXvXvXvXvXvXvXvXvXvXvXvXvXvXvXvXvXvXvXvXvXvXvXvXvXvXvXvXvXvXvXvX",
"vXvXvXvXvXvXvXvXvXvXvXvXvXvXvXvXvXvXvXvXvXvXvXvXvXvXvXvXvXvXvXvXvXvXN.N.N.N.vXvXvXvXvXvXvXvXvXvXvXvXvXvXvXvXvXvXvXvXvXvXvXvXvXvXvXvXvXvXvXvXvXvXvXvXvXvXvXvXvXvXvXvXvXvXvXvXvXvXvXvXvXvXvXvXvXvXvXvXvXvXvXvXvXvXvXvXvXvXvXvXvXvXvXvXvXvXvXvXvXvXvXvXvXvXvXvXvXvX",
"vXvXvXvXvXvXvXvXvXvXvXvXvXvXvXvXvXvXvXvXvXvXvXvXvXvXvXvXvXvXvXvXvXvXm.m.m.m.vXvXvXvXvXvXvXvXvXvXvXvXvXvXvXvXvXvXvXvXvXvXvXvXvXvXvXvXvXvXvXvXvXvXvXvXvXvXvXvXvXvXvXvXvXvXvXvXvXvXvXvXvXvXvXvXvXvXvXvXvXvXvXvXvXvXvXvXvXvXvXvXvXvXvXvXvXvXvXvXvXvXvXvXvXvXvXvXvXvX",
"vXvXvXvXvXvXvXvXvXvXvXvXvXvXvXvXvXvXvXvXvXvXvXvXvXvXvXvXvXvXvXvXvXvXC.C.C.C.vXvXvXvXvXvXvXvXvXvXvXvXvXvXvXvXvXvXvXvXvXvXvXvXvXvXvXvXvXvXvXvXvXvXvXvXvXvXvXvXvXvXvXvXvXvXvXvXvXvXvXvXvXvXvXvXvXvXvXvXvXvXvXvXvXvXvXvXvXvXvXvXvXvXvXvXvXvXvXvXvXvXvXvXvXvXvXvXvXvX",
"vXvXvXvXvXvXvXvXvXvXvXvXvXvXvXvXvXvXvXvXvXvXvXvXvXvXvXvXvXvXvXvXvXvXU U U U vXvXvXvXvXvXvXvXvXvXvXvXvXvXvXvXvXvXvXvXvXvXvXvXvXvXvXvXvXvXvXvXvXvXvXvXvXvXvXvXvXvXvXvXvXvXvXvXvXvXvXvXvXvXvXvXvXvXvXvXvXvXvXvXvXvXvXvXvXvXvXvXvXvXvXvXvXvXvXvXvXvXvXvXvXvXvXvXvXvX",
"vXvXvXvXvXvXvXvXvXvXvXvXvXvXvXvXvXvXvXvXvXvXvXvXvXvXvXvXvXvXvXvXvXvXq.q.q.q.vXvXvXvXvXvXvXvXvXvXvXvXvXvXvXvXvXvXvXvXvXvXvXvXvXvXvXvXvXvXvXvXvXvXvXvXvXvXvXvXvXvXvXvXvXvXvXvXvXvXvXvXvXvXvXvXvXvXvXvXvXvXvXvXvXvXvXvXvXvXvXvXvXvXvXvXvXvXvXvXvXvXvXvXvXvXvXvXvXvX",
"vXvXvXvXvXvXvXvXvXvXvXvXvXvXvXvXvXvXvXvXvXvXvXvXvXvXvXvXvXvXvXvXvXvXu.u.u.u.vXvXvXvXvXvXvXvXvXvXvXvXvXvXvXvXvXvXvXvXvXvXvXvXvXvXvXvXvXvXvXvXvXvXvXvXvXvXvXvXvXvXvXvXvXvXvXvXvXvXvXvXvXvXvXvXvXvXvXvXvXvXvXvXvXvXvXvXvXvXvXvXvXvXvXvXvXvXvXvXvXvXvXvXvXvXvXvXvXvX",
"vXvXvXvXvXvXvXvXvXvXvXvXvXvXvXvXvXvXvXvXvXvXvXvXvXvXvXvXvXvXvXvXvXvXy.y.y.y.vXvXvXvXvXvXvXvXvXvXvXvXvXvXvXvXvXvXvXvXvXvXvXvXvXvXvXvXvXvXvXvXvXvXvXvXvXvXvXvXvXvXvXvXvXvXvXvXvXvXvXvXvXvXvXvXvXvXvXvXvXvXvXvXvXvXvXvXvXvXvXvXvXvXvXvXvXvXvXvXvXvXvXvXvXvXvXvXvXvX",
"vXvXvXvXvXvXvXvXvXvXvXvXvXvXvXvXvXvXvXvXvXvXvXvXvXvXvXvXvXvXvXvXvXvXh.h.h.h.vXvXvXvXvXvXvXvXvXvXvXvXvXvXvXvXvXvXvXvXvXvXvXvXvXvXvXvXvXvXvXvXvXvXvXvXvXvXvXvXvXvXvXvXvXvXvXvXvXvXvXvXvXvXvXvXvXvXvXvXvXvXvXvXvXvXvXvXvXvXvXvXvXvXvXvXvXvXvXvXvXvXvXvXvXvXvXvXvXvX",
"vXvXvXvXvXvXvXvXvXvXvXvXvXvXvXvXvXvXvXvXvXvXvXvXvXvXvXvXvXvXvXvXvXvXj.j.j.j.vXvXvXvXvXvXvXvXvXvXvXvXvXvXvXvXvXvXvXvXvXvXvXvXvXvXvXvXvXvXvXvXvXvXvXvXvXvXvXvXvXvXvXvXvXvXvXvXvXvXvXvXvXvXvXvXvXvXvXvXvXvXvXvXvXvXvXvXvXvXvXvXvXvXvXvXvXvXvXvXvXvXvXvXvXvXvXvXvXvX",
"vXvXvXvXvXvXvXvXvXvXvXvXvXvXvXvXvXvXvXvXvXvXvXvXvXvXvXvXvXvXvXvXvXvXj.j.j.j.vXvXvXvXvXvXvXvXvXvXvXvXvXvXvXvXvXvXvXvXvXvXvXvXvXvXvXvXvXvXvXvXvXvXvXvXvXvXvXvXvXvXvXvXvXvXvXvXvXvXvXvXvXvXvXvXvXvXvXvXvXvXvXvXvXvXvXvXvXvXvXvXvXvXvXvXvXvXvXvXvXvXvXvXvXvXvXvXvXvX",
"vXvXvXvXvXvXvXvXvXvXvXvXvXvXvXvXvXvXvXvXvXvXvXvXvXvXvXvXvXvXvXvXvXvXt.t.t.t.vXvXvXvXvXvXvXvXvXvXvXvXvXvXvXvXvXvXvXvXvXvXvXvXvXvXvXvXvXvXvXvXvXvXvXvXvXvXvXvXvXvXvXvXvXvXvXvXvXvXvXvXvXvXvXvXvXvXvXvXvXvXvXvXvXvXvXvXvXvXvXvXvXvXvXvXvXvXvXvXvXvXvXvXvXvXvXvXvXvX",
"vXvXvXvXvXvXvXvXvXvXvXvXvXvXvXvXvXvXvXvXvXvXvXvXvXvXvXvXvXvXvXvXvXvXr.r.r.r.vXvXvXvXvXvXvXvXvXvXvXvXvXvXvXvXvXvXvXvXvXvXvXvXvXvXvXvXvXvXvXvXvXvXvXvXvXvXvXvXvXvXvXvXvXvXvXvXvXvXvXvXvXvXvXvXvXvXvXvXvXvXvXvXvXvXvXvXvXvXvXvXvXvXvXvXvXvXvXvXvXvXvXvXvXvXvXvXvXvX",
"vXvXvXvXvXvXvXvXvXvXvXvXvXvXvXvXvXvXvXvXvXvXvXvXvXvXvXvXvXvXvXvXvXvX7.7.7.7.vXvXvXvXvXvXvXvXvXvXvXvXvXvXvXvXvXvXvXvXvXvXvXvXvXvXvXvXvXvXvXvXvXvXvXvXvXvXvXvXvXvXvXvXvXvXvXvXvXvXvXvXvXvXvXvXvXvXvXvXvXvXvXvXvXvXvXvXvXvXvXvXvXvXvXvXvXvXvXvXvXvXvXvXvXvXvXvXvXvX",
"vXvXvXvXvXvXvXvXvXvXvXvXvXvXvXvXvXvXvXvXvXvXvXvXvXvXvXvXvXvXvXvXvXvXS S S S vXvXvXvXvXvXvXvXvXvXvXvXvXvXvXvXvXvXvXvXvXvXvXvXvXvXvXvXvXvXvXvXvXvXvXvXvXvXvXvXvXvXvXvXvXvXvXvXvXvXvXvXvXvXvXvXvXvXvXvXvXvXvXvXvXvXvXvXvXvXvXvXvXvXvXvXvXvXvXvXvXvXvXvXvXvXvXvXvXvX",
"vXvXvXvXvXvXvXvXvXvXvXvXvXvXvXvXvXvXvXvXvXvXvXvXvXvXvXvXvXvXvXvXvXvXvXV V V vXvXvXvXvXvXvXvXvXvXvXvXvXvXvXvXvXvXvXvXvXvXvXvXvXvXvXvXvXvXvXvXvXvXvXvXvXvXvXvXvXvXvXvXvXvXvXvXvXvXvXvXvXvXvXvXvXvXvXvXvXvXvXvXvXvXvXvXvXvXvXvXvXvXvXvXvXvXvXvXvXvXvXvXvXvXvXvXvXvX",
"vXvXvXvXvXvXvXvXvXvXvXvXvXvXvXvXvXvXvXvXvXvXvXvXvXvXvXvXvXvXvXvXvXvXvXS S S V vXvXvXvXvXvXvXvXvXvXvXvXvXvXvXvXvXvXvXvXvXvXvXvXvXvXvXvXvXvXvXvXvXvXvXvXvXvXvXvXvXvXvXvXvXvXvXvXvXvXvXvXvXvXvXvXvXvXvXvXvXvXvXvXvXvXvXvXvXvXvXvXvXvXvXvXvXvXvXvXvXvXvXvXvXvXvXvXvX",
"vXvXvXvXvXvXvXvXvXvXvXvXvXvXvXvXvXvXvXvXvXvXvXvXvXvXvXvXvXvXvXvXvXvXvXA A A S V vXvXvXvXvXvXvXvXvXvXvXvXvXvXvXvXvXvXvXvXvXvXvXvXvXvXvXvXvXvXvXvXvXvXvXvXvXvXvXvXvXvXvXvXvXvXvXvXV A 7.0.vXvXvXvXvXvXvXvXvXvXvXvXvXvXvXvXvXvXvXvXvXvXvXvXvXvXvXvXvXvXvXvXvXvXvXvX",
"vXvXvXvXvXvXvXvXvXvXvXvXvXvXvXvXvXvXvXvXvXvXvXvXvXvXvXvXvXvXvXvXvXvXvX0.7.A S V l vXvXvXvXvXvXvXvXvXvXvXvXvXvXvXvXvXvXvXvXvXvXvXvXvXvXvXvXvXvXvXvXvXvXvXvXvXvXvXvXvXvXvXvXvXvXl V A 7.0.9.vXvXvXvXvXvXvXvXvXvXvXvXvXvXvXvXvXvXvXvXvXvXvXvXvXvXvXvXvXvXvXvXvXvXvX",
"vXvXvXvXvXvXvXvXvXvXvXvXvXvXvXvXvXvXvXvXvXvXvXvXvXvXvXvXvXvXvXvXvXvXvX0.0.7.A V l vXvXvXvXvXvXvXvXvXvXvXvXvXvXvXvXvXvXvXvXvXvXvXvXvXvXvXvXvXvXvXvXvXvXvXvXvXvXvXvXvXvXvXvXvXvXl V A 7.0.0.vXvXvXvXvXvXvXvXvXvXvXvXvXvXvXvXvXvXvXvXvXvXvXvXvXvXvXvXvXvXvXvXvXvXvX",
"vXvXvXvXvXvXvXvXvXvXvXvXvXvXvXvXvXvXvXvXvXvXvXvXvXvXvXvXvXvXvXvXvXvX0.0.0.7.A V l l vXvXvXvXvXvXvXvXvXvXvXvXvXvXvXvXvXvXvXvXvXvXvXvXvXvXvXvXvXvXvXvXvXvXvXvXvXvXvXvXvXvXvXvXl l V A 7.0.0.0.vXvXvXvXvXvXvXvXvXvXvXvXvXvXvXvXvXvXvXvXvXvXvXvXvXvXvXvXvXvXvXvXvXvX",
"vXvXvXvXvXvXvXvXvXvXvXvXvXvXvXvXvXvXvXvXvXvXvXvXvXvXvXvXvXvXvXvXvXA 0.0.0.7.A V l l vXvXvXvXvXvXvXvXvXvXvXvXvXvXvXvXvXvXvXvXvXvXvXvXvXvXvXvXvXvXvXvXvXvXvXvXvXvXvXvXvXvXvXvXl l V A 7.0.0.7.A vXvXvXvXvXvXvXvXvXvXvXvXvXvXvXvXvXvXvXvXvXvXvXvXvXvXvXvXvXvXvXvXvX",
"vXvXvXvXvXvXvXvXvXvXvXvXvXvXvXvXvXvXA A A 7.0.0.0.0.0.7.A A S V V S 7.0.0.7.A V l l vXvXvXvXvXvXvXvXvXvXvXvXvXvXvXvXvXvXvXvXvXvXvXvXvXvXvXvXvXvXvXvXvXvXvXvXvXvXvXvXvXvXvXvXl l V A 7.0.0.4.S V V S A A 7.0.0.0.0.0.7.A A A vXvXvXvXvXvXvXvXvXvXvXvXvXvXvXvXvXvX",
"vXvXvXvXvXvXvXvXvXvXvXvXvXvXvXvXvXvXA A 7.0.0.9.9.0.0.0.4.A S V V S A 0.0.7.A V l l vXvXvXvXvXvXvXvXvXvXvXvXvXvXvXvXvXvXvXvXvXvXvXvXvXvXvXvXvXvXvXvXvXvXvXvXvXvXvXvXvXvXvXvXl l V A 7.0.0.A S V V S A A 0.0.0.9.9.0.0.7.A A vXvXvXvXvXvXvXvXvXvXvXvXvXvXvXvXvXvX",
"vXvXvXvXvXvXvXvXvXvXvXvXvXvXvXvXvXA 7.7.0.r.y.y.y.y.r.9.0.7.A S V S A 0.0.7.A V l l vXvXvXvXvXvXvXvXvXvXvXvXvXvXvXvXvXvXvXvXvXvXvXvXvXvXvXvXvXvXvXvXvXvXvXvXvXvXvXvXvXvXvXvXl l V A 7.0.0.A S V S A 4.0.0.r.y.y.y.y.r.0.7.7.7.vXvXvXvXvXvXvXvXvXvXvXvXvXvXvXvXvX",
"vXvXvXvXvXvXvXvXvXvXvXvXvXvXvXvXvX0.0.9.y.j.k.k.k.j.n.y.r.0.7.S V S A 0.0.0.A V l l vXvXvXvXvXvXvXvXvXvXvXvXvXvXvXvXvXvXvXvXvXvXvXvXvXvXvXvXvXvXvXvXvXvXvXvXvXvXvXvXvXvXvXvXl l V A 0.0.0.A S V S A 0.r.y.t.j.k.k.k.j.y.9.0.0.vXvXvXvXvXvXvXvXvXvXvXvXvXvXvXvXvX",
"vXvXvXvXvXvXvXvXvXvXvXvXA A 7.0.0.9.9.y.k.c.8X8X6Xc.x.l.t.r.0.A V S A 0.9.0.A V l l vXvXvXvXvXvXvXvXvXvXvXvXvXvXvXvXvXvXvXvXvXvXvXvXvXvXvXvXvXvXvXvXvXvXvXvXvXvXvXvXvXvXvXvXl l V A 0.9.0.A S V A 0.r.t.k.x.c.6X8X8Xc.k.y.u.9.0.0.0.A A vXvXvXvXvXvXvXvXvXvXvXvX",
"vXvXvXvXvXvXvXvXvXvXvXA A 7.0.0.9.r.y.l.c.9XtXtX0X7X6Xx.k.t.9.A S S 4.0.9.0.A V l l vXvXvXvXvXvXvXvXvXvXvXvXvXvXvXvXvXvXvXvXvXvXvXvXvXvXvXvXvXvXvXvXvXvXvXvXvXvXvXvXvXvXvXvXl l V A 0.9.0.A S S A 9.t.k.v.6X7X0XtXtX9Xc.j.y.r.9.0.0.4.A A vXvXvXvXvXvXvXvXvXvXvX",
"vXvXvXvXvXvXvXvXvXvXA A A 7.0.9.r.y.j.x.wXyXiXiXyX0X7X6Xx.j.r.7.S S 7.9.r.0.A V l l vXvXvXvXvXvXvXvXvXvXvXvXvXvXvXvXvXvXvXvXvXvXvXvXvXvXvXvXvXvXvXvXvXvXvXvXvXvXvXvXvXvXvXvXl l V A 0.r.9.7.S S 7.r.j.x.6X7X0XyXiXiXyX7Xx.j.y.y.9.0.7.A A A vXvXvXvXvXvXvXvXvXvX",
"vXvXvXvXvXvXvXvXvXvXA A 7.7.0.r.y.j.x.8X0XiXkXpXiX0X7X6Xx.j.r.7.S S 7.r.y.9.4.V l k vXvXvXvXvXvXvXvXvXvXvXvXvXvXvXvXvXvXvXvXvXvXvXvXvXvXvXvXvXvXvXvXvXvXvXvXvXvXvXvXvXvXvXvXk l V 4.9.y.r.7.S S 7.r.j.x.6X7X0XiXpXkXiX0X8Xx.j.y.r.0.7.6.A A vXvXvXvXvXvXvXvXvXvX",
"vXvXvXvXvXvXvXvXvXA A A 7.0.9.y.j.x.8X0XyXkXlXpXyXqX8Xc.k.n.9.A S S 0.y.y.r.7.S l z p vXvXvXvXvXvXvXvXvXvXvXvXvXvXvXvXvXvXvXvXvXvXvXvXvXvXvXvXvXvXvXvXvXvXvXvXvXvXvXvXvXvXp z l V 7.r.y.r.0.S S 4.9.t.k.c.8X0XyXpXlXkXyX0X8Xx.j.y.9.0.7.4.A A vXvXvXvXvXvXvXvXvX",
"vXvXvXvXvXvXvXvXA A 4.7.0.0.r.t.k.8X0XyXpXlXlXpXtX7Xc.k.j.y.0.A S A 0.y.t.y.7.S l y 6 # vXvXvXvXvXvXvXvXvXvXvXvXvXvXvXvXvXvXvXvXvXvXvXvXvXvXvXvXvXvXvXvXvXvXvXvXvXvXvXvX, 6 y l S 7.y.t.y.0.A S A 0.y.j.k.c.7XtXpXlXlXpXyX0X8Xk.t.r.0.0.7.A A A vXvXvXvXvXvXvXvX",
"vXvXvXvXvXvXvXA A A 7.0.0.r.y.j.c.9XyXpXlXlXkXiX0X6Xk.j.y.r.0.A V A 0.y.j.y.0.S k p 6 # $ vXvXvXvXvXvXvXvXvXvXvXvXvXvXvXvXvXvXvXvXvXvXvXvXvXvXvXvXvXvXvXvXvXvXvXvXvXvX$ , 6 p k S 0.y.j.t.0.A V A 0.r.y.j.k.6X0XiXkXlXlXpXyX9Xc.j.y.r.0.0.7.A A A vXvXvXvXvXvXvX",
"vXvXvXvXvXvXvXA A 7.0.0.r.y.j.x.8X0XiXkXlXkXpXyX7Xx.j.y.r.0.7.S V A 9.t.j.y.0.S k p 1 , $ vXvXvXvXvXvXvXvXvXvXvXvXvXvXvXvXvXvXvXvXvXvXvXvXvXvXvXvXvXvXvXvXvXvXvXvXvXvX$ , 1 p k S 0.y.j.t.9.A V S 7.0.r.y.j.x.7XyXpXlXlXkXiX0X8Xx.j.y.r.0.0.4.A A vXvXvXvXvXvXvX",
"vXvXvXvXvXvXvXA 4.7.0.9.y.j.x.8X9XyXiXpXpXpXyX0X6Xk.t.r.9.0.A S V A 9.t.j.y.0.S k p 1 , > , vXvXvXvXvXvXvXvXvXvXvXvXvXvXvXvXvXvXvXvXvXvXvXvXvXvXvXvXvXvXvXvXvXvXvXvX, , , 1 p k S 0.y.j.t.9.A V S A 0.9.r.t.k.6X0XyXpXpXpXpXyX9X8Xx.j.y.9.0.7.A A vXvXvXvXvXvXvX",
"vXvXvXvXvXvXvX7.7.0.9.y.j.x.8X0XtXiXiXiXiXtX0X8Xx.j.y.9.0.7.A V V A 9.t.j.y.0.V k p 1 , , 1 e vXvXvXvXvXvXvXvXvXvXvXvXvXvXvXvXvXvXvXvXvXvXvXvXvXvXvXvXvXvXvXvXvXvXe 1 , , 1 p k S 0.y.j.t.9.A V V A 7.0.9.y.j.x.8X0XtXiXiXiXiXtX0X8Xx.j.y.9.0.7.7.vXvXvXvXvXvXvX",
"vXvXvXvXvXvXvX0.0.0.r.y.k.6X0XyXiXiXiXyX0X9X8Xc.k.y.r.0.7.4.A V V A 9.t.j.y.0.V k p 1 , , 1 e 1 < X o vXvXvXvXvXvXvXvXvXvXvXvXvXvXvXvXvXvXvXvXvXvXvXvXvXvXo X < 1 e 1 , , 1 p k S 0.y.j.t.9.A V V A 4.7.0.r.y.k.x.8X9X0XyXiXiXiXyX0X6Xk.y.r.0.0.0.vXvXvXvXvXvXvX",
"vXvXvXvXvXvXvX0.0.r.y.j.x.7XtXiXpXiXtX0X7X6Xx.k.t.r.0.0.7.A S V V A 9.t.j.y.0.S k p 1 , , 1 e 1 < @ o o vXvXvXvXvXvXvXvXvXvXvXvXvXvXvXvXvXvXvXvXvXvXvXvXo o @ < 1 e 1 , , 6 p k S 0.y.j.t.9.A V V S A 7.0.0.r.t.k.x.6X7X0XtXiXpXiXtX7Xx.j.y.r.0.0.vXvXvXvXvXvXvX",
"vXvXvXvXvXvXvX9.r.y.h.k.c.9XtXiXiXyX0X7Xc.x.j.t.r.9.0.7.A C V m V A 9.j.l.t.9.A l i 6 , , 1 e 1 , @ X X vXvXvXvXvXvXvXvXvXvXvXvXvXvXvXvXvXvXvXvXvXvXvXvXX X @ < 1 e 1 , , 6 y l A 9.t.j.j.9.A V m V S A 7.0.9.r.t.j.x.c.7X0XyXiXiXtX9Xc.k.j.y.r.9.vXvXvXvXvXvXvX",
"vXvXvXvXvXvX0.9.y.j.k.c.8X9XtXtXtX9X8Xc.k.j.y.r.9.0.7.L C C m m V A r.j.k.j.r.A m i 6 , , 1 1 1 1 < # @ # vXvXvXvXvXvXvXvXvXvXvXvXvXvXvXvXvXvXvXvXvXvX# # # < , 1 1 1 , , 6 i m A r.j.k.j.r.A V v m C C L 7.0.9.r.y.j.k.c.8X9XtXtXtX9X8Xc.k.j.y.9.0.vXvXvXvXvXvX",
"vXvXvXvXvXS 7.r.t.k.x.8X7X9X9X9X7X6Xx.k.t.y.9.0.0.7.L L K M M v V A r.k.x.k.y.0.Z k 6 , > , 1 1 1 1 1 , , $ $ $ $ , 3 9 R Q Q E W g f t e 1 , $ $ $ # , , 1 1 1 1 1 , , , 6 k Z 0.y.k.x.k.r.A V v M M M L L 7.0.0.9.y.t.k.x.6X7X9X9X9X7X8Xv.k.t.r.7.S vXvXvXvXvX",
"vXvXvXvXl S 7.r.j.x.6X7X9X7X7Xc.x.k.j.y.r.0.0.7.6.A A K K B c x m A y.k.x.k.t.0.A b p , $ > , , 1 1 1 1 , O $ $ $ , 3 9 R E E E W g f r e 1 , $ $ $ , , 1 1 1 1 1 , , $ , p b A 0.t.k.x.k.y.A m x c J K C A A 6.7.0.0.r.y.j.k.x.c.8X9X9X7X6Xx.j.r.7.S l vXvXvXvX",
"vXvXvXvXV S 0.y.j.x.8X9X9X8Xc.k.j.y.r.0.0.7.A A A A C K J H d x v A y.x.c.x.j.9.{ b p # $ $ $ , 1 e e 1 , , , O < 1 3 9 0 R R R 0 g f e 1 1 , , $ , , 1 1 e e 1 , , $ $ , p b { 9.j.x.c.x.y.A v x d G J M C A A A A 7.0.0.r.y.j.k.c.8X9X9X8Xx.j.y.0.S D vXvXvXvX",
"vXvXvXvXS A 0.y.k.v.8X7X7X6Xx.j.y.9.0.7.A A A S S C M K J G s x l A y.x.6Xc.j.r.,.v p # $ $ $ , 1 1 1 1 1 , , 1 1 3 3 9 9 0 0 9 9 9 r e 1 1 1 , , , , 1 1 3 1 1 , $ $ $ # p v ,.r.j.c.6Xx.y.A l x s G J K M C S S S A A 7.0.9.y.j.x.6X7X7X8Xv.k.y.0.A S vXvXvXvX",
"vXvXvXvXA 7.9.y.k.x.6X8X8Xx.j.y.9.0.A A S S S V M M M J H G d u k A y.c.8Xc.k.r.,.v y @ @ $ $ $ , 1 1 1 1 1 3 3 3 5 5 5 9 9 9 9 5 3 3 1 1 1 1 1 1 1 1 1 1 1 1 , O $ $ @ @ y l { r.k.4X8Xc.y.A k u d G H J M M C V S S S A A 0.9.y.j.x.6X8X6Xx.k.y.9.7.A vXvXvXvX",
"vXvXvXvX7.0.r.t.k.x.c.c.v.k.y.9.7.A A S V V V m M B J H H G s u j S y.c.7X6Xk.r.A l 8 * + @ $ $ O , , 1 1 3 3 9 9 9 9 3 3 3 3 3 3 1 1 1 1 1 1 e e e 1 1 1 , , , O $ @ + + - l A r.k.8X7Xc.y.S j u s G H H J B M m V V V S A A 7.9.y.k.v.c.c.x.k.t.r.0.7.vXvXvXvX",
"vXvXvXvX0.0.r.t.k.k.x.x.k.t.9.7.A S V V V D m m c J H H G G a : y S t.6X9X8Xk.r.A l - * + @ # $ , , , 1 1 e f f 0 9 9 3 1 1 1 1 1 , , , 1 1 e e e e e 1 1 , , , , # @ + * - l A r.k.8X9X6Xt.S y u a G H H H J c m V V V V S S A 7.9.t.k.x.x.k.k.t.y.0.0.vXvXvXvX",
"vXvXvXvX0.9.y.j.k.k.k.j.n.r.0.A V V l l l l v v c G G G G d a : y S t.6X9X8Xk.r.{ l 8 * @ < 1 3 3 3 3 3 3 e t f 0 9 9 3 1 < < < , , , , , 1 e e e e e 3 1 1 1 1 1 1 < @ * 8 l { r.k.8X9X6Xt.S y : a d G G G G c v v l l l l V S A 0.r.j.j.k.k.k.j.y.9.0.vXvXvXvX",
"vXvXvXvX9.r.y.j.k.k.j.t.y.0.A V l k k k l l l v c G G d d s u ; j S t.6X9X8Xk.y.{ D i 8 6 7 9 5 9 5 5 3 3 3 3 9 9 9 5 3 3 3 3 3 3 1 , , 1 1 1 e e 1 3 3 3 3 3 3 3 3 3 6 8 z D 6.r.k.8X9X6Xt.S j ; u s d G G G c v l l k k k k l V A 0.y.t.j.k.k.j.y.r.9.vXvXvXvX",
"vXvXvXvX9.r.y.j.k.j.n.y.0.4.V k j j j j z l l v c H G d a u y ; j A j.6X9X8Xk.y.7.N i 7 9 0 W W W W g f 3 1 1 3 3 3 5 5 5 5 5 5 3 3 1 1 1 1 1 1 1 1 1 3 3 5 9 9 9 9 9 9 q b N 7.y.k.8X9X6Xn.A j ; y u a d G G c v l l z j j j j k V 4.9.y.n.j.k.j.y.r.9.vXvXvXvX",
"vXvXvXvX0.u.y.j.k.j.y.9.7.S l j ; - - j j l l m B G d s u y ; j k A j.8X9X7Xk.y.7.N n 0 R ^ / ( ( ( ~ W 9 < < < 1 3 3 9 0 9 0 9 9 5 3 3 1 1 , , , < < 3 9 9 0 W ^ ^ W 0 0 n N 7.r.k.7X9X8Xj.4.k y ; y u s G G B m l k j j ; - j j l S 7.9.y.j.l.j.y.9.0.vXvXvXvX",
"vXvXvXvX0.9.y.j.j.j.r.0.A l j - - - - j j k v m c d d a u y j j D 0.k.8X9X7Xk.r.{ ` _ Q ! ( ' X.O.O.' ~ 0 3 < < 1 3 5 0 g W W W g g f t e 1 , , < < 2 9 0 R ^ Q ~ ~ Q E W _ ` { r.k.8X9X8Xk.0.V j y ; y a s d c v v k j j - - - - j l A 0.r.n.j.j.y.9.0.vXvXvXvX",
"vXvXvXvX0.0.r.t.j.y.9.A V k j - - - - j k l v x c d s u y j j l A u.x.9X0X7Xk.r.{ ` _ ! ( X.+.%.%.%.+.' ! g 9 5 3 5 f h _ _ _ _ _ h h h i t 3 3 3 3 9 9 R Q Q ~ / ~ ! E W Q N { u.k.7X0X9Xx.r.A k j j y u s s c x v l j j - - - - j k V A 9.y.j.t.r.0.0.vXvXvXvX",
"vXvXvXvXA 0.9.y.t.y.0.S k j - - - - j j k x x c s a u y y j k V 7.y.c.0XtX9Xk.9.| ` _ ( X.+.-.=.=.=.=.%.O.' ! ^ W g h _ ` ` ` ` ` ` N N b h f 5 9 9 0 Q Q ! / / ~ ! ^ E 0 h n Z 9.k.9XtX0Xc.y.7.V k j y y u a x x x x k j j - - - - j k S 0.y.t.y.9.0.4.vXvXvXvX",
"vXvXvXvXA A 0.r.y.9.A l j - - - - j j k x c c d a u y y j k V A 9.k.8XyXyX9Xk.8.Z _ ] ' o.-.~.^.(.(.(.^.:.*.+.' / ~ _ ` } } } | } } { { ` _ W W ^ Q ~ / ( ( ( / ! Q E 0 0 0 b V 0.k.9XyXtX8Xk.9.A V k j y y y a c c c x k j j - - - - j l A 9.y.r.0.A A vXvXvXvX",
"vXvXvXvXV S A 0.9.0.S z - - - - - j k l x c d s u y y j j D A 9.t.x.9XyXiX9Xl.7.N _ ] X.%.=./.(.].].].].].).^.%.X.] ..} 8.8.8.8.8.8.0.7.| ` ~ ~ / ( ) ' ' ' ' ( ! E R 0 9 q i n 7.k.9XiXyX9Xx.t.0.A l j j y y u s d c x l k j - - - - - k S 0.9.0.A S V vXvXvXvX",
"vXvXvXvXl V S A 7.A l j - - - - j k l v c c d s u ; j j l A 0.y.k.6X0XiXyXwXj.A n _ ] O.-.^.(.].'.'.'.[.'.'.).=.#.[  .,.8.9.q.q.q.q.9.8.} ` ] ( ) ' X.X.O.X.' ( ! E R 0 9 q 7 z A j.wXyXiX0X6Xk.y.0.A l j j ; u s d c c v l k j - - - - j l A 7.A S V l vXvXvXvX",
"vXvXvXvXj k l V V k j & & & - - j k x x x s a u : ; j k S 7.y.k.6X9XtXyXtX6Xy.Z b Q ' +.=./.].'.[.|.|.|.|.'.).:.;. . .} 7.q.i.p.p.i.q.0.} | ..] ] X.O.O.+.+.O.' / Q E 0 0 9 8 i Z y.6XtXyXtX9X6Xk.y.7.S k j ; y u a s x x x k j - - & & & ; k V V l k j vXvXvXvX",
"vXvXvXvXj j j j - - & . . & - j z k x s a u u : ; y j D A u.j.6X9XtXtXtX9Xx.9.b i W ' #.=.(.].'.|.|.|.|.[.'.).2.;. .| | A q.p.K.K.H.q.,.| | ....[ ' O.+.+.+.+.X.) / Q R 0 9 7 8 b 9.x.9XtXtXtX9X6Xj.u.A D j y ; : u u a s x x z j - & . . & - - j j j j vXvXvXvX",
"vXvXvXvX- - - & & . .   . & - j k x d d a u ; ; y j l A 0.t.c.9XyXyXtX9Xc.g.,.i t W ' %.^.).'.[.|..X.X|.'.]._.2.3.} | Z A U K.P.P.K.i.A Z { } }  .[ O.+.+.#.#.O.X.) / Q R 9 3 1 i ,.g.c.9XtXyXyX9Xv.t.0.A l j y ; : u a s d x k j - & .   . . & & - - - vXvXvXvX",
"vXvXvXj ; - * & . .     . & j l m M J J s u j j k V A 0.y.k.8XtXiXiX0X8Xk.u.N p 5 W X.*.^.].'.|..X.X.X|.'.]._.s.w.8.6.A L i.L.R.R.L.U L S { 8.8. .[ O.+.+.%.#.+.O.' ) ~ Q 9 3 1 p N u.k.8X0XiXiXtX8Xk.y.0.A V k j j u s J J M m l j & .     . . & * - - j vXvXvX",
"vXvXvXl z j - - & & & & - j V A ,.<.<.<.L C S S A 0.r.n.k.c.9XtXiXyX9Xx.y.,.b 7 5 ^ O.=.(.].'.|..X.X.X X[.].{.d.f.y.q.5.P H.P.Q.W.L.U K C 0.r.y.s.;.O.+.+.%.%.#.+.X.' ( Q R 5 3 7 b ,.y.x.9XyXiXtX9Xc.k.n.r.0.A Z V C L <.<.<.,.A V j - & & & & - - j k l vXvXvX",
"vXvX0.A S V l l k z j k l A 0.u.y.a.a.a.e.e.r.y.n.k.x.4X8X9X0XtXtXqXc.g.1.N i 3 5 ~ +.^.).'.|..X.X.X.X X|.{.}.}.b.l.a.p.H.L.W.fXdXY.p.P P q.j.l.f.3.#.+.%.%.%.%.#.+.X.' / Q 0 5 9 h N 8.g.c.0XtXtX0X9X8Xc.x.k.n.y.r.e.e.a.a.a.y.r.0.A l k j z k k l V S A 0.vXvX",
"r.9.0.0.7.7.7.7.7.7.7.7.0.r.t.j.k.z.z.z.z.z.x.c.6X7X9X0XtXyXtXtX9X6Xl.8.N i 7 3 9 ( %./.].[.|..X.X.X.X.X X X}.$X$XU.U.L.L.W.dXhXjXY.H.I U a.z.v.f.2.$.+.%.%.&.%.%.#.O.X.) / ^ 0 9 f h N 8.l.6X9XtXtXyXtX0X9X7X6Xc.x.z.z.z.z.z.k.j.t.r.0.7.7.7.7.7.7.7.7.0.9.9.r.",
"9.9.9.9.9.9.r.y.y.y.y.y.t.j.k.x.c.6X8X7X7X8X7X9X0XyXiXiXpXiXyXqX6Xk.e.N i 3 3 5 R ' =.).'.|..X.X.X.X.X.X XXX&X$X8XwXY.W.W.Q.hXhXgXeXH.I Y T.U.8X$Xd.*.%.%.%.*.%.%.#.#.O.' ( ~ ^ 0 9 7 i N u.k.6XqXyXiXpXiXiXyX0X9X8X8X7X7X8X6Xc.x.k.j.t.y.y.y.y.y.r.9.9.9.9.9.9.",
"0.0.0.0.9.r.y.t.j.j.j.j.j.k.x.c.6X8XwX9X9X9X9X0XyXiXpXpXpXiXtX8Xx.y.{ h 1 < 2 9 Q X.=.(.'.|..XoXoX.X.X.X.XXX&X%XrX0XdXQ.Q.fXhXxXzXeXK.Y Z.U.wXwX$Xd.*.%.%.%.%.*.*.%.#.+.X.' / Q 0 5 3 3 h ,.y.z.8XtXiXpXpXpXiXyX0X9X9X9X9X9X8X6Xc.x.k.j.j.j.j.j.t.y.r.9.0.0.0.0.",
"S A A A 0.0.r.y.t.t.t.t.n.j.k.k.x.4X8X7X7X7X7X9X0XtXyXyXtX0X7Xx.t.8.N p < 2 5 R ( +.^.].[. X.XoXoXoX.X.XoXoX%XrXsXaXdXfXQ.fXhXcXzXeXK.C.Z.U.0X0X$X}.>.%.%.%.%.*.*.%.#.+.O.' / Q 0 5 2 3 i N 8.t.x.7X0XtXyXyXtX0X9X7X7X7X7X8X4Xx.k.k.j.j.t.t.t.t.y.r.0.0.A A S S ",
"j z k V S A 7.0.9.r.r.r.r.y.y.t.j.k.x.c.c.c.c.c.8X8X7X7X8Xc.k.y.8.N h 7 < 2 0 ~ X.-.^.].[. X.XoXoXoXoXoXoXOX%XrXuXgXjXfXfXhXxXcXzXeXI.C.Z.Y.aXuXrX}.>.%.%.%.*.*.*.%.#.+.O.' / E 0 5 4 3 9 b N 8.y.k.c.8X7X7X7X8X4Xc.c.c.c.x.k.j.t.y.r.r.r.r.r.9.0.0.A S V k j j ",
"& & - j k l S A 4.7.7.7.7.7.0.0.r.y.j.j.j.j.j.k.k.k.k.k.j.y.u.{ N h 7 2 2 0 Q ' +.=./.].'.|..XoXoXoXoX.X XOX%XrXuXgXgXfXfXhXxXcXzXeXI.m.Z.Y.aXuXrX}.>.%.%.%.*.%.-.%.#.+.O.' ~ R 0 9 5 9 9 f b N { u.y.j.k.k.k.k.k.j.j.j.j.j.y.u.0.0.7.7.7.7.7.7.A S l k j - & & ",
"  . . & - j k D V S S S S S S A 5.0.u.y.y.y.y.y.y.y.y.9.0.A V b i 7 7 5 0 ^ ( O.-.^.).].'.|..XoXoX.XoXoX.XoX%XrXuXgXgXfXfXhXxXcXzXdXA.m.A.Y.aXuXrX}.>.%.%.%.%.%.%.%.#.+.O.) Q 0 9 0 0 0 0 q 7 i b V A 0.9.y.y.y.y.y.y.y.r.9.0.A A S S S S S S S V k j - & . .   ",
"      . & - j k l D D l l l l V S A 0.9.9.9.0.9.9.0.0.A V l i 8 < 2 5 0 Q ( X.#.=.^.).].'.|..XoXoX.XoXoXoXoX%XrXsXaXjXfXfXfXhXxXgXW.A.V.A.Y.eXsX$X}.>.%.%.*.%.%.%.%.#.+.O.) Q 0 9 0 R Q W 0 3 7 8 z l V A 0.0.9.9.0.9.9.0.0.A S V l l l l D D l k j - & .       ",
"      . & - j j k l l l l k k l V A 7.0.0.0.0.0.0.0.A D j 8 8 < < 4 R / X.+.#.%.=.^.).].'.|..X.XoXoX.XoXoXXX&X%XwXwX5XW.Q.Q.fXhXfXW.A.N.Z.K.U.8X$Xd.*.%.%.%.&.%.-.%.#.+.X.) ^ 0 9 0 Q / ! R 4 2 6 8 8 j D A 0.0.0.0.0.0.0.7.A V l k k l l l l k j j - & .       ",
"vXvXvXvXvXvXvXvXvXvXvXvXvXvXvXvXvXvXvXvXvXvXvXvXvXvXS z 8 * @ < 2 0 / +.=.:.=.*.=.^.).].'.|..X.XoX.X.XoXoXXXXX}.b.z.K.I.R.E.Q.Q.Q.R.V.N.m.!.l.b.f.2.*.-.%.&.*.*.-.%.#.+.X.) ^ 0 9 R / ' ' ! 0 4 2 < * 8 z V vXvXvXvXvXvXvXvXvXvXvXvXvXvXvXvXvXvXvXvXvXvXvXvXvXvX",
"vXvXvXvXvXvXvXvXvXvXvXvXvXvXvXvXvXvXvXvXvXvXvXvXvXvXvX8 * @ @ < 2 R X.^.].).^.*.=.~.).].'.|..X.XoXoX.XoXoXXX{.d.w.q.Y Z.A.D.E.E.E.G.S.N.M.I q.w.s.;.*.-.-.*.%.*.-.%.#.+.X.) ^ 0 0 E ) X.X.( Q 0 4 < @ * 8 vXvXvXvXvXvXvXvXvXvXvXvXvXvXvXvXvXvXvXvXvXvXvXvXvXvXvX",
"vXvXvXvXvXvXvXvXvXvXvXvXvXvXvXvXvXvXvXvXvXvXvXvXvXvXvXvXX X X < 4 Q +.).'.'.(.=.=.^.(.].'.|..X.XoXoX.XoXoX.X{.s.} L I M.N.S.F.G.G.F.S.N.M.I L |  .@.&.*.*.*.&.*.-.%.#.+.X.) Q 0 0 Q ' O.X.' Q 0 4 < X X vXvXvXvXvXvXvXvXvXvXvXvXvXvXvXvXvXvXvXvXvXvXvXvXvXvXvXvX",
"vXvXvXvXvXvXvXvXvXvXvXvXvXvXvXvXvXvXvXvXvXvXvXvXvXvXvXvXX X X < 5 Q #.).'.'.].^.^.^.^.).].|..X.XoX.X.XoXoX.X{.;.| K T M.N.B.S.F.F.F.S.S.m.I K Z ..@.%.-.-.&.%.&.%.%.#.O.X.) ~ Q Q / ' X.X.( Q 0 4 < X o vXvXvXvXvXvXvXvXvXvXvXvXvXvXvXvXvXvXvXvXvXvXvXvXvXvXvXvX",
"vXvXvXvXvXvXvXvXvXvXvXvXvXvXvXvXvXvXvXvXvXvXvXvXvXvXvXvXX X < < 3 Q O._.].'.].].).^.^.^.].'..X.XoXoX.XoXoX.X{.s.} K T F M.N.S.S.F.F.F.D.A.Y P | ..@.&.-.-.&.%.*.%.%.+.X.' ) ( / / ( ( ) ( / Q R 9 2 X o vXvXvXvXvXvXvXvXvXvXvXvXvXvXvXvXvXvXvXvXvXvXvXvXvXvXvXvX",
"vXvXvXvXvXvXvXvXvXvXvXvXvXvXvXvXvXvXvXvXvXvXvXvXvXvXvXvXX < < < 3 g ' *.(.].'.'.].(.^.:.(.'..XoXoXoXoXoXoX.X{.d.8.L I F M.N.N.B.S.F.G.G.I.H.q.}  .@.&.-.-.%.%.&.*.%.+.' ) ) ' ' ' ) / ! Q Q Q R 9 2 < X vXvXvXvXvXvXvXvXvXvXvXvXvXvXvXvXvXvXvXvXvXvXvXvXvXvXvXvX",
"vXvXvXvXvXvXvXvXvXvXvXvXvXvXvXvXvXvXvXvXvXvXvXvXvXvXvXvX< < < 1 r g ~ +.=.).'.|.'.).^.:.(.'..XoXoXoX.XoXoX.X{.d.w.0.P I F M.N.B.S.F.G.E.R.K.q.8. .;.&.-.-.%.%.*.*.%.+.' ) ) X.O.O.' Q 0 0 0 R 0 9 2 < < vXvXvXvXvXvXvXvXvXvXvXvXvXvXvXvXvXvXvXvXvXvXvXvXvXvXvXvX",
"vXvXvXvXvXvXvXvXvXvXvXvXvXvXvXvXvXvXvXvXvXvXvXvXvXvXvXvX< < < 1 e f ~ ' #.^.].|.|.].(.(.].|..XoXoXoXXXoXoX.X{.d.w.0.P I F M.m.N.S.D.E.R.P.J.q.8. .;.*.-.-.%.%.*.*.%.#.X.' ' X.+.X.( ^ 9 9 0 0 0 9 2 < < vXvXvXvXvXvXvXvXvXvXvXvXvXvXvXvXvXvXvXvXvXvXvXvXvXvXvXvX",
"vXvXvXvXvXvXvXvXvXvXvXvXvXvXvXvXvXvXvXvXvXvXvXvXvXvXvXvX@ < < 1 e f W ( X.*.(.'.{.{.'.{. XXXOXOXoXXX.XoXoX.X{.d.w.5.L P I C.V.V.D.D.R.R.L.p.q.}  .;.*.-.%.%.%.*.*.*.%.#.+.+.X.X.' ~ 0 4 4 9 0 0 4 2 < @ vXvXvXvXvXvXvXvXvXvXvXvXvXvXvXvXvXvXvXvXvXvXvXvXvXvXvXvX",
"vXvXvXvXvXvXvXvXvXvXvXvXvXvXvXvXvXvXvXvXvXvXvXvXvXvXvXvXX @ < 1 e f g Q / O.=.).'..XoX+X@X=X@X+XOXXX.X.XoX.X{.s.} A L P U Z.A.D.D.R.P.K.J.i.5.{  .@.&.%.%.%.%.*.=.=.=.=.-.%.X.' ~ R 9 2 2 4 0 9 2 < X X vXvXvXvXvXvXvXvXvXvXvXvXvXvXvXvXvXvXvXvXvXvXvXvXvXvXvXvX",
"vXvXvXvXvXvXvXvXvXvXvXvXvXvXvXvXvXvXvXvXvXvXvXvXvXvXvXvXo X @ 1 e t f 9 Q ( +.:.]..X=X>X;X*X*X=X+XoX.X.XoX.X{.3.} S S L q.H.I.R.E.R.K.p.q.5.A Z ..@.%.-.%.%.*.-.=.=.^.^.^.-.X./ R 9 2 2 2 2 q 4 2 < X X vXvXvXvXvXvXvXvXvXvXvXvXvXvXvXvXvXvXvXvXvXvXvXvXvXvXvXvX",
"vXvXvXvXvXvXvXvXvXvXvXvXvXvXvXvXvXvXvXvXvXvXvXvXvXvXvXvXo X @ 1 e r 3 9 0 Q ' %.)..X*X:X:X:X>X*X-X+XOXOXOXXX{.3.| Z S 4.q.p.P.R.R.P.J.q.7.A S Z ..@.&.*.*.*.=.=.~.^.(.(.^.-.X.^ 9 2 2 < < 2 4 4 2 w X o vXvXvXvXvXvXvXvXvXvXvXvXvXvXvXvXvXvXvXvXvXvXvXvXvXvXvXvX",
"vXvXvXvXvXvXvXvXvXvXvXvXvXvXvXvXvXvXvXvXvXvXvXvXvXvXvXvXo o @ 1 3 3 3 3 9 R ~ X.:.|.=X;X:X:X;X>X*X=X-X@X@XoX{.2. .| | { 0.p.L.R.R.L.i.0.{ Z Z ` [ @.*.=.=.:.^.^.(.(.(.^.~.%.) R 2 < < < < 2 2 2 < @ X o vXvXvXvXvXvXvXvXvXvXvXvXvXvXvXvXvXvXvXvXvXvXvXvXvXvXvXvX",
"vXvXvXvXvXvXvXvXvXvXvXvXvXvXvXvXvXvXvXvXvXvXvXvXvXvXvXvXo o @ < 1 3 3 3 5 9 ^ ( #.(..X=X>X:X:X<X:X;X>X*X=X+X|.).;. .| { 7.i.J.L.L.J.q.A | ` ` ..@.*.:.^.(.).).).).(.^.=.%.X.Q 9 2 < < < < < 2 2 < @ o o vXvXvXvXvXvXvXvXvXvXvXvXvXvXvXvXvXvXvXvXvXvXvXvXvXvXvXvX",
"vXvXvXvXvXvXvXvXvXvXvXvXvXvXvXvXvXvXvXvXvXvXvXvXvXvXvXvX+ + @ @ 1 1 3 3 3 9 9 Q ' *.). X@X;X<X1X1X1X<X:X>X=XoX{._.;. .| A 5.i.J.p.i.5.S | ` [ @.$.:.^.).].'.'.'.].).=.+.) ! 0 4 < < < < < < < < @ @ + + vXvXvXvXvXvXvXvXvXvXvXvXvXvXvXvXvXvXvXvXvXvXvXvXvXvXvXvX",
"vXvXvXvXvXvXvXvXvXvXvXvXvXvXvXvXvXvXvXvXvXvXvXvXvXvXvXvX& & * @ < 1 3 3 r 9 9 0 Q ' *.)..X*X<X1X2X2X1X<X:X*X@X.X{._.;.| Z L q.q.q.q.L Z ` ..@.$.=.^.).].'.|.|.[.'./.-.' Q 0 4 2 < < < < > > < < @ @ & & vXvXvXvXvXvXvXvXvXvXvXvXvXvXvXvXvXvXvXvXvXvXvXvXvXvXvXvX",
"vXvXvXvXvXvXvXvXvXvXvXvXvXvXvXvXvXvXvXvXvXvXvXvXvXvXvXvX& & * @ < < 1 e r 3 5 9 R / X.:.'.+X;X<X1X2X2X1X:X>X=X+X.X].2. .Z Z ,.8.8.,.Z N ` [ @.=.^.).].'.|.|.|.'.(.^.+./ 0 2 2 < < < < > $ > $ # @ + & & vXvXvXvXvXvXvXvXvXvXvXvXvXvXvXvXvXvXvXvXvXvXvXvXvXvXvXvX",
"vXvXvXvXvXvXvXvXvXvXvXvXvXvXvXvXvXvXvXvXvXvXvXvXvXvXvXvX& & * @ < < 1 e r t 9 9 0 Q ' #./.|.+X*X:X<X1X1X<X:X>X=X+X|._.;.` ` | } } | N N ` [ &.~.(.].'.[.|.[.'.).^.#.' R 2 < < < < < < > $ $ $ # @ + * & vXvXvXvXvXvXvXvXvXvXvXvXvXvXvXvXvXvXvXvXvXvXvXvXvXvXvXvX",
"vXvXvXvXvXvXvXvXvXvXvXvXvXvXvXvXvXvXvXvXvXvXvXvXvXvXvXvXvXvX@ # < , 1 e r f 9 9 R Q ( X.&.^.]. X@X>X:X<X<X<X:X;X=XoX].;.[ .... . .` ` _ ] @.*.^.).'.|.|.'.].(.=.+.( E 4 < < < 1 1 1 , > $ $ $ $ # @ vXvXvXvXvXvXvXvXvXvXvXvXvXvXvXvXvXvXvXvXvXvXvXvXvXvXvXvXvXvX",
"vXvXvXvXvXvXvXvXvXvXvXvXvXvXvXvXvXvXvXvXvXvXvXvXvXvXvXvXvXvXvX# < , 1 e r f 9 0 E ! ( ) X.X.&.^.{.+X*X:X<X<X<X:X*X+X{.:.@.[ [ [ [ ] _ _ ] +.=.(.].[.|.|.].(.=.O./ 0 4 < w @ < 1 1 1 , > $ $ $ $ # vXvXvXvXvXvXvXvXvXvXvXvXvXvXvXvXvXvXvXvXvXvXvXvXvXvXvXvXvXvXvX",
"vXvXvXvXvXvXvXvXvXvXvXvXvXvXvXvXvXvXvXvXvXvXvXvXvXvXvXvXvXvXvX# # , 1 e r f 9 R ^ ! / ( / / ( X.^.{.OX*X:X<X<X:X,X@X|.(.*.#.@.@.O.' ( ( ' #.=.(.].|.|.'.).=.O./ 0 2 < X X @ 1 3 e 1 , , $ $ $ $ # vXvXvXvXvXvXvXvXvXvXvXvXvXvXvXvXvXvXvXvXvXvXvXvXvXvXvXvXvXvXvX",
"vXvXvXvXvXvXvXvXvXvXvXvXvXvXvXvXvXvXvXvXvXvXvXvXvXvXvXvXvXvXvX# # # 1 1 e f 9 0 E Q ~ ~ Q E Q ( #.(.|.+X*X;X:X;X*X@X X].^.=.*.%.#.+.X.X.+.%.=.(.].'.'.).:.+.] W 9 < X X @ # 1 e e 3 1 , $ # # # # vXvXvXvXvXvXvXvXvXvXvXvXvXvXvXvXvXvXvXvXvXvXvXvXvXvXvXvXvXvXvX",
"vXvXvXvXvXvXvXvXvXvXvXvXvXvXvXvXvXvXvXvXvXvXvXvXvXvXvXvXvXvXvX@ @ @ # 1 3 3 9 0 R ^ Q Q ^ R R ! ' *.(.{.oX@X=X=X@X+X.X|.'.].).^.~.=.-.-.*.=.=.^.(.).(.=.O./ Q 9 2 < @ @ # , 1 e e e 1 , # # # @ @ vXvXvXvXvXvXvXvXvXvXvXvXvXvXvXvXvXvXvXvXvXvXvXvXvXvXvXvXvXvXvX",
"vXvXvXvXvXvXvXvXvXvXvXvXvXvXvXvXvXvXvXvXvXvXvXvXvXvXvXvXvXvXvX+ + @ # , 1 3 5 0 0 R ^ Q E R R Q / X.%.^.].|. X.X X.X.X.X X|.[.'.].(.)./.^.~.=.=.=.=.-.X./ 0 9 2 < < < < 1 1 e t e e 1 , # @ @ + + vXvXvXvXvXvXvXvXvXvXvXvXvXvXvXvXvXvXvXvXvXvXvXvXvXvXvXvXvXvXvX",
"vXvXvXvXvXvXvXvXvXvXvXvXvXvXvXvXvXvXvXvXvXvXvXvXvXvXvXvXvXvXvX& * + @ # , 3 3 5 0 0 R E E R R Q Q / ' +.=./.).].'.[. X.XoXoX.X|.|.'.'.].(.^.=.*.#.+.' / 0 2 < < < < < 1 1 e e t e e 1 , # @ + & & vXvXvXvXvXvXvXvXvXvXvXvXvXvXvXvXvXvXvXvXvXvXvXvXvXvXvXvXvXvXvX",
"vXvXvXvXvXvXvXvXvXvXvXvXvXvXvXvXvXvXvXvXvXvXvXvXvXvXvXvXvXvXvX& & * @ # < < 2 4 9 0 0 R R R R R E Q ! ' X.%.=.^./.(.'.|..X.X.X|.{.'.].]._.=.%.+.X.) / W 4 < X @ < < 1 3 e e e e e 1 1 , # @ & & & vXvXvXvXvXvXvXvXvXvXvXvXvXvXvXvXvXvXvXvXvXvXvXvXvXvXvXvXvXvXvX",
"vXvXvXvXvXvXvXvXvXvXvXvXvXvXvXvXvXvXvXvXvXvXvXvXvXvXvXvXvXvXvXvX& * @ # > < 2 2 5 9 0 0 R R R R R R Q ! ' X.+.#.%.=.^.).].].].).(._._.:.*.#.O.) ( ~ W 9 2 @ @ @ < 1 3 e e e e e e 1 , , # @ * & vXvXvXvXvXvXvXvXvXvXvXvXvXvXvXvXvXvXvXvXvXvXvXvXvXvXvXvXvXvXvXvX",
"vXvXvXvXvXvXvXvXvXvXvXvXvXvXvXvXvXvXvXvXvXvXvXvXvXvXvXvXvXvXvXvXvX* @ # $ > < 2 2 5 9 0 0 R R R R R E Q / ( ) ) ) ' O.#.*.*.$.@.@.@.@.O.' ( ~ ^ W W g 9 3 < < < 1 3 3 t t e e 1 1 1 , , # @ * vXvXvXvXvXvXvXvXvXvXvXvXvXvXvXvXvXvXvXvXvXvXvXvXvXvXvXvXvXvXvXvXvX",
"vXvXvXvXvXvXvXvXvXvXvXvXvXvXvXvXvXvXvXvXvXvXvXvXvXvXvXvXvXvXvXvXvXvX@ $ $ > > < 2 2 9 0 0 R R E R R E Q ! ~ ~ W W W W ~ ~ ~ _ _ _ Q Q Q W g g f f f f f 3 1 1 1 3 e e t t e e 1 , , , , $ # vXvXvXvXvXvXvXvXvXvXvXvXvXvXvXvXvXvXvXvXvXvXvXvXvXvXvXvXvXvXvXvXvXvX",
"vXvXvXvXvXvXvXvXvXvXvXvXvXvXvXvXvXvXvXvXvXvXvXvXvXvXvXvXvXvXvXvXvXvX# # $ $ $ < < 2 5 9 0 0 R R R R R Q Q Q R 9 3 3 3 3 3 7 7 8 8 8 7 3 3 3 3 3 3 r t t e e e e e e e r e e 1 , , , $ # $ # vXvXvXvXvXvXvXvXvXvXvXvXvXvXvXvXvXvXvXvXvXvXvXvXvXvXvXvXvXvXvXvXvXvX",
"vXvXvXvXvXvXvXvXvXvXvXvXvXvXvXvXvXvXvXvXvXvXvXvXvXvXvXvXvXvXvXvXvXvXvX# # # # , 1 3 3 9 9 0 0 0 0 0 0 0 0 0 9 3 1 $ $ # # @ + * & + @ # # # # # , 1 p t p p e e e e e e e e 1 , # # # # # vXvXvXvXvXvXvXvXvXvXvXvXvXvXvXvXvXvXvXvXvXvXvXvXvXvXvXvXvXvXvXvXvXvXvX",
"vXvXvXvXvXvXvXvXvXvXvXvXvXvXvXvXvXvXvXvXvXvXvXvXvXvXvXvXvXvXvXvXvXvXvX@ @ # # , 1 3 3 5 9 9 g g 9 9 9 9 9 5 3 < $ $ + + + + % % % + + + + + + @ # # = 6 6 6 6 1 1 1 3 1 1 1 , , # # @ @ @ vXvXvXvXvXvXvXvXvXvXvXvXvXvXvXvXvXvXvXvXvXvXvXvXvXvXvXvXvXvXvXvXvXvXvX",
"vXvXvXvXvXvXvXvXvXvXvXvXvXvXvXvXvXvXvXvXvXvXvXvXvXvXvXvXvXvXvXvXvXvXvX+ @ # 1 1 3 3 3 3 f f f f 5 3 3 3 3 3 < < $ $ + + + + % % % % + + + + + + + = = = = = = # 1 1 1 1 1 , , , # @ @ @ @ vXvXvXvXvXvXvXvXvXvXvXvXvXvXvXvXvXvXvXvXvXvXvXvXvXvXvXvXvXvXvXvXvXvXvX",
"vXvXvXvXvXvXvXvXvXvXvXvXvXvXvXvXvXvXvXvXvXvXvXvXvXvXvXvXvXvXvXvXvXvXvX* * = 1 1 e e r r t t t r 3 1 1 1 1 1 , > $ $ @ + + & & & & & & & & & * * * * * * * * * # # , , , , , , , # @ @ * * vXvXvXvXvXvXvXvXvXvXvXvXvXvXvXvXvXvXvXvXvXvXvXvXvXvXvXvXvXvXvXvXvXvXvX",
"vXvXvXvXvXvXvXvXvXvXvXvXvXvXvXvXvXvXvXvXvXvXvXvXvXvXvXvXvXvXvXvXvXvXvX& * = 6 e e r r r r t t r 3 1 1 1 1 1 1 , > # @ + * * * * & * * * & & * * * * * & * * * @ # < , , , , , , # @ + * & vXvXvXvXvXvXvXvXvXvXvXvXvXvXvXvXvXvXvXvXvXvXvXvXvXvXvXvXvXvXvXvXvXvXvX",
"vXvXvXvXvXvXvXvXvXvXvXvXvXvXvXvXvXvXvXvXvXvXvXvXvXvXvXvXvXvXvXvXvXvXvX& * = 1 1 e r r r t t f f f f 5 5 9 5 3 1 , $ @ @ * * * * * * * * * * * * * * * * * * * < < < , , , , , , # @ + & & vXvXvXvXvXvXvXvXvXvXvXvXvXvXvXvXvXvXvXvXvXvXvXvXvXvXvXvXvXvXvXvXvXvXvX",
"vXvXvXvXvXvXvXvXvXvXvXvXvXvXvXvXvXvXvXvXvXvXvXvXvXvXvXvXvXvXvXvXvXvXvXvX* = 1 1 3 3 3 3 9 f f g g W Q Q Q W g 5 1 # # # = = = = = = = = = @ @ * * 8 8 8 8 8 7 2 2 2 1 1 1 , , , # @ @ & vXvXvXvXvXvXvXvXvXvXvXvXvXvXvXvXvXvXvXvXvXvXvXvXvXvXvXvXvXvXvXvXvXvXvXvX",
"vXvXvXvXvXvXvXvXvXvXvXvXvXvXvXvXvXvXvXvXvXvXvXvXvXvXvXvXvXvXvXvXvXvXvXvXvX# , 1 1 3 3 9 9 9 g W ~ ( ' ' ' ( ~ g 3 , # 1 6 6 6 6 6 6 6 6 1 # @ @ 6 7 q q q q q 9 3 3 3 3 3 1 , , $ # @ vXvXvXvXvXvXvXvXvXvXvXvXvXvXvXvXvXvXvXvXvXvXvXvXvXvXvXvXvXvXvXvXvXvXvXvXvX",
"vXvXvXvXvXvXvXvXvXvXvXvXvXvXvXvXvXvXvXvXvXvXvXvXvXvXvXvXvXvXvXvXvXvXvXvXvXvX# , 1 3 3 5 9 9 W ^ ( O.O.+.+.O.( W 3 , , 1 e t t t t t t e 1 , , 1 7 q 0 0 0 0 0 9 9 5 3 3 e e 1 , $ $ vXvXvXvXvXvXvXvXvXvXvXvXvXvXvXvXvXvXvXvXvXvXvXvXvXvXvXvXvXvXvXvXvXvXvXvXvXvX",
"vXvXvXvXvXvXvXvXvXvXvXvXvXvXvXvXvXvXvXvXvXvXvXvXvXvXvXvXvXvXvXvXvXvXvXvXvXvX# # < < 2 5 9 9 R ^ ( O.+.#.#.+.' W 3 , , 3 r t t t t t t r 3 1 , 1 3 9 R R W R 0 9 9 5 3 3 e e 1 , # # vXvXvXvXvXvXvXvXvXvXvXvXvXvXvXvXvXvXvXvXvXvXvXvXvXvXvXvXvXvXvXvXvXvXvXvXvXvX",
"vXvXvXvXvXvXvXvXvXvXvXvXvXvXvXvXvXvXvXvXvXvXvXvXvXvXvXvXvXvXvXvXvXvXvXvXvXvX@ @ # < 2 2 5 9 g Q ~ ' ' O.O.O.( g 3 , 1 3 f f f f f f f f 3 1 , 1 5 0 R ^ W g 0 9 9 5 3 3 3 1 1 # @ @ vXvXvXvXvXvXvXvXvXvXvXvXvXvXvXvXvXvXvXvXvXvXvXvXvXvXvXvXvXvXvXvXvXvXvXvXvXvX",
"vXvXvXvXvXvXvXvXvXvXvXvXvXvXvXvXvXvXvXvXvXvXvXvXvXvXvXvXvXvXvXvXvXvXvXvXvXvX+ @ @ @ < 3 3 9 f g ^ ~ ( ] ' ' ~ g 3 , 3 5 g g g g g g g f 9 3 , 1 5 0 R W g g f f 9 3 3 3 1 1 # @ @ + vXvXvXvXvXvXvXvXvXvXvXvXvXvXvXvXvXvXvXvXvXvXvXvXvXvXvXvXvXvXvXvXvXvXvXvXvXvX",
"vXvXvXvXvXvXvXvXvXvXvXvXvXvXvXvXvXvXvXvXvXvXvXvXvXvXvXvXvXvXvXvXvXvXvXvXvXvX* * @ @ # 1 3 3 f f f g g ^ ^ ~ ^ 9 1 1 3 9 0 W W g g g g g 9 3 1 1 5 9 R W g f f t t r 3 1 , , @ @ * & vXvXvXvXvXvXvXvXvXvXvXvXvXvXvXvXvXvXvXvXvXvXvXvXvXvXvXvXvXvXvXvXvXvXvXvXvXvX",
"vXvXvXvXvXvXvXvXvXvXvXvXvXvXvXvXvXvXvXvXvXvXvXvXvXvXvXvXvXvXvXvXvXvXvXvXvXvX& & * @ # , 1 3 e r t t f g W W 0 5 1 1 3 9 0 W W W W W R 0 9 3 1 1 3 9 g g f t t t e e 1 , , # @ * & & vXvXvXvXvXvXvXvXvXvXvXvXvXvXvXvXvXvXvXvXvXvXvXvXvXvXvXvXvXvXvXvXvXvXvXvXvXvX",
"vXvXvXvXvXvXvXvXvXvXvXvXvXvXvXvXvXvXvXvXvXvXvXvXvXvXvXvXvXvXvXvXvXvXvXvXvXvX& & * + @ # , 1 e e e e r f g 0 9 3 1 , 3 9 0 W W g g W W 0 9 3 1 1 3 9 g g f t r e e e 1 , # @ + * & & vXvXvXvXvXvXvXvXvXvXvXvXvXvXvXvXvXvXvXvXvXvXvXvXvXvXvXvXvXvXvXvXvXvXvXvXvXvX",
"vXvXvXvXvXvXvXvXvXvXvXvXvXvXvXvXvXvXvXvXvXvXvXvXvXvXvXvXvXvXvXvXvXvXvXvXvXvXvX& * + @ @ # 1 1 e e e e f 9 0 9 3 < , 3 9 g g g g g g g 9 9 3 , 1 3 9 g f f t r e e 1 , # @ @ * * & vXvXvXvXvXvXvXvXvXvXvXvXvXvXvXvXvXvXvXvXvXvXvXvXvXvXvXvXvXvXvXvXvXvXvXvXvXvXvX",
"vXvXvXvXvXvXvXvXvXvXvXvXvXvXvXvXvXvXvXvXvXvXvXvXvXvXvXvXvXvXvXvXvXvXvXvXvXvXvXvXvX* * @ @ # , 1 e e e 9 9 9 5 2 < , 1 3 f f f f f f f f 3 1 , , 3 r f f f t e e 1 1 # @ @ * * vXvXvXvXvXvXvXvXvXvXvXvXvXvXvXvXvXvXvXvXvXvXvXvXvXvXvXvXvXvXvXvXvXvXvXvXvXvXvXvXvX",
"vXvXvXvXvXvXvXvXvXvXvXvXvXvXvXvXvXvXvXvXvXvXvXvXvXvXvXvXvXvXvXvXvXvXvXvXvXvXvXvXvX& & * + @ # , 1 e r f 9 9 4 2 < , 1 3 t t t t t t t t 3 1 , , 1 e t t t t e 1 1 , @ @ * & & vXvXvXvXvXvXvXvXvXvXvXvXvXvXvXvXvXvXvXvXvXvXvXvXvXvXvXvXvXvXvXvXvXvXvXvXvXvXvXvXvX",
"vXvXvXvXvXvXvXvXvXvXvXvXvXvXvXvXvXvXvXvXvXvXvXvXvXvXvXvXvXvXvXvXvXvXvXvXvXvXvXvXvXvX& & + @ # , 1 e e 3 7 4 2 < < , 1 1 e r t r r t e e 3 1 , , 1 1 e t e e e 1 , # @ + & & vXvXvXvXvXvXvXvXvXvXvXvXvXvXvXvXvXvXvXvXvXvXvXvXvXvXvXvXvXvXvXvXvXvXvXvXvXvXvXvXvXvX",
"vXvXvXvXvXvXvXvXvXvXvXvXvXvXvXvXvXvXvXvXvXvXvXvXvXvXvXvXvXvXvXvXvXvXvXvXvXvXvXvXvXvX& & & + @ # 1 1 3 3 3 2 < < < , 1 e e r r e r r e e e 1 , , 1 1 6 e 1 1 1 , # @ @ * & & vXvXvXvXvXvXvXvXvXvXvXvXvXvXvXvXvXvXvXvXvXvXvXvXvXvXvXvXvXvXvXvXvXvXvXvXvXvXvXvXvXvX",
"vXvXvXvXvXvXvXvXvXvXvXvXvXvXvXvXvXvXvXvXvXvXvXvXvXvXvXvXvXvXvXvXvXvXvXvXvXvXvXvXvXvXvX& & + @ @ # 1 1 1 < < < < # vXvXvXvXvXvXvXvXvXvXvXvXvXvX# # = = 1 1 1 , # @ @ + * & vXvXvXvXvXvXvXvXvXvXvXvXvXvXvXvXvXvXvXvXvXvXvXvXvXvXvXvXvXvXvXvXvXvXvXvXvXvXvXvXvXvXvX",
"vXvXvXvXvXvXvXvXvXvXvXvXvXvXvXvXvXvXvXvXvXvXvXvXvXvXvXvXvXvXvXvXvXvXvXvXvXvXvXvXvXvXvXvX& & * @ # , , # @ * * * vXvXvXvXvXvXvXvXvXvXvXvXvXvXvXvX* * * # # , # @ @ * & & vXvXvXvXvXvXvXvXvXvXvXvXvXvXvXvXvXvXvXvXvXvXvXvXvXvXvXvXvXvXvXvXvXvXvXvXvXvXvXvXvXvXvXvX",
"vXvXvXvXvXvXvXvXvXvXvXvXvXvXvXvXvXvXvXvXvXvXvXvXvXvXvXvXvXvXvXvXvXvXvXvXvXvXvXvXvXvXvXvXvX& & * @ # # @ @ * & vXvXvXvXvXvXvXvXvXvXvXvXvXvXvXvXvXvX* * @ @ # # @ * * & vXvXvXvXvXvXvXvXvXvXvXvXvXvXvXvXvXvXvXvXvXvXvXvXvXvXvXvXvXvXvXvXvXvXvXvXvXvXvXvXvXvXvXvXvX",
"vXvXvXvXvXvXvXvXvXvXvXvXvXvXvXvXvXvXvXvXvXvXvXvXvXvXvXvXvXvXvXvXvXvXvXvXvXvXvXvXvXvXvXvXvX& & * @ # # @ + & & vXvXvXvXvXvXvXvXvXvXvXvXvXvXvXvXvXvX& & + @ # # @ * & & vXvXvXvXvXvXvXvXvXvXvXvXvXvXvXvXvXvXvXvXvXvXvXvXvXvXvXvXvXvXvXvXvXvXvXvXvXvXvXvXvXvXvXvXvX",
"vXvXvXvXvXvXvXvXvXvXvXvXvXvXvXvXvXvXvXvXvXvXvXvXvXvXvXvXvXvXvXvXvXvXvXvXvXvXvXvXvXvXvXvXvX& & * @ # # @ + & & vXvXvXvXvXvXvXvXvXvXvXvXvXvXvXvXvXvX& & * @ # @ @ * & & vXvXvXvXvXvXvXvXvXvXvXvXvXvXvXvXvXvXvXvXvXvXvXvXvXvXvXvXvXvXvXvXvXvXvXvXvXvXvXvXvXvXvXvXvX"
};
