/* XPM */
static const char *bon1d0[] = {
/* columns rows colors chars-per-pixel */
"128 128 251 2 ",
"   c #0F190B",
".  c #111B0D",
"X  c #151B12",
"o  c #1B1C1B",
"O  c #181C17",
"+  c #14230E",
"@  c #142B0C",
"#  c #16330E",
"$  c #192414",
"%  c #1D231B",
"&  c #192914",
"*  c #1B3313",
"=  c #1E3916",
"-  c #222C1E",
";  c #22241E",
":  c #23341C",
">  c #233B1B",
",  c #273A1B",
"<  c #242424",
"1  c #252B23",
"2  c #2C2C2B",
"3  c #292A26",
"4  c #332D28",
"5  c #2A3325",
"6  c #2B3B24",
"7  c #2D332B",
"8  c #273623",
"9  c #31342E",
"0  c #353B29",
"q  c #343433",
"w  c #353A33",
"e  c #3A3A35",
"r  c #3B3B3B",
"t  c #393637",
"y  c #312F31",
"u  c #211F1E",
"i  c #453D36",
"p  c #46392B",
"a  c #1F4315",
"s  c #23431B",
"d  c #244C1B",
"f  c #234A18",
"g  c #26531C",
"h  c #2A5A1E",
"j  c #29551E",
"k  c #2A4B22",
"l  c #2B4425",
"z  c #3C442B",
"x  c #354629",
"c  c #2C5C22",
"v  c #2D5424",
"b  c #355729",
"n  c #3A4636",
"m  c #3B5535",
"M  c #2D6222",
"N  c #2F6B26",
"B  c #326B25",
"V  c #356D2A",
"C  c #346428",
"Z  c #35732A",
"A  c #3A7B2D",
"S  c #38752B",
"D  c #3C7C31",
"F  c #3B6A32",
"G  c #2C611F",
"H  c #43492E",
"J  c #44433D",
"K  c #494938",
"L  c #564837",
"P  c #485638",
"I  c #55573B",
"U  c #48502E",
"Y  c #65573A",
"T  c #486736",
"R  c #55673D",
"E  c #477937",
"W  c #4E7338",
"Q  c #656E3D",
"!  c #413D41",
"~  c #434343",
"^  c #4B4B4C",
"/  c #484A45",
"(  c #4D534C",
")  c #4A5846",
"_  c #575848",
"`  c #504F51",
"'  c #545354",
"]  c #555B53",
"[  c #5C5B5C",
"{  c #585857",
"}  c #524D4A",
"|  c #675947",
" . c #665B52",
".. c #4D6747",
"X. c #596746",
"o. c #4E7747",
"O. c #587847",
"+. c #5A6558",
"@. c #5B7856",
"#. c #63674B",
"$. c #6B6D52",
"%. c #615F61",
"&. c #636363",
"*. c #6C6B6C",
"=. c #666965",
"-. c #687767",
";. c #787778",
":. c #706F71",
">. c #5F5F60",
",. c #3F3C40",
"<. c #867558",
"1. c #8C7863",
"2. c #3D8431",
"3. c #3C8934",
"4. c #3D812F",
"5. c #428B35",
"6. c #448737",
"7. c #469439",
"8. c #499C3D",
"9. c #46963A",
"0. c #50853F",
"q. c #4AA13F",
"w. c #568847",
"e. c #549846",
"r. c #5B8757",
"t. c #5A9755",
"y. c #4E8F43",
"u. c #669153",
"i. c #4DA441",
"p. c #4EAA44",
"a. c #45A140",
"s. c #51AC45",
"d. c #55A749",
"f. c #54B44A",
"g. c #55BA4B",
"h. c #59BC4D",
"j. c #57B34A",
"k. c #5CB953",
"l. c #59A852",
"z. c #62A85C",
"x. c #65BA58",
"c. c #6AB34F",
"v. c #698867",
"b. c #689665",
"n. c #798677",
"m. c #779475",
"M. c #68B763",
"N. c #73AD6F",
"B. c #58C34E",
"V. c #5DC452",
"C. c #5DCB53",
"Z. c #5FC958",
"A. c #5ED155",
"S. c #61CC55",
"D. c #66C958",
"F. c #64D45A",
"G. c #67D75B",
"H. c #75D85C",
"J. c #74C757",
"K. c #6AC664",
"L. c #6CD664",
"P. c #76D968",
"I. c #7AC875",
"U. c #7BD975",
"Y. c #72C76A",
"T. c #6AE461",
"R. c #6DEB65",
"E. c #79E464",
"W. c #73F76B",
"Q. c #78FB70",
"!. c #69E05F",
"~. c #8B8D55",
"^. c #8DAE5A",
"/. c #958A69",
"(. c #A5956D",
"). c #87B977",
"_. c #B0AF6E",
"`. c #87D35D",
"'. c #85DA7B",
"]. c #8DD46B",
"[. c #ACD46E",
"{. c #87E868",
"}. c #97E96A",
"|. c #86E17A",
" X c #97EC73",
".X c #A8E777",
"XX c #B0EE73",
"oX c #83E05F",
"OX c #CBD17A",
"+X c #C7F17C",
"@X c #C3BB78",
"#X c #827E82",
"$X c #838383",
"%X c #8B898B",
"&X c #989798",
"*X c #918E91",
"=X c #A09EA1",
"-X c #A4A3A5",
";X c #ABA9AB",
":X c #B8B7B8",
">X c #B1AEB1",
",X c #90B78C",
"<X c #8ADA86",
"1X c #99D996",
"2X c #90CF8A",
"3X c #A4D899",
"4X c #94E389",
"5X c #9BE396",
"6X c #8CE285",
"7X c #A5E59A",
"8X c #B2E98D",
"9X c #A9DBA6",
"0X c #B9DBB6",
"qX c #AFD7AA",
"wX c #A9E4A5",
"eX c #B5E5AA",
"rX c #B9E3B5",
"tX c #BDF0B0",
"yX c #D8F687",
"uX c #CEEF8F",
"iX c #E9F797",
"pX c #E6F48E",
"aX c #C1DEBD",
"sX c #C6E7B8",
"dX c #D0EFB0",
"fX c #E9F7A7",
"gX c #E8F5B9",
"hX c #F3F9B7",
"jX c #EFF6AC",
"kX c #DADD80",
"lX c #C2C2C2",
"zX c #C8DEC5",
"xX c #CAE4C6",
"cX c #D6E8C7",
"vX c #D9E6D7",
"bX c #D5F4CE",
"nX c #E9F6C8",
"mX c #F5FBC8",
"MX c #E8F6D8",
"NX c #F5F9DA",
"BX c #E3ECD5",
"VX c #E9EAE7",
"CX c #EAF7E7",
"ZX c #F5F7E9",
"AX c #F2EEF2",
"SX c #F9F6FB",
"DX c #FDFCFE",
"FX c #F6F6F4",
"GX c #C0BFC0",
"HX c None",
"JX c black",
/* pixels */
"HXHXHXHXHXHXHXHXHXHXHXHXHXHXHXHXHXHXHXHXHXHXHXHXHXHXHXHXHXHXHXHXHXHXHXV.V.V.V.V.S.S.F.F.G.T.T.R.W.W.Q.Q.Q.Q.Q.Q.Q.Q.Q.Q.Q.Q.W.W.W.W.W.W.R.R.R.R.R.R.T.T.T.T.G.G.G.F.F.S.S.S.C.C.V.V.V.V.V.HXHXHXHXHXHXHXHXHXHXHXHXHXHXHXHXHXHXHXHXHXHXHXHXHXHXHXHXHXHXHXHXHXHXHX",
"HXHXHXHXHXHXHXHXHXHXHXHXHXHXHXHXHXHXHXHXHXHXHXHXHXHXHXHXHXHXHXHXHXHXHXB.V.V.V.V.V.S.S.F.G.G.T.R.R.W.Q.Q.Q.Q.Q.Q.Q.Q.Q.Q.Q.W.W.W.W.W.R.R.R.R.R.R.R.T.T.T.T.G.G.G.F.F.F.S.S.C.V.V.V.V.V.V.V.HXHXHXHXHXHXHXHXHXHXHXHXHXHXHXHXHXHXHXHXHXHXHXHXHXHXHXHXHXHXHXHXHXHXHX",
"HXHXHXHXHXHXHXHXHXHXHXHXHXHXHXHXHXHXHXHXHXHXHXHXHXHXHXHXHXHXHXHXHXHXHXh.h.h.V.V.V.V.S.S.F.G.T.T.R.W.W.Q.Q.Q.Q.Q.Q.Q.Q.Q.W.W.W.W.R.R.R.R.R.R.R.T.T.T.T.T.G.G.G.F.F.F.S.C.C.V.V.V.V.V.V.h.h.HXHXHXHXHXHXHXHXHXHXHXHXHXHXHXHXHXHXHXHXHXHXHXHXHXHXHXHXHXHXHXHXHXHXHX",
"HXHXHXHXHXHXHXHXHXHXHXHXHXHXHXHXHXHXHXHXHXHXHXHXHXHXHXHXHXHXHXHXHXHXHXg.g.g.h.h.V.V.V.S.F.F.G.T.R.R.W.W.Q.Q.Q.Q.Q.W.W.W.W.R.R.R.R.R.R.R.T.T.T.T.T.T.G.G.G.G.F.F.S.C.C.V.V.V.V.h.h.h.h.g.g.HXHXHXHXHXHXHXHXHXHXHXHXHXHXHXHXHXHXHXHXHXHXHXHXHXHXHXHXHXHXHXHXHXHXHX",
"HXHXHXHXHXHXHXHXHXHXHXHXHXHXHXHXHXHXHXHXHXHXHXHXHXHXHXHXHXHXHXHXHXHXHXj.j.j.j.g.g.h.V.V.S.F.F.G.T.T.R.R.W.W.W.W.W.W.R.R.R.R.R.T.T.T.T.T.T.!.G.G.G.G.G.G.F.F.S.C.C.V.V.V.h.h.g.g.j.j.j.j.j.HXHXHXHXHXHXHXHXHXHXHXHXHXHXHXHXHXHXHXHXHXHXHXHXHXHXHXHXHXHXHXHXHXHXHX",
"HXHXHXHXHXHXHXHXHXHXHXHXHXHXHXHXHXHXHXHXHXHXHXHXHXHXHXHXHXHXHXHXHXHXHXs.s.s.s.s.j.j.g.h.V.V.S.F.F.G.T.T.T.R.R.R.R.T.T.T.T.T.G.G.G.G.G.G.G.G.F.F.F.F.F.S.S.C.C.V.V.h.h.g.j.j.j.j.s.s.s.s.s.HXHXHXHXHXHXHXHXHXHXHXHXHXHXHXHXHXHXHXHXHXHXHXHXHXHXHXHXHXHXHXHXHXHXHX",
"HXHXHXHXHXHXHXHXHXHXHXHXHXHXHXHXHXHXHXHXHXHXHXHXHXHXHXHXHXHXHXHXHXHXHXi.i.i.i.i.i.s.s.f.j.g.h.V.C.S.F.F.G.G.G.G.G.G.G.G.F.F.F.F.F.F.F.S.S.S.S.S.C.C.C.C.V.V.B.h.g.j.j.s.s.s.i.i.i.i.i.i.i.HXHXHXHXHXHXHXHXHXHXHXHXHXHXHXHXHXHXHXHXHXHXHXHXHXHXHXHXHXHXHXHXHXHXHX",
"HXHXHXHXHXHXHXHXHXHXHXHXHXHXHXHXHXHXHXHXHXHXHXHXHXHXHXHXHXHXHXHXHXHXHX7.9.9.9.9.9.8.i.i.p.s.j.j.h.B.V.C.C.C.S.S.S.C.C.C.C.C.V.V.V.V.V.V.V.V.V.V.V.B.B.B.h.g.j.f.s.s.i.i.i.8.9.9.9.9.9.9.9.HXHXHXHXHXHXHXHXHXHXHXHXHXHXHXHXHXHXHXHXHXHXHXHXHXHXHXHXHXHXHXHXHXHXHX",
"HXHXHXHXHXHXHXHXHXHXHXHXHXHXHXHXHXHXHXHXHXHXHXHXHXHXHXHXHXHXHXHXHXHXHX6.5.5.5.5.5.5.7.9.9.8.i.p.s.f.j.g.g.h.h.h.h.h.h.g.g.g.g.j.j.j.j.j.j.g.g.g.g.j.j.j.s.s.s.i.i.8.9.9.9.7.5.5.5.5.5.6.6.HXHXHXHXHXHXHXHXHXHXHXHXHXHXHXHXHXHXHXHXHXHXHXHXHXHXHXHXHXHXHXHXHXHXHX",
"HXHXHXHXHXHXHXHXHXHXHXHXHXHXHXHXHXHXHXHXHXHXHXHXHXHXHXHXHXHXHXHXHXHXHXA A A A A D 2.2.2.5.5.7.9.8.i.i.p.p.s.s.s.s.s.s.p.p.p.p.p.i.p.p.p.p.p.s.s.s.s.s.p.i.q.8.9.9.7.5.5.5.2.2.A A A A A A HXHXHXHXHXHXHXHXHXHXHXHXHXHXHXHXHXHXHXHXHXHXHXHXHXHXHXHXHXHXHXHXHXHXHX",
"HXHXHXHXHXHXHXHXHXHXHXHXHXHXHXHXHXHXHXHXHXHXHXHXHXHXHXHXHXHXHXHXHXHXHXV V V V Z Z S S A A 2.2.5.5.7.9.9.9.9.9.9.9.9.9.9.9.9.9.9.9.9.9.9.9.8.8.8.8.8.8.8.8.9.7.5.5.2.2.A A S S Z Z V V V V HXHXHXHXHXHXHXHXHXHXHXHXHXHXHXHXHXHXHXHXHXHXHXHXHXHXHXHXHXHXHXHXHXHXHX",
"HXHXHXHXHXHXHXHXHXHXHXHXHXHXHXHXHXHXHXHXHXHXHXHXHXHXHXHXHXHXHXHXHXHXHXM M M M M B B B V V Z S A D 2.2.6.5.5.5.5.5.5.5.5.5.5.5.5.5.5.5.5.5.5.7.7.7.7.7.5.5.5.5.2.A A S Z V B B B B M M M M HXHXHXHXHXHXHXHXHXHXHXHXHXHXHXHXHXHXHXHXHXHXHXHXHXHXHXHXHXHXHXHXHXHXHX",
"HXHXHXHXHXHXHXHXHXHXHXHXHXHXHXHXHXHXHXHXHXHXHXHXHXHXHXHXHXHXHXHXHXHXHXh h h h h c c M M B B B V Z S S A D D D D D D D D D D D D D D D D D 2.2.6.5.2.2.2.2.A A A S Z V B M M M c h h h h h HXHXHXHXHXHXHXHXHXHXHXHXHXHXHXHXHXHXHXHXHXHXHXHXHXHXHXHXHXHXHXHXHXHXHX",
"HXHXHXHXHXHXHXHXHXHXHXHXHXHXHXHXHXHXHXHXHXHXHXHXHXHXHXHXHXHXHXHXHXHXHXHXg g j j j h h c c M M B C C V V V V V V V V V V V V V V V V S S S S S S A A A S S S S V V B M M c h h j j j g g HXHXHXHXHXHXHXHXHXHXHXHXHXHXHXHXHXHXHXHXHXHXHXHXHXHXHXHXHXHXHXHXHXHXHXHX",
"HXHXHXHXHXHXHXHXHXHXHXHXHXHXHXHXHXHXHXHXHXHXHXHXHXHXHXHXHXHXHXHXHXHXHXHXf f g g g g g j j c c c c c c C C C C C C C C C C C C C C C C C C C V V V V V V V B B B M M c h h j j g g g f f HXHXHXHXHXHXHXHXHXHXHXHXHXHXHXHXHXHXHXHXHXHXHXHXHXHXHXHXHXHXHXHXHXHXHXHX",
"HXHXHXHXHXHXHXHXHXHXHXHXHXHXHXHXHXHXHXHXHXHXHXHXHXHXHXHXHXHXHXHXHXHXHXHXHXHXf f f f f f g g g v v v v v v v v v v v v v v v v v v v v v v v v b b c c c c c c c c j j j g g g f f f HXHXHXHXHXHXHXHXHXHXHXHXHXHXHXHXHXHXHXHXHXHXHXHXHXHXHXHXHXHXHXHXHXHXHXHXHXHX",
"HXHXHXHXHXHXHXHXHXHXHXHXHXHXHXHXHXHXHXHXHXHXHXHXHXHXHXHXHXHXHXHXHXHXHXHXHXHXHXHXa f f f f d d k k k k k k k k k k k k k k k k k k k k k k k k k k k v v k k k d d d f f f f f f HXHXHXHXHXHXHXHXHXHXHXHXHXHXHXHXHXHXHXHXHXHXHXHXHXHXHXHXHXHXHXHXHXHXHXHXHXHXHXHX",
"HXHXHXHXHXHXHXHXHXHXHXHXHXHXHXHXHXHXHXHXHXHXHXHXHXHXHXHXHXHXHXHXHXHXHXHXHXHXHXHXHXHXa s s s s l l l l l l l l l l l l 6 6 6 6 6 > > > > s s s s s s s s s s s s s s s f f f HXHXHXHXHXHXHXHXHXHXHXHXHXHXHXHXHXHXHXHXHXHXHXHXHXHXHXHXHXHXHXHXHXHXHXHXHXHXHXHXHXHX",
"HXHXHXHXHXHXHXHXHXHXHXHXHXHXHXHXHXHXHXHXHXHXHXHXHXHXHXHXHXHXHXHXHXHXHXHXHXHXHXHXHXHXHXHX> > 6 6 6 6 6 6 6 6 6 6 6 8 8 8 8 8 8 : : : : : : : : : : : : : : : : > > > > > HXHXHXHXHXHXHXHXHXHXHXHXHXHXHXHXHXHXHXHXHXHXHXHXHXHXHXHXHXHXHXHXHXHXHXHXHXHXHXHXHXHXHXHX",
"HXHXHXHXHXHXHXHXHXHXHXHXHXHXHXHXHXHXHXHXHXHXHXHXHXHXHXHXHXHXHXHXHXHXHXHXHXHXHXHXHXHXHXHXHX6 6 6 6 7 7 7 7 7 5 5 5 5 5 5 8 1 1 1 8 1 1 1 1 - - - - - - - - - - * : : = HXHXHXHXHXHXHXHXHXHXHXHXHXHXHXHXHXHXHXHXHXHXHXHXHXHXHXHXHXHXHXHXHXHXHXHXHXHXHXHXHXHXHXHXHX",
"HXHXHXHXHXHXHXHXHXHXHXHXHXHXHXHXHXHXHXHXHXHXHXHXHXHXHXHXHXHXHXHXHXHXHXHXHXHXHXHXHXHXHXHXHXHXw w w w w w w q 7 7 7 7 7 7 7 7 5 3 3 3 3 3 1 1 1 1 1 1 1 - - - - - - - HXHXHXHXHXHXHXHXHXHXHXHXHXHXHXHXHXHXHXHXHXHXHXHXHXHXHXHXHXHXHXHXHXHXHXHXHXHXHXHXHXHXHXHXHXHX",
"HXHXHXHXHXHXHXHXHXHXHXHXHXHXHXHXHXHXHXHXHXHXHXHXHXHXHXHXHXHXHXHXHXHXHXHXHXHXHXHXHXHXHXHXHXHXJ n n n r r r r w w w w w q q q 7 7 7 2 2 2 2 2 2 3 3 3 3 3 3 3 1 3 3 3 HXHXHXHXHXHXHXHXHXHXHXHXHXHXHXHXHXHXHXHXHXHXHXHXHXHXHXHXHXHXHXHXHXHXHXHXHXHXHXHXHXHXHXHXHXHX",
"HXHXHXHXHXHXHXHXHXHXHXHXHXHXHXHXHXHXHXHXHXHXHXHXHXHXHXHXHXHXHXHXHXHXHXHXHXHXHXHXHXHXHXHXHXHX' ' ^ ^ ^ ^ / / / ~ ~ ~ ~ ,.r r r r r w q q q q q q 2 2 2 2 2 2 2 2 2 q HXHXHXHXHXHXHXHXHXHXHXHXHXHXHXHXHXHXHXHXHXHXHXHXHXHXHXHXHXHXHXHXHXHXHXHXHXHXHXHXHXHXHXHXHXHX",
"HXHXHXHXHXHXHXHXHXHXHXHXHXHXHXHXHXHXHXHXHXHXHXHXHXHXHXHXHXHXHXHXHXHXHXHXHXHXHXHXHXHXHXHXHX*.=.&.%.[ [ [ { { { { ' ' ' ` ^ ^ ^ ^ ^ / / ~ ! ,.r r r t q q q q t t r r ! HXHXHXHXHXHXHXHXHXHXHXHXHXHXHXHXHXHXHXHXHXHXHXHXHXHXHXHXHXHXHXHXHXHXHXHXHXHXHXHXHXHXHXHXHX",
"HXHXHXHXHXHXHXHXHXHXHXHXHXHXHXHXHXHXHXHXHXHXHXHXHXHXHXHXHXHXHXHXHXHXHXHXHXHXHXHXHXHXHXHX%X#X;.;.:.:.:.*.*.*.*.=.=.=.&.&.&.%.>.[ [ [ { ' ' ` ^ ^ ^ ~ ~ ~ ~ ~ ~ ~ / ^ ^ ` HXHXHXHXHXHXHXHXHXHXHXHXHXHXHXHXHXHXHXHXHXHXHXHXHXHXHXHXHXHXHXHXHXHXHXHXHXHXHXHXHXHXHXHX",
"HXHXHXHXHXHXHXHXHXHXHXHXHXHXHXHXHXHXHXHXHXHXHXHXHXHXHXHXHXHXHXHXHXHXHXHXHXHXHXHXHXHX=X&X&X*X*X%X%X$X$X$X#X#X;.;.;.;.;.;.;.;.:.:.*.*.*.&.&.%.[ [ { ' ` ` ` ` ` ` ' ' { [ >.%.HXHXHXHXHXHXHXHXHXHXHXHXHXHXHXHXHXHXHXHXHXHXHXHXHXHXHXHXHXHXHXHXHXHXHXHXHXHXHXHXHXHX",
"HXHXHXHXHXHXHXHXHXHXHXHXHXHXHXHXHXHXHXHXHXHXHXHXHXHXHXHXHXHXHXHXHXHXHXHXHXHXHX;X;X-X-X-X=X&X&X&X&X&X&X&X&X&X&X&X*X*X*X*X%X%X%X$X$X#X;.;.:.:.*.*.&.&.%.[ [ [ [ [ [ [ >.%.&.&.=.=.=.HXHXHXHXHXHXHXHXHXHXHXHXHXHXHXHXHXHXHXHXHXHXHXHXHXHXHXHXHXHXHXHXHXHXHXHXHXHXHX",
"HXHXHXHXHXHXHXHXHXHXHXHXHXHXHXHXHXHXHXHXHXHXHXHXHXHXHXHXHXHXHXHXHXHXHXHXHX-X-X-X-X-X-X-X-X-X-X;X;X;X;X;X;X-X;X-X-X-X-X-X&X&X&X&X&X*X*X%X$X$X;.;.:.:.*.*.*.=.&.&.&.&.&.&.&.&.&.&.&.&.&.HXHXHXHXHXHXHXHXHXHXHXHXHXHXHXHXHXHXHXHXHXHXHXHXHXHXHXHXHXHXHXHXHXHXHXHXHX",
"HXHXHXHXHXHXHXHXHXHXHXHXHXHXHXHXHXHXHXHXHXHXHXHXHXHXHXHXHXHXHXHXHXHXHXHX&X&X=X-X-X-X-X-X;X;X>X>X>X:X:X:X:X:X:X:X:X:X>X>X>X;X;X-X-X=X&X&X*X*X%X$X#X;.;.;.:.:.*.*.*.*.=.=.&.&.&.&.&.&.&.&.HXHXHXHXHXHXHXHXHXHXHXHXHXHXHXHXHXHXHXHXHXHXHXHXHXHXHXHXHXHXHXHXHXHXHXHX",
"HXHXHXHXHXHXHXHXHXHXHXHXHXHXHXHXHXHXHXHXHXHXHXHXHXHXHXHXHXHXHXHXHXHXHX&X&X&X&X&X&X-X-X-X;X>X>X:X:X:X:XGXlXlXlXlXlX:X:X:X:X:X>X>X>X;X-X=X&X&X*X*X%X$X;.;.;.;.:.:.*.*.*.*.&.&.&.&.&.&.[ [ [ HXHXHXHXHXHXHXHXHXHXHXHXHXHXHXHXHXHXHXHXHXHXHXHXHXHXHXHXHXHXHXHXHXHXHX",
"HXHXHXHXHXHXHXHXHXHXHXHXHXHXHXHXHXHXHXHXHXHXHXHXHXHXHXHXHXHXHXHXHXHX%X*X*X&X&X&X&X&X-X-X;X>X>X:X:X:XlXlXlXlXlXlXlXlXlX:X:X:X:X>X>X;X-X-X&X&X&X*X%X$X$X;.;.;.;.:.*.*.*.&.&.&.&.&.[ [ [ [ [ { HXHXHXHXHXHXHXHXHXHXHXHXHXHXHXHXHXHXHXHXHXHXHXHXHXHXHXHXHXHXHXHXHXHX",
"HXHXHXHXHXHXHXHXHXHXHXHXHXHXHXHXHXHXHXHXHXHXHXHXHXHXHXHXHXHXHXHXHXHX;.$X%X*X*X&X&X&X&X-X-X;X>X>X:X:X:XlXlXlXlXlXlXlX:X:X:X:X>X>X>X;X-X-X&X&X*X*X%X$X$X;.;.;.:.:.*.*.&.&.&.%.[ [ [ [ { { ' ^ HXHXHXHXHXHXHXHXHXHXHXHXHXHXHXHXHXHXHXHXHXHXHXHXHXHXHXHXHXHXHXHXHXHX",
"HXHXHXHXHXHXHXHXHXHXHXHXHXHXHXHXHXHXHXHXHXHXHXHXHXHXHXHXHXHXHXHX&.*.:.;.#X$X%X*X*X&X&X&X=X-X;X>X>X:X:X:X:X:X:X:X:X:X:X:X>X>X;X;X-X-X&X&X&X*X*X%X$X$X;.;.;.:.:.*.=.&.&.%.[ [ [ { { ' ` ^ ^ / ~ ,.HXHXHXHXHXHXHXHXHXHXHXHXHXHXHXHXHXHXHXHXHXHXHXHXHXHXHXHXHXHXHXHX",
"HXHXHXHXHXHXHXHXHXHXHXHXHXHXHXHXHXHXHXHXHXHXHXHXHXHXHXHXHXHXHX^ { [ =.:.;.;.$X%X%X*X&X&X&X=X-X;X;X>X>X:X:X:X:X:X>X>X;X;X;X-X=X&X&X&X&X*X%X%X$X$X#X;.;.:.:.*.*.=.&.%.[ [ { { ' ` ^ ^ ^ / ~ ~ r r q HXHXHXHXHXHXHXHXHXHXHXHXHXHXHXHXHXHXHXHXHXHXHXHXHXHXHXHXHXHXHX",
"HXHXHXHXHXHXHXHXHXHXHXHXHXHXHXHXHXHXHXHXHXHXHXHXHXHXHXHX2 q r ~ ^ { [ &.*.:.;.#X$X%X%X*X&X&X&X=X=X-X;X;X;X;X;X;X-X-X=X=X&X&X&X*X*X%X%X$X$X#X;.;.;.:.:.:.*.=.&.%.[ [ { ' ' ` ^ ^ ^ / ~ ~ r r q q q 2 2 < HXHXHXHXHXHXHXHXHXHXHXHXHXHXHXHXHXHXHXHXHXHXHXHXHXHXHXHX",
"HXHXHXHXHXHXHXHXHXHXHXHXHXHXHXHXHXHXHXHXHXHXHXHXHXHX< < 2 2 q r / ^ { [ &.*.:.;.;.$X$X%X%X*X&X&X&X&X&X&X=X&X&X&X&X&X&X*X%X%X%X$X$X#X;.;.;.;.:.:.:.*.*.=.&.&.[ [ { { ' ` ^ ^ / / ~ ~ r r r q q y 2 2 2 < < < HXHXHXHXHXHXHXHXHXHXHXHXHXHXHXHXHXHXHXHXHXHXHXHXHXHX",
"HXHXHXHXHXHXHXHXHXHXHXHXHXHXHXHXHXHXHXHXHXHXHXHXHX< < < 2 2 q r ~ ^ ' { %.&.*.:.;.;.;.$X$X%X%X*X*X*X*X*X*X*X*X*X*X%X%X$X$X#X;.;.;.;.:.:.:.*.*.*.=.&.&.&.>.[ [ { ' ` ^ ^ / / ~ ~ r r r q q q q 2 2 2 2 < < < < HXHXHXHXHXHXHXHXHXHXHXHXHXHXHXHXHXHXHXHXHXHXHXHXHX",
"HXHXHXHXHXHXHXHXHXHXHXHXHXHXHXHXHXHXHXHXHXHXHXHX< < < 2 2 2 q r r / ^ ' [ &.=.*.:.;.;.;.;.$X$X$X%X%X%X%X%X%X%X%X$X$Xn.;.;.;.:.:.:.*.*.*.=.=.&.&.&.&.[ [ [ ] { ' ^ ^ ^ / / ~ r r r r q q q q 2 2 2 2 2 2 < < < < HXHXHXHXHXHXHXHXHXHXHXHXHXHXHXHXHXHXHXHXHXHXHXHX",
"HXHXHXHXHXHXHXHXHXHXHXHXHXHXHXHXHXHXHXHXHXHXHXHX< < 2 2 2 q q r r ~ ^ ' ] +.&.=.*.:.;.;.;.n.n.n./.$X$X$X$X$Xn.n.n.n.;.;.;.:.:.*.*.=.=.=.=.=.&.+.+.+.[ [ ] ] ' ( ( ^ / / ~ J r r r e q q q q 2 2 2 2 2 2 2 2 2 2 HXHXHXHXHXHXHXHXHXHXHXHXHXHXHXHXHXHXHXHXHXHXHXHX",
"HXHXHXHXHXHXHXHXHXHXHXHXHXHXHXHXHXHXHXHXHXHXHX2 2 2 2 2 y q q r n ~ / ( ] +.+.=.-.-.-.-.;.n.n.n.n.n.n.n.n.n.n.n.n.n.n.-.-.-.-.-.-.-.-.=.+.+.+.+.+.+.+.+.] ] ( ( ( / / / ~ J n r r r e q w q q 9 2 2 2 2 2 2 2 2 2 HXHXHXHXHXHXHXHXHXHXHXHXHXHXHXHXHXHXHXHXHXHXHX",
"HXHXHXHXHXHXHXHXHXHXHXHXHXHXHXHXHXHXHXHXHXHXHX2 y y y y q q r r n ~ / ( ] +.+.@.@.-.-.-.v.v.v.v.v.v.v.n.n.n.n.v.v.v.v.v.v.v.v.v.v.@.@.@.@.@.@.@.@.+.+.+.....) ) ( ) ) / / J J J J r e e e w w q q q q 9 2 2 2 2 2 HXHXHXHXHXHXHXHXHXHXHXHXHXHXHXHXHXHXHXHXHXHXHX",
"HXHXHXHXHXHXHXHXHXHXHXHXHXHXHXHXHXHXHXHXHXHXHXy q q q q t r r n ~ / ) ) ....+.@.@.@.r.r.v.v.v.v.v.v.v.v.v.v.v.v.b.b.b.b.b.b.b.b.r.r.r.r.r.r.@.@.@.@.o...........) ) ) / / / K J J J J i r r e t q q q q q q q q q HXHXHXHXHXHXHXHXHXHXHXHXHXHXHXHXHXHXHXHXHXHXHX",
"HXHXHXHXHXHXHXHXHXHXHXHXHXHXHXHXHXHXHXHXHXHXHXt t t t r r r ~ ~ / ) ) ) ....o.O.@.r.r.r.r.r.b.b.b.b.b.b.b.b.b.b.b.b.b.b.b.b.z.z.t.t.t.t.t.t.r.r.w.O.O.o.o...........) ) ) ) ) / / K J J J i r r r r r e q q q q q HXHXHXHXHXHXHXHXHXHXHXHXHXHXHXHXHXHXHXHXHXHXHX",
"HXHXHXHXHXHXHXHXHXHXHXHXHXHXHXHXHXHXHXHXHXHXHX,.! ! ! ! ~ ~ / / ) ) ) ....o.o.o.w.w.w.w.t.t.t.t.t.t.t.t.t.z.z.z.z.z.z.z.z.z.M.M.z.z.z.z.l.t.t.t.w.w.w.w.o.o.o.o........._ _ _ _ } / / / / ~ J J i r r r r r r r r HXHXHXHXHXHXHXHXHXHXHXHXHXHXHXHXHXHXHXHXHXHXHX",
"HXHXHXHXHXHXHXHXHXHXHXHXHXHXHXHXHXHXHXHXHXHXHX! ~ ~ ~ ^ ^ ^ ^ ( ) ......o.o.w.w.w.w.e.e.e.e.e.t.t.t.t.l.l.z.z.z.z.x.x.x.M.M.K.K.K.x.x.k.k.l.l.d.e.e.y.y.w.w.o.o.o.O.X.X.X.X._ _ _ _ } } } ^ / ~ ~ ~ ~ ~ ~ ,.,.r r HXHXHXHXHXHXHXHXHXHXHXHXHXHXHXHXHXHXHXHXHXHXHX",
"HXHXHXHXHXHXHXHXHXHXHXHXHXHXHXHXHXHXHXHXHXHXHX^ ^ ^ ^ ^ ( ( ( ( ......o.o.w.w.y.y.e.e.e.e.e.e.d.d.d.l.l.l.l.l.x.x.x.D.D.K.K.L.K.L.K.D.D.x.k.k.l.d.d.e.y.y.y.w.w.O.O.O.O.X.X.X.X._ _ _ _ _ } } } / / / / / / ~ ~ ~ HXHXHXHXHXHXHXHXHXHXHXHXHXHXHXHXHXHXHXHXHXHXHX",
"HXHXHXHXHXHXHXHXHXHXHXHXHXHXHXHXHXHXHXHXHXHXHX' { { ' ] ] ] +.+...o.o.O.w.w.w.e.e.e.e.d.d.d.d.d.d.d.l.j.j.k.k.k.D.D.D.G.L.L.L.L.L.L.L.F.D.D.k.k.j.s.d.e.e.e.y.w.w.w.O.O.O.X.#.#.X.X._ _ _ _ } } ^ ^ ^ ^ ^ ^ ^ / / HXHXHXHXHXHXHXHXHXHXHXHXHXHXHXHXHXHXHXHXHXHXHX",
"HXHXHXHXHXHXHXHXHXHXHXHXHXHXHXHXHXHXHXHXHXHXHX+.+.+.+.+.+.+.+.@.@.@.r.r.r.t.t.t.l.l.l.l.d.d.d.d.j.j.j.j.g.g.k.D.D.D.G.G.P.E.E.E.E.E.P.G.G.D.D.k.g.j.s.d.e.e.e.y.y.w.w.O.O.O.#.#.#.X.X.X.] _ _ _ ( ( ^ ^ ^ ^ ^ ^ ^ HXHXHXHXHXHXHXHXHXHXHXHXHXHXHXHXHXHXHXHXHXHXHX",
"HXHXHXHXHXHXHXHXHXHXHXHXHXHXHXHXHXHXHXHXHXHX=.+.+.+.@.@.@.@.@.@.r.r.r.u.b.b.z.z.z.z.z.z.l.l.l.l.j.j.j.j.g.h.B.S.S.G.H.H.E.E.{.{.{.{.E.E.H.G.D.S.h.j.j.s.d.i.e.e.e.w.w.w.w.O.O.O.#.#.X.X.X.+.] ] ] ' ' ' ' ' ` ` ` ` HXHXHXHXHXHXHXHXHXHXHXHXHXHXHXHXHXHXHXHXHXHX",
"HXHXHXHXHXHXHXHXHXHXHXHXHXHXHXHXHXHXHXHXHX-.-.-.@.@.@.r.r.r.r.r.b.b.b.b.b.N.N.N.N.N.N.M.M.M.x.k.k.k.h.g.h.B.V.S.J.H.H.{.{.{.}.}.}.}.{.{.E.H.J.D.V.h.j.j.s.d.i.e.e.e.w.w.w.w.O.O.O.@.X.X.+.+.+.] ] ] ] { { { ' ' ' ' ` HXHXHXHXHXHXHXHXHXHXHXHXHXHXHXHXHXHXHXHXHX",
"HXHXHXHXHXHXHXHXHXHXHXHXHXHXHXHXHXHXHXn.n.v.v.v.v.b.r.r.r.b.b.b.b.b.N.N.N.).).).).).).N.N.N.M.M.x.k.h.h.B.V.S.D.H.H.oX{.}.}. X X X X}.}.{.oXH.J.D.V.h.f.s.s.s.d.e.e.e.e.w.w.w.w.O.@.O.@.@.@.+.+.+.[ [ [ [ { { { ' ' ' ` ` HXHXHXHXHXHXHXHXHXHXHXHXHXHXHXHXHXHXHX",
"HXHXHXHXHXHXHXHXHXHXHXHXHXHXHXHXHX$Xn.n.n.v.b.b.b.b.z.z.z.z.z.N.N.N.N.).,X,X,X,X2X2X2X2X2XI.I.Y.K.D.V.V.V.S.S.J.H.oX{.}.}.XXXXXXXXXXXX}.}.{.oXH.J.S.B.h.f.s.s.s.d.d.e.e.e.w.w.w.w.O.@.@.@.@.+.+.+.+.+.[ [ [ [ { { ' ' ' ` ^ ^ HXHXHXHXHXHXHXHXHXHXHXHXHXHXHXHXHX",
"HXHXHXHXHXHXHXHXHXHXHXHXHXHXHX#X$X$Xn.n.m.m.b.b.b.z.z.z.z.M.M.M.N.N.2X2X2X3X3X3XqXqX3X1X2X2X'.I.Y.K.D.D.S.S.D.H.oXoX}.}.XXXXXX+X+XXXXXXX.X}.oX`.H.J.V.B.g.f.s.s.s.d.d.e.e.e.e.y.w.w.r.@.@.@.@.=.+.&.+.>.+.[ [ [ { { ' ' ` ^ ^ ^ ^ HXHXHXHXHXHXHXHXHXHXHXHXHXHXHX",
"HXHXHXHXHXHXHXHXHXHXHXHXHX#X#X$X$X$X/.n.m.m.b.N.N.M.M.x.M.K.Y.I.I.2X2X1X3XqXqXqXqXqXqXqX3X2X2X'.I.Y.K.D.D.D.H.H.oX}.}.XXXX+X+X+X+X+X+XXXXX.X}.oXH.H.D.S.B.h.f.f.s.s.s.d.e.e.e.y.y.w.w.r.@.@.@.=.=.=.=.&.&.[ [ [ { ' ' ` ^ ^ ^ ^ ^ / / HXHXHXHXHXHXHXHXHXHXHXHXHX",
"HXHXHXHXHXHXHXHXHXHXHXHXHX#X$X$X$X$Xn.m.m.m.N.N.N.M.M.K.K.Y.Y.U.'.<X1X3XqXqX0X0XaX0X0XqXqX1X2X2XI.I.Y.K.G.H.H.oX].}.XXXX+X+XyXyXyXyXyX+XXXXX.X].`.H.J.D.V.V.h.g.f.s.s.s.d.d.e.e.e.w.w.w.r.@.@.@.=.=.=.=.&.&.[ [ { ' ' ` ^ ^ ^ / / / / HXHXHXHXHXHXHXHXHXHXHXHXHX",
"HXHXHXHXHXHXHXHXHXHXHXHX$X$X$X$X$Xn.m.m.m.N.N.N.N.Y.Y.Y.P.P.U.'.<X1X1X9XqX0X0XzXzXzX0X0XqX9X1X2X<XI.I.P.P.P.oX].}..XXX+XyXyXpXpXpXpXyXyXuXXX.X X].oXP.H.D.D.V.h.g.f.f.s.s.d.d.e.e.e.w.w.r.r.@.@.-.=.=.=.&.>.[ [ { ' ` ^ ^ ^ / / / ~ ~ ~ HXHXHXHXHXHXHXHXHXHXHXHX",
"HXHXHXHXHXHXHXHXHXHXHXn.n.n.n.n.m./.).m.N.N.N.N.N.I.I.I.U.U.'.6X4X5X7XwXeXrX0XzXzXzX0X0XqX9X1X1X<X<X'.U.U.].].]..X.X8XuXyXpXiXiXiXiXiXyXuXuX8X.X X].U.P.Y.K.D.V.k.h.g.f.s.s.d.i.e.e.e.w.r.r.@.@.-.=.=.&.%.>.[ { ' ` } ^ ^ / ~ ~ ~ n r r r HXHXHXHXHXHXHXHXHXHXHX",
"HXHXHXHXHXHXHXHXHXHX-.n.n.m.m.m.m.m.m.N.N.N.).N.I.I.'.'.<X<X6X4X5X5XwXwXeXrXrXrXrX0X0X0XqX9X1X1X2X<X<X'.'.'.'.4X8X8XuXuXiXiXfXjXjXfXfXiXuXuX8X8X4X4X'.'.I.Y.Y.K.D.k.k.k.j.s.s.p.e.e.e.w.w.r.@.@.@.$.$.&. .[ { ' ` } ^ / / ~ ~ r r r e w w w HXHXHXHXHXHXHXHXHXHX",
"HXHXHXHXHXHXHXHXHX-.-.v.v.m.m.m.m.N.N.N.).,X,X2X2X2X<X<X<X4X5X5X5X7XwXwXwXeXeXeXeXeXqX9X9X9X1X1X1X1X2X2X2X1X3X7X8XuXuXdXfXjXjXhXhXhXjXfXfXdXuXeX7X3X1X<X<X'.I.Y.K.K.x.k.k.j.s.d.d.e.e.y.w.w.@.@.$.$.$. . . ._ } } ^ / ~ ~ r r r w w q 9 7 5 5 HXHXHXHXHXHXHXHXHX",
"HXHXHXHXHXHX( ] +.@.@.v.b.b.b.N.N.N.N.N.,X2X2X2X2X1X1X1X1X5X7XwXwXwXwXwXwXwXwXwXwX9X9X9X3X1X1X1X1X1X1X3X3X3X9XeXsXdXdXgXgXhXhXhXmXhXhXgXgXdXdXsXeXwX3X1X2X2X<XI.I.Y.K.x.k.k.f.s.d.e.e.e.w.w.O.O.#.#.#. .| _ } } } / J i r r e q q 9 7 7 5 8 8 : * * HXHXHXHXHXHX",
"! ! ! ! ~ / ( ] ..@.@.r.b.b.z.N.N.N.N.I.'.2X2X2X1X1X9X9X9XwXwXwXwXwXwXwX5X5X5X1X5X1X1X1X1X1X1X1X3X9X9X9XqXqX0XsXsXdXcXnXnXmXmXmXmXmXmXnXnXnXcXsXsX0XqX9X3X1X2X2X'.I.Y.M.x.k.j.s.d.d.e.e.w.w.O.O.#.#.#.| | _ } L J J i i t w w 9 7 7 7 8 8 : * * * * # # # # # # ",
"! ! ! ! ~ / ) ) ..o.@.r.t.z.z.M.M.Y.I.I.<X2X1X1X9X9XqX0X0X0XrXeXeXwXwX5X5X5X4X<X4X4X<X4X1X1X1X3X9X9XqX0X0XaXxXxXcXcXBXMXNXNXNXNXNXNXNXNXMXBXBXcXcXxXaX0XqX9X1X1X2X'.I.Y.M.x.k.j.d.d.e.e.w.w.O.O.#.#.| | Y L L L i i i e q 9 2 2 2 3 3 1 - % * * * * # # # # # # ",
"! ! ! ~ ~ / ) ) ..o.o.r.t.l.z.M.K.Y.I.I.<X<X1X3X9XqX0X0X0XzX0X0X0XqXwX5X5X4X<X<X|.|.<X<X4X1X1X9X9X0X0XzXzXxXcXvXBXBXMXCXZXZXZXZXZXZXZXZXZXCXBXBXvXcXxXzX0X0XqX3X1X2X'.I.Y.x.x.k.j.d.d.e.w.w.Q Q Q Q Y Y L L L L i i e 9 9 4 2 3 3 1 1 - % * & & * * * # # # # # ",
"! ! ! ~ / / ) ) ..o.O.w.t.l.k.x.K.K.P.U.<X4X1XwXeX0X0XxXzXzXxXaX0XeXwX7X5X4X<X'.|.|.|.6X4X1X3X9X0X0XzXxXvXvXvXVXVXVXZXZXFXFXFXFXFXFXFXFXFXZXVXVXVXvXvXcXzXaX0XqX3X1X2X'.I.K.x.x.c.c.d.e.w.w.Q Q Q Q Y Y Y L L p i p e 9 4 2 3 3 3 1 1 % * * & & * * * * * * * # ",
"! ! ! ~ ~ / ) ) ..o.o.w.e.l.k.V.D.L.P.U.'.4X5XwXeXrXsXxXxXcXxXxXsXrXeX7X5X4X6X|.|.|.6X6X4X5XwXeXrXxXxXvXvXVXVXVXAXAXFXFXFXFXSXDXDXSXFXFXFXFXAXAXVXVXvXvXvXzXaX0X9X3X2X2X].Y.Y.x.c.c.c.u.u.u.w.Q Q Q Y Y Y Y L L p p p 4 4 3 3 3 1 1 % % * * * * * * * * * * * * ",
"! ! ~ ~ / / ) ) ..o.o.y.e.d.k.V.D.L.P.U.'.4X7X7XeXsXsXcXcXcXcXcXsXsXeXwX7X5X4X6X6X6X4X5X5XwXeXrXxXxXvXvXVXVXVXAXAXAXSXSXSXSXDXDXDXDXSXSXSXSXAXAXAXVXVXVXvXcXzXaX0X9X3X2X'.].].J.M.c.c.c.u.u.u.$.$.$.Q Y Y Y L L p i p 9 4 2 3 3 1 1 - - % * * * = = * * * * = = ",
"i J J ~ / / ) ) ..o.o.w.e.d.k.V.D.L.P.U.|.4X5X7XeXdXdXdXcXcXcXcXdXsXsXeXeX7X7X5X5X5X5X7XwXeXrXxXxXvXvXVXVXVXAXAXSXSXSXDXDXDXDXDXDXDXDXDXDXSXSXSXAXAXAXVXVXvXcXxXsXeX7X3X4X[.].].`.^.^.^.^.~.~.~.$.$.$.| Y Y Y L L i i e 9 4 2 3 3 1 1 - : : : : : > > > > > > > ",
"J J J J K / ) ) ..o.o.y.e.d.j.k.D.F.L.U.|. X8X8XuXdXdXgXgXgXnXgXgXdXdXdXsXtXeXwXwXeXeXtXtXtXxXbXvXvXVXVXAXAXAXSXSXSXDXDXDXDXDXDXDXDXDXDXDXDXSXSXSXAXAXAXVXBXvXcXsXdXdX8X8X8X[.[.[.].^.^.^.^.~.~.~.<.<.$.$.| | | L L i p e 9 2 2 3 3 3 1 1 1 : : , , , , , , , , ",
"J J K K K P ) ....o.o.w.e.d.j.k.D.D.L.P.]. X8X8XuXuXdXfXgXgXhXgXgXgXgXdXdXdXsXsXsXsXsXxXbXbXbXbXMXCXCXAXAXAXSXSXSXDXDXDXDXDXDXDXDXDXDXDXDXDXDXSXSXSXFXAXZXMXBXBXgXdXdXuXuXuXXX[.[.[.[._._._.(././.~.<.<.<.$.| | } } K i e e q 9 7 7 5 5 5 8 8 6 , , , , , , , , ",
"J K K K P P I R ..o.o.w.y.d.d.h.D.D.H.P.]. X.X8XuXuXiXfXjXjXhXhXgXgXgXnXnXbXbXbXbXbXbXbXbXbXMXCXCXCXFXFXFXSXSXSXDXDXDXDXDXDXDXDXDXDXDXDXDXDXDXDXDXSXFXFXZXZXMXnXnXgXdXdXuXuXuX+XOXOX[.[._._._.(.(./.1.1.<.<. . .| } } J i e w q 9 7 7 7 7 5 6 6 0 0 0 l x x l l ",
"K K K K P I I R ..o.o.w.y.e.d.j.k.D.J.P.].]..X.XuXuXpXiXiXjXjXhXhXhXgXnXnXnXMXMXMXMXCXCXCXCXCXCXZXFXFXFXSXSXSXDXDXDXDXDXDXDXDXDXDXDXDXDXDXDXDXDXDXDXSXFXFXZXNXNXnXgXgXfXiXpXyXkX+XOXOXOXOX_._._.(.(./.1.1.<.$. .| _ } / i r t w q 9 9 9 0 0 6 0 x x x x x x x x ",
"L L I I I I I R ..o.o.w.y.e.d.j.k.D.J.J.`.]..X.XXXuXyXpXiXiXjXjXhXhXhXmXmXMXMXCXCXCXCXCXCXZXFXFXFXFXSXSXSXSXDXDXDXDXDXDXDXDXDXDXDXDXDXDXDXDXDXDXDXDXSXFXFXZXNXNXmXmXhXjXfXiXpXpXkXOXOXOXOX@X_._._.(.(./.1.1.$.$. .| } / J i e e w 9 9 0 0 0 0 z z z z z z z z z ",
"I I I I I I R R R o.o.w.y.e.d.j.k.x.J.J.`.].}.[.XX+XyXpXpXiXiXjXjXhXhXmXmXMXNXCXCXCXZXFXFXFXFXFXFXDXSXDXDXDXDXDXDXDXDXDXDXDXDXDXDXDXDXDXDXDXDXDXDXDXDXDXFXZXZXNXmXmXhXjXjXiXiXpXpXkXkXOXOX@X@X_._.(.(./.1.1.$.$. .| } / J i e t w 9 9 w 0 0 0 z z z z z z z z z ",
"I I I I I R R R R O.o.w.y.e.d.d.j.c.D.J.J.`.].[.[.XX+X+XpXpXiXiXfXfXgXnXnXMXMXMXCXCXCXCXZXFXFXFXFXFXSXSXSXSXDXDXDXDXDXDXDXDXDXDXDXDXDXDXDXDXDXDXDXDXDXFXFXZXZXNXmXmXhXjXfXiXiXpXpXkXOXOXOXOX_._._.(.(./.1.<.$. . ._ } / J r e w w 9 9 9 0 0 0 z z z z z z z z z ",
"_ _ _ _ I R X.X.O.O.O.w.y.e.e.d.j.k.x.D.J.`.`.}.[.[.XX+X+XyXyXpXiXfXfXgXgXnXbXMXMXCXCXCXCXCXCXZXFXFXFXSXSXSXSXDXDXDXDXDXDXDXDXDXDXDXDXDXDXDXDXDXDXSXSXFXFXZXNXNXmXnXgXfXfXiXpXyXyXkXOXOXOX@X_._.(.(././.1.<.$. .| } } J i e w 9 9 9 9 9 0 0 0 0 z z z z z z z H ",
"_ _ _ _ X.X.X.X.O.O.O.w.y.e.e.d.j.j.c.x.J.J.`.`.].[.[.XX+X+XuXuXuXuXuXdXdXdXdXbXbXbXbXbXMXCXCXCXCXCXFXFXFXSXSXSXDXDXDXDXDXDXDXDXDXDXDXDXDXDXDXDXSXSXSXFXFXZXNXMXnXgXgXfXuXyXyXuX+XOXOX[.[._._.(.(././.1.<.$. .| | } J i e w 9 2 2 7 7 7 9 0 0 0 z z z z z z z H ",
"_ _ _ X.X.X.X.X.O.O.O.w.w.e.e.d.d.j.j.c.c.J.J.`.`.].[.[.[.XXXXXX8X8X8X8XeXtXtXtXsXxXxXbXbXbXbXMXCXCXCXAXAXFXFXSXSXDXDXDXDXDXDXDXDXDXDXDXDXDXSXSXSXSXAXAXZXCXMXnXnXdXdXdXuXuXuXXXXX[.[.[._._._.(././.1.<.$.$.| | L L i e 9 4 2 3 3 3 3 5 5 0 0 0 0 z z z z z z H ",
"| #.#.#.#.X.X.X.O.O.O.w.w.e.e.e.d.d.j.j.c.c.J.J.`.`.`.].].[..X.X.X.X8X8X7X7X7XwXwXeXtXtXsXxXbXbXvXBXVXVXAXAXAXSXSXSXSXDXDXDXDXDXDXDXDXDXDXDXSXSXSXAXAXAXVXBXBXbXdXdXdXuX8X8X.X.X.X[.[.[.^.^.^.~.~.<.<.<.$.| | L L i p 9 4 3 3 < < 1 1 5 5 0 0 0 0 z z z z z z z ",
"#.#.#.#.#.#.#.#.O.O.O.w.w.e.e.e.d.d.s.j.j.c.c.D.J.J.J.`.`.`.].].].].|.|.|.6X4X4X5X5XwXwXeXrXsXxXcXvXvXVXVXAXAXAXSXSXSXSXDXDXDXDXDXDXDXDXSXSXSXSXAXAXAXVXVXvXcXcXsXsXeX8X8X8X.X X].].`.^.^.^.~.~.~.<.$.| | Y L L p p 4 4 3 < ; ; ; ; ; 1 5 5 0 0 0 0 z z z z z z ",
"#.#.#.#.#.#.#.#.O.O.O.w.w.y.e.e.e.i.d.d.j.j.j.c.c.D.J.J.J.J.J.H.P.P.P.P.U.U.|.|.6X6X4X5X7XwXrXrXxXxXvXvXVXVXVXAXAXAXSXSXSXDXDXDXDXDXDXSXSXSXAXAXAXVXVXVXvXvXxXsXrXeX7X7X4X X|.].].`.`.c.c.c.u.u.$.$.| Y Y L L p p 4 4 3 ; ; u o % ; ; - 1 5 5 0 0 0 0 z z z z z ",
"#.#.#.#.#.#.#.#.O.O.O.w.w.y.e.e.e.i.i.s.s.s.j.j.h.c.k.D.D.D.D.D.D.F.G.G.L.L.P.U.U.U.|.6X5X5XwXeXrXxXxXvXvXVXVXVXAXAXFXFXFXSXDXDXDXSXFXFXFXFXAXAXVXVXVXvXvXxXxXrXeXwX5X4X6X|.U.P.P.J.x.c.c.u.u.u.Q Q Y Y Y L L p p 4 4 ; ; u o o o % ; ; - 5 5 5 6 0 0 0 z z z z ",
"#.#.#.#.#.#.#.#.O.O.O.w.w.w.e.e.e.i.i.i.i.s.s.j.j.j.g.h.h.V.S.S.C.S.S.S.F.F.G.L.L.U.U.'.<X1X1X9X0X0XzXxXvXvXvXVXVXVXZXFXFXFXFXFXFXFXFXFXFXZXVXVXVXvXvXvXxXxXrXeXwX5X4X6X|.U.P.L.F.D.c.c.c.u.u.O.Q Q Y Y L L p p p 4 4 ; ; u o o o % ; ; - - 5 6 6 6 0 0 0 x x x ",
"#.#.#.#.#.#.#.#.O.O.O.O.w.w.y.9.8.9.8.q.q.i.p.p.s.s.j.j.j.g.h.B.B.B.C.C.C.A.F.F.G.L.P.U.'.<X1X1X9XeX0XaXxXcXvXvXBXMXCXZXZXZXZXZXZXZXZXZXZXCXBXBXvXvXxXxXxXrXeXwX5X5X4X|.U.P.L.G.D.S.k.c.d.u.w.Q Q Q Y I L L p p p 4 4 ; ; ; o o % % ; ; - - 5 6 6 6 6 0 0 0 0 x ",
"#.#.#.#.#.#.#.X.O.O.O.O.w.0.0.0.7.9.8.8.8.q.q.i.p.p.p.s.s.j.g.g.B.B.B.B.C.C.A.S.F.G.L.P.U.<X<X1X1X9X9X0XrXsXxXcXcXBXMXMXNXNXNXNXNXNXNXNXMXBXBXcXcXxXsXrX0XqX9X1X1X<X<XU.U.L.L.F.D.k.j.d.e.w.w.Q Q Q I I L L H p p 4 4 3 < < ; ; ; ; ; - - - : , 6 6 , , , , 6 6 ",
"#.#.#.#.#.X.X.X.X.O.O.O.W 0.0.6.7.7.9.8.8.8.q.q.i.p.p.p.s.s.f.f.g.g.B.B.B.B.C.C.S.G.L.L.P.U.'.<X4X1X3X9XeXeXrXsXsXcXnXnXmXmXmXmXmXmXmXmXnXnXcXsXsXrXeXeX9X3X1X1X<X<XU.U.P.L.F.D.D.k.j.d.e.w.w.Q R R I I L L H p p 4 4 4 3 3 < < < 1 1 - - - : , , , , , , , , , ",
"| #.#.X.X.X.X.X.X.X.W W E E 6.6.7.7.7.9.8.8.8.8.q.i.p.p.p.p.s.f.f.f.g.B.B.B.C.C.C.F.F.L.L.P.U.'.<X<X1X1X7XwXeXeXdXdXdXgXgXhXmXmXmXmXhXgXgXdXdXdXeXeXwX7X1X1X<X<X'.U.U.P.L.L.F.V.S.h.j.d.e.0.0.Q R R I I L L K p p p 9 9 4 2 3 3 3 1 1 1 - : : : , , , , , , , , ",
"_ _ _ _ X.X.X.X.R R R W E E 6.6.6.5.5.7.9.8.8.8.8.q.i.i.p.p.p.s.f.f.f.g.g.B.B.V.C.S.S.F.L.L.P.U.U.'.<X<X4X5X7X8XeXdXdXfXfXjXhXhXhXhXjXfXfXdXdXeX8X7X5X4X<X<X'.U.U.P.L.L.L.F.Z.V.k.k.j.d.e.w.0.Q R R I I L L K K i p e q 9 9 9 2 2 3 3 1 1 : : : , , , > > > > > ",
"_ _ _ _ _ _ R R R R W W E E E 6.6.6.5.5.7.7.9.8.8.8.q.i.i.p.p.p.s.s.f.g.g.h.B.V.V.C.D.D.D.L.L.L.P.U.U.'.|.6X4X8X8XuXuXuXiXfXjXjXjXjXfXiXuXuXuX8X8X4X6X|.'.U.U.P.L.L.L.L.F.D.V.V.k.j.d.d.e.w.0.Q R R I I I L K K K i p e e w q 9 7 7 5 5 1 : : : : > > > = * * * ",
"I I I I I I I I R T T W W E E E 6.5.5.5.5.7.7.9.8.8.8.8.q.i.i.p.s.s.s.j.j.g.h.B.V.V.V.D.S.F.F.L.L.L.P.U.U.|. X X8X8XuXuXpXiXiXiXiXiXiXpXuXuX8X8X X X|.U.U.P.L.L.L.L.F.S.D.C.V.k.k.j.d.e.e.w.O.W R R I I I K K K J J i e e e q q 9 7 5 5 8 : : : = = = * * * * * ",
"I I I I I I I I T T T T T E E E E 6.5.5.5.5.7.7.9.9.8.8.8.q.i.i.s.s.s.j.j.j.g.h.h.V.V.V.C.Z.S.F.F.L.L.L.P.E.{. X.XXX8XuXyXyXpXpXiXpXyXyXuX8XXX.X X{.E.P.L.L.L.G.F.F.Z.C.C.V.k.g.j.d.d.e.w.w.O.W R R I I P K K K J J i r e e w w q 7 7 5 8 : : = = = * * # # # # ",
"I I I I I I P P T T T T T T E E E A 4.2.5.5.5.5.7.7.9.8.9.8.q.i.i.s.s.s.j.j.j.g.g.h.V.V.V.C.C.C.A.F.G.G.L.E.{.{. X.XXX+X+XyXyXyXyXyXyX+XXXXX.X X{.{.P.L.G.G.F.A.A.C.C.C.V.V.h.h.j.d.e.e.w.w.W R R I P P K K K J J i r r e e w w q 7 5 5 1 : : * * * # # # # # # ",
"I I I I P P P P P T T T T T E S A A A 4.2.2.5.5.5.7.7.9.8.9.8.8.i.i.s.s.s.j.j.j.g.g.h.B.V.V.C.C.C.A.F.G.G.H.E.{.}. XXXXX+X+X+X+XyXyX+X+XXXXX X}.{.E.H.G.F.F.A.A.C.C.C.V.B.h.g.j.j.d.e.e.w.o.W R T P P K K K J J i e e e e q w q 7 7 5 8 8 : * * * * # # @ @ @ @ ",
"K K P P P P P P P P T T T T F S S A A A 4.4.2.5.5.5.5.7.9.9.9.8.8.i.i.s.s.s.s.j.j.g.g.h.B.B.B.C.C.A.A.F.G.G.P.{.{.}. XXXXXXX+X+X+X+XXXXXXX X}.{.{.E.H.G.F.A.A.C.C.C.V.B.B.h.j.j.d.d.e.y.w.E W T P P K H J i e e e e e w w q q 7 7 7 8 1 - * * & & @ @ @ @ @ @ @ ",
"K U U U U U U U U U U T T F F V S S S A A A 4.2.5.5.5.5.7.9.9.8.8.8.i.i.i.s.s.s.j.j.j.g.g.B.B.B.C.C.A.S.F.G.H.E.{.{.}. XXXXXXXXXXXXXXXXX X}.{.{.E.H.G.G.S.A.C.C.C.B.B.B.g.g.j.j.d.e.y.y.0.E T T P H n z e e e e q q q 9 9 7 2 2 2 3 1 1 - * & & & @ @ @ @ @ @ @ ",
"U U U U U U U U U U U U C C C V V S S S A A A 4.2.2.5.5.5.7.9.9.8.9.8.q.i.i.s.s.s.j.j.j.g.g.B.B.B.C.C.C.S.G.G.H.E.{.{.}. X XXXXXXXXXXX X}.{.{.E.H.G.G.S.A.C.C.C.B.B.B.g.g.j.s.s.i.e.y.0.E T T m m n z 0 9 9 9 2 2 2 2 2 2 2 2 3 3 1 1 - % & & & & & & @ @ @ @ @ ",
"H H H U U U U U U U b b b C C C V V Z Z S A A A 4.4.5.5.5.5.7.7.9.8.9.8.8.i.i.p.s.s.s.f.j.g.g.h.B.B.V.C.S.F.G.H.E.E.{.{.{. X X X X X}.{.{.{.E.E.G.G.F.S.C.C.B.B.B.h.g.g.j.s.s.p.i.y.6.E E T m m n x w 9 9 2 2 2 3 3 3 3 < < < < < ; % % % $ $ + & & & + @ @ @ @ ",
"H H H H H H H U m b b b b C C C C B V V Z S S A A A 4.2.5.5.5.5.7.7.9.8.8.8.q.i.i.p.s.s.s.j.j.g.g.h.B.V.C.S.F.G.G.P.E.E.E.{.{.{.{.{.{.{.E.E.P.G.G.F.S.S.V.B.B.h.h.g.j.f.s.s.i.i.a.7.6.E F F m n x 0 7 7 2 3 3 < < < < < < < < < % % % % $ $ + + + + + + + + + + ",
"H H H H H H z z z b b b b b b M M B B B V Z Z S A A A 4.4.5.5.5.5.5.7.7.9.8.9.8.8.i.i.p.s.s.s.j.j.g.g.h.V.V.S.S.F.G.G.P.E.E.E.E.E.E.E.E.L.G.G.F.S.S.V.B.h.g.g.j.j.f.s.s.p.i.i.9.7.6.E D F m b x l 7 5 3 < < < < u u u u u o o o o o $ $ $ $ $ $ + + + + + + + + ",
"H H H H z z z z z z b b b b b c c M M M B B V Z S S A A A 4.2.5.5.5.5.5.7.7.9.9.9.9.8.i.i.i.p.s.s.s.j.j.g.g.h.V.S.S.D.F.G.G.G.G.G.G.G.G.F.S.S.V.V.h.g.j.j.j.s.s.s.p.i.i.q.9.9.7.6.6.D F F b x l 6 5 3 1 < < u o o o o o o o o o o O O X X $ $ + + + + + + + + + ",
"z z z z z z z z z z x x b v v v c c c M M M B B V Z S S A A A 4.4.4.2.2.5.5.5.5.5.7.9.9.9.9.8.i.i.i.p.p.s.s.j.j.g.h.V.V.C.C.C.C.C.C.C.C.V.B.h.g.j.f.s.s.i.i.i.8.8.9.9.9.7.5.5.6.D D F C b v k l 8 1 1 < % o o O O O O O O O O O X X X X X X X X + + + + + + + + ",
"z z z z z z z z z x x x k k v j j j h h h G M M B B B Z Z S S A A A A A A 4.2.2.2.2.3.5.5.5.7.7.9.9.9.9.8.i.i.i.p.p.p.f.f.f.f.f.g.f.f.f.f.p.p.i.i.8.8.9.9.9.7.7.5.5.5.2.2.2.D A S V C b v k l 8 8 - % % % o o O O X X X X X X X X X X X X X X X $ $ + + + + + + ",
"e e e e z z z z x x x x l l d d d g g g j h h G G M B B B B Z Z Z Z S S S S S S S A A A D 2.2.2.2.3.3.5.5.5.7.7.7.9.9.8.8.a.a.a.a.a.q.8.9.9.7.7.5.3.3.2.2.2.2.D A A A S S Z V C C c v v k k > : * * % % % O X X X X X X X X X X X X X X X X X X X X X X $ $ X $ ",
"e e e e e e e x x x x l l s s s f f f g g g g h h G G M M B B B B B B B B B B B B B V Z Z S S S S S S A D D 2.2.2.2.2.3.3.3.3.3.3.3.3.3.2.2.2.A A S S S Z Z Z V B B B B N M c c v v d s s > : * & & $ $ $ X X X X X X X X X . X . . X X X X X X X X X X X X O O ",
"e e e e e e w w 0 0 6 6 6 s s s f f f f f f f g g h h h G G G M M M M M M M M M M M M N N N N N N B B V V V V Z Z Z Z Z Z Z Z Z Z Z Z Z Z N N N N N N M M M c c c c h j j g d f d s s > = = * & & & + $ $ X X . . . . . . . .   . . . X X X X X X X O O O O O O ",
"e e e e e w w w 0 0 6 6 6 > > > = a a a a f f f g g g h h h h h h h h h h h h h h h h c c c c c c c c c M M M M M M M M M M M M c c c c h h h h h j j g g g g f f f f s s f a a = = = * * * & & & + + $ + . . . . . .             . . X X X X X O O O O o o o o ",
"r e e e e w w w 0 7 7 6 8 > > = = = = a a a f f f g g j j h h h h j j j g g g g g g g g g g g g j j v j j j g g g g g g g g d d d d d f f f f f f f s s s a a a = = = = = = * * * * * & & & & & + + + + + + . . . .               . . X X X X X O O o o o o o o ",
"r r e e w w w w 9 7 5 5 8 : : = = = = = = a f f f f g g j j j j v j v v d d d d d d d d d d d d d d d d d d d d d d s s s s s s s s a a a a = a a = = = = = = = = = * * * & & & @ & & & & & + + + + + + + + . . . .               . . X X X X X O O O O O O O o ",
"r r t q q q w q 9 7 5 5 8 : : = = = = = = s s s d d k v v v v v v v v v k k k k k k k k k k k k k k k k k k s s s s s s > > > > > > > = = = > > > > = = = = = = * * & & & & & & & $ $ $ + + + + + + + + + + + . . . .           . . . X X X X X O O O O O o o o ",
"t t t t t q q q 7 7 5 5 1 1 : : : = : > > > s l k k k v b b b b b b b b b v v v l l l l l l l l l k k k k k l l l l 6 6 6 6 8 8 > : : : 8 8 8 8 > > > > : : : : : * * * & & & $ $ $ $ $ $ $ $ $ $ + + $ + + + . . . . . . . . . . X X X X X X O O O O O o o o o ",
"t t t t t q q q 7 7 5 5 8 1 1 : : : 8 8 6 6 l l x x m m m m m m m m m m m m m n n n n n n n n n n n x x x x x x x l l l 6 6 6 6 6 6 6 6 6 6 7 7 6 6 6 6 6 6 8 8 8 1 : - - - - % & $ $ $ $ $ $ $ $ $ $ $ $ $ $ $ $ X X X X X X X X X X X X X O O O O O o o o o o ",
"t t t t t q q q 7 7 7 7 5 5 8 1 8 8 5 6 6 l x x n m m m P P P P P P P P P P P P P P P P m m m m m n n n m m n n n n n n x x x x x 0 x x w x x x x x x x 0 0 0 7 7 5 5 5 5 1 1 - - - - - % % % % % % $ $ $ $ $ $ $ $ X X X X X X X X X X O O O O O o o o o o o o ",
"HXHXHXHXHXHXHXq q 7 7 7 7 7 5 5 5 5 7 7 0 x n n n P P ) ) ) ) ) ) ) ) ) ) ) ) ) ) ) ) ) ) ) ) ) ) ) ) ) ) ) / / J J J n n n n n n n n n n n n n n n n n n n n e w w 0 9 7 7 5 3 3 1 1 1 1 - - - ; ; % % % % % % % % $ $ O O O O o o o o o o O O O HXHXHXHXHXHXHX",
"HXHXHXHXHXHXHXHXHX7 7 7 7 7 7 7 7 7 0 w w n n n / ) ) ) ) ] ] +.+.+.+.+.] ] ] ] ] ] ] ] ] ] ] ] ] ] ( ( ( ( ( ( ( ) ) ) / / / / / / / / / / / / / / / / ~ J J n n n e w w q 9 7 7 2 3 3 3 3 1 1 1 1 ; ; % % % % % % % % % % o o o o o o o o o HXHXHXHXHXHXHXHXHX",
"HXHXHXHXHXHXHXHXHXHX9 7 7 7 9 q q w w e n n J / / ( ( ] ] ] +.+.+.+.+.+.+.+.+.+.+.+.+.+.+.+.+.] ] ] ] ] ] ] ] ] ] ' ( ( ( ( ( ( ( ( ( ( ( ( ( ( ( ( ( ( ( / / / ~ J n r r w q q q 9 7 2 2 2 3 3 3 1 < < < < < ; ; ; % % % % % % % o % o o o HXHXHXHXHXHXHXHXHXHX",
"HXHXHXHXHXHXHXHXHXHXHXq q q q w w w e r n ~ ~ / ^ ( ' ] ] [ +.+.+.+.&.&.&.&.&.&.&.&.&.&.&.>.+.+.+.+.+.[ +.[ [ [ { ] ] ] ] { ' ' ' ' ' ' ' ' ' ' ' ' ' ' ( ( ^ ^ / / ~ J r r r w q q q 7 2 2 2 2 3 3 3 < < < < < < < < < < < < < % % % ; ; HXHXHXHXHXHXHXHXHXHXHX",
"HXHXHXHXHXHXHXHXHXHXHXHXq q q q w r r r n ~ / ^ ^ ' ' ] [ [ [ +.>.&.&.&.&.&.&.&.&.&.&.&.&.&.&.&.&.>.+.[ +.[ [ [ [ [ [ [ { ] { { { { { { ] ] ] ] { { { { ' ' ( ^ ^ / / ~ n r r r q q q q 7 2 2 2 2 2 3 < < < < < < < < < < < < < < < < < HXHXHXHXHXHXHXHXHXHXHXHX",
"HXHXHXHXHXHXHXHXHXHXHXHXHXq q q r r r r ~ ~ / ^ ^ ^ ' { { [ [ [ [ [ >.&.&.&.&.&.&.&.&.&.&.&.&.&.%.[ [ [ [ [ [ [ [ [ [ [ { { { { { { { { { { { { { { { ' ' ' ^ ^ ^ / / ~ r r r r q q q q 2 2 2 2 2 2 2 < < < < < < < < < < < < < < < < HXHXHXHXHXHXHXHXHXHXHXHXHX",
"HXHXHXHXHXHXHXHXHXHXHXHXHXHXq t r r r r ! ~ / / ^ ^ ^ ` ' ' { { { [ [ [ [ [ >.%.%.&.%.%.%.>.[ [ [ [ [ [ [ [ [ { { { { { { ' ' ' ' ' ' ' { { { { ' ' ' ' ` ^ ^ ^ ^ / ~ ! r r r q q q q y 2 2 2 2 2 2 3 < < < < < < < < < < < < < < < HXHXHXHXHXHXHXHXHXHXHXHXHXHX",
"HXHXHXHXHXHXHXHXHXHXHXHXHXHXHXHXr r r r ,.! ~ ~ ~ / ^ ^ ^ ^ ^ ` ' ' { { { [ [ [ [ [ [ [ [ [ [ [ { { { { { { { ' ' ' ' ' ' ' ' ' ' ` ` ` ` ' ' ` ` ` ^ ^ ^ ^ ^ / / ~ ! r r r q q q q y 2 2 2 2 2 2 2 3 < < < < < < < < < < < < < HXHXHXHXHXHXHXHXHXHXHXHXHXHXHXHX",
"HXHXHXHXHXHXHXHXHXHXHXHXHXHXHXHXHXHXr r r r r ,.! ! ~ ~ ~ ~ / ^ ^ ^ ^ ` ' ' { { { { { { { { ' ' ' ' ' ' ` ` ` ^ ^ ^ ^ ^ ^ ^ ^ ^ ^ ^ ^ ^ ^ ^ ^ ^ ^ ^ ^ ^ ^ / / ~ ~ r r r t q q q q y 2 2 2 2 2 2 3 3 < < < < < < < < < < < < HXHXHXHXHXHXHXHXHXHXHXHXHXHXHXHXHXHX",
"HXHXHXHXHXHXHXHXHXHXHXHXHXHXHXHXHXHXHXHXr r r r r r r r r r r ! ~ ~ / ^ ^ ^ ^ ` ' ' ' ' ' ' ` ^ ^ ^ ^ ^ ^ ^ ^ ^ ^ ^ ^ ^ ^ ^ ^ ^ ^ ^ / / ^ ^ / / / / / / ~ ~ ! r r r t q q q q 2 2 2 2 2 2 2 2 3 3 < < < < < < < < < < < HXHXHXHXHXHXHXHXHXHXHXHXHXHXHXHXHXHXHXHX",
"HXHXHXHXHXHXHXHXHXHXHXHXHXHXHXHXHXHXHXHXHXq q q q q q q q q q r r r ! ~ / / ^ ^ ^ ^ ^ ^ ^ ^ ^ ^ ^ ^ / / / / / / / / ~ ~ / ~ / / ~ ~ ~ ~ ~ ~ ~ ~ ~ ~ ~ ,.r r r r r q q q q y 2 2 2 2 2 2 2 3 < < < < < < < < < < < < < HXHXHXHXHXHXHXHXHXHXHXHXHXHXHXHXHXHXHXHXHX",
"HXHXHXHXHXHXHXHXHXHXHXHXHXHXHXHXHXHXHXHXHXHX2 2 2 2 2 2 2 2 q q q t r r ,.~ / / / / ^ ^ ^ ^ / / / ~ ~ ~ ~ ~ ~ ~ ~ ! ! ! ~ ~ ,.,.~ ! ,.r ~ ! r r r r r r r r r q q q q y 2 2 2 2 2 2 2 < < < < < < < < < < < < < < < HXHXHXHXHXHXHXHXHXHXHXHXHXHXHXHXHXHXHXHXHXHX",
"HXHXHXHXHXHXHXHXHXHXHXHXHXHXHXHXHXHXHXHXHXHXHX< < < < 3 2 2 2 2 q q q r r r ~ ~ ~ / / / / / ~ ~ ~ ~ ,.r r r r r r r r r r r r r r r r r r r r r r r r r t q q q q q 2 2 2 2 2 2 2 3 < < < < < < < < < < < < < < < HXHXHXHXHXHXHXHXHXHXHXHXHXHXHXHXHXHXHXHXHXHXHX",
"HXHXHXHXHXHXHXHXHXHXHXHXHXHXHXHXHXHXHXHXHXHXHX< < < < < < < 2 2 2 y q q r r r ~ ~ ~ ~ ~ ~ ~ ~ ~ r r r r r r r r r r r r r r r r r r r r r r r r r r r q q q q q q y 2 2 2 2 2 2 < < < < < < < < < < < < < < < < < HXHXHXHXHXHXHXHXHXHXHXHXHXHXHXHXHXHXHXHXHXHXHX",
"HXHXHXHXHXHXHXHXHXHXHXHXHXHXHXHXHXHXHXHXHXHXHXo u < < < < < < 2 2 2 q q q r r r r ~ ~ ~ ~ ~ r r r r r r r r r r r r r r r r r r r r r r r r r r t q q q q q q q q 2 2 2 2 2 2 < < < < < < < < < < < < < < < < < < HXHXHXHXHXHXHXHXHXHXHXHXHXHXHXHXHXHXHXHXHXHXHX",
"HXHXHXHXHXHXHXHXHXHXHXHXHXHXHXHXHXHXHXHXHXHXHXHXo o u < < < < < 2 2 2 q q r r r r r ,.! ~ n r r r r r r r r r r r r r r r r r r r r r r t q q q q q q q q q q q 2 2 2 2 2 2 3 < < < < < < < < < < < < < < < < < HXHXHXHXHXHXHXHXHXHXHXHXHXHXHXHXHXHXHXHXHXHXHXHX",
"HXHXHXHXHXHXHXHXHXHXHXHXHXHXHXHXHXHXHXHXHXHXHXHXo o o o < < < < 2 2 2 q q q r r r r r ,.,.r r r r r r r r r r r r r r r r r r r r r r r q q q q q q q q q q q q 2 2 2 2 2 2 < < < < < < < < < < < < < < < < < < HXHXHXHXHXHXHXHXHXHXHXHXHXHXHXHXHXHXHXHXHXHXHXHX"
};
