/* XPM */
static const char *bon1b0[] = {
/* columns rows colors chars-per-pixel */
"128 128 229 2 ",
"   c #0F190B",
".  c #111B0D",
"X  c #151C12",
"o  c #1B1D1B",
"O  c #181D17",
"+  c #15230E",
"@  c #152B0C",
"#  c #16320E",
"$  c #172211",
"%  c #1A2415",
"&  c #1D231B",
"*  c #1C2C16",
"=  c #1B3413",
"-  c #1C3B13",
";  c #1E3618",
":  c #222C1E",
">  c #21251E",
",  c #23341C",
"<  c #243B1C",
"1  c #273A1B",
"2  c #242424",
"3  c #252A23",
"4  c #2C2C2B",
"5  c #292B26",
"6  c #263322",
"7  c #2B3425",
"8  c #2B3C24",
"9  c #2D332B",
"0  c #2A3C25",
"q  c #31342E",
"w  c #343B2C",
"e  c #343C26",
"r  c #312E31",
"t  c #343434",
"y  c #353A33",
"u  c #3A3B34",
"i  c #39363A",
"p  c #3B3B3B",
"a  c #383736",
"s  c #302F2E",
"d  c #201F20",
"f  c #413F3A",
"g  c #1E4314",
"h  c #1F4813",
"j  c #224B16",
"k  c #24431C",
"l  c #254C1B",
"z  c #244819",
"x  c #26521B",
"c  c #29551D",
"v  c #2A5B1E",
"b  c #27581D",
"n  c #2A4B22",
"m  c #2B4425",
"M  c #3C442B",
"N  c #354728",
"B  c #2D5423",
"V  c #2D5C21",
"C  c #365728",
"Z  c #3A4737",
"A  c #3B5335",
"S  c #2E6322",
"D  c #2F6924",
"F  c #316425",
"G  c #326B25",
"H  c #356D29",
"J  c #37652A",
"K  c #367329",
"L  c #39752B",
"P  c #3A7B2D",
"I  c #367328",
"U  c #3C7B30",
"Y  c #3F6A31",
"T  c #2C611F",
"R  c #42492E",
"E  c #43433D",
"W  c #484A39",
"Q  c #495638",
"!  c #54573C",
"~  c #455431",
"^  c #476736",
"/  c #53663E",
"(  c #467736",
")  c #497236",
"_  c #3F3C40",
"`  c #413D42",
"'  c #403742",
"]  c #434343",
"[  c #464C44",
"{  c #494649",
"}  c #4B4B4C",
"|  c #494A45",
" . c #4D534C",
".. c #4A5846",
"X. c #565948",
"o. c #514F51",
"O. c #545354",
"+. c #555B53",
"@. c #5C5B5C",
"#. c #585858",
"$. c #4F4E4F",
"%. c #4D6747",
"&. c #596748",
"*. c #4D7747",
"=. c #577848",
"-. c #5C625B",
";. c #596856",
":. c #5A7756",
">. c #63674B",
",. c #606F59",
"<. c #615F61",
"1. c #636363",
"2. c #6C6B6C",
"3. c #666965",
"4. c #687866",
"5. c #747374",
"6. c #7C7B7C",
"7. c #777877",
"8. c #707070",
"9. c #5F5E5C",
"0. c #3D812F",
"q. c #3E8431",
"w. c #428B35",
"e. c #448736",
"r. c #469439",
"t. c #499C3D",
"y. c #469439",
"u. c #4BA13F",
"i. c #4D8745",
"p. c #558848",
"a. c #4D9842",
"s. c #539847",
"d. c #5B8656",
"f. c #5B9754",
"g. c #62965C",
"h. c #618A5C",
"j. c #4EA442",
"k. c #4FA943",
"l. c #52A445",
"z. c #51AB45",
"x. c #56AC4B",
"c. c #57A54C",
"v. c #52B246",
"b. c #55B449",
"n. c #56BA4B",
"m. c #59BC4E",
"M. c #59B44E",
"N. c #5CBA52",
"B. c #5AA551",
"V. c #63B05A",
"C. c #6A8866",
"Z. c #689664",
"A. c #798678",
"S. c #7A9778",
"D. c #718B6E",
"F. c #72B06E",
"G. c #59C24E",
"H. c #59C84E",
"J. c #5CC451",
"K. c #5DCB53",
"L. c #5ED254",
"P. c #5FD956",
"I. c #60CD56",
"U. c #64C75A",
"Y. c #60D357",
"T. c #63D45A",
"R. c #65DB5C",
"E. c #66D95C",
"W. c #66E35E",
"Q. c #67E65F",
"!. c #6CC763",
"~. c #73C86B",
"^. c #6BDB63",
"/. c #6CD663",
"(. c #73DA6B",
"). c #7BC974",
"_. c #7BDA74",
"`. c #6AE462",
"'. c #6CEA64",
"]. c #73E56C",
"[. c #73F76B",
"{. c #7BE574",
"}. c #78FD70",
"|. c #83BA7D",
" X c #80897F",
".X c #83CA7C",
"XX c #83D97C",
"oX c #82E57C",
"OX c #827E82",
"+X c #838383",
"@X c #8C8B8C",
"#X c #878788",
"$X c #949394",
"%X c #9C9B9D",
"&X c #999699",
"*X c #918E91",
"=X c #A09EA1",
"-X c #A4A3A5",
";X c #ABA9AB",
":X c #B8B7B8",
">X c #B1AFB1",
",X c #92B18F",
"<X c #8BCA85",
"1X c #93CD8C",
"2X c #8BD985",
"3X c #9BD796",
"4X c #95D290",
"5X c #A2D69D",
"6X c #A1CC9C",
"7X c #8BE585",
"8X c #99E494",
"9X c #92E58C",
"0X c #A1E39D",
"qX c #AAD9A5",
"wX c #B1DAAE",
"eX c #B9DBB6",
"rX c #A8CDA4",
"tX c #A9E3A5",
"yX c #B9E3B6",
"uX c #B1E4AE",
"iX c #C1DBBE",
"pX c #C1E1BF",
"aX c #C2C2C2",
"sX c #C3DBC1",
"dX c #C4E2C2",
"fX c #C0BFC0",
"gX c None",
"hX c black",
"jX c #7F7C80",
/* pixels */
"gXgXgXgXgXgXgXgXgXgXgXgXgXgXgXgXgXgXgXgXgXgXgXgXgXgXgXgXgXgXgXgXgXgXgXJ.J.J.J.J.I.I.Y.T.E.W.`.'.[.[.}.}.}.}.}.}.}.}.}.}.}.}.[.[.[.[.[.[.'.'.'.'.'.'.`.`.`.`.R.E.T.T.Y.I.I.I.I.J.J.J.J.J.J.gXgXgXgXgXgXgXgXgXgXgXgXgXgXgXgXgXgXgXgXgXgXgXgXgXgXgXgXgXgXgXgXgXgXgX",
"gXgXgXgXgXgXgXgXgXgXgXgXgXgXgXgXgXgXgXgXgXgXgXgXgXgXgXgXgXgXgXgXgXgXgXG.J.J.J.J.J.I.I.T.E.R.`.'.[.[.[.}.}.}.}.}.}.}.}.}.}.[.[.[.[.[.[.'.'.'.'.'.'.`.`.`.`.R.E.E.T.Y.Y.I.I.I.J.J.J.J.J.J.J.gXgXgXgXgXgXgXgXgXgXgXgXgXgXgXgXgXgXgXgXgXgXgXgXgXgXgXgXgXgXgXgXgXgXgX",
"gXgXgXgXgXgXgXgXgXgXgXgXgXgXgXgXgXgXgXgXgXgXgXgXgXgXgXgXgXgXgXgXgXgXgXm.m.m.J.J.J.J.I.Y.T.E.`.`.'.[.[.[.}.}.}.}.}.}.}.[.[.[.[.[.[.'.'.'.'.'.'.`.`.`.`.`.R.E.E.T.Y.Y.I.K.K.J.J.J.J.J.J.m.m.gXgXgXgXgXgXgXgXgXgXgXgXgXgXgXgXgXgXgXgXgXgXgXgXgXgXgXgXgXgXgXgXgXgXgX",
"gXgXgXgXgXgXgXgXgXgXgXgXgXgXgXgXgXgXgXgXgXgXgXgXgXgXgXgXgXgXgXgXgXgXgXn.n.n.m.m.J.J.J.I.Y.T.R.`.`.'.[.[.[.[.[.[.[.[.[.[.[.[.'.'.'.'.'.'.`.`.`.`.`.`.R.R.E.E.T.Y.I.I.K.J.J.J.J.m.m.m.m.n.n.gXgXgXgXgXgXgXgXgXgXgXgXgXgXgXgXgXgXgXgXgXgXgXgXgXgXgXgXgXgXgXgXgXgXgX",
"gXgXgXgXgXgXgXgXgXgXgXgXgXgXgXgXgXgXgXgXgXgXgXgXgXgXgXgXgXgXgXgXgXgXgXb.b.b.b.n.n.m.J.J.K.I.T.E.W.`.'.'.[.[.[.[.[.[.[.'.'.'.'.`.`.`.`.`.`.`.R.R.R.E.E.E.T.Y.Y.I.K.J.J.J.m.m.n.n.M.b.b.b.b.gXgXgXgXgXgXgXgXgXgXgXgXgXgXgXgXgXgXgXgXgXgXgXgXgXgXgXgXgXgXgXgXgXgXgX",
"gXgXgXgXgXgXgXgXgXgXgXgXgXgXgXgXgXgXgXgXgXgXgXgXgXgXgXgXgXgXgXgXgXgXgXz.z.z.z.x.b.b.n.m.J.J.I.Y.T.R.`.`.`.'.'.'.'.'.`.`.`.`.R.R.R.E.E.E.E.E.E.T.T.T.Y.Y.I.K.K.J.J.m.n.n.b.b.b.b.z.z.z.z.z.gXgXgXgXgXgXgXgXgXgXgXgXgXgXgXgXgXgXgXgXgXgXgXgXgXgXgXgXgXgXgXgXgXgXgX",
"gXgXgXgXgXgXgXgXgXgXgXgXgXgXgXgXgXgXgXgXgXgXgXgXgXgXgXgXgXgXgXgXgXgXgXj.j.j.j.j.j.z.z.b.b.n.m.J.K.I.T.T.E.E.R.R.R.E.E.E.T.T.Y.Y.Y.Y.Y.Y.I.I.I.K.K.K.K.K.J.J.G.m.n.b.b.z.z.z.l.j.j.j.j.j.j.gXgXgXgXgXgXgXgXgXgXgXgXgXgXgXgXgXgXgXgXgXgXgXgXgXgXgXgXgXgXgXgXgXgXgX",
"gXgXgXgXgXgXgXgXgXgXgXgXgXgXgXgXgXgXgXgXgXgXgXgXgXgXgXgXgXgXgXgXgXgXgXy.r.r.r.t.t.t.a.j.k.z.v.b.m.J.J.K.K.I.I.I.I.K.K.K.K.J.J.J.J.J.J.J.J.J.J.J.J.G.G.m.m.n.b.v.z.z.j.j.j.t.t.t.t.r.r.r.r.gXgXgXgXgXgXgXgXgXgXgXgXgXgXgXgXgXgXgXgXgXgXgXgXgXgXgXgXgXgXgXgXgXgXgX",
"gXgXgXgXgXgXgXgXgXgXgXgXgXgXgXgXgXgXgXgXgXgXgXgXgXgXgXgXgXgXgXgXgXgXgXe.e.w.w.w.w.w.y.r.t.t.j.k.z.v.b.n.n.m.m.m.m.m.m.n.n.n.b.b.b.b.b.b.b.b.n.n.n.b.b.b.v.z.z.j.j.t.t.r.r.y.w.w.w.w.w.e.e.gXgXgXgXgXgXgXgXgXgXgXgXgXgXgXgXgXgXgXgXgXgXgXgXgXgXgXgXgXgXgXgXgXgXgX",
"gXgXgXgXgXgXgXgXgXgXgXgXgXgXgXgXgXgXgXgXgXgXgXgXgXgXgXgXgXgXgXgXgXgXgXP P P P P U q.q.q.w.w.y.t.t.j.j.k.k.z.z.z.z.z.z.k.k.k.k.j.j.j.k.k.k.k.z.z.z.z.z.k.j.u.t.t.r.y.w.w.e.q.q.U P P P P P gXgXgXgXgXgXgXgXgXgXgXgXgXgXgXgXgXgXgXgXgXgXgXgXgXgXgXgXgXgXgXgXgXgXgX",
"gXgXgXgXgXgXgXgXgXgXgXgXgXgXgXgXgXgXgXgXgXgXgXgXgXgXgXgXgXgXgXgXgXgXgXH H H H I I K L P P q.q.w.w.y.y.r.t.t.t.t.t.t.t.t.t.t.r.r.r.t.t.t.t.t.t.t.t.t.t.t.t.r.y.w.w.q.q.P P L K I I H H H H gXgXgXgXgXgXgXgXgXgXgXgXgXgXgXgXgXgXgXgXgXgXgXgXgXgXgXgXgXgXgXgXgXgXgX",
"gXgXgXgXgXgXgXgXgXgXgXgXgXgXgXgXgXgXgXgXgXgXgXgXgXgXgXgXgXgXgXgXgXgXgXS S S S F F G G H H I L P U q.q.q.w.w.w.w.w.w.w.w.w.w.w.w.w.w.w.w.w.w.w.y.y.y.y.w.w.w.e.q.P P L I H G G F S S S S S gXgXgXgXgXgXgXgXgXgXgXgXgXgXgXgXgXgXgXgXgXgXgXgXgXgXgXgXgXgXgXgXgXgXgX",
"gXgXgXgXgXgXgXgXgXgXgXgXgXgXgXgXgXgXgXgXgXgXgXgXgXgXgXgXgXgXgXgXgXgXgXv v v v v V V S S F G G H I L L L U U U U U U U U U U U U U U U U U q.q.e.e.e.q.q.q.P P P L I H G F S S V V v v v v gXgXgXgXgXgXgXgXgXgXgXgXgXgXgXgXgXgXgXgXgXgXgXgXgXgXgXgXgXgXgXgXgXgXgX",
"gXgXgXgXgXgXgXgXgXgXgXgXgXgXgXgXgXgXgXgXgXgXgXgXgXgXgXgXgXgXgXgXgXgXgXgXx x c c c v v V V S F F F G H H H H H H H H H H H H H H H H L K K L L L L P P L L L L H H G F S V v v c c b x x gXgXgXgXgXgXgXgXgXgXgXgXgXgXgXgXgXgXgXgXgXgXgXgXgXgXgXgXgXgXgXgXgXgXgXgX",
"gXgXgXgXgXgXgXgXgXgXgXgXgXgXgXgXgXgXgXgXgXgXgXgXgXgXgXgXgXgXgXgXgXgXgXgXl l x x x x x c c V V V V V V F F F F F F F F F F F F F F F F F J J H H H H H H H G G F F S V v v c x x x x l l gXgXgXgXgXgXgXgXgXgXgXgXgXgXgXgXgXgXgXgXgXgXgXgXgXgXgXgXgXgXgXgXgXgXgXgX",
"gXgXgXgXgXgXgXgXgXgXgXgXgXgXgXgXgXgXgXgXgXgXgXgXgXgXgXgXgXgXgXgXgXgXgXgXgXgXj j j j l l x x x B B B B B B B B B B B B B B B B B B B B B V V V V V V V V V V V V V c c c x x x j j j gXgXgXgXgXgXgXgXgXgXgXgXgXgXgXgXgXgXgXgXgXgXgXgXgXgXgXgXgXgXgXgXgXgXgXgXgXgX",
"gXgXgXgXgXgXgXgXgXgXgXgXgXgXgXgXgXgXgXgXgXgXgXgXgXgXgXgXgXgXgXgXgXgXgXgXgXgXgXgXh h j z z l l n n n n n n n n n n n n n n n n n n n n n n n n n n n B B n n n l l l l l l j j j gXgXgXgXgXgXgXgXgXgXgXgXgXgXgXgXgXgXgXgXgXgXgXgXgXgXgXgXgXgXgXgXgXgXgXgXgXgXgXgX",
"gXgXgXgXgXgXgXgXgXgXgXgXgXgXgXgXgXgXgXgXgXgXgXgXgXgXgXgXgXgXgXgXgXgXgXgXgXgXgXgXgXgXg z k k k m m m m m m m m m m m m 0 0 0 0 < < < < < k k k k k k k k k k k k z k k z z z gXgXgXgXgXgXgXgXgXgXgXgXgXgXgXgXgXgXgXgXgXgXgXgXgXgXgXgXgXgXgXgXgXgXgXgXgXgXgXgXgXgX",
"gXgXgXgXgXgXgXgXgXgXgXgXgXgXgXgXgXgXgXgXgXgXgXgXgXgXgXgXgXgXgXgXgXgXgXgXgXgXgXgXgXgXgXgX< < 0 0 0 0 0 0 0 0 0 0 0 0 0 0 6 6 6 , , , , , , , , , , , , , , , , < < < < < gXgXgXgXgXgXgXgXgXgXgXgXgXgXgXgXgXgXgXgXgXgXgXgXgXgXgXgXgXgXgXgXgXgXgXgXgXgXgXgXgXgXgXgX",
"gXgXgXgXgXgXgXgXgXgXgXgXgXgXgXgXgXgXgXgXgXgXgXgXgXgXgXgXgXgXgXgXgXgXgXgXgXgXgXgXgXgXgXgXgX0 0 0 0 9 9 9 9 0 7 7 7 7 7 7 6 6 6 6 6 6 3 3 3 : : : : : : : : : : , * * ; gXgXgXgXgXgXgXgXgXgXgXgXgXgXgXgXgXgXgXgXgXgXgXgXgXgXgXgXgXgXgXgXgXgXgXgXgXgXgXgXgXgXgXgXgX",
"gXgXgXgXgXgXgXgXgXgXgXgXgXgXgXgXgXgXgXgXgXgXgXgXgXgXgXgXgXgXgXgXgXgXgXgXgXgXgXgXgXgXgXgXgXgXy y y y y y y t 9 9 9 9 9 9 9 9 5 5 5 5 5 3 3 3 3 3 3 3 3 : : : : : : : gXgXgXgXgXgXgXgXgXgXgXgXgXgXgXgXgXgXgXgXgXgXgXgXgXgXgXgXgXgXgXgXgXgXgXgXgXgXgXgXgXgXgXgXgXgX",
"gXgXgXgXgXgXgXgXgXgXgXgXgXgXgXgXgXgXgXgXgXgXgXgXgXgXgXgXgXgXgXgXgXgXgXgXgXgXgXgXgXgXgXgXgXgXE Z Z Z p p p p y y y y y t t t 9 9 9 4 5 5 5 4 5 3 3 3 3 3 2 2 3 3 3 5 gXgXgXgXgXgXgXgXgXgXgXgXgXgXgXgXgXgXgXgXgXgXgXgXgXgXgXgXgXgXgXgXgXgXgXgXgXgXgXgXgXgXgXgXgXgX",
"gXgXgXgXgXgXgXgXgXgXgXgXgXgXgXgXgXgXgXgXgXgXgXgXgXgXgXgXgXgXgXgXgXgXgXgXgXgXgXgXgXgXgXgXgXgXO.O.} } } } { { { ] ] ] ] ] p p p p p a y y t t t r 4 4 4 4 4 4 4 4 4 t gXgXgXgXgXgXgXgXgXgXgXgXgXgXgXgXgXgXgXgXgXgXgXgXgXgXgXgXgXgXgXgXgXgXgXgXgXgXgXgXgXgXgXgXgXgX",
"gXgXgXgXgXgXgXgXgXgXgXgXgXgXgXgXgXgXgXgXgXgXgXgXgXgXgXgXgXgXgXgXgXgXgXgXgXgXgXgXgXgXgXgXgX2.3.1.<.@.@.#.#.#.#.#.O.O.O.o.} } } } { { { ] ] ` p p p i y y y y a i p p ` gXgXgXgXgXgXgXgXgXgXgXgXgXgXgXgXgXgXgXgXgXgXgXgXgXgXgXgXgXgXgXgXgXgXgXgXgXgXgXgXgXgXgXgXgX",
"gXgXgXgXgXgXgXgXgXgXgXgXgXgXgXgXgXgXgXgXgXgXgXgXgXgXgXgXgXgXgXgXgXgXgXgXgXgXgXgXgXgXgXgX#XOX6.7.5.5.8.2.2.2.2.3.3.3.1.1.1.<.<.@.@.#.#.O.O.$.} { { ] ] ] ] ] ] ] { { } o.gXgXgXgXgXgXgXgXgXgXgXgXgXgXgXgXgXgXgXgXgXgXgXgXgXgXgXgXgXgXgXgXgXgXgXgXgXgXgXgXgXgXgXgX",
"gXgXgXgXgXgXgXgXgXgXgXgXgXgXgXgXgXgXgXgXgXgXgXgXgXgXgXgXgXgXgXgXgXgXgXgXgXgXgXgXgXgX=X%X$X$X*X@X#X#X+X+XOXOX6.6.6.6.6.7.7.5.5.8.2.2.2.3.1.<.@.#.#.O.o.o.o.o.o.o.O.O.#.@.<.<.gXgXgXgXgXgXgXgXgXgXgXgXgXgXgXgXgXgXgXgXgXgXgXgXgXgXgXgXgXgXgXgXgXgXgXgXgXgXgXgXgXgX",
"gXgXgXgXgXgXgXgXgXgXgXgXgXgXgXgXgXgXgXgXgXgXgXgXgXgXgXgXgXgXgXgXgXgXgXgXgXgXgX;X-X-X-X-X=X%X%X%X&X&X&X&X$X$X$X$X$X$X*X@X@X@X#X+X+XjX6.7.5.5.2.2.3.1.<.@.@.@.@.@.@.@.<.<.1.1.3.3.3.gXgXgXgXgXgXgXgXgXgXgXgXgXgXgXgXgXgXgXgXgXgXgXgXgXgXgXgXgXgXgXgXgXgXgXgXgXgXgX",
"gXgXgXgXgXgXgXgXgXgXgXgXgXgXgXgXgXgXgXgXgXgXgXgXgXgXgXgXgXgXgXgXgXgXgXgXgX-X-X-X-X-X-X-X-X-X-X-X-X;X;X;X;X-X-X-X-X-X-X-X%X%X&X&X$X$X@X@X#X+X6.7.5.8.2.2.3.3.3.3.3.3.3.3.3.3.3.3.3.3.3.gXgXgXgXgXgXgXgXgXgXgXgXgXgXgXgXgXgXgXgXgXgXgXgXgXgXgXgXgXgXgXgXgXgXgXgXgX",
"gXgXgXgXgXgXgXgXgXgXgXgXgXgXgXgXgXgXgXgXgXgXgXgXgXgXgXgXgXgXgXgXgXgXgXgX%X%X=X-X-X-X-X-X;X>X>X>X>X>X:X:X:X:X:X:X:X:X>X>X>X;X;X-X-X%X&X$X$X@X@X#XOX6.7.7.5.8.2.2.2.2.3.3.3.3.3.1.3.1.1.1.gXgXgXgXgXgXgXgXgXgXgXgXgXgXgXgXgXgXgXgXgXgXgXgXgXgXgXgXgXgXgXgXgXgXgXgX",
"gXgXgXgXgXgXgXgXgXgXgXgXgXgXgXgXgXgXgXgXgXgXgXgXgXgXgXgXgXgXgXgXgXgXgX$X&X&X&X%X%X-X-X-X;X>X>X:X:X:X:X:XaXaXaXaXaX:X:X:X:X:X>X>X>X;X-X=X&X$X$X@X#X+X6.6.6.7.5.2.2.2.2.3.3.3.1.1.1.1.@.@.@.gXgXgXgXgXgXgXgXgXgXgXgXgXgXgXgXgXgXgXgXgXgXgXgXgXgXgXgXgXgXgXgXgXgXgX",
"gXgXgXgXgXgXgXgXgXgXgXgXgXgXgXgXgXgXgXgXgXgXgXgXgXgXgXgXgXgXgXgXgXgX@X@X$X$X$X&X%X%X-X-X;X>X>X:X:X:XaXaXaXaXaXaXaXaXaX:X:X:X:X>X>X;X-X-X%X&X$X*X@X#X+X6.6.7.5.5.2.2.2.3.1.1.1.<.@.@.#.#.#.#.gXgXgXgXgXgXgXgXgXgXgXgXgXgXgXgXgXgXgXgXgXgXgXgXgXgXgXgXgXgXgXgXgXgX",
"gXgXgXgXgXgXgXgXgXgXgXgXgXgXgXgXgXgXgXgXgXgXgXgXgXgXgXgXgXgXgXgXgXgX6.#X@X@X$X$X$X&X%X-X-X;X>X>X:X:X:XaXaXaXaXaXaXaX:X:X:X:X>X>X>X;X-X-X%X&X$X@X@X#X+X6.6.7.5.8.2.2.3.1.1.<.@.@.#.#.#.#.O.} gXgXgXgXgXgXgXgXgXgXgXgXgXgXgXgXgXgXgXgXgXgXgXgXgXgXgXgXgXgXgXgXgXgX",
"gXgXgXgXgXgXgXgXgXgXgXgXgXgXgXgXgXgXgXgXgXgXgXgXgXgXgXgXgXgXgXgX1.2.5.6.OX#X@X@X$X$X&X%X=X-X;X>X>X:X:X:X:X:X:X:X:X:X:X>X>X>X;X;X-X-X%X&X$X$X@X@X#X+X6.6.7.5.8.2.3.3.1.<.@.@.#.#.O.O.$.} } { ] _ gXgXgXgXgXgXgXgXgXgXgXgXgXgXgXgXgXgXgXgXgXgXgXgXgXgXgXgXgXgXgXgX",
"gXgXgXgXgXgXgXgXgXgXgXgXgXgXgXgXgXgXgXgXgXgXgXgXgXgXgXgXgXgXgX} #.<.3.8.7.6.+X#X@X*X$X&X%X=X-X;X;X>X>X>X>X>X>X>X>X>X;X;X;X-X=X=X%X&X$X*X@X@X#X+XOX6.7.5.8.2.2.3.1.<.@.#.#.#.O.O.} } } { ] ] p p y gXgXgXgXgXgXgXgXgXgXgXgXgXgXgXgXgXgXgXgXgXgXgXgXgXgXgXgXgXgXgX",
"gXgXgXgXgXgXgXgXgXgXgXgXgXgXgXgXgXgXgXgXgXgXgXgXgXgXgXgX4 t p ] } #.@.3.2.5.6.OX+X#X@X*X$X&X%X=X=X-X;X;X;X;X;X;X;X-X-X=X%X&X$X$X*X@X@X#X+XOX6.6.7.5.8.8.2.3.1.1.@.@.#.O.O.$.} } { { ] ` p p y t t 4 4 2 gXgXgXgXgXgXgXgXgXgXgXgXgXgXgXgXgXgXgXgXgXgXgXgXgXgXgXgX",
"gXgXgXgXgXgXgXgXgXgXgXgXgXgXgXgXgXgXgXgXgXgXgXgXgXgX2 2 4 4 y p { } #.@.3.2.5.7.6.OX+X@X@X*X$X$X&X%X%X%X=X%X%X%X%X&X$X$X*X@X#X#X+X+XjX6.7.7.5.5.8.2.2.3.1.1.@.@.#.O.O.$.} } { { ] ` p p p y t t 4 4 4 2 2 2 gXgXgXgXgXgXgXgXgXgXgXgXgXgXgXgXgXgXgXgXgXgXgXgXgXgX",
"gXgXgXgXgXgXgXgXgXgXgXgXgXgXgXgXgXgXgXgXgXgXgXgXgX2 2 2 4 4 t p ] } O.#.@.3.2.5.7.6.6.+X+X#X@X@X*X$X$X$X$X$X$X*X@X@X@X#X+XOX6.6.7.7.7.5.8.2.2.2.3.3.1.1.<.@.#.#.O.o.} } { { ] ] p p p y y t t 4 4 4 4 2 2 2 2 gXgXgXgXgXgXgXgXgXgXgXgXgXgXgXgXgXgXgXgXgXgXgXgXgX",
"gXgXgXgXgXgXgXgXgXgXgXgXgXgXgXgXgXgXgXgXgXgXgXgX2 2 2 4 4 4 t p p { } O.#.1.3.2.5.7.6.6.6.+X+X#X#X@X@X@X@X@X#X#X+X+XA.6.6.7.5.5.8.2.2.2.3.3.1.1.1.1.@.@.#.#.#.O.} } } { { ] p p p p y y t t 4 4 4 4 4 4 2 2 2 2 gXgXgXgXgXgXgXgXgXgXgXgXgXgXgXgXgXgXgXgXgXgXgXgX",
"gXgXgXgXgXgXgXgXgXgXgXgXgXgXgXgXgXgXgXgXgXgXgXgX2 2 4 4 4 t t p p ] }  .#.-.1.3.2.8.5.7.7.A.A.A. X+X+X+X+X XA.A.A.6.7.5.8.8.2.2.3.3.3.3.1.1.-.-.-.#.#.#.#.+.+. . .} [ { ] E p p p u y t t t s 4 4 4 4 4 4 4 4 4 gXgXgXgXgXgXgXgXgXgXgXgXgXgXgXgXgXgXgXgXgXgXgXgX",
"gXgXgXgXgXgXgXgXgXgXgXgXgXgXgXgXgXgXgXgXgXgXgX4 4 4 4 4 r t y p Z ] |  .+.-.-.3.4.4.4.4.7.A.A.A.A.A.A.A.A.A.A.A.A.7.4.4.4.4.4.3.3.-.-.-.-.;.-.-.;.-.;.+.+.+.+. . ...[ | ] E Z p p u u y t t t q 4 4 4 4 4 4 4 4 4 gXgXgXgXgXgXgXgXgXgXgXgXgXgXgXgXgXgXgXgXgXgXgX",
"gXgXgXgXgXgXgXgXgXgXgXgXgXgXgXgXgXgXgXgXgXgXgX4 4 r r r t y p p Z [ [  .+.;.;.:.,.4.4.4.C.C.D.D.D.D.D.D.D.D.D.D.C.C.4.4.4.4.,.:.:.:.:.:.;.;.;.;.;.;.;.;.%.%...........[ | E E E E p p u a a t t t t t s 4 4 4 4 4 gXgXgXgXgXgXgXgXgXgXgXgXgXgXgXgXgXgXgXgXgXgXgX",
"gXgXgXgXgXgXgXgXgXgXgXgXgXgXgXgXgXgXgXgXgXgXgXr t t t t i p p Z ] [ ....%.%.;.:.:.:.h.h.C.C.C.C.C.C.C.C.C.C.C.C.C.C.h.h.h.:.:.:.:.:.:.:.:.:.=.:.=.=.;.;.%.%.%.%.........[ [ W W E E E p p p u a y y t t t t t t t gXgXgXgXgXgXgXgXgXgXgXgXgXgXgXgXgXgXgXgXgXgXgX",
"gXgXgXgXgXgXgXgXgXgXgXgXgXgXgXgXgXgXgXgXgXgXgXi i i i p p p ] ] [ ......%.%.=.=.:.d.d.d.d.d.h.h.h.h.Z.Z.Z.Z.Z.h.h.h.h.d.d.d.d.d.d.d.d.p.=.=.=.*.*.*.*.*.*.*.%.%.%.%.....X.| | | [ E E E E f p p p p p a y y y y y gXgXgXgXgXgXgXgXgXgXgXgXgXgXgXgXgXgXgXgXgXgXgX",
"gXgXgXgXgXgXgXgXgXgXgXgXgXgXgXgXgXgXgXgXgXgXgX_ ` ` ` ` ] ] { [ ......%.%.*.*.*.p.p.p.p.f.f.f.f.f.f.g.g.g.g.g.g.f.f.f.f.f.f.f.p.p.p.p.p.p.p.p.p.i.i.p.*.*.*.*.*.%.%.%.%.X.X.X.X. .| | [ | ] E E f p p p p p p p p gXgXgXgXgXgXgXgXgXgXgXgXgXgXgXgXgXgXgXgXgXgXgX",
"gXgXgXgXgXgXgXgXgXgXgXgXgXgXgXgXgXgXgXgXgXgXgX` ` { { { } } }  .....%.%.*.*.i.i.p.p.s.s.s.s.s.f.f.f.f.f.f.f.f.f.f.f.f.f.f.s.s.s.s.s.s.s.s.s.s.i.i.i.i.i.i.i.*.*.=.=.&.&.&.&.X.X.X.X.X. .| | | | ] ] ] ] ] _ _ p p gXgXgXgXgXgXgXgXgXgXgXgXgXgXgXgXgXgXgXgXgXgXgX",
"gXgXgXgXgXgXgXgXgXgXgXgXgXgXgXgXgXgXgXgXgXgXgX} } } } }  . . .+.%.%.%.*.*.i.i.i.s.s.s.s.s.s.c.c.c.c.c.c.B.B.B.B.c.c.c.c.c.c.c.c.c.s.s.s.s.a.s.a.a.a.a.a.i.p.i.i.=.=.=.=.&.&.&.&.X.X.X.X.X. .| | | | { { { ] ] ] ] gXgXgXgXgXgXgXgXgXgXgXgXgXgXgXgXgXgXgXgXgXgXgX",
"gXgXgXgXgXgXgXgXgXgXgXgXgXgXgXgXgXgXgXgXgXgXgXO.#.#.+.+.+.+.;.;.;.=.=.=.p.p.p.s.s.s.l.l.c.c.c.x.x.x.x.x.x.x.x.x.x.x.x.x.x.c.c.c.c.z.c.c.l.l.j.j.a.a.a.a.a.s.p.p.p.p.=.=.=.=.>.>.&.&.X.X.X.X.X. .} } } } } } { { { gXgXgXgXgXgXgXgXgXgXgXgXgXgXgXgXgXgXgXgXgXgXgX",
"gXgXgXgXgXgXgXgXgXgXgXgXgXgXgXgXgXgXgXgXgXgXgX-.-.-.;.;.;.;.;.;.:.:.d.d.d.f.f.f.B.B.B.B.B.x.x.M.M.M.M.M.b.b.b.b.b.b.b.b.b.b.b.b.b.b.z.z.z.z.z.k.k.k.j.a.a.a.a.s.p.p.p.=.=.=.=.>.>.>.;.&.X.X.X.X.o.o. .} } } } } } gXgXgXgXgXgXgXgXgXgXgXgXgXgXgXgXgXgXgXgXgXgXgX",
"gXgXgXgXgXgXgXgXgXgXgXgXgXgXgXgXgXgXgXgXgXgX3.-.-.;.:.:.:.:.:.:.d.d.h.h.g.g.g.V.V.V.V.V.V.N.N.N.N.N.n.n.n.n.n.n.n.n.n.n.n.n.n.n.b.b.b.v.v.v.z.z.k.k.j.j.l.a.a.s.s.p.p.p.p.=.=.=.=.>.>.;.;.;.+.+.+.+.+.O.O.O.o.o.$.$.gXgXgXgXgXgXgXgXgXgXgXgXgXgXgXgXgXgXgXgXgXgX",
"gXgXgXgXgXgXgXgXgXgXgXgXgXgXgXgXgXgXgXgXgX4.4.4.:.:.:.d.d.d.d.h.h.Z.Z.Z.Z.F.F.F.F.F.F.F.F.F.V.V.U.U.J.J.J.G.G.G.G.G.G.G.G.G.m.m.m.m.n.n.n.b.v.v.v.z.z.z.l.l.s.s.s.s.p.p.p.p.p.=.=.=.&.&.;.;.;.;.+.#.#.#.#.#.O.O.O.O.o.gXgXgXgXgXgXgXgXgXgXgXgXgXgXgXgXgXgXgXgXgX",
"gXgXgXgXgXgXgXgXgXgXgXgXgXgXgXgXgXgXgXA.D.C.C.C.C.h.d.f.f.f.g.Z.Z.Z.F.F.F.|.|.|.|.|..X.X).).~.~.!.U.U.I.K.K.K.K.K.K.K.K.K.J.H.H.H.G.G.m.n.n.n.n.v.v.v.z.z.l.l.l.s.s.s.p.p.p.p.p.=.=.=.:.:.;.;.;.-.-.#.#.#.#.#.#.O.O.O.o.$.gXgXgXgXgXgXgXgXgXgXgXgXgXgXgXgXgXgXgX",
"gXgXgXgXgXgXgXgXgXgXgXgXgXgXgXgXgX+XA.A.D.D.C.Z.Z.g.g.g.g.V.V.F.F.F.F.|.,X,X,X,X1X1X1X1X<X<X.X).~././.T.T.Y.Y.L.L.L.L.L.K.K.K.K.K.K.J.H.G.G.m.n.n.b.b.v.x.x.x.l.l.s.s.s.s.p.p.p.p.p.=.:.:.:.;.;.-.-.-.@.@.@.#.#.#.O.O.O.$.} } gXgXgXgXgXgXgXgXgXgXgXgXgXgXgXgXgX",
"gXgXgXgXgXgXgXgXgXgXgXgXgXgXgXOX+X+XA.A.A.D.Z.Z.Z.V.V.V.V.V.F.F.F.F.<X<X1X6X6XrXrXrXrX6X3X4X2XXXXX_.(.^.E.E.R.R.Y.Y.Y.Y.Y.Y.Y.L.K.K.K.K.J.H.G.G.m.n.n.b.b.x.x.x.l.l.s.s.s.s.s.p.p.p.d.:.:.:.:.,.,.,.1.1.<.<.@.#.#.#.O.O.} } } } } gXgXgXgXgXgXgXgXgXgXgXgXgXgXgX",
"gXgXgXgXgXgXgXgXgXgXgXgXgXOXOX+X+X+XA.S.S.S.Z.Z.F.V.V.V.V.!.~.).).<X1X4X6XrXrXwXeXeXwXwXqX5X3X2X2X_.{.].`.`.W.R.R.R.R.R.R.R.T.T.Y.Y.I.K.K.K.J.J.G.m.n.n.b.b.b.x.x.l.l.l.a.s.s.s.p.p.p.d.:.:.:.,.,.,.1.1.1.<.@.@.#.#.O.o.} } } } } { { gXgXgXgXgXgXgXgXgXgXgXgXgX",
"gXgXgXgXgXgXgXgXgXgXgXgXgXOX+X+X+X+XA.S.S.S.F.F.F.F.!.!.!.~.~.)..X2X4X5XqXwXeXeXiXiXeXeXwXqX8X8X7XoX{.].].`.`.W.W.W.W.W.R.R.E.E.T.T.Y.Y.I.K.K.J.J.J.m.m.n.b.b.b.x.x.x.l.l.a.a.s.s.p.p.d.d.:.:.,.,.3.3.1.1.1.@.@.#.O.O.$.} } } } { { { gXgXgXgXgXgXgXgXgXgXgXgXgX",
"gXgXgXgXgXgXgXgXgXgXgXgX+X+X+X+X+X+XS.S.S.S.F.F.F.~.~.~.(.(._.XX2X9X3XqXwXeXeXsXsXsXiXeXeXtX0X8X9X7X{.].].'.'.`.W.W.W.W.W.W.R.R.E.E.T.T.Y.I.I.K.J.J.J.m.m.n.b.b.v.x.z.z.j.j.a.a.s.s.p.d.d.:.:.,.,.3.3.1.1.1.@.#.#.O.o.} } } { { { ] ] ] gXgXgXgXgXgXgXgXgXgXgXgX",
"gXgXgXgXgXgXgXgXgXgXgXA.A.A.A.A.S. X X XS.F.F.F.F.).)._._._.XX2X9X3X5XqXwXeXeXiXsXiXeXeXwXtX0X8X7XoX{.].].'.'.'.Q.Q.Q.W.W.W.W.W.R.R.E.E.T.Y.Y.I.K.J.J.J.m.m.n.b.b.v.z.k.j.j.j.a.a.s.p.p.d.d.:.:.,.3.3.1.1.@.@.#.O.o.} } } { { ] ] Z p p p gXgXgXgXgXgXgXgXgXgXgX",
"gXgXgXgXgXgXgXgXgXgX4.D.D.A.S.S.S.S.S.|.|.|.F..X.X.XXXXX2X2X7X9X8X8XtXqXwXeXeXeXeXeXeXwXqX5X8X9X7XoX{.].].'.'.'.Q.Q.Q.Q.Q.`.`.W.W.W.R.E.E.T.Y.Y.I.K.J.J.G.m.n.n.b.v.z.k.k.j.j.a.a.a.p.p.d.:.:.:.-.,.1.-.@.@.#.O.o.} } { { ] ] p p p u y y w gXgXgXgXgXgXgXgXgXgX",
"gXgXgXgXgXgXgXgXgX4.4.C.D.D.S.S.S.S.F.F.|.<X<X<X<X2X2X2X9X8X8X8X0XtXtXqXqXwXwXwXwXwXqXqX3X3X9X2XXX{.].].'.`.`.`.Q.Q.Q.Q.Q.`.W.W.W.W.W.R.E.R.T.Y.I.K.K.J.J.m.m.n.b.v.v.k.k.j.j.a.a.a.i.p.p.:.:.:.:.-.-.#.#.#.O.o.} { { ] ] p p p p y y t 9 7 7 gXgXgXgXgXgXgXgXgX",
"gXgXgXgXgXgX .+.;.:.:.C.Z.Z.Z.F.F.F.F.F.<X<X<X1X4X3X3X3X5X0XtXtXtXqXqXqXqXqXqXqX5X5X3X4X4X2X2XXX_._.(.`.`.`.`.W.W.W.Q.Q.Q.Q.Q.Q.W.W.W.W.R.R.R.T.Y.K.K.J.J.G.m.n.n.v.v.k.k.j.j.a.a.a.i.i.p.*.:.;.;.;.#.#.#.O.$.} { ] ` ` p p y y t t 9 9 7 6 6 , * = gXgXgXgXgXgX",
"' ` ` ` ] [  ...;.:.:.d.h.Z.F.F.F.F.F.).<X<X1X4X3X5XqXqXuXuXuXuXqXqXqXqX5X3X3X4X4X1X<X<X.X.X_._.(.(.^.^.^.R.W.W.W.W.W.W.Q.Q.'.Q.W.W.W.W.W.R.R.T.Y.Y.K.K.J.J.m.m.n.v.v.k.k.j.j.a.a.a.i.i.*.*.=.%.;.+.+.+.O.} { { ] ` p p y y t t 9 9 9 6 6 , * * = = # # # # # # ",
"` ` ` ` ] [  ...%.:.:.d.f.g.V.F.F.~.).).<X2X4X3XqXqXwXeXeXyXeXeXwXwXqX5X3X4X1X<X.X.X).).~.~.~././././.E.E.E.R.R.W.W.W.W.'.'.'.'.'.`.`.W.W.R.R.R.T.Y.K.K.J.J.G.m.n.b.v.k.k.j.j.a.a.a.i.i.*.*.%.%.%.+. . .} { ] ` ` p i y t t 4 4 5 5 5 3 : * * = = = # # # # # # ",
"` ` ` ] ] [ ....%.*.=.d.f.B.V.V.!.~.)._.2X2X3X5XqXwXeXeXiXiXeXeXeXwXrX3X4X<X.X).).~.~.!.!.!.U.T.T.T.T.E.T.T.E.R.R.W.W.`.`.'.'.'.'.'.`.`.`.W.R.E.T.Y.I.K.K.J.J.m.n.n.v.v.k.j.j.a.a.a.i.i.*.*.%.%... . .} } ] ` ` p i t t r 4 4 4 3 3 3 : * * * = = = = # # # # # ",
"` ` ` ] ] [ ....%.*.*.p.f.B.N.N.!./.(._.2X2X8XtXuXeXeXsXsXsXiXeXeXqX6X4X1X.X).~.!.U.U.U.U.U.I.I.I.I.Y.Y.T.T.E.E.R.`.`.`.'.'.'.'.'.'.'.'.`.`.^.E.E.T.Y.K.K.K.J.G.m.n.v.v.k.k.j.a.a.a.i.i.*.*.%.%... . .} { ] ` p i t t r 4 4 4 3 3 3 : : * * * = = = = = # # # # ",
"` ` ` ] ] [ ....%.*.*.p.s.B.N.N.U./.(._.XX2X8X0XqXeXeXiXsXsXiXeXwXrX3X4X<X).~.!.U.U.K.J.J.J.K.K.K.K.L.Y.T.T.E.^.^.`.`.].].].].].].].].].].`.`.^.E.E.Y.I.K.K.J.J.m.n.b.v.z.k.j.a.a.a.i.i.*.*.%.%... . .[ { ] _ p i t r r 4 4 3 3 3 3 : : * * = = = = = = = = = # ",
"` ` ] ] | [ ....%.*.*.p.s.c.M.N.U././.(.XX2X9X3XqXqXeXeXeXeXeXeXqX6X4X<X.X).~.U.U.J.J.H.H.H.H.K.K.L.L.T.T.E.^.^.^.].].{.{.{.{.oXoX{.{.{.{.].].^.^.^.E.Y.K.K.K.J.G.m.n.b.v.z.l.j.a.a.i.i.*.*.%.%... . .} { ] ` p i t t r 4 4 4 3 3 3 : : : , , , , ; ; = = = - - ",
"f E E ] [ [ ....%.*.*.i.s.c.x.m.U.T./.(._.XX2X3X3XqXqXwXwXwXwXrX6X3X1X<X).~.!.U.U.J.H.H.H.H.H.K.L.L.T.T.E.^.^.(.].{.{.oXoX7X7X7X7X7X7XoXoX{.{.(.(.^.E.T.Y.K.K.J.H.G.n.n.b.v.z.l.a.s.s.p.i.*.*.%.%.+. .} } { ] _ p i t t 4 4 4 5 3 3 3 : : , , , , , , < < < < < ",
"E E E E W [ ....%.*.*.i.s.c.x.N.J.U.T./.(._.XX2X4X4X3X5XrXrX6X3X4X1X<X.X).~.!.U.K.J.K.H.H.H.L.L.L.L.R.E.^.^.(.].{.oX7X7X9X8X8X8X8X8X9X9X7X7XoX_.(.^.^.E.Y.L.K.K.H.G.G.n.n.b.x.z.l.s.s.p.p.=.=.;.;.+.+. .} } ] ` ` p i t t 4 4 5 5 5 5 6 6 , , , 1 1 1 1 1 1 1 1 ",
"E E W W W Q Q ..%.*.*.i.s.s.c.M.N.J.U.U./.~._..X.X<X1X4X4X4X4X1X<X.X.X).~.!.U.U.K.K.K.K.K.L.L.P.P.R.R.^.`.].].{.oX7X9X8X8X0XtXtXtXtX0X8X8X9X7XXX_.(.^.^.E.Y.L.K.K.H.H.G.n.n.b.x.c.c.s.s.p.d.:.;.;.;.+.+.o.} { { ` _ p i y t q 4 9 9 7 7 7 7 8 8 1 1 1 1 1 1 1 1 ",
"W W W W W ! Q / / *.*.i.s.s.l.x.M.N.J.U.U.!.~.~.).)..X.X.X.X.X.X).).~.~.!.!.U.U.K.K.K.L.L.L.P.P.R.R.W.`.'.].{.oX7X9X8X0XtXuXuXuXuXuXtXtX8X8X9X2X_.(.^.^.E.T.L.L.K.H.H.G.G.n.b.M.x.c.f.f.f.d.:.:.;.;.#.#.O.o.} { ] ` _ p i y t t q q 9 7 7 e e e e e e e N N m m ",
"W W W W W ! ! / / *.*.i.p.s.l.x.M.M.N.N.U.U.U.!.!.~.~.~.~.~.~.~.~.~.!.!.U.U.U.U.I.K.L.L.L.P.Y.R.W.W.`.'.].].{.oX7X8X0XtXuXuXyXyXyXyXuXuXtX8X9X2XXX_.(.^.E.T.Y.L.L.K.H.H.G.m.n.M.x.c.B.f.d.d.:.:.;.-.-.#.#.O.o.} { ] ` p p y y t q q q w w w w e N N N N N N N N ",
"! ! ! ! ! ! ! / / / *.i.p.s.s.l.c.b.M.n.N.N.N.N.N.U.U.U.!.!.!.!.U.U.U.U.U.U.U.I.I.K.L.L.T.R.R.R.W.W.`.'.].{.oX7X9X8XtXuXyXyXdXdXdXpXyXuXtX0X3X2XXX_.(.^.E.R.Y.L.L.K.H.H.H.G.n.M.M.B.B.f.f.d.d.:.:.-.-.#.#.O.o.$.{ { ` _ p p y y t w w w w w w M M M M N N N N N ",
"! ! ! ! ! ! / / / / =.i.p.p.s.l.l.x.b.b.n.n.n.m.N.N.N.N.U.U.U.U.U.U.U.K.K.K.K.K.K.K.L.L.Y.R.R.R.W.W.`.'.].{.oX7X9X8XtXuXyXpXdXdXdXdXyXyXqXqX3X2XXX_.(.^.E.R.Y.L.L.K.K.K.H.G.m.N.M.B.B.f.f.d.d.:.:.-.-.@.#.#.O.$.{ { ` _ p p y y t t w w w u w M M M M M M M M M ",
"! ! ! ! ! ! / / / / =.i.p.p.s.s.l.z.z.b.b.b.n.n.n.n.n.n.m.m.m.J.J.J.J.J.J.J.J.J.K.K.K.L.L.Y.R.R.R.W.`.'.].{.oX7X9X8XtXuXyXyXdXdXdXpXyXuXqX5X3X2XXX_.(.^.E.R.Y.L.L.K.K.H.H.G.m.M.M.B.B.f.f.d.d.:.:.-.-.#.#.#.o.} { ] ` p p a y t t w w w w w w M M M M M M M M M ",
"! ! X.X.! / / / &.=.=.i.p.p.s.a.l.z.z.z.v.v.v.v.b.n.n.n.n.n.n.m.m.m.m.G.G.G.J.J.J.J.K.K.K.L.L.R.R.R.W.`.].].{.oX7X8X0XtXuXyXyXyXyXyXuXuXtX8X8X7XoX{.(.^.E.R.T.L.L.K.K.H.G.m.n.M.x.B.B.f.f.d.d.:.:.;.-.#.#.O.o.} { ` p p y y t t q q q w w w w w M M M M M M M R ",
"X.X.X.X.&.&.&.&.&.=.=.i.p.p.s.a.l.l.z.z.z.v.v.v.v.v.b.b.b.n.n.n.n.n.n.n.n.m.m.m.G.J.J.J.K.K.L.L.Y.R.E.^.^.].{.oX7X9X8X0XtXuXuXuXuXuXuXtX8X8X9X7X{.].(.^.E.T.Y.L.K.K.H.H.G.m.n.M.x.c.f.f.d.d.:.:.:.-.#.#.O.o.} { ` _ i y t t 4 4 4 9 q q w w w w M M M M M M R R ",
"X.X.>.&.&.&.&.&.&.=.=.p.p.p.a.a.l.l.l.z.k.k.v.v.v.v.v.v.v.v.v.v.b.n.n.n.n.n.n.n.n.m.m.J.J.J.K.K.L.Y.T.E.^.^.(._.oX7X9X8X8X0XtXtXtXtX0X8X8X7X7XoX{.(.^.^.E.T.L.L.K.H.H.G.m.n.b.x.x.c.s.s.d.d.:.:.;.;.+.+.o.} { ` _ i t t 4 4 4 5 5 5 7 7 e e w w M M M M M M M R ",
">.>.>.>.>.>.&.&.=.=.=.p.p.p.a.a.a.l.j.k.k.k.k.v.v.v.v.v.v.v.v.v.v.v.v.v.v.v.v.v.b.b.n.n.m.G.G.J.K.K.I.T.E./.(.(._.oX7X7X9X9X8X8X8X8X8X9X7X7XoX{.(.(.^.E.T.Y.L.K.K.H.G.n.n.b.b.c.c.s.s.p.p.:.:.;.;.+.+. .} { ] _ i t r 4 4 2 2 2 2 3 3 5 7 e e e w M M M M M M M ",
">.>.>.>.>.>.>.&.=.=.=.p.p.p.s.a.a.j.j.j.k.k.k.z.z.v.v.v.v.v.v.v.v.v.v.z.z.z.z.z.z.v.v.b.b.n.m.m.G.J.K.I.T.T././.(._.{.oXoX7X7X7X7X7X7X7XoX{.{.].(.^.^.E.Y.K.K.K.H.G.n.n.b.v.z.c.l.s.s.p.p.*.=.%.%.+. .} { ] ` i i r 4 5 2 2 2 > > > : 3 5 7 e e e w M M M M M M ",
">.>.>.>.>.>.>.>.=.=.=.p.p.p.s.a.a.a.j.j.k.k.k.k.z.z.v.v.v.v.v.v.z.z.z.z.z.z.k.k.k.z.z.z.v.b.b.n.m.m.J.J.I.I.T././.(.(.{.{.{.{.oXoXoX{.{.{.].].^.^.^.E.Y.I.K.K.J.G.n.n.b.v.z.z.j.a.a.i.i.*.*.%.%... . .} { ` p i r 4 5 2 2 o o o o > > : : 7 7 e e e e M M M M M ",
">.>.>.>.>.>.>.=.=.=.=.p.p.p.s.a.a.a.j.j.j.k.k.k.z.z.z.z.z.z.z.z.z.z.z.z.k.j.j.j.j.j.k.z.z.z.v.b.b.n.m.J.J.U.I.T.T./.^.(.].].].].].].].].].`.^.^.E.E.Y.K.K.K.J.G.m.n.b.v.z.k.j.a.a.a.i.i.*.*.%.%.......[ ] p i t r 4 5 2 d o o o o > > > : 6 7 7 8 e e e M M M M ",
">.>.>.>.>.>.>.=.=.=.=.p.p.p.p.a.t.t.t.u.j.j.j.k.k.z.z.z.z.z.z.z.z.z.z.j.j.j.j.j.j.j.j.j.z.z.z.v.b.b.n.n.J.J.K.I.Y.T.E.^.`.`.'.'.'.'.'.'.`.^.R.E.T.Y.K.K.J.J.m.n.b.v.v.k.j.j.a.t.y.y.i.*.*.%.%.%.....[ | E p i t r 4 5 2 d o o o o > > > : : 7 7 8 8 e e e N N N ",
">.>.>.>.>.>.>.>.=.=.=.=.i.p.p.s.t.t.t.t.u.u.u.j.k.k.k.z.z.z.z.z.z.z.z.j.j.j.j.j.j.j.j.j.k.z.z.z.b.b.b.n.n.m.J.J.I.Y.T.E.R.W.`.`.`.`.`.W.R.E.T.Y.K.K.J.J.m.m.n.b.v.k.k.j.u.t.t.y.y.e.e.( ) %.%.%.....[ | E p p t r 4 5 2 2 d o o & > > > : : 6 7 8 8 8 8 e e e N ",
">.>.>.>.>.>.>.&.=.=.=.=.i.i.y.y.y.t.t.t.t.u.u.u.j.j.j.k.z.z.z.z.z.z.j.j.j.j.j.j.j.j.j.j.j.z.z.z.z.x.b.b.b.n.m.J.K.K.Y.T.R.R.W.W.W.W.W.R.R.T.L.K.K.J.m.n.b.b.v.k.k.j.u.t.t.r.y.w.e.e.( ( ) ^ ^ ......[ | E E p a t s 4 5 2 2 2 > > > > : : : , 1 1 8 1 1 8 8 1 8 ",
">.>.>.>.>.>.&.&.&.&.=.=.( e.e.y.y.y.r.t.t.t.t.u.u.j.j.j.k.z.z.z.k.j.j.j.j.j.j.j.j.j.j.j.j.l.z.z.z.z.z.b.b.b.n.m.J.K.K.Y.R.R.R.R.R.R.R.R.L.L.K.J.G.n.b.v.z.k.j.u.u.t.r.r.w.w.w.e.e.( ( ) ) ^ ^ Q ....[ [ E E f u a t s 4 4 2 2 2 2 3 : : : , , 1 1 1 1 1 1 1 1 1 ",
">.>.>.&.&.&.&.&.&.&./ ) ( e.e.e.y.y.y.r.t.t.t.t.u.u.j.j.j.j.j.j.j.j.j.j.j.j.j.j.j.j.j.j.j.l.z.z.z.z.z.z.v.b.b.n.G.J.K.L.L.T.R.R.R.R.T.L.K.K.H.m.n.v.z.k.j.u.t.r.r.w.w.w.q.q.q.U U U ( ) ^ ^ ^ Q Q ! W W W E E f u a t q 4 4 4 5 5 3 3 3 : , , , 1 1 1 1 1 1 1 1 ",
"X.X.X.X.&.&.&.&./ / / ) ( ( e.e.e.w.w.y.r.r.t.t.t.t.u.j.j.j.j.j.j.j.j.k.z.z.z.z.z.z.z.z.l.j.j.z.l.z.z.z.z.z.b.n.m.G.J.K.L.L.T.T.Y.L.L.K.K.G.m.b.v.k.j.u.t.r.r.w.w.q.q.q.q.P P P K Y Y ^ ^ ^ ^ Q Q ! ! W W W E E f u u t t q 4 4 5 5 5 6 6 , , , 1 1 1 1 < < < < ",
"X.X.X.X.X./ / / / / / ) ( ( ( e.e.e.w.w.y.y.r.r.t.t.t.u.j.j.j.j.j.j.k.z.z.z.z.z.z.z.z.z.z.l.j.j.j.j.j.j.z.z.v.b.n.m.J.J.K.K.L.L.L.K.K.K.G.m.b.z.k.u.t.t.y.y.w.w.q.q.P P P L L K H H Y Y ^ ^ Q Q Q Q ! W W W W E E f p u a t t q 9 9 7 7 6 , , , , , , , ; = = = ",
"! ! ! ! ! ! ! ! / / ^ ) ) ( ( ( e.e.w.w.w.w.y.r.r.t.t.t.t.u.j.j.j.j.j.z.z.z.z.z.z.z.z.z.z.z.j.j.j.j.j.j.j.k.z.v.b.n.m.J.K.K.K.K.K.K.J.G.n.b.z.k.u.t.r.y.w.e.q.q.P P L K I I H H H J J Y ^ ~ Q Q Q Q Q Q Q W W E E E f p u u y t q 9 7 7 6 , , , ; ; ; = = = = = ",
"! ! ! ! ! ! ! ! / ^ ^ ^ ) ) ) ( ( e.e.w.w.w.w.y.r.r.t.t.t.t.u.j.j.j.j.z.z.z.z.z.z.z.z.z.z.k.j.j.j.j.j.j.j.j.k.z.v.b.n.m.J.J.J.J.J.J.G.n.b.z.k.u.t.r.w.w.q.q.P P L K I H G G G J F J J C C ~ ~ Q Q Q Q Q W W W W E E E p p u y t t 9 9 7 6 , , ; ; ; = = = # # # ",
"! ! ! ! ! ! Q Q Q ^ ^ ^ ) ) ( ( P P q.q.w.w.w.w.y.r.r.t.t.t.t.u.j.j.j.j.z.z.z.z.z.z.z.z.z.k.j.j.j.j.j.j.j.j.j.z.z.v.b.n.m.G.J.J.G.m.n.b.z.k.u.t.r.w.w.q.P P P K I H G G G F F F F C C C A A ~ ~ ~ Q Q W W W W W E E f p p u y t t 9 7 7 6 , , * = = = # # # # # ",
"! ! ! ! Q Q Q Q Q Q ^ ^ ^ ) ) L P P P q.q.q.w.w.w.y.y.r.t.t.t.t.u.j.j.j.j.z.z.z.z.z.z.z.z.k.j.j.j.j.j.j.j.j.j.k.z.z.v.b.n.n.n.n.n.b.v.z.j.u.t.r.w.w.q.P P L I I G G G F S S F V V C C C C C ~ ~ ~ W W W W W W E E f p u u y t t q 9 9 6 6 , * = = = @ @ @ @ @ @ ",
"W W Q Q Q Q Q ~ ~ ~ ^ ^ ^ ^ Y L L P P P q.q.q.w.w.w.y.y.r.r.t.t.t.u.j.j.j.j.z.z.z.z.z.z.z.j.j.j.j.j.j.j.j.j.j.j.k.z.z.v.v.v.v.v.v.z.k.j.u.t.r.w.w.q.P P L I I H G G S S S S V V V V C C C C C M M R R R E E f p p u u a t t t 9 9 9 6 6 : * * * * @ @ @ @ @ @ @ ",
"W ~ ~ ~ ~ ~ ~ ~ ~ ~ ~ ^ ^ Y Y H L L L P P q.q.q.e.w.w.w.y.r.r.t.t.t.u.j.j.j.j.z.z.z.z.z.z.j.j.j.j.j.j.j.j.j.j.j.j.k.z.z.z.z.z.z.k.j.u.t.t.r.w.w.q.P P L I H H G G S S S S V V V V B B B C N N N M M M u u u u u a t t q q 9 4 4 5 5 3 : : * * * @ @ @ @ @ @ @ @ ",
"W W ~ ~ ~ R ~ ~ ~ ~ ~ C J J J H H L L L P P P q.q.e.w.w.w.y.y.r.t.t.t.t.j.j.j.j.j.k.z.z.j.j.j.j.j.j.j.j.j.j.j.j.j.j.j.j.j.j.j.u.u.t.t.r.y.w.w.q.P P L I H G G G F S S S v v v v B B B n N N N N N w w w w w q q q s s 4 4 5 4 5 3 3 3 : & * % * @ @ @ @ @ @ @ @ ",
"R R R R R R R ~ ~ ~ C C C J J J H H I I K P P P q.q.e.w.w.w.y.y.r.r.t.t.t.u.j.j.j.j.j.j.j.j.j.j.j.j.j.j.j.u.u.u.u.u.u.t.t.t.t.t.t.r.y.w.w.q.q.P P L I H G G F F S S T v v v v c c x n m m m m e e e q q q s s 4 4 4 4 5 5 2 2 2 3 > & & % % % $ @ @ @ + @ @ @ @ ",
"R R R R R R R ~ A C C C C C J J J G H H I K L P P P q.q.e.w.w.w.y.y.r.t.t.t.t.u.j.j.j.j.j.j.j.j.j.j.j.t.t.t.t.t.t.t.t.t.r.r.y.y.y.w.w.e.q.P P P K I H G G F S S S T v v v v c c x l l m m m 0 0 7 7 5 5 5 5 5 5 5 2 2 2 2 2 2 2 & & & % % % $ $ + + + + + + + + ",
"R R R R R R M M C C C C C C C J F F G G G I I K P P P q.q.e.e.w.w.w.y.r.r.t.t.t.t.t.t.t.a.j.t.t.t.t.t.t.t.t.t.t.r.r.y.y.y.w.w.w.e.q.q.P P P L I H G G F F S S V v v v v v c c x l l l k m 0 0 7 6 3 3 3 2 2 2 2 2 2 2 d d o o o o o % % % $ $ $ + + + + + + + + ",
"R R R R M M M M N N C C C C C V V F S F G G H I K L P P P q.q.e.w.w.w.w.y.y.r.r.r.t.t.t.t.t.t.t.t.t.t.t.r.r.r.y.y.w.w.w.e.q.q.q.P P P L K I H G G F S S V V v v v v c c x x x l z l k k < < , 6 3 3 3 3 3 2 2 2 d o o o o o o o o O O X X $ $ $ + + + + + + + + ",
"R M M M M M M M N N N N B B B B V V V S S S G G H I K L P P P q.q.q.q.e.w.w.w.w.w.w.y.y.y.y.y.y.y.y.y.y.w.w.w.w.e.q.q.q.P P P L K I H H G G F S S V V v v v c c x x x x l l l z z k k < < , , : : : > & & & o o o o o o o o O O O O X X X X X $ + + + + + + + + ",
"M M M M M M M M M N N N n n n x c c v v v T S S G G G I I K P P P P P P q.q.q.q.q.q.q.q.q.q.q.q.q.q.q.q.q.q.q.P P P P K K I H G G G F S S T v v v v c b x x x x l l j j j z z z z < < - ; * * * & & & & & o o o o o O O O O O O X X X X X X X X X $ + + + + + + ",
"u u u u M M M M N N N N m m l l l x x x b v v T T S G G G G I I I K K K K L L P P P P P P P P P P P P P P P K I I G G G G S S S T v v v v b x x x x x l l l j j j z z g z g - - - - ; ; = * * % % % % % % O O X O O O X X X X X X X X X X X X X X X X X $ $ X $ ",
"u u u u u u u M N N N m m k k z z z l l x x x v v T T S S G G G G G G G G G G G G G H H H H H H H H H H G G G D S S S S v v v x x x x x x j j j j j j j g g g g g g - - - - - - = = = = * * * * % % % % $ X X X X X X X . . . . . . X X X X X X X X X X O O O O ",
"u u u u u u w w w e e 8 0 k k k k z z j j j x x x b v v T T T S S S S S S S S S S S S S S S S S S S S S S S V V v v b x x x x l j j j j j g g g g g g g g g - - - - - - = # # # # * # * * @ @ $ $ $ $ $ $ X X X . . . . . . .   . . . X X X X X X X O O O O O O ",
"u u u u u y y y w 9 8 0 0 < < < - g g g g j j l x x x v v v v v v v v v V v b b b b b v V V V V V V v v b b b x x x l l j j g g g g g g g g g g - - - - - - - - = # # # # # # @ @ @ @ @ @ @ + + + $ $ + + . . . . . .             . . X X X X O O O O O o o o o ",
"p u u u y y y y w 9 9 0 0 < < ; - - - - g g j j l x x c c v v v v c c c x x x x x x x x x x x x x x x x l l l z z z k z g g g g - - - - - - - - - - - - - = = = = # # @ @ @ @ @ @ @ @ @ + + + + + + + + + + . . .                 . . X X X O O O O o o o o o o ",
"p p u u y y y t q 9 7 7 6 , , ; - - - - - g z z z l x x c c c c B B B B l l l l l l l l l l l l l l l l l l z k k k k k - - - - - - - - - - - - - - - - = = = = = = * * @ @ @ @ @ + + + + + + + + + + + + + + . .                 . . X X X O O O o o o o o o o ",
"i i i u y y t t q 9 7 7 6 , , ; ; ; - - - < k z l l n B B B B B B B B B n n n n n n n n n n n n n n n n n n k k k k k < < < < < < < ; ; ; ; ; ; ; ; ; ; ; ; ; = = = * * * * * * % % % % $ $ + + + + + + + + + . . . .             . . X X O O O o o o o o o o o ",
"i i i a a y y t 9 9 7 7 6 6 , , , , , < < < k m n n n B C C C C C C C C C B B B m m m m m m m m m m n n n n m m m m m m 0 0 0 0 < < < < < < < 0 0 0 < < < , , , , , * * * * * * % % % % % % % % % $ $ $ $ $ + . . . . . . . . . . . X X X O O O o o o o o o o o ",
"i i i a a y t t 9 9 9 7 6 6 6 , , , , 0 0 0 m m N N A A A A A A A A A A A A A A Z Z Z Z Z Z Z Z Z Z Z N N N N N N N N m m m m 8 8 8 8 8 8 8 8 m 8 8 8 8 0 0 0 0 7 6 6 , : : : > & & & & % % % % % % % % % $ $ $ $ X X X X X X X X X X X O O O o o o o o o o o o ",
"i i i a a y t t 9 9 9 9 7 7 6 6 6 6 7 0 0 m N N Z A A A Q Q Q Q Q Q Q Q Q Q Q Q Q W W W A A A A A A Z Z Z A A A Z Z Z Z Z Z Z Z Z N Z Z Z Z Z Z Z Z Z N N N w w 9 9 7 7 7 6 6 3 : : : : : > & & & & % % % % % % % % X X X X X X O O O O O O o o o o o o o o o o ",
"gXgXgXgXgXgXgXt t 9 9 9 9 9 7 7 7 7 9 9 w N Z Z Z W Q ....................................................[ [ [ [ W W W W Z Z Z Z Z Z Z Z Z Z Z Z Z Z Z Z Z Z Z y y w w 9 9 9 7 7 5 3 3 3 3 : : : > & & & & & % % % % % O O O O O O O O o o o o o gXgXgXgXgXgXgX",
"gXgXgXgXgXgXgXgXgX9 9 9 9 9 9 9 9 9 w y y Z Z Z W [ ......+.+.;.;.;.;.;.+.+.+.+.+.+.+.+.+.+.+.+.+.+.+.+..... . . . . .......| [ [ [ [ [ [ [ [ [ [ [ [ [ | [ W Z Z Z p u y t q 9 9 4 5 5 5 3 3 3 3 3 > > > & & & & & & & & o o o o o o o o o o gXgXgXgXgXgXgXgXgX",
"gXgXgXgXgXgXgXgXgXgXq 9 9 9 q t t y y u Z Z E | [  . .+.+.+.-.-.-.-.-.-.-.-.-.-.-.-.-.-.-.-.-.-.#.+.+.+.+.+.+.+.+.+.+. . . . . . . . . . . . . . . . . . .} [ [ [ E Z p p y y t t q 9 4 5 5 5 5 3 3 2 3 3 3 3 > > > & & & & & & & o & o o o gXgXgXgXgXgXgXgXgXgX",
"gXgXgXgXgXgXgXgXgXgXgXt t t t t t y u p Z ] | [ }  .+.#.#.#.-.-.-.-.1.1.1.1.1.1.1.1.1.1.1.-.-.-.-.-.-.#.#.#.#.#.#.#.#.#.#.+.+.+.+.+.+.#.+.+.+.+.+.+.+.+.o. .} } | { ] ] Z p u y y t t 9 4 4 5 5 5 3 3 2 2 3 3 3 2 2 2 2 2 2 2 2 & & & > > gXgXgXgXgXgXgXgXgXgXgX",
"gXgXgXgXgXgXgXgXgXgXgXgXt y y y y p p p Z ] [ } } O.+.#.#.#.@.-.<.1.1.1.1.1.1.1.3.3.3.1.1.1.1.1.1.-.-.@.@.@.@.#.#.#.#.#.#.#.#.#.#.#.#.#.#.#.#.#.#.#.#.#.O.O. .} } [ { ] Z p p p y y t t 4 4 4 5 4 4 3 2 2 2 2 2 3 3 2 2 2 2 2 2 2 2 2 2 gXgXgXgXgXgXgXgXgXgXgXgX",
"gXgXgXgXgXgXgXgXgXgXgXgXgXy y y p p p p ] ] { } } } O.#.#.#.#.@.@.@.1.1.1.1.1.1.1.1.1.1.1.1.1.1.@.@.@.@.@.@.@.#.#.#.#.#.#.#.#.#.#.#.#.#.#.#.#.#.#.#.#.#.O.O.} } } { ] ] p p p p y y t t 4 4 4 4 4 4 4 2 2 2 2 2 2 2 2 2 2 2 2 2 2 2 2 gXgXgXgXgXgXgXgXgXgXgXgXgX",
"gXgXgXgXgXgXgXgXgXgXgXgXgXgXy i p p p p ` ] { { } } } o.O.O.#.#.#.#.@.@.@.@.@.1.<.1.<.<.<.<.@.@.@.@.#.#.#.#.#.#.#.#.#.#.#.#.O.O.O.O.O.O.#.#.O.O.O.O.O.O.o.} } } { { ] ` p p p y y t t r 4 4 4 4 4 4 5 2 2 2 2 2 2 2 2 2 2 2 2 2 2 2 gXgXgXgXgXgXgXgXgXgXgXgXgXgX",
"gXgXgXgXgXgXgXgXgXgXgXgXgXgXgXgXp p p p _ ` ] ] ] { { } } } } o.O.O.#.#.#.#.#.#.@.@.@.@.@.@.#.#.#.#.#.#.#.#.#.#.O.O.O.O.O.O.O.O.O.O.o.o.o.o.o.o.o.o.} } } } { { ] ] ` p p i y y t t r 4 4 4 4 4 4 5 5 2 2 2 2 2 2 2 2 2 2 2 2 2 gXgXgXgXgXgXgXgXgXgXgXgXgXgXgXgX",
"gXgXgXgXgXgXgXgXgXgXgXgXgXgXgXgXgXgXp p p p p _ ` ` ] ] ] ] { { } } } o.O.O.#.#.#.#.#.#.#.#.#.O.O.O.O.O.O.O.O.o.} } } } } } } } } } } } } } } } } } } } { { ] ] ] p p p i y t t t r 4 4 4 4 4 4 5 5 2 2 2 2 2 2 2 2 2 2 2 2 gXgXgXgXgXgXgXgXgXgXgXgXgXgXgXgXgXgX",
"gXgXgXgXgXgXgXgXgXgXgXgXgXgXgXgXgXgXgXgXp p p p p p p p p p p ` ] ] { } } } } o.O.O.O.O.O.O.o.} } } } } } } } } } } } } } } } } { { { { { { { { { { { { ] ] ` p p p p y y t t 4 4 4 4 4 4 4 4 5 5 2 2 2 2 2 2 2 2 2 2 2 gXgXgXgXgXgXgXgXgXgXgXgXgXgXgXgXgXgXgXgX",
"gXgXgXgXgXgXgXgXgXgXgXgXgXgXgXgXgXgXgXgXgXt t t t t t t y y y p p p ` ] { { } } } } } } } } } } } } { { { { { { { { { ] { ] { { ] ] ] ] ] ] ] ] ] ] ] ] p p p p p y y t t r 4 4 4 4 4 4 4 5 2 2 2 2 2 2 2 2 2 2 2 2 2 gXgXgXgXgXgXgXgXgXgXgXgXgXgXgXgXgXgXgXgXgX",
"gXgXgXgXgXgXgXgXgXgXgXgXgXgXgXgXgXgXgXgXgXgX4 4 4 4 4 4 4 4 t t y a p p _ ] ] { { { } } } [ { { { ] ] ] ] ] ] ] ] ] ] ] ] ] _ _ ] ] p p ` _ p p p p p p p p p y y t t t 4 4 4 4 4 4 5 2 2 2 2 2 2 2 2 2 2 2 2 2 2 2 gXgXgXgXgXgXgXgXgXgXgXgXgXgXgXgXgXgXgXgXgXgX",
"gXgXgXgXgXgXgXgXgXgXgXgXgXgXgXgXgXgXgXgXgXgXgX2 2 2 2 5 4 4 4 4 t t y p p p ` ] ] { { { { { ] ] ] ] _ p p p p p p p p p p p p p p p p p p p p p p p p p i y y t t t r 4 4 4 4 4 4 5 2 2 2 2 2 2 2 2 2 2 2 2 2 2 2 gXgXgXgXgXgXgXgXgXgXgXgXgXgXgXgXgXgXgXgXgXgXgX",
"gXgXgXgXgXgXgXgXgXgXgXgXgXgXgXgXgXgXgXgXgXgXgX2 2 2 2 2 2 2 4 4 4 r t y p p p ` ] ] ] ] ] ] ] ] p p p p p p p p p p p p p p p p p p p p p p p p p p i y y y t t t 4 4 4 4 4 4 4 2 2 2 2 2 2 2 2 2 2 2 2 2 2 2 2 2 gXgXgXgXgXgXgXgXgXgXgXgXgXgXgXgXgXgXgXgXgXgXgX",
"gXgXgXgXgXgXgXgXgXgXgXgXgXgXgXgXgXgXgXgXgXgXgXo d 2 2 2 2 2 2 4 4 4 t t y p p p p ] ] ] ] ] p p p p p p p p p p p p p p p p p p p p p p p p p p y y y y t t t t r 4 4 4 4 4 4 2 2 2 2 2 2 2 2 2 2 2 2 2 2 2 2 2 2 gXgXgXgXgXgXgXgXgXgXgXgXgXgXgXgXgXgXgXgXgXgXgX",
"gXgXgXgXgXgXgXgXgXgXgXgXgXgXgXgXgXgXgXgXgXgXgXgXo o o 2 2 2 2 2 4 4 4 t y p p p p p Z Z ] ` p p p p p p p p p p p p p p p p p p p p p p a y y y y y y y t t t r 4 4 4 4 4 4 5 2 2 2 2 2 2 2 2 2 2 2 2 2 2 2 2 2 gXgXgXgXgXgXgXgXgXgXgXgXgXgXgXgXgXgXgXgXgXgXgXgX",
"gXgXgXgXgXgXgXgXgXgXgXgXgXgXgXgXgXgXgXgXgXgXgXgXo o o o 2 2 2 2 4 4 4 t y y p p p p p p ` p p p p p p p p p p p p p p p p p p p p p p p y y y y y y y y t t t r 4 4 4 4 4 4 2 2 2 2 2 2 2 2 2 2 2 2 2 2 2 2 2 2 gXgXgXgXgXgXgXgXgXgXgXgXgXgXgXgXgXgXgXgXgXgXgXgX"
};
