/* XPM */
static const char *bon1c0[] = {
/* columns rows colors chars-per-pixel */
"128 128 242 2 ",
"   c #0F190B",
".  c #111B0D",
"X  c #151C12",
"o  c #1B1C1B",
"O  c #181D17",
"+  c #15230E",
"@  c #152B0C",
"#  c #17320E",
"$  c #172211",
"%  c #1A2415",
"&  c #1D231B",
"*  c #1B2C16",
"=  c #1B3413",
"-  c #1C3B14",
";  c #1E3517",
":  c #222C1E",
">  c #21251E",
",  c #23341D",
"<  c #243B1C",
"1  c #273A1B",
"2  c #242424",
"3  c #252A23",
"4  c #2C2C2B",
"5  c #292B26",
"6  c #263322",
"7  c #2B3425",
"8  c #2B3C24",
"9  c #2D332B",
"0  c #293B25",
"q  c #31342E",
"w  c #343B2C",
"e  c #343C26",
"r  c #343433",
"t  c #353A33",
"y  c #3A3B35",
"u  c #3B3B3B",
"i  c #393637",
"p  c #312E2F",
"a  c #201F1F",
"s  c #443C3B",
"d  c #1E4314",
"f  c #24431C",
"g  c #244C1B",
"h  c #234A18",
"j  c #26521B",
"k  c #29551E",
"l  c #2A5A1E",
"z  c #27581D",
"x  c #2A4B22",
"c  c #2B4524",
"v  c #3C442B",
"b  c #354728",
"n  c #2D5C21",
"m  c #2D5423",
"M  c #365728",
"N  c #3A4636",
"B  c #3B5335",
"V  c #2D6322",
"C  c #2F6825",
"Z  c #316425",
"A  c #326C26",
"S  c #356D29",
"D  c #37652A",
"F  c #367329",
"G  c #39752C",
"H  c #3A7B2D",
"J  c #36752A",
"K  c #3C7C30",
"L  c #3F6A31",
"P  c #2C611F",
"I  c #42492E",
"U  c #43433D",
"Y  c #484A39",
"T  c #485638",
"R  c #54573C",
"E  c #484F35",
"W  c #476736",
"Q  c #467736",
"!  c #4E6A3A",
"~  c #3F3C40",
"^  c #413D41",
"/  c #403742",
"(  c #434343",
")  c #464C43",
"_  c #4B4B4C",
"`  c #494846",
"'  c #574943",
"]  c #4D534C",
"[  c #4A5746",
"{  c #575948",
"}  c #504F51",
"|  c #545354",
" . c #555B53",
".. c #5C5B5C",
"X. c #585858",
"o. c #4F4F50",
"O. c #665949",
"+. c #614F46",
"@. c #4D6647",
"#. c #586847",
"$. c #4E7647",
"%. c #587849",
"&. c #5C625B",
"*. c #586755",
"=. c #5A7756",
"-. c #64674B",
";. c #65754D",
":. c #656F5A",
">. c #615F61",
",. c #636363",
"<. c #6C6B6C",
"1. c #666965",
"2. c #687867",
"3. c #787778",
"4. c #707070",
"5. c #5F5E60",
"6. c #3D812F",
"7. c #3E8431",
"8. c #3E8B33",
"9. c #3E9136",
"0. c #428B35",
"q. c #448836",
"w. c #469439",
"e. c #499C3D",
"r. c #469539",
"t. c #4BA13F",
"y. c #4E8745",
"u. c #568849",
"i. c #4E9942",
"p. c #559849",
"a. c #5A8655",
"s. c #5C9954",
"d. c #638959",
"f. c #639658",
"g. c #63884F",
"h. c #4DA442",
"j. c #4EA943",
"k. c #47A640",
"l. c #51AC45",
"z. c #56AB4A",
"x. c #56A54A",
"c. c #52B246",
"v. c #55B449",
"b. c #56BB4B",
"n. c #59BC4E",
"m. c #59B44C",
"M. c #5DB852",
"N. c #58A94E",
"B. c #62A857",
"V. c #63BA55",
"C. c #61B94D",
"Z. c #6A8866",
"A. c #798677",
"S. c #7A9778",
"D. c #6A9467",
"F. c #73B06E",
"G. c #56C24D",
"H. c #59C24F",
"J. c #5CC451",
"K. c #5CCB54",
"L. c #58C752",
"P. c #5ED356",
"I. c #62CC55",
"U. c #65C858",
"Y. c #63D45A",
"T. c #65DB5C",
"R. c #69D65B",
"E. c #75D65D",
"W. c #74CC59",
"Q. c #6BC964",
"!. c #73C96C",
"~. c #6BD863",
"^. c #77D865",
"/. c #7BCA75",
"(. c #7BD575",
"). c #6AE361",
"_. c #6DEB65",
"`. c #77E665",
"'. c #73F76B",
"]. c #78FD70",
"[. c #6BE15F",
"{. c #83B97D",
"}. c #80897F",
"|. c #87DC64",
" X c #83CB7C",
".X c #8CDA72",
"XX c #87E768",
"oX c #97E76B",
"OX c #98ED70",
"+X c #A5E76D",
"@X c #A8E974",
"#X c #B7EB78",
"$X c #A9F273",
"%X c #B7F277",
"&X c #83D75F",
"*X c #C7F47C",
"=X c #C6EF7C",
"-X c #827E82",
";X c #838383",
":X c #8C8B8C",
">X c #878788",
",X c #949394",
"<X c #9C9B9D",
"1X c #999699",
"2X c #918E91",
"3X c #A09EA1",
"4X c #A4A3A5",
"5X c #ABA9AB",
"6X c #B8B7B8",
"7X c #B1AFB1",
"8X c #95AF92",
"9X c #8AC985",
"0X c #8BD685",
"qX c #9AD596",
"wX c #94CF8F",
"eX c #A2D39E",
"rX c #96E190",
"tX c #B3E98C",
"yX c #AAD8A6",
"uX c #B9D9B6",
"iX c #AFD6AB",
"pX c #AAE0A6",
"aX c #CAF385",
"sX c #D7F586",
"dX c #D8F597",
"fX c #C7EF8A",
"gX c #E3F88C",
"hX c #E9F996",
"jX c #F1FB9D",
"kX c #E8F9A7",
"lX c #F4FCB9",
"zX c #F0FBAE",
"xX c #CFE9B0",
"cX c #C2C2C2",
"vX c #C3DBC1",
"bX c #F8FDC8",
"nX c #FBFED7",
"mX c #FDFEE3",
"MX c #C0BFC0",
"NX c None",
"BX c black",
"VX c #7F7C80",
/* pixels */
"NXNXNXNXNXNXNXNXNXNXNXNXNXNXNXNXNXNXNXNXNXNXNXNXNXNXNXNXNXNXNXNXNXNXNXJ.J.J.J.J.I.I.Y.Y.T.).)._.'.'.].].].].].].].].].].].].'.'.'.'.'.'._._._._._._.).).).).T.T.Y.Y.Y.I.I.I.K.K.J.J.J.J.J.NXNXNXNXNXNXNXNXNXNXNXNXNXNXNXNXNXNXNXNXNXNXNXNXNXNXNXNXNXNXNXNXNXNXNX",
"NXNXNXNXNXNXNXNXNXNXNXNXNXNXNXNXNXNXNXNXNXNXNXNXNXNXNXNXNXNXNXNXNXNXNXH.J.J.J.J.J.I.I.Y.T.T.)._._.'.'.].].].].].].].].].].'.'.'.'.'.'._._._._._._.).).).).T.T.T.Y.Y.I.I.I.K.J.J.J.J.J.J.J.NXNXNXNXNXNXNXNXNXNXNXNXNXNXNXNXNXNXNXNXNXNXNXNXNXNXNXNXNXNXNXNXNXNXNX",
"NXNXNXNXNXNXNXNXNXNXNXNXNXNXNXNXNXNXNXNXNXNXNXNXNXNXNXNXNXNXNXNXNXNXNXn.n.n.J.J.J.J.I.I.Y.T.).)._.'.'.'.].].].].].].].'.'.'.'.'._._._._._._._.).).).).).T.T.T.Y.Y.I.I.K.K.J.J.J.J.J.J.n.n.NXNXNXNXNXNXNXNXNXNXNXNXNXNXNXNXNXNXNXNXNXNXNXNXNXNXNXNXNXNXNXNXNXNXNX",
"NXNXNXNXNXNXNXNXNXNXNXNXNXNXNXNXNXNXNXNXNXNXNXNXNXNXNXNXNXNXNXNXNXNXNXb.b.b.n.n.J.J.J.I.Y.Y.T.).)._.'.'.'.'.'.'.'.'.'.'.'.'._._._._._._.).).).).).).T.T.T.T.Y.Y.I.I.K.J.J.J.J.n.n.n.n.b.b.NXNXNXNXNXNXNXNXNXNXNXNXNXNXNXNXNXNXNXNXNXNXNXNXNXNXNXNXNXNXNXNXNXNXNX",
"NXNXNXNXNXNXNXNXNXNXNXNXNXNXNXNXNXNXNXNXNXNXNXNXNXNXNXNXNXNXNXNXNXNXNXv.v.v.v.b.b.n.J.J.I.I.Y.T.).)._._.'.'.'.'.'.'.'._._._._.).).).).).).[.T.T.T.T.T.T.Y.Y.I.K.K.J.J.J.n.n.b.b.m.v.v.v.v.NXNXNXNXNXNXNXNXNXNXNXNXNXNXNXNXNXNXNXNXNXNXNXNXNXNXNXNXNXNXNXNXNXNXNX",
"NXNXNXNXNXNXNXNXNXNXNXNXNXNXNXNXNXNXNXNXNXNXNXNXNXNXNXNXNXNXNXNXNXNXNXl.l.l.l.l.v.v.b.n.J.J.I.Y.Y.T.).).)._._._._.).).).).).T.T.T.T.T.T.T.T.Y.Y.Y.Y.Y.I.I.K.K.J.J.n.n.b.v.v.v.v.l.l.l.l.l.NXNXNXNXNXNXNXNXNXNXNXNXNXNXNXNXNXNXNXNXNXNXNXNXNXNXNXNXNXNXNXNXNXNXNX",
"NXNXNXNXNXNXNXNXNXNXNXNXNXNXNXNXNXNXNXNXNXNXNXNXNXNXNXNXNXNXNXNXNXNXNXh.h.h.h.h.h.l.l.v.v.b.n.J.K.I.Y.Y.T.T.T.T.T.T.T.T.Y.Y.Y.Y.Y.Y.Y.I.I.I.I.K.K.K.K.K.J.J.H.n.b.v.v.l.l.l.h.h.h.h.h.h.h.NXNXNXNXNXNXNXNXNXNXNXNXNXNXNXNXNXNXNXNXNXNXNXNXNXNXNXNXNXNXNXNXNXNXNX",
"NXNXNXNXNXNXNXNXNXNXNXNXNXNXNXNXNXNXNXNXNXNXNXNXNXNXNXNXNXNXNXNXNXNXNXw.r.r.r.e.e.e.i.h.j.l.c.v.n.J.J.K.K.K.I.I.I.K.K.K.K.J.J.J.J.J.J.J.J.J.J.J.J.H.H.n.n.b.v.c.l.l.h.h.h.e.e.e.e.r.r.r.r.NXNXNXNXNXNXNXNXNXNXNXNXNXNXNXNXNXNXNXNXNXNXNXNXNXNXNXNXNXNXNXNXNXNXNX",
"NXNXNXNXNXNXNXNXNXNXNXNXNXNXNXNXNXNXNXNXNXNXNXNXNXNXNXNXNXNXNXNXNXNXNXq.q.0.0.0.0.0.w.r.e.e.h.j.l.c.v.b.b.n.n.n.n.n.n.b.b.b.v.v.v.v.v.v.v.v.b.b.b.v.v.v.c.l.l.h.h.e.e.r.r.w.0.0.0.0.0.q.q.NXNXNXNXNXNXNXNXNXNXNXNXNXNXNXNXNXNXNXNXNXNXNXNXNXNXNXNXNXNXNXNXNXNXNX",
"NXNXNXNXNXNXNXNXNXNXNXNXNXNXNXNXNXNXNXNXNXNXNXNXNXNXNXNXNXNXNXNXNXNXNXH H H H H K 7.7.7.0.0.w.r.e.h.h.j.j.l.l.l.l.l.l.j.j.j.j.h.h.h.h.j.j.j.l.l.l.l.l.j.h.t.e.e.r.w.0.0.7.7.7.K H H H H H NXNXNXNXNXNXNXNXNXNXNXNXNXNXNXNXNXNXNXNXNXNXNXNXNXNXNXNXNXNXNXNXNXNXNX",
"NXNXNXNXNXNXNXNXNXNXNXNXNXNXNXNXNXNXNXNXNXNXNXNXNXNXNXNXNXNXNXNXNXNXNXS S S S F F J G H H 7.7.0.0.w.w.r.e.e.e.e.e.e.e.e.r.r.r.r.r.r.e.e.e.e.e.e.e.e.e.e.e.r.w.0.0.7.7.H H G J F F S S S A NXNXNXNXNXNXNXNXNXNXNXNXNXNXNXNXNXNXNXNXNXNXNXNXNXNXNXNXNXNXNXNXNXNXNX",
"NXNXNXNXNXNXNXNXNXNXNXNXNXNXNXNXNXNXNXNXNXNXNXNXNXNXNXNXNXNXNXNXNXNXNXV V V V Z Z A A A S F G H K 7.7.7.q.0.0.0.0.0.0.0.0.0.0.0.0.0.0.0.0.0.w.w.w.w.w.0.0.0.q.7.H H G F S A A Z Z V V V V NXNXNXNXNXNXNXNXNXNXNXNXNXNXNXNXNXNXNXNXNXNXNXNXNXNXNXNXNXNXNXNXNXNXNX",
"NXNXNXNXNXNXNXNXNXNXNXNXNXNXNXNXNXNXNXNXNXNXNXNXNXNXNXNXNXNXNXNXNXNXNXl l l l l n n V V Z A A S F G G G K K K K K K K K K K K K K K K K K 7.7.q.q.q.7.7.7.H H H G F S A Z V V n l l l l l NXNXNXNXNXNXNXNXNXNXNXNXNXNXNXNXNXNXNXNXNXNXNXNXNXNXNXNXNXNXNXNXNXNXNX",
"NXNXNXNXNXNXNXNXNXNXNXNXNXNXNXNXNXNXNXNXNXNXNXNXNXNXNXNXNXNXNXNXNXNXNXNXj j k k k l l n n V Z Z Z S S S S S S S S S S S S S S S S S G G G G G G G H H G G G G S S A Z V n l l k k k j j NXNXNXNXNXNXNXNXNXNXNXNXNXNXNXNXNXNXNXNXNXNXNXNXNXNXNXNXNXNXNXNXNXNXNXNX",
"NXNXNXNXNXNXNXNXNXNXNXNXNXNXNXNXNXNXNXNXNXNXNXNXNXNXNXNXNXNXNXNXNXNXNXNXg g j j j j j k k n n n n n n Z Z Z Z Z Z Z Z Z Z Z Z Z Z Z Z Z Z D S S S S S S S A Z Z Z V n l l k j j j j g g NXNXNXNXNXNXNXNXNXNXNXNXNXNXNXNXNXNXNXNXNXNXNXNXNXNXNXNXNXNXNXNXNXNXNXNX",
"NXNXNXNXNXNXNXNXNXNXNXNXNXNXNXNXNXNXNXNXNXNXNXNXNXNXNXNXNXNXNXNXNXNXNXNXNXNXh h h h g g j j j m m m m m m m m m m m m m m m m m m m m m n n n n M n n n n n n n n k k k j j j g h h NXNXNXNXNXNXNXNXNXNXNXNXNXNXNXNXNXNXNXNXNXNXNXNXNXNXNXNXNXNXNXNXNXNXNXNXNXNX",
"NXNXNXNXNXNXNXNXNXNXNXNXNXNXNXNXNXNXNXNXNXNXNXNXNXNXNXNXNXNXNXNXNXNXNXNXNXNXNXNXd d h h h g g x x x x x x x x x x x x x x x x x x x x x x x x x x x m m x x x g g g g g g h h h NXNXNXNXNXNXNXNXNXNXNXNXNXNXNXNXNXNXNXNXNXNXNXNXNXNXNXNXNXNXNXNXNXNXNXNXNXNXNXNX",
"NXNXNXNXNXNXNXNXNXNXNXNXNXNXNXNXNXNXNXNXNXNXNXNXNXNXNXNXNXNXNXNXNXNXNXNXNXNXNXNXNXNXd f f f f c c c c c c c c c c c c 0 0 0 0 < 0 < < < f f f f f f f f f f f f f f f h h h NXNXNXNXNXNXNXNXNXNXNXNXNXNXNXNXNXNXNXNXNXNXNXNXNXNXNXNXNXNXNXNXNXNXNXNXNXNXNXNXNXNX",
"NXNXNXNXNXNXNXNXNXNXNXNXNXNXNXNXNXNXNXNXNXNXNXNXNXNXNXNXNXNXNXNXNXNXNXNXNXNXNXNXNXNXNXNX< < 0 0 0 0 0 0 0 0 0 0 0 0 0 0 6 6 6 , , , , , , , , , , , , < , < < < < < < < NXNXNXNXNXNXNXNXNXNXNXNXNXNXNXNXNXNXNXNXNXNXNXNXNXNXNXNXNXNXNXNXNXNXNXNXNXNXNXNXNXNXNXNX",
"NXNXNXNXNXNXNXNXNXNXNXNXNXNXNXNXNXNXNXNXNXNXNXNXNXNXNXNXNXNXNXNXNXNXNXNXNXNXNXNXNXNXNXNXNX0 0 0 0 9 9 9 9 7 7 7 7 7 7 7 6 6 6 6 6 3 3 3 : : : : : : : : : : : , , ; ; NXNXNXNXNXNXNXNXNXNXNXNXNXNXNXNXNXNXNXNXNXNXNXNXNXNXNXNXNXNXNXNXNXNXNXNXNXNXNXNXNXNXNXNXNX",
"NXNXNXNXNXNXNXNXNXNXNXNXNXNXNXNXNXNXNXNXNXNXNXNXNXNXNXNXNXNXNXNXNXNXNXNXNXNXNXNXNXNXNXNXNXNXt t t t t t t r 9 9 9 9 9 9 9 9 7 5 5 5 5 3 3 3 3 3 3 3 3 : : : : : : : NXNXNXNXNXNXNXNXNXNXNXNXNXNXNXNXNXNXNXNXNXNXNXNXNXNXNXNXNXNXNXNXNXNXNXNXNXNXNXNXNXNXNXNXNXNX",
"NXNXNXNXNXNXNXNXNXNXNXNXNXNXNXNXNXNXNXNXNXNXNXNXNXNXNXNXNXNXNXNXNXNXNXNXNXNXNXNXNXNXNXNXNXNXU N N N u u u u t t t t t r r r 9 9 9 4 5 5 5 5 4 3 3 3 3 3 2 2 3 3 3 5 NXNXNXNXNXNXNXNXNXNXNXNXNXNXNXNXNXNXNXNXNXNXNXNXNXNXNXNXNXNXNXNXNXNXNXNXNXNXNXNXNXNXNXNXNXNX",
"NXNXNXNXNXNXNXNXNXNXNXNXNXNXNXNXNXNXNXNXNXNXNXNXNXNXNXNXNXNXNXNXNXNXNXNXNXNXNXNXNXNXNXNXNXNX| | _ _ _ _ ` ` ` ( ( ( ( ^ u u u u u u t t r r r p 4 4 4 4 4 4 4 4 4 r NXNXNXNXNXNXNXNXNXNXNXNXNXNXNXNXNXNXNXNXNXNXNXNXNXNXNXNXNXNXNXNXNXNXNXNXNXNXNXNXNXNXNXNXNXNX",
"NXNXNXNXNXNXNXNXNXNXNXNXNXNXNXNXNXNXNXNXNXNXNXNXNXNXNXNXNXNXNXNXNXNXNXNXNXNXNXNXNXNXNXNXNX<.1.,.>.....X.X.X.X.X.| | | } _ _ _ _ ` ` ` ( ( ~ u u u i i t t t i i u u ^ NXNXNXNXNXNXNXNXNXNXNXNXNXNXNXNXNXNXNXNXNXNXNXNXNXNXNXNXNXNXNXNXNXNXNXNXNXNXNXNXNXNXNXNXNX",
"NXNXNXNXNXNXNXNXNXNXNXNXNXNXNXNXNXNXNXNXNXNXNXNXNXNXNXNXNXNXNXNXNXNXNXNXNXNXNXNXNXNXNXNX>X-X3.3.4.4.4.<.<.<.<.1.1.1.,.,.,.>.5.....X.X.| | } _ _ ` ( ( ( ( ( ( ( ` ` _ } NXNXNXNXNXNXNXNXNXNXNXNXNXNXNXNXNXNXNXNXNXNXNXNXNXNXNXNXNXNXNXNXNXNXNXNXNXNXNXNXNXNXNXNX",
"NXNXNXNXNXNXNXNXNXNXNXNXNXNXNXNXNXNXNXNXNXNXNXNXNXNXNXNXNXNXNXNXNXNXNXNXNXNXNXNXNXNX3X<X,X,X2X:X>X>X;X;X-X-X3.3.3.3.3.3.3.3.4.4.<.<.<.,.,.>...X.X.| } } } } } } | | X...5.>.NXNXNXNXNXNXNXNXNXNXNXNXNXNXNXNXNXNXNXNXNXNXNXNXNXNXNXNXNXNXNXNXNXNXNXNXNXNXNXNXNXNX",
"NXNXNXNXNXNXNXNXNXNXNXNXNXNXNXNXNXNXNXNXNXNXNXNXNXNXNXNXNXNXNXNXNXNXNXNXNXNXNX5X4X4X4X4X3X<X<X<X<X1X1X1X,X,X,X,X,X,X2X:X:X:X>X;X;XVX3.3.4.4.<.<.,.,.>...............5.>.,.,.1.1.1.NXNXNXNXNXNXNXNXNXNXNXNXNXNXNXNXNXNXNXNXNXNXNXNXNXNXNXNXNXNXNXNXNXNXNXNXNXNXNX",
"NXNXNXNXNXNXNXNXNXNXNXNXNXNXNXNXNXNXNXNXNXNXNXNXNXNXNXNXNXNXNXNXNXNXNXNXNX4X4X4X4X4X4X4X4X4X4X4X5X5X5X5X5X5X4X4X4X4X4X4X<X<X<X1X,X,X:X:X>X;X3.3.4.4.<.<.<.1.,.,.,.,.,.,.,.,.,.,.,.,.,.NXNXNXNXNXNXNXNXNXNXNXNXNXNXNXNXNXNXNXNXNXNXNXNXNXNXNXNXNXNXNXNXNXNXNXNXNX",
"NXNXNXNXNXNXNXNXNXNXNXNXNXNXNXNXNXNXNXNXNXNXNXNXNXNXNXNXNXNXNXNXNXNXNXNX<X<X3X4X4X4X4X4X5X5X7X7X7X7X6X6X6X6X6X6X6X6X7X7X7X5X5X4X4X<X<X,X,X:X:X>X-X3.3.3.4.4.<.<.<.<.1.1.,.,.,.,.,.,.,.,.NXNXNXNXNXNXNXNXNXNXNXNXNXNXNXNXNXNXNXNXNXNXNXNXNXNXNXNXNXNXNXNXNXNXNXNX",
"NXNXNXNXNXNXNXNXNXNXNXNXNXNXNXNXNXNXNXNXNXNXNXNXNXNXNXNXNXNXNXNXNXNXNX,X<X<X<X<X<X4X4X4X5X7X7X6X6X6X6XMXcXcXcXcXcX6X6X6X6X6X7X7X7X5X4X3X<X,X,X:X:X;XVX3.3.3.4.4.<.<.<.<.,.,.,.,.,.,.......NXNXNXNXNXNXNXNXNXNXNXNXNXNXNXNXNXNXNXNXNXNXNXNXNXNXNXNXNXNXNXNXNXNXNX",
"NXNXNXNXNXNXNXNXNXNXNXNXNXNXNXNXNXNXNXNXNXNXNXNXNXNXNXNXNXNXNXNXNXNX:X:X,X,X,X<X<X<X4X4X5X7X7X6X6X6XcXcXcXcXcXcXcXcXcX6X6X6X6X7X7X5X4X4X<X<X,X,X:X>X;X3.3.3.4.4.<.<.<.,.,.,.,.,.....X.X.X.X.NXNXNXNXNXNXNXNXNXNXNXNXNXNXNXNXNXNXNXNXNXNXNXNXNXNXNXNXNXNXNXNXNXNX",
"NXNXNXNXNXNXNXNXNXNXNXNXNXNXNXNXNXNXNXNXNXNXNXNXNXNXNXNXNXNXNXNXNXNX3.>X:X:X,X,X,X<X<X4X4X5X7X7X6X6X6XcXcXcXcXcXcXcX6X6X6X6X7X7X7X5X4X4X<X1X,X:X:X>X;X3.3.3.4.4.<.<.,.,.,.>.....X.X.X.X.| _ NXNXNXNXNXNXNXNXNXNXNXNXNXNXNXNXNXNXNXNXNXNXNXNXNXNXNXNXNXNXNXNXNXNX",
"NXNXNXNXNXNXNXNXNXNXNXNXNXNXNXNXNXNXNXNXNXNXNXNXNXNXNXNXNXNXNXNX,.<.4.3.-X>X:X:X,X,X<X<X3X4X5X7X7X6X6X6X6X6X6X6X6X6X6X7X7X7X5X5X4X4X<X<X,X,X:X:X>X;X3.3.3.4.4.<.1.,.,.>...X.X.X.| | o._ _ ` ( ~ NXNXNXNXNXNXNXNXNXNXNXNXNXNXNXNXNXNXNXNXNXNXNXNXNXNXNXNXNXNXNXNX",
"NXNXNXNXNXNXNXNXNXNXNXNXNXNXNXNXNXNXNXNXNXNXNXNXNXNXNXNXNXNXNX_ X.>.1.4.3.3.;X>X:X2X,X1X<X3X4X5X5X5X7X7X7X7X7X7X7X7X5X5X5X4X3X3X<X1X,X,X:X:X>X;X-X3.3.4.4.<.<.1.,.>...X.X.X.| | _ _ _ ` ( ( u u t NXNXNXNXNXNXNXNXNXNXNXNXNXNXNXNXNXNXNXNXNXNXNXNXNXNXNXNXNXNXNX",
"NXNXNXNXNXNXNXNXNXNXNXNXNXNXNXNXNXNXNXNXNXNXNXNXNXNXNXNX4 r u ( _ X...,.<.4.3.-X;X>X:X2X,X1X<X3X3X4X5X5X5X5X5X5X5X4X4X3X<X1X,X,X2X:X:X>X;X-X3.3.3.4.4.4.<.1.,.,.....X.| | o._ _ ` ` ( ( u u i r r 4 4 2 NXNXNXNXNXNXNXNXNXNXNXNXNXNXNXNXNXNXNXNXNXNXNXNXNXNXNXNX",
"NXNXNXNXNXNXNXNXNXNXNXNXNXNXNXNXNXNXNXNXNXNXNXNXNXNX2 2 4 4 t u ` _ X...,.<.4.3.3.;X>X>X:X2X,X,X1X<X<X<X3X<X<X<X<X1X,X,X2X:X>X>X;X-X-X3.3.3.4.4.4.<.<.1.,.,.....X.| | o._ _ ` ` ( ^ u u u t r r 4 4 4 2 2 2 NXNXNXNXNXNXNXNXNXNXNXNXNXNXNXNXNXNXNXNXNXNXNXNXNXNX",
"NXNXNXNXNXNXNXNXNXNXNXNXNXNXNXNXNXNXNXNXNXNXNXNXNX2 2 2 4 4 r u ( _ | X.5.,.<.4.3.3.3.;X;X>X:X:X2X,X,X,X,X,X,X2X:X:X:X>X;X-X3.3.3.3.4.4.4.4.<.<.1.1.,.,.5...X.X.| } _ _ ` ` ( ^ u u u t t r r 4 4 4 4 2 2 2 2 NXNXNXNXNXNXNXNXNXNXNXNXNXNXNXNXNXNXNXNXNXNXNXNXNX",
"NXNXNXNXNXNXNXNXNXNXNXNXNXNXNXNXNXNXNXNXNXNXNXNX2 2 2 4 4 4 r u u ` _ | X.,.1.<.4.3.3.3.3.;X;X>X>X:X:X:X:X:X>X>X;X;XA.3.3.3.4.4.<.<.<.<.1.,.,.,.,.,.....X.X.X.| o._ _ ) ` ( u u u u t t r r 4 4 4 4 4 4 2 2 2 2 NXNXNXNXNXNXNXNXNXNXNXNXNXNXNXNXNXNXNXNXNXNXNXNX",
"NXNXNXNXNXNXNXNXNXNXNXNXNXNXNXNXNXNXNXNXNXNXNXNX2 2 4 4 4 p r u u ( _ | X.&.,.1.<.4.3.3.3.A.A.A.}.;X;X;X;X}.A.A.A.3.3.3.4.4.<.<.1.1.1.1.,.,.&.&.&.&.X.X.X. .| ] ] _ ) ` ( U u u u y t r r r p 4 4 4 4 4 4 4 4 4 NXNXNXNXNXNXNXNXNXNXNXNXNXNXNXNXNXNXNXNXNXNXNXNX",
"NXNXNXNXNXNXNXNXNXNXNXNXNXNXNXNXNXNXNXNXNXNXNX4 4 4 4 4 p r t u N ( ) ]  .&.&.1.2.2.2.2.3.A.A.A.A.A.A.A.A.A.A.A.A.3.2.2.2.2.2.1.1.=.&.&.&.*.&.&.&.&.*. . . . .] ] ) ) ) ( U N u u y y t r r r q 4 4 4 4 4 4 4 4 4 NXNXNXNXNXNXNXNXNXNXNXNXNXNXNXNXNXNXNXNXNXNXNX",
"NXNXNXNXNXNXNXNXNXNXNXNXNXNXNXNXNXNXNXNXNXNXNX4 p p p p r t u u N ) ) ]  .*.*.=.:.2.2.2.Z.Z.Z.Z.Z.Z.A.A.A.A.Z.Z.Z.Z.2.2.2.2.:.=.=.=.=.*.*.*.*.*.*.*.*.*.@.@.[ [ ] [ [ ) ) U U U s u y y i i r r r r r 4 4 4 4 4 4 NXNXNXNXNXNXNXNXNXNXNXNXNXNXNXNXNXNXNXNXNXNXNX",
"NXNXNXNXNXNXNXNXNXNXNXNXNXNXNXNXNXNXNXNXNXNXNXp r r r i i u u N ( ) [ [ @.@.*.=.=.=.d.d.Z.Z.Z.Z.Z.Z.Z.Z.Z.Z.Z.Z.Z.Z.Z.d.d.=.=.=.=.=.=.=.=.=.%.$.$.$.#.#.@.@.@.@.[ [ [ [ ) ) Y U U U U s u u y i t t t r r r r r r NXNXNXNXNXNXNXNXNXNXNXNXNXNXNXNXNXNXNXNXNXNXNX",
"NXNXNXNXNXNXNXNXNXNXNXNXNXNXNXNXNXNXNXNXNXNXNXi i i i u u u ( ( ) [ [ [ @.@.$.%.=.a.a.a.a.d.d.f.d.d.D.D.D.D.D.d.d.d.d.a.a.a.a.a.a.a.a.%.%.%.%.%.%.$.$.$.$.$.@.@.@.@.[ [ [ [ [ ) ) Y U U U s u u u u u i t t t t t NXNXNXNXNXNXNXNXNXNXNXNXNXNXNXNXNXNXNXNXNXNXNX",
"NXNXNXNXNXNXNXNXNXNXNXNXNXNXNXNXNXNXNXNXNXNXNX/ ^ ^ ^ ^ ( ( ` ) [ [ [ @.@.$.$.$.u.u.u.u.s.s.s.s.s.s.f.f.f.f.f.f.s.s.s.s.s.s.u.u.u.u.u.u.u.y.y.y.y.y.y.$.%.$.$.$.$.@.@.@.{ { { { ] ) ) ) ` ( U U s u u u u u u u u NXNXNXNXNXNXNXNXNXNXNXNXNXNXNXNXNXNXNXNXNXNXNX",
"NXNXNXNXNXNXNXNXNXNXNXNXNXNXNXNXNXNXNXNXNXNXNX^ ( ( ` ` _ _ _ ] [ [ @.@.$.$.y.y.u.u.p.p.p.p.p.s.s.s.s.s.s.s.s.s.s.s.s.s.s.p.p.p.p.p.p.p.p.p.p.y.y.y.y.y.y.y.%.$.%.%.#.#.#.#.{ { { { { ' ` ` ) ( ( ( ( ( ( ~ ~ u u NXNXNXNXNXNXNXNXNXNXNXNXNXNXNXNXNXNXNXNXNXNXNX",
"NXNXNXNXNXNXNXNXNXNXNXNXNXNXNXNXNXNXNXNXNXNXNX_ _ _ _ _ ] ] ]  .@.@.@.$.$.y.y.y.p.p.p.p.p.x.x.x.x.N.N.N.N.N.N.N.N.N.N.N.x.x.x.x.x.p.p.p.p.p.i.i.i.i.p.p.y.u.y.y.%.%.%.%.#.#.#.#.{ { { { { ] ` ` ` ` ` ` ` ( ( ( ( NXNXNXNXNXNXNXNXNXNXNXNXNXNXNXNXNXNXNXNXNXNXNX",
"NXNXNXNXNXNXNXNXNXNXNXNXNXNXNXNXNXNXNXNXNXNXNXX.X.X.| |  . .*.*.*.$.%.%.u.u.u.p.p.p.x.x.x.x.x.z.z.z.N.z.z.z.z.z.z.z.z.z.z.z.z.z.z.x.x.x.h.h.h.h.h.i.i.i.i.i.y.u.u.u.%.%.%.;.-.-.#.*.{ { { { { ] _ _ _ _ _ _ ` ` ` NXNXNXNXNXNXNXNXNXNXNXNXNXNXNXNXNXNXNXNXNXNXNX",
"NXNXNXNXNXNXNXNXNXNXNXNXNXNXNXNXNXNXNXNXNXNXNX&.&.&.*.*.*.*.*.*.=.=.a.a.a.s.s.s.s.s.N.N.N.z.z.z.z.v.v.v.v.v.v.v.v.v.v.v.v.v.v.v.v.v.c.l.l.l.l.j.j.j.h.h.i.p.p.p.u.u.u.%.%.;.;.-.-.-.#.*.{ { { { ] ] ] _ _ _ _ _ _ NXNXNXNXNXNXNXNXNXNXNXNXNXNXNXNXNXNXNXNXNXNXNX",
"NXNXNXNXNXNXNXNXNXNXNXNXNXNXNXNXNXNXNXNXNXNX1.=.=.*.=.=.=.=.=.=.a.a.d.d.f.f.f.B.B.B.B.B.B.B.m.m.m.m.m.m.v.v.v.b.b.b.b.b.b.b.b.b.b.b.b.v.v.v.v.c.l.j.j.l.h.h.p.p.p.u.u.u.u.%.;.;.;.-.#.#.*.*. . . .| | | | | } } o.o.NXNXNXNXNXNXNXNXNXNXNXNXNXNXNXNXNXNXNXNXNXNX",
"NXNXNXNXNXNXNXNXNXNXNXNXNXNXNXNXNXNXNXNXNX2.2.2.=.=.=.a.a.a.a.d.D.D.D.D.D.F.F.F.F.F.F.F.F.V.V.V.V.M.M.b.b.b.b.b.b.b.G.G.G.G.G.G.G.G.G.n.b.b.v.v.v.v.c.l.l.h.x.p.p.p.u.u.u.u.%.%.;.;.#.#.*.*.*.*.X.X.X.X.X.X.| | | | } NXNXNXNXNXNXNXNXNXNXNXNXNXNXNXNXNXNXNXNXNX",
"NXNXNXNXNXNXNXNXNXNXNXNXNXNXNXNXNXNXNXA.A.Z.Z.Z.Z.d.a.a.s.s.f.D.D.D.F.F.F.{.{.{.{.{.{.{.F.F.F.V.V.V.M.M.n.n.G.G.G.G.G.L.L.L.L.L.L.L.L.G.G.G.G.b.b.v.v.v.v.z.z.x.x.p.p.p.u.u.u.u.%.=.%.=.*.*.*.*.&.&.X.X.X.X.X.X.| | | } o.NXNXNXNXNXNXNXNXNXNXNXNXNXNXNXNXNXNXNX",
"NXNXNXNXNXNXNXNXNXNXNXNXNXNXNXNXNX;XA.A.A.Z.D.D.D.f.f.f.B.B.B.F.F.F.F.{.9X8X8X8XwXwXwX9X9X X/.!.Q.Q.U.J.J.J.L.L.L.L.K.K.K.P.P.P.P.P.P.K.K.L.L.G.G.G.n.b.v.v.z.z.x.x.p.p.p.p.u.u.u.%.=.=.=.=.*.&.&.&.&.......X.X.X.| | | o._ _ NXNXNXNXNXNXNXNXNXNXNXNXNXNXNXNXNX",
"NXNXNXNXNXNXNXNXNXNXNXNXNXNXNX-X;X;XA.A.A.S.D.D.D.B.B.B.B.V.F.F.F.F.9X9XwXeXeXeXeXeXeXeXwXwX9X X/.Q.Q.U.K.K.L.L.K.P.P.P.P.P.P.P.P.P.P.P.P.P.K.K.L.J.H.H.n.b.v.v.z.x.x.p.p.p.p.u.u.u.a.=.=.=.=.*.:.&.,.,.>.....X.X.X.| | _ _ _ _ _ NXNXNXNXNXNXNXNXNXNXNXNXNXNXNX",
"NXNXNXNXNXNXNXNXNXNXNXNXNX-X-X;X;X;XA.S.S.S.D.D.F.F.V.V.V.Q.!././.9XwXqXeXyXiXiXuXuXiXiXeXqXwX9X/.!.Q.U.I.K.K.K.P.P.P.P.T.T.T.T.T.T.T.T.T.Y.Y.P.K.K.L.J.J.n.b.v.m.z.x.x.p.p.p.y.u.u.u.a.=.=.=.:.:.&.1.,.,.,.....X.X.| } _ _ _ _ _ ` ` NXNXNXNXNXNXNXNXNXNXNXNXNX",
"NXNXNXNXNXNXNXNXNXNXNXNXNX-X;X;X;X;XA.S.S.S.F.F.F.F.Q.Q.Q.!./.(. X0XqXeXyXiXuXuXvXuXuXuXyXeXqX9X X/.!.Q.Y.Y.P.P.P.Y.T.T.[.[.).).).).).).T.T.T.Y.Y.P.K.K.J.J.n.b.v.v.l.l.h.h.i.p.p.p.u.a.a.=.=.:.:.1.1.1.,.,.....X.| | o._ _ _ _ ` ` ` NXNXNXNXNXNXNXNXNXNXNXNXNX",
"NXNXNXNXNXNXNXNXNXNXNXNX;X;X;X;X;X}.S.S.S.S.F.F.F.!.Q.!.!.(.(. X0XrXqXyXiXuXuXvXvXvXuXuXiXyXqX0X X/.!.Q.Y.Y.Y.Y.T.T.T.[.)._.`.`.`.`.`.`.).).T.T.Y.Y.Y.K.K.J.J.n.b.v.c.l.l.j.h.p.p.p.u.u.a.a.=.:.:.1.1.1.,.>...X.X.| } _ _ _ ` ` ` ( ( ( NXNXNXNXNXNXNXNXNXNXNXNX",
"NXNXNXNXNXNXNXNXNXNXNXA.A.A.A.A.S.}.}.S.S.F.F.F./././.(.(.(..X0XrXrXpXpXiXuXuXvXvXvXuXuXiXeXqX0X X/.!.~.Y.Y.Y.Y.T.T.[._.`.`.`.`.`.`.`.`.`.`.).~.T.T.Y.Y.K.L.J.H.n.b.v.c.l.j.j.h.p.p.p.u.a.a.=.=.:.1.1.,.,.....X.| } o._ ` ` ` ( ( N N u u NXNXNXNXNXNXNXNXNXNXNX",
"NXNXNXNXNXNXNXNXNXNX2.A.A.A.S.S.S.S.S.{.F.{.{.{./. X X X0X0XrXrXrXrXpXpXiXuXuXuXuXuXiXiXyXqXwX0X(.(.!.~.Y.Y.Y.R.T.[.`.`.XXXXXXXXXXXXXXXXXX`.`.).~.T.Y.Y.P.K.L.J.G.b.v.v.c.l.j.h.p.p.p.u.a.a.=.=.=.&.,.>.....X.| } _ _ ` ` ( ( u u u u t t w NXNXNXNXNXNXNXNXNXNX",
"NXNXNXNXNXNXNXNXNX2.2.Z.Z.D.S.S.S.S.F.F.{.9X9X9X9X9X0XrXrXrXrXrXqXpXpXyXyXiXiXiXiXiXyXeXqXwX9X/./.!.Q.~.Y.Y.R.R.E.`.XXXXXXOXOXOXOXOXOXOXXXXXXX`.).T.T.Y.P.K.K.L.G.G.b.v.v.c.l.l.x.p.p.p.a.a.=.=.=.&.&...X.X.| } _ ` ( ( ^ u u u u t r q 9 7 7 NXNXNXNXNXNXNXNXNX",
"NXNXNXNXNXNX]  .*.=.=.Z.D.D.D.F.F.F.F.F.9X9X9XwXwXqXqXqXpXpXpXpXpXyXyXyXyXyXyXeXeXqXqXwX9X9X/./.!.Q.Q.Y.Y.Y.R.E.E.XXXXoXOX$X$X$X$X$X$XOXOXOXXX`.`.~.T.T.P.P.K.L.L.G.G.b.v.v.c.l.x.p.p.p.a.a.=.=.*.&.X.X.X.| o._ ` ( ^ ~ u u t t r r 9 9 7 6 6 , ; = NXNXNXNXNXNX",
"/ ^ ^ ^ ( ) ] [ *.=.=.a.f.D.F.F.F.F.F./.9X9XwXqXqXeXyXyXpXpXpXpXyXyXyXyXeXqXqXqXwX9X9X X/./.!.Q.Q.Q.Y.Y.Y.Y.R.E.|.XXoXOX$X%X%X%X%X%X%X$X$XOXoXXX`.).T.T.Y.P.P.K.L.L.G.G.n.b.v.z.x.x.p.p.u.a.=.=.*.*. .| o._ _ ( ( ^ u u i t r r 9 9 9 6 6 , ; ; = = # # # # # # ",
"^ ^ ^ ^ ( ) ] [ @.=.=.a.s.B.B.F.F.!././.0X0XqXqXyXyXiXuXuXuXuXuXiXiXyXeXqXwXwX9X X X/./.!.Q.Q.Q.U.U.P.Y.Y.Y.E.^.|.oXoX$X%X%X*X*X*X*X*X%X$X$XOXXXXX`.~.T.T.P.P.P.K.L.L.G.G.n.b.v.z.x.p.p.u.u.%.*.*. .] ] _ ` ( ^ ~ u i t r r 4 4 5 5 5 3 : * * = = = # # # # # # ",
"^ ^ ^ ( ( ) [ [ @.$.%.a.s.B.B.V.Q.Q.(.(.0X0XqXpXyXiXuXuXvXvXuXuXuXiXyXqXwX9X X/.!.!.Q.Q.Q.U.U.K.K.P.P.Y.Y.R.E.|.XXoX@X#X=X*XsXsXsXsXaX*X%X$X@XoXXX`.`.T.T.T.P.P.P.K.L.J.L.H.b.m.z.x.p.p.u.u.%.#.@.[ ] _ _ ( ^ ~ u i r r p 4 5 4 3 3 3 : * * * * = = # # # # # # ",
"^ ^ ^ ( ( ) [ [ @.$.$.u.s.N.M.V.Q.Q.^.(.0X0XrXpXpXuXuXvXvXvXvXuXuXiXeXqXwX X/.!.Q.Q.U.U.K.K.K.K.K.K.I.Y.R.E.^.|.oX+X#X=XaXsXsXgXgXsXsXsXaX%X$XOXoXXX`.^.T.T.T.Y.P.P.K.K.J.J.n.m.z.x.p.p.u.u.%.@.@.[ ] _ ` ( ^ u i r p p 4 4 4 3 3 3 : * * * * = = = = = # # # # ",
"^ ^ ^ ( ( ) [ [ @.$.$.u.p.N.M.U.U.Q.^.(..XrXrXpXpXuXuXvXvXvXvXuXiXyXqXwX9X X!.Q.U.U.I.I.K.K.K.I.I.I.Y.E.E.^.|.oX+X@X#XaXsXsXgXhXhXhXgXsXaXaX%X$XOXoXXX`.`.~.R.R.Y.Y.I.I.K.J.M.b.m.N.x.p.u.u.%.#.#.[ ] ` ` ( s i i r p p 4 4 5 3 3 3 : : * * = = = = = = = = = # ",
"^ ^ ( ( ) ) [ [ @.$.$.u.p.z.M.J.U.~.~.(..X0XrXrXpXiXuXuXuXuXuXuXiXeXqX9X X/.!.Q.U.I.I.I.I.I.I.I.R.E.E.^.|.|.oX+X@XtXfXdXdXhXjXjXjXjXhXgXdXaXtX%X@XOXoXXXXX`.^.E.R.R.R.I.I.I.J.M.m.N.x.s.u.u.%.#.#.{ ] ` ` ( s s i i p p 4 4 5 3 3 3 : : : , , = , ; ; = = = - - ",
"s U U ( ) ) [ [ @.$.$.y.p.x.m.J.U.Y.~.^.(..X0XqXqXyXyXiXiXiXiXyXeXqXwX0X X!.Q.R.U.I.I.I.I.R.R.E.E.&X|.|.oXoX@X#XtXfXdXdXhXkXzXzXzXzXkXkXdXdXfXtXtX$X@XOXoXXXXX^.^.E.E.R.U.U.I.V.m.m.N.s.s.a.%.%.#.{ { ' ` ` s s s i i p p 4 4 5 3 3 3 : : , , , , , , < < < < < ",
"U U U U Y ) [ [ @.$.%.y.p.x.m.M.U.Y.~.~.^.(..X0XrXqXqXeXyXyXeXqXqXwX9X X/.!.Q.R.Y.R.R.R.R.E.E.&X|.|.oX+X+X@X#XtXfXdXdXkXzXzXlXlXlXlXzXzXkXkXdXfXfXtX%X@X@XoXoXXXXX|.E.E.R.R.U.U.M.m.N.s.s.a.%.%.#.#.{ { ' ' ` s s s i i r p 4 4 5 5 5 6 6 6 , , 1 1 1 1 1 1 1 1 ",
"U U U Y Y T [ @.@.$.%.u.p.x.z.M.K.U.Y.~.~.(.(. X0X0XwXwXwXwXwXwX0X0X X(.(.~.~.~.T.R.E.E.E.|.XXoXoX+X@X#X#XfXfXfXdXkXkXzXlXlXbXbXbXbXbXlXzXkXkXdXdXaXaX%X#X@X+XoXoXXX|.E.E.R.U.U.V.V.m.s.s.a.g.;.;.-.O.O.' ' ' ' s s s i i r q 9 9 9 7 7 7 7 8 8 1 1 1 1 1 1 1 1 ",
"U Y Y Y T R R @.@.$.y.u.p.x.z.m.J.I.U.Y.Q.Q.!././. X X X X9X X X X(.(.(.~.~.~.~.~.).`.`.XXXXoX+X@X#X#X=XaXsXdXdXkXkXzXlXbXbXnXnXnXnXbXbXlXzXzXkXdXdXsXaX=X%X#X@XoXoXXX|.E.E.R.U.U.V.B.B.f.g.g.;.;.-.-.O.+.' ' ' Y s s s i i r q q 9 9 9 7 8 e e e e e e b b c c ",
"Y Y Y Y T R R ! #.$.%.u.p.p.z.m.M.J.I.U.U.U.Q.Q.!.!.!.!.!././.!.!.!.~.~.~.~.~.).).`.`.XXXXOX+X@X#X=X*XsXsXgXhXkXkXzXlXbXbXnXnXnXnXnXnXbXbXbXlXzXkXhXgXsXsX*X=X#X@XoXoX|.E.E.R.U.U.V.B.B.f.g.g.;.;.-.-.O.O.+.' ' ' Y s s y i r r r q q e e e w e b b b b b b b b ",
"Y R R R R R R ! #.%.%.u.p.p.x.m.M.M.J.J.I.U.U.U.U.U.U.Q.Q.Q.Q.Q.Q.~.~.~.~.~.).).`.`.XXXXOXOX$X%X*X*XsXsXgXhXjXzXzXlXbXbXnXnXmXmXmXmXnXnXbXbXlXzXzXjXhXgXsX*X=X#X@X+XoX|.E.E.W.U.U.V.B.B.f.g.g.;.;.;.-.O.O.+.+.' ' Y s s s i i r r r w w w w w v v v v b b b b b ",
"R R R R R R R ! ! %.%.u.p.p.x.z.m.b.n.J.J.J.J.J.U.U.V.U.U.I.U.U.I.I.Y.T.T.~.).).`.`.XXXXOX$X$X%X*X*XsXgXgXhXjXzXzXlXbXbXnXnXmXmXmXmXnXnXnXbXlXzXzXjXhXgXgXsX=X#X#X+XoX|.E.E.W.U.U.V.B.B.f.g.g.;.;.;.-.O.O.O.+.' ' Y s s s y i r r r w w w y w v v v v v v v v v ",
"R R R R R R R ! #.%.u.u.p.p.x.z.m.m.b.n.n.n.n.n.n.n.n.n.n.J.J.J.K.K.P.Y.T.T.).).`.`.`.XXOXOX$X%X*X*XsXsXgXhXjXzXzXlXbXbXnXnXmXmXmXmXnXnXbXbXlXzXkXjXhXgXsX*X=X#X@X+XoX|.E.E.U.U.V.V.B.B.f.g.g.;.;.;.-.O.O.O.+.' ' Y s s y i r r r w w w w y y v v v v v v v v v ",
"R R { { R R #.#.#.%.u.u.p.p.x.x.z.m.v.b.b.b.b.b.b.b.b.b.b.n.H.L.J.L.K.P.Y.T.T.).).`.`.XXoXOX$X$X%X=X*XsXsXgXhXkXkXzXlXbXbXnXnXnXnXnXnXbXbXlXzXkXkXhXgXsXsX=X#X#X+XoX|.&XW.W.U.U.M.m.N.s.s.g.g.;.;.-.-.O.O.+.+.' Y s s s i r r q q q q q w w w w v v v v v v v I ",
"{ { { { #.#.#.#.#.%.u.u.u.p.p.x.z.v.v.v.v.v.b.b.v.v.v.v.b.b.b.G.L.L.L.K.P.Y.T.T.~.).`.XXXXoXoX+X@X#X%X=XaXsXdXdXkXkXzXlXbXbXnXnXnXnXbXbXlXzXkXkXdXdXsXaX=X#X#X+XoX|.&XE.W.U.U.V.m.N.N.s.s.g.g.;.;.-.-.O.+.+.' ' s s s t r q 4 4 4 9 9 q e w w w v v v v v v I I ",
"{ { { #.#.#.#.#.%.%.u.u.u.p.p.x.x.l.l.c.v.v.v.v.v.v.v.v.v.b.b.b.G.L.J.L.K.I.Y.Y.T.T.^.`.XXXXXXoXoX+X@X#X#XfXfXfXdXkXkXzXlXbXbXbXbXbXbXlXzXkXkXdXdXfXfX#X#X@X+XoX|.&XE.W.U.U.V.m.m.N.x.p.u.a.;.;.-.-.O.{ ' ' ' s s s i p p 4 4 5 5 5 7 7 e e w w v v v v v v v I ",
"O.-.-.-.-.#.-.#.%.%.u.u.u.p.p.p.x.l.l.l.c.c.c.c.c.c.v.v.v.v.b.b.b.G.L.J.K.K.I.Y.Y.R.R.E.^.^.|.|.XXoXoX+X@X#XtXfXfXdXdXkXzXzXlXlXlXlXzXzXkXkXdXfXfXtX#X@X+XoX|.|.&XW.W.U.U.V.m.m.z.x.p.p.u.u.%.#.#.{ { { ' ' s s s i p p 4 5 2 2 2 3 3 6 7 e e w w v v v v v v v ",
"-.-.-.-.-.-.-.-.%.%.%.u.u.p.p.p.h.h.l.l.j.j.j.c.c.c.c.c.v.v.v.b.b.n.H.H.J.J.K.I.I.Y.Y.Y.R.E.E.E.^.|.|.|.oXoX@X#XtXfXdXdXkXkXzXzXzXzXkXkXdXdXfXtX#X@XoXoX|.|.|.W.W.U.U.J.n.m.m.z.x.p.p.u.u.%.%.#.#.{ { ' ` ( s s i p p 5 2 2 2 > > > : 3 6 7 e e e w v v v v v v ",
"-.-.-.-.-.-.-.;.;.%.%.u.u.u.p.i.i.h.h.h.j.j.j.j.l.l.c.c.c.c.v.v.b.b.n.n.H.J.J.J.I.I.I.I.I.U.Y.R.E.E.E.^.|.|.oX+X@XtXfXdXdXhXjXjXjXjXhXdXdXfXtX#X@XoX|.|.^.E.W.U.U.U.C.n.b.z.x.h.p.i.y.u.y.$.$.@.{ { ] ` ` s s i p p 5 2 2 a o o & > > : 6 7 7 e e e e v v v v v ",
"-.-.-.-.-.-.-.;.;.%.%.u.u.u.p.i.i.i.h.h.h.j.j.j.l.l.l.l.c.v.v.v.v.v.b.b.n.n.J.J.J.J.J.I.K.K.I.I.I.R.Y.E.E.^.|.oX+X#X#XaXsXgXgXhXhXgXgXsXaX=X#X+XoX|.^.E.W.U.I.J.n.b.v.c.l.l.h.i.i.i.y.y.$.$.@.@.[ [ ) ) ( s i r p 4 5 2 a o o o o > > > : 6 7 7 8 e e e v v v v ",
"-.-.-.-.-.-.-.;.;.%.%.u.u.u.p.i.i.i.e.h.t.h.h.j.j.j.l.l.l.l.c.v.v.v.v.v.b.b.n.n.n.J.J.J.J.J.J.J.K.K.I.U.R.E.|.|.oX+X#X=XaXsXsXgXgXsXsXaX=X#X+XoX|.^.W.U.I.J.H.b.v.v.l.j.h.h.i.e.w.w.y.$.$.@.@.@.[ [ ) ) U u i r p 4 5 2 a o o o o > > > : : 7 7 8 8 e e e b b b ",
"-.-.-.-.-.-.-.-.%.%.%.%.u.y.y.e.e.e.e.e.t.t.t.h.h.j.j.l.l.l.l.c.v.v.v.v.v.b.b.b.b.n.n.n.H.G.G.L.J.J.K.I.U.R.E.|.oXoX@X#X=X*XsXsXsXsX*X=X#X+XoX|.&XW.U.U.H.n.v.c.l.j.k.t.t.e.e.w.w.q.q.Q Q @.@.@.[ [ ) ) U u u t p 4 5 2 2 o o o & > > > : : 6 7 8 8 8 8 e e e b ",
"-.-.-.-.-.-.-.#.%.%.%.%.y.y.w.w.w.e.e.e.e.e.t.t.h.h.h.j.l.l.l.l.l.v.v.v.v.v.b.b.b.b.n.n.n.n.G.G.G.L.J.K.I.R.E.^.|.oX+X@X%X=X*X*X*X=X#X#X@XoX|.&XW.U.U.n.v.l.j.j.t.t.t.e.r.r.w.q.q.q.Q Q Q ! @.[ [ [ ) ) U U u i r p 4 5 2 2 2 > > > > : : : , 1 1 8 1 1 8 8 1 8 ",
"-.-.-.-.-.-.-.#.#.#.%.Q Q q.q.q.w.w.r.r.e.e.e.t.t.h.h.h.j.l.l.l.l.l.v.v.v.v.v.v.v.b.b.b.n.n.n.G.G.G.J.J.I.I.R.E.|.XXoX+X$X%X%X%X%X#X#X+XoX|.&XW.W.C.m.v.j.j.t.t.e.r.r.9.9.0.0.q.q.Q Q Q W ! W T [ [ ) ) U U u y i r p 4 4 2 2 2 2 3 : : : , , 1 1 1 1 1 1 1 1 1 ",
"O.O.#.#.#.#.#.#.#.#.! ! Q Q q.q.w.w.w.r.r.e.e.e.e.t.h.h.h.h.l.l.l.l.l.l.v.v.v.v.v.v.b.b.b.n.n.n.n.G.G.J.K.I.Y.E.^.|.XXoXOX$X$X$X$X+X+XoX|.&XW.W.C.m.l.l.k.t.e.r.r.9.9.8.8.7.7.K K K Q W W W W T T T ) ) Y U U s y i r q 4 4 4 5 5 3 3 3 : , , , 1 1 1 1 1 1 1 1 ",
"{ { { { #.#.#.#.! ! ! ! Q Q q.q.q.0.0.w.r.r.r.e.e.e.t.h.h.h.h.l.l.l.l.l.l.v.v.v.v.v.v.v.b.b.b.n.n.G.J.J.J.I.U.R.E.^.XXXXoXOXOXOXOXoXoX|.|.E.W.U.C.z.j.t.e.r.0.9.8.8.7.6.6.H H G G L L W W W W T R R R T Y Y U U s y y r r q 9 4 5 5 5 6 6 , , , 1 1 1 1 < < < < ",
"{ { { { { #.R ! ! ! ! ! Q Q Q q.q.q.q.0.w.r.r.r.e.e.e.t.h.h.h.h.l.l.l.l.l.l.c.v.v.v.v.v.v.b.b.b.n.n.H.J.J.I.I.Y.R.^.`.`.XXXXXXXXXXXXXXE.W.W.U.C.m.j.e.e.r.0.8.7.6.6.H H J J J F S S L L W W T T T T R T T Y Y U U s y y i r r q 9 9 7 7 6 , , , , , , , ; = = = ",
"R R R R R R R R ! ! ! ! Q Q Q Q q.q.0.0.0.w.w.r.r.e.e.e.e.h.h.h.h.l.l.l.l.l.l.l.v.v.v.v.v.v.b.b.b.n.n.J.J.I.I.Y.R.R.^.`.`.`.`.`.`.`.^.E.W.U.C.m.l.t.e.w.0.7.6.H H J J J F F S S S D D L W T T T T T T T T Y Y U U U s u y y t r q 9 7 7 6 , , , ; ; ; = = = = = ",
"R R R R R R R R W W W W W Q Q Q Q q.q.0.0.0.0.w.r.r.e.e.e.e.t.h.h.h.h.l.l.l.l.l.l.v.v.v.v.v.v.v.b.b.n.n.J.J.I.I.Y.R.T.).).`.`.`._.).R.Y.U.n.b.l.h.e.w.0.q.6.H H J F F A A A A D Z D D M M T T T T T T T E Y Y Y U U U u u y t r r 9 9 7 6 , , ; ; ; = = = # # # ",
"R R R R R R R R T W W W W W Q Q Q H 6.7.0.0.0.0.w.r.r.e.e.e.e.t.h.h.h.h.h.l.l.l.l.l.c.v.v.v.v.v.v.v.b.b.n.J.J.I.I.Y.T.T.).).).).[.T.Y.I.J.b.c.j.e.r.0.q.H H G F F A A A A Z Z Z Z M M M M M T E E E E E Y Y Y Y U U s u u y t r r 9 7 7 6 , , ; = = = # # # # # ",
"E E E E T T T T T W W W W W Q G H H H 6.7.7.0.0.0.w.w.r.e.e.e.e.e.h.h.h.h.h.l.l.l.l.l.l.c.v.v.v.v.v.v.b.b.n.J.J.K.Y.Y.T.T.T.[.T.T.Y.I.K.H.v.l.t.r.w.q.6.H G F S A A A Z V V Z n n M M M M B B E E E E Y Y Y Y U U s y y y t r r q 9 9 6 6 , ; = = = @ @ @ @ @ @ ",
"E E E E E T T T T T W W W W L G G H H H 6.6.7.0.0.0.w.w.r.r.e.e.e.e.t.h.h.h.h.l.l.l.l.l.l.l.l.c.v.v.v.v.b.b.n.J.K.K.Y.Y.T.T.T.T.T.P.K.J.n.c.j.e.r.0.6.H G F S A A Z V V V V n n n n M M M M M v I I I I U U s y y y y t r r r 9 9 9 6 6 : * * * * @ @ @ @ @ @ @ ",
"E E E E E E T E T T W W W L L S G G G H H 6.6.7.0.0.0.0.w.r.r.e.e.e.e.t.h.h.h.j.l.l.l.l.l.l.l.l.l.c.v.v.v.v.b.H.J.K.K.P.Y.Y.Y.Y.P.K.L.G.v.l.h.e.0.q.H H J S A A Z V V V n n n n n m m m m b b b v v v y y y y y t r r q q 9 4 4 5 5 3 3 : * % % @ @ @ @ @ @ @ @ ",
"E E E E I E E E E T T M D D D S S G G G H H H 6.7.q.0.0.0.w.w.r.e.e.e.e.t.h.h.h.h.l.l.l.l.l.l.l.l.l.l.c.v.v.b.n.H.J.K.K.K.I.P.P.K.L.J.b.c.j.e.r.0.7.H G F S A Z V V P P l l l l m m m x b b b b b w w w w w q q q p p 4 4 5 4 5 3 3 3 : & * % @ @ @ @ @ @ @ @ @ ",
"I I I I I I I I I I M M M D D D S S F F J H H H 6.6.q.0.0.0.0.w.r.r.e.e.e.t.h.h.h.h.h.h.l.l.l.l.l.l.l.l.l.c.v.v.b.n.J.J.K.K.K.K.K.J.n.v.l.h.e.w.0.H H F S A Z V V P l l l l l k k j x c c c b e e e q q q 4 4 4 4 4 4 5 5 2 2 2 3 > & & & % % $ @ @ @ + @ @ @ @ ",
"I I I I I I I I B M M M M M D D D A S S F J G H H H 6.7.q.0.0.0.w.r.r.e.e.e.e.t.h.h.h.h.h.h.h.h.h.h.h.h.j.l.l.c.v.b.n.H.J.J.J.J.J.n.v.l.h.e.r.0.7.H J S A Z V V l l l l l l k k j g g c c c 0 0 7 7 5 5 5 5 5 5 5 2 2 2 2 2 2 2 & & & % % % $ $ + + + + + + + + ",
"I I I I I I v v M M M M M M M D Z Z A A A F F J H H H 6.6.q.0.0.0.0.w.r.r.e.e.e.e.e.e.e.i.i.e.e.i.i.h.h.h.h.h.l.l.v.v.b.b.b.b.b.b.v.l.j.h.r.w.7.K G S A Z V n n l l l l k k k j g g f f c 0 0 7 6 5 3 3 2 2 2 2 2 2 2 a a o o o o o % % % $ $ $ + + + + + + + + ",
"I I I I v v v v b b M M M M M n n Z V Z A A S F J G H H H 6.7.q.0.0.0.0.w.w.r.r.r.r.e.e.e.e.r.r.r.r.r.e.e.e.e.h.h.l.l.l.c.v.v.c.l.l.h.i.r.0.q.K H F A Z V n l l k k j j j j j g h g f f < < , 6 3 3 3 3 3 2 2 2 a o o o o o o o o O O X X $ $ $ + + + + + + + + ",
"v v v v v v v v b b b b m m m m n n n V V V A A S F J G H H H 6.6.7.7.q.0.0.0.0.0.0.w.w.w.w.w.w.w.w.w.w.w.w.r.r.e.e.i.h.h.h.h.h.h.e.e.w.0.7.K J F A V n l l k j j j j j g g g h f f f < < , , : : : > & & & o o o o o o o o O O O O X X X X X $ + + + + + + + + ",
"v v v v v v v v v b b b x x x j k k l l l P V V A A A F F J G H H H H H 6.6.7.7.7.7.7.7.7.7.7.7.7.7.7.7.7.7.8.0.0.0.w.w.r.r.r.r.w.0.0.7.K H F A V V l l k j j g g h h h h h h f f < < - ; ; * & & & & & & o o o o o O O O O O O X X X X X X X X X $ + + + + + + ",
"y y y y v v v v b b b b c c g g g j j j z l l P P V A A A S F F F J J J J J J H H H H H H H H H H H H H H H H H K 7.7.7.7.7.7.7.7.K H J F A C V l l j j g h h h h h h d d d - - - - ; ; = * * * % % % % % O O X O O O X X X X X X X X X X X X X X X X X $ $ X $ ",
"y y y y y y y v b b b c c f f f h h g g j j j l l P P V V A A A A A A A A A A A A A A A A A A A A A A A A A A F F F F J F F F F F A A C V V l z j j g h h d d d d d - - - - - - = = = = * * @ % % % % % $ X X X X X X X X . . . . . X X X X X X X X X X O O O O ",
"y y y y y y w w w e e 8 0 f f f f h h h h h j j j z l l P P P V V V V V V V V V V V V V V V V V V V V V V V V V V V V V V V V V V n n l k k j g h d d d d d - - - - - # # # = = # = # * @ @ @ $ $ $ $ $ $ X X X . . . . . . .   . . . X X X X X X X O O O O O O ",
"y y y y y t t w w 9 8 0 0 < < < - d d d d h h g j j j l l l l l l l l l n l z z z z z l l l l z l l z z k k z z k k k k k k k j j j g g h h d d d d d - - - - - # # # # # # # # @ @ @ @ @ @ + + + $ $ + + . . . . . .             . . X X X X O O O O O o o o o ",
"u y y y t t t t w 9 9 0 0 < < ; - - - - d d h h g j j k k l l l l k k k k j j j j j j j j j j j j j j j g g g g g g g h h h h h f f d d d d d - - - - - - - = = # # # @ @ @ @ @ @ @ @ @ + + + + + + + + + + . . .                 . . X X X O O O O o o o o o o ",
"u i u y t t t r q 9 7 7 6 , , ; - - - - - d h h h g j j k k k k m m m m j g g g g g g g g g g g g g g g g g g f f f f f f f f - - - - - - - - - - - - - = = = = = = * * @ @ @ @ @ + + + + + + + + + + + + + + . .                 . . X X X O O O o o o o o o o ",
"i i u t t t r r q 9 7 7 6 , , ; ; ; - - - < f f g g x m m m m m m m m m x x x x x x x x x x x x x x x x x x x f f f f < < < < < < < < ; ; ; < < ; ; ; ; ; ; ; = = = * * @ @ @ @ % % % % $ $ + + + + + + + + + . . . .             . . X X O O O o o o o o o o o ",
"i i i i i t t r 9 9 7 7 6 6 , , , , , < < < f c x x x m M M M M M M M M M m m m c c c c c c c c c c c c c x c c c c c 0 0 0 0 0 < < < < 0 0 0 0 0 0 < < < < , , , , ; * * * * * % % % % % % % % % $ $ $ $ $ + . . . . . . . . . . . X X X O O O o o o o o o o o ",
"i i i i i t r r 9 9 9 7 6 6 6 , , , , 0 0 0 c c b b B B B B B B B B B B B B B N N N N N N N N N N N N b b b b b b b c c c 8 8 8 8 8 0 0 8 8 8 8 8 8 8 8 0 0 0 0 7 6 6 , : : : > & & & & % % % % % % % % % $ $ $ $ X X X X X X X X X X X O O O o o o o o o o o o ",
"i i i i i t r r 9 9 9 9 7 7 6 6 6 6 7 0 0 c b b N B B B T T T T T T T T T T T T T T T T B B B B B B B B N B B N N N N N N N b b b b b b b b b b b b b b b b w w 9 9 7 7 7 6 6 3 : : : : : > & & & & % % % % % % % % X X X X X X O O O O O O o o o o o o o o o o ",
"NXNXNXNXNXNXNXr r 9 9 9 9 9 7 7 7 7 9 9 w b N N N T T [ [ [ [ [ [ [ [ [ [ [ [ [ [ [ [ [ [ [ [ [ [ [ [ [ [ ) ) ) ) Y Y N N N N N N N N N N N N N N N N N N N N N t t w w 9 9 9 7 7 5 3 3 3 3 : : : > & & & & & % % % % % O O O O O O O O o o o o o NXNXNXNXNXNXNX",
"NXNXNXNXNXNXNXNXNX9 9 9 9 9 9 9 9 9 w t t N N N Y ) [ [ [  . .*.*.*.*.*. .*. . . . . . . . . . . . . . .[ [ ] ] ] ] [ [ [ [ ) ) ) ) ) ) ) ) ) ) ) ) ) ) ) ) U N N N u y t r q 9 9 9 5 5 5 3 3 3 3 3 > > > & & & & & & & & o o o o o o o o o o NXNXNXNXNXNXNXNXNX",
"NXNXNXNXNXNXNXNXNXNXq 9 9 9 q r r t t y N N U ) ) ] ]  . . .&.&.&.&.&.&.&.&.&.&.&.&.&.&.&.&.&.&.X. . . . . . . . .| | | | ] ] ] ] ] ] ] ] ] ] ] ] ] ] ] ] _ ) ) ) U N N u t t r r q 9 4 5 5 5 3 3 3 2 3 3 3 3 > > > & & & & & & & o & o o o NXNXNXNXNXNXNXNXNXNX",
"NXNXNXNXNXNXNXNXNXNXNXr r r r r r t y u N ( ) ) _ ] | X.X.&.&.&.&.&.,.,.,.,.,.,.,.,.,.,.,.&.&.&.&.&.&.X.X.X.X.X.X.X.X.X.X. .| | X.X.X.X.| | | | | | | | ] ] _ _ ` ) ( ( N u u t t r r 9 4 4 5 4 5 3 3 2 2 3 3 3 2 2 2 2 2 2 2 2 & & & > > NXNXNXNXNXNXNXNXNXNXNX",
"NXNXNXNXNXNXNXNXNXNXNXNXr t t t t u u u N ( ) _ _ | | X.X.X.&.&.>.,.,.,.,.,.,.,.,.,.,.,.,.,.,.,.,.&.&.........X.X.X.X.X.X.X.X.X.X.X.X.X.X.X.X.X.X.X.X.X.| | ] _ _ ) ` ( N u u u t t r r 4 4 4 4 4 4 3 2 2 2 2 2 3 3 2 2 2 2 2 2 2 2 2 2 NXNXNXNXNXNXNXNXNXNXNXNX",
"NXNXNXNXNXNXNXNXNXNXNXNXNXt t t u u u u ( ( ` _ _ _ | X.X.X.X.......,.,.,.,.,.,.,.,.,.,.,.,.,.,...............X.X.X.X.X.X.X.X.X.X.X.X.X.X.X.X.X.X.X.X.X.| | _ _ _ ` ( ( u u u u t t r r 4 4 4 4 4 4 4 2 2 2 2 2 2 2 2 2 2 2 2 2 2 2 2 NXNXNXNXNXNXNXNXNXNXNXNXNX",
"NXNXNXNXNXNXNXNXNXNXNXNXNXNXt i u u u u ^ ( ( ` _ _ _ } | | | X.X.X...........,.>.,.>.>.>.5.........X.X.X.X.X.X.X.X.X.X.X.X.| | | | | | X.X.X.X.| | | | } _ _ _ ` ` ( ^ u u u t t r r p 4 4 4 4 4 4 5 5 2 2 2 2 2 2 2 2 2 2 2 2 2 2 NXNXNXNXNXNXNXNXNXNXNXNXNXNX",
"NXNXNXNXNXNXNXNXNXNXNXNXNXNXNXNXu u u u ~ ^ ( ( ( ` ` _ _ _ _ } | | X.X.X.X.X.X.............X.X.X.X.X.X.X.X.X.X.| | | | | | | | | } } } } | | | } } _ _ _ _ _ ` ( ( ^ u u i t t r r p 4 4 4 4 4 4 5 5 2 2 2 2 2 2 2 2 2 2 2 2 2 NXNXNXNXNXNXNXNXNXNXNXNXNXNXNXNX",
"NXNXNXNXNXNXNXNXNXNXNXNXNXNXNXNXNXNXu u u u u ~ ^ ^ ( ( ( ( ` ` _ _ _ } | | X.X.X.X.X.X.X.X.X.| | | | | | | | } _ _ _ _ _ _ _ _ _ _ _ _ _ _ _ _ _ _ _ _ ` ` ( ( ( u u u i t r r r p 4 4 4 4 4 4 5 5 2 2 2 2 2 2 2 2 2 2 2 2 NXNXNXNXNXNXNXNXNXNXNXNXNXNXNXNXNXNX",
"NXNXNXNXNXNXNXNXNXNXNXNXNXNXNXNXNXNXNXNXu u u u u u u u u u u ^ ( ( ` _ _ _ _ } | | | | | | } _ _ _ _ _ _ _ _ _ _ _ _ _ _ _ _ _ ` ` ` ` ` ` ` ` ` ` ` ` ( ( ^ u u u u t t r r 4 4 4 4 4 4 4 4 5 5 2 2 2 2 2 2 2 2 2 2 2 NXNXNXNXNXNXNXNXNXNXNXNXNXNXNXNXNXNXNXNX",
"NXNXNXNXNXNXNXNXNXNXNXNXNXNXNXNXNXNXNXNXNXr r r r r r r t t t u u u ^ ( ` ` _ _ _ _ _ _ _ _ _ _ _ _ ` ` ` ` ` ` ` ` ( ( ` ( ` ` ( ( ( ( ( ( ( ( ( ( ( ^ u u u u u t t r r p 4 4 4 4 4 4 4 5 2 2 2 2 2 2 2 2 2 2 2 2 2 NXNXNXNXNXNXNXNXNXNXNXNXNXNXNXNXNXNXNXNXNX",
"NXNXNXNXNXNXNXNXNXNXNXNXNXNXNXNXNXNXNXNXNXNX4 4 4 4 4 4 4 4 r r t i u u ~ ( ( ` ` ` _ _ _ ` ` ` ` ( ( ( ( ( ( ( ( ( ^ ( ( ( ~ ~ ( ( ~ u ^ ~ u u u u u u u u i t t r r r 4 4 4 4 4 4 5 2 2 2 2 2 2 2 2 2 2 2 2 2 2 2 NXNXNXNXNXNXNXNXNXNXNXNXNXNXNXNXNXNXNXNXNXNX",
"NXNXNXNXNXNXNXNXNXNXNXNXNXNXNXNXNXNXNXNXNXNXNX2 2 2 2 5 4 4 4 4 r r t u u u ^ ( ( ` ` ` ` ` ( ( ( ( ~ u u u u u u u u u u u u u u u u u u u u u u u u u i t t r r r p 4 4 4 4 4 4 5 2 2 2 2 2 2 2 2 2 2 2 2 2 2 2 NXNXNXNXNXNXNXNXNXNXNXNXNXNXNXNXNXNXNXNXNXNXNX",
"NXNXNXNXNXNXNXNXNXNXNXNXNXNXNXNXNXNXNXNXNXNXNX2 2 2 2 2 2 2 4 4 4 p r t u u u ~ ( ( ( ( ( ( ( ( u u u u u u u u u u u u u u u u u u u u u u u u u u i t t t r r r p 4 4 4 4 4 4 2 2 2 2 2 2 2 2 2 2 2 2 2 2 2 2 2 NXNXNXNXNXNXNXNXNXNXNXNXNXNXNXNXNXNXNXNXNXNXNX",
"NXNXNXNXNXNXNXNXNXNXNXNXNXNXNXNXNXNXNXNXNXNXNXo a 2 2 2 2 2 2 4 4 4 r r t u u u u ( ( ( ( ( u u u u u u u u u u u u u u u u u u u u u u u u u u i t t t t r r r p 4 4 4 4 4 4 2 2 2 2 2 2 2 2 2 2 2 2 2 2 2 2 2 2 NXNXNXNXNXNXNXNXNXNXNXNXNXNXNXNXNXNXNXNXNXNXNX",
"NXNXNXNXNXNXNXNXNXNXNXNXNXNXNXNXNXNXNXNXNXNXNXNXo o o 2 2 2 2 2 4 4 4 r t u u u u u ~ ~ ( N u u u u u u u u u u u u u u u u u u u u u u i t t t t t t t r r r p 4 4 4 4 4 4 5 2 2 2 2 2 2 2 2 2 2 2 2 2 2 2 2 2 NXNXNXNXNXNXNXNXNXNXNXNXNXNXNXNXNXNXNXNXNXNXNXNX",
"NXNXNXNXNXNXNXNXNXNXNXNXNXNXNXNXNXNXNXNXNXNXNXNXo o o o 2 2 2 2 4 4 4 r t t u u u u u u ^ u u u u u u u u u u u u u u u u u u u u u u u t t t t t t t t r r r p 4 4 4 4 4 4 2 2 2 2 2 2 2 2 2 2 2 2 2 2 2 2 2 2 NXNXNXNXNXNXNXNXNXNXNXNXNXNXNXNXNXNXNXNXNXNXNXNX"
};
