/* XPM */
static const char *bon1a0[] = {
/* columns rows colors chars-per-pixel */
"128 128 228 2 ",
"   c #0F190B",
".  c #111B0D",
"X  c #151C12",
"o  c #181D17",
"O  c #1B1D1B",
"+  c #15230E",
"@  c #152B0C",
"#  c #16320E",
"$  c #172211",
"%  c #1A2415",
"&  c #1A2C14",
"*  c #1D231B",
"=  c #1D2C18",
"-  c #1B3413",
";  c #1C3B13",
":  c #1E3618",
">  c #222C1E",
",  c #21251E",
"<  c #23341C",
"1  c #243B1C",
"2  c #273A1B",
"3  c #242424",
"4  c #252A23",
"5  c #292C25",
"6  c #2C2C2B",
"7  c #282727",
"8  c #263322",
"9  c #2B3425",
"0  c #2B3C24",
"q  c #2D332B",
"w  c #2A3C25",
"e  c #31342E",
"r  c #343B2C",
"t  c #343C26",
"y  c #312F31",
"u  c #343434",
"i  c #353A33",
"p  c #3A3B34",
"a  c #393639",
"s  c #3B3B3B",
"d  c #383736",
"f  c #302F2E",
"g  c #201F20",
"h  c #413F3A",
"j  c #1E4314",
"k  c #1F4813",
"l  c #214B16",
"z  c #24431C",
"x  c #254C1B",
"c  c #24481A",
"v  c #26521B",
"b  c #29551E",
"n  c #2A5A1E",
"m  c #2A4B22",
"M  c #2B4424",
"N  c #3C442B",
"B  c #354728",
"V  c #2D5423",
"C  c #2D5C21",
"Z  c #365728",
"A  c #3A4737",
"S  c #3B5335",
"D  c #2E6322",
"F  c #316425",
"G  c #326B25",
"H  c #356D29",
"J  c #38652A",
"K  c #367329",
"L  c #39752B",
"P  c #3B7B2D",
"I  c #357328",
"U  c #3C7B30",
"Y  c #3F6931",
"T  c #2C611F",
"R  c #42492E",
"E  c #43433C",
"W  c #4A4B3C",
"Q  c #464A37",
"!  c #485638",
"~  c #54573C",
"^  c #445530",
"/  c #466636",
"(  c #467836",
")  c #4E6A3A",
"_  c #3F3C40",
"`  c #413D42",
"'  c #403742",
"]  c #434343",
"[  c #464C44",
"{  c #494649",
"}  c #4B4B4C",
"|  c #494945",
" . c #4D534C",
".. c #4A5746",
"X. c #565A48",
"o. c #4F4E50",
"O. c #504F51",
"+. c #545354",
"@. c #555B53",
"#. c #5C5B5C",
"$. c #585858",
"%. c #504F45",
"&. c #4D6647",
"*. c #586847",
"=. c #4E7747",
"-. c #577848",
";. c #5C625B",
":. c #586855",
">. c #5A7755",
",. c #63674B",
"<. c #606F59",
"1. c #615F61",
"2. c #636363",
"3. c #6C6B6C",
"4. c #656965",
"5. c #687866",
"6. c #747374",
"7. c #7C7B7C",
"8. c #777877",
"9. c #707070",
"0. c #605E59",
"q. c #3D812F",
"w. c #3E8431",
"e. c #418632",
"r. c #428B34",
"t. c #48893A",
"y. c #459137",
"u. c #469439",
"i. c #4A9C3D",
"p. c #48973B",
"a. c #4BA13F",
"s. c #4E8745",
"d. c #548B4C",
"f. c #568748",
"g. c #4E9843",
"h. c #539C45",
"j. c #54944B",
"k. c #549B4B",
"l. c #559446",
"z. c #5A8655",
"x. c #5B9853",
"c. c #61895C",
"v. c #62965C",
"b. c #4EA442",
"n. c #4FA943",
"m. c #51AB45",
"M. c #55A44B",
"N. c #56AB4B",
"B. c #55A649",
"V. c #52B247",
"C. c #55B449",
"Z. c #56BB4B",
"A. c #59BD4E",
"S. c #59B34D",
"D. c #5CBA52",
"F. c #5AA552",
"G. c #63AF5B",
"H. c #6A8866",
"J. c #689664",
"K. c #798678",
"L. c #7A9778",
"P. c #718B6E",
"I. c #7AA877",
"U. c #70B26B",
"Y. c #59C14E",
"T. c #56C24C",
"R. c #5CC451",
"E. c #5ECA54",
"W. c #5ED355",
"Q. c #60CD56",
"!. c #64C95B",
"~. c #62D459",
"^. c #65DB5C",
"/. c #63D459",
"(. c #67E15E",
"). c #6CCA64",
"_. c #72C96B",
"`. c #6CD563",
"'. c #73D56B",
"]. c #7BCA74",
"[. c #7BD774",
"{. c #6AE462",
"}. c #6DEB65",
"|. c #71F369",
" X c #75FB6D",
".X c #79FF71",
"XX c #74E76D",
"oX c #83B97D",
"OX c #80897F",
"+X c #83D87C",
"@X c #81C97B",
"#X c #84E57D",
"$X c #827E82",
"%X c #838383",
"&X c #8C8B8C",
"*X c #878788",
"=X c #949394",
"-X c #9C9B9D",
";X c #999699",
":X c #918E91",
">X c #A09EA1",
",X c #A4A3A5",
"<X c #ABA9AB",
"1X c #B4B3B4",
"2X c #BCBBBC",
"3X c #B1AFB1",
"4X c #90B38D",
"5X c #89CA84",
"6X c #8AD884",
"7X c #92D88D",
"8X c #9AD895",
"9X c #96C691",
"0X c #A1D89D",
"qX c #95E28F",
"wX c #A2E29E",
"eX c #A9DBA5",
"rX c #B1DCAE",
"tX c #B9DCB7",
"yX c #A8CCA4",
"uX c #AAE1A6",
"iX c #B4E0B1",
"pX c #C1DDBE",
"aX c #C2C2C2",
"sX c #C3DDC1",
"dX c #C0BFC0",
"fX c None",
"gX c black",
"hX c #7F7C80",
/* pixels */
"fXfXfXfXfXfXfXfXfXfXfXfXfXfXfXfXfXfXfXfXfXfXfXfXfXfXfXfXfXfXfXfXfXfXfXR.R.R.R.R.Q.Q.~./.^.{.{.}.|. X X.X.X.X.X.X.X.X.X.X X X X X|.|.|.|.|.}.}.}.}.}.{.{.{.{.^.^./.~.~.Q.Q.Q.Q.E.R.R.R.R.R.fXfXfXfXfXfXfXfXfXfXfXfXfXfXfXfXfXfXfXfXfXfXfXfXfXfXfXfXfXfXfXfXfXfXfX",
"fXfXfXfXfXfXfXfXfXfXfXfXfXfXfXfXfXfXfXfXfXfXfXfXfXfXfXfXfXfXfXfXfXfXfXY.R.R.R.R.R.Q.Q./.^.^.{.}.|.|. X.X.X.X.X.X.X.X X X X X X|.|.|.|.|.}.}.}.}.}.{.{.{.{.^.^.^./.~.Q.Q.Q.E.R.R.R.R.R.R.R.fXfXfXfXfXfXfXfXfXfXfXfXfXfXfXfXfXfXfXfXfXfXfXfXfXfXfXfXfXfXfXfXfXfXfX",
"fXfXfXfXfXfXfXfXfXfXfXfXfXfXfXfXfXfXfXfXfXfXfXfXfXfXfXfXfXfXfXfXfXfXfXA.A.A.R.R.R.R.Q.Q./.^.{.{.}.|.|. X X X X X X X X X X|.|.|.|.|.}.}.}.}.}.{.{.{.{.{.^.^.^.~.~.Q.Q.E.E.R.R.R.R.R.R.A.A.fXfXfXfXfXfXfXfXfXfXfXfXfXfXfXfXfXfXfXfXfXfXfXfXfXfXfXfXfXfXfXfXfXfXfX",
"fXfXfXfXfXfXfXfXfXfXfXfXfXfXfXfXfXfXfXfXfXfXfXfXfXfXfXfXfXfXfXfXfXfXfXZ.Z.Z.A.A.R.R.R.Q.~./.^.{.{.}.|.|. X X X X X X|.|.|.|.}.}.}.}.}.}.{.{.{.{.{.{.^.^.^.^.~.~.Q.Q.E.R.R.R.R.A.A.A.A.Z.Z.fXfXfXfXfXfXfXfXfXfXfXfXfXfXfXfXfXfXfXfXfXfXfXfXfXfXfXfXfXfXfXfXfXfXfX",
"fXfXfXfXfXfXfXfXfXfXfXfXfXfXfXfXfXfXfXfXfXfXfXfXfXfXfXfXfXfXfXfXfXfXfXC.C.C.C.Z.Z.A.R.R.Q.~./.^.{.{.}.}.|.|.|.|.|.|.|.}.}.}.}.{.{.{.{.{.{.{.^.^.^.^.^.^.~.~.Q.E.E.R.R.R.A.A.Z.Z.C.C.C.C.C.fXfXfXfXfXfXfXfXfXfXfXfXfXfXfXfXfXfXfXfXfXfXfXfXfXfXfXfXfXfXfXfXfXfXfX",
"fXfXfXfXfXfXfXfXfXfXfXfXfXfXfXfXfXfXfXfXfXfXfXfXfXfXfXfXfXfXfXfXfXfXfXm.m.m.m.N.C.C.Z.A.R.R.Q.~./.^.{.{.{.}.}.}.}.{.{.{.{.{.^.^.^.^.^.^.^.^.^./.~.~.~.Q.Q.E.E.R.R.A.A.Z.C.C.C.C.m.m.m.m.m.fXfXfXfXfXfXfXfXfXfXfXfXfXfXfXfXfXfXfXfXfXfXfXfXfXfXfXfXfXfXfXfXfXfXfX",
"fXfXfXfXfXfXfXfXfXfXfXfXfXfXfXfXfXfXfXfXfXfXfXfXfXfXfXfXfXfXfXfXfXfXfXb.b.b.b.b.b.m.m.C.C.Z.A.R.E.Q./.^.^.^.^.^.^.^.^.^./.~.~.~.~.Q.~.Q.Q.Q.Q.Q.E.E.E.E.R.R.Y.A.Z.C.C.m.m.m.n.b.b.b.b.b.b.fXfXfXfXfXfXfXfXfXfXfXfXfXfXfXfXfXfXfXfXfXfXfXfXfXfXfXfXfXfXfXfXfXfXfX",
"fXfXfXfXfXfXfXfXfXfXfXfXfXfXfXfXfXfXfXfXfXfXfXfXfXfXfXfXfXfXfXfXfXfXfXu.p.p.p.p.p.i.g.b.n.m.C.C.A.R.R.E.E.Q.Q.Q.Q.E.E.E.E.R.R.R.R.R.R.R.R.R.R.R.R.Y.Y.A.A.Z.C.C.m.m.b.b.b.i.p.p.p.p.p.p.p.fXfXfXfXfXfXfXfXfXfXfXfXfXfXfXfXfXfXfXfXfXfXfXfXfXfXfXfXfXfXfXfXfXfXfX",
"fXfXfXfXfXfXfXfXfXfXfXfXfXfXfXfXfXfXfXfXfXfXfXfXfXfXfXfXfXfXfXfXfXfXfXe.e.e.e.e.r.y.u.p.p.i.b.n.m.C.C.Z.Z.A.A.A.A.A.A.Z.Z.Z.Z.Z.C.C.C.Z.Z.Z.Z.C.Z.C.C.C.V.m.m.b.b.i.p.p.p.u.r.r.e.e.e.e.e.fXfXfXfXfXfXfXfXfXfXfXfXfXfXfXfXfXfXfXfXfXfXfXfXfXfXfXfXfXfXfXfXfXfXfX",
"fXfXfXfXfXfXfXfXfXfXfXfXfXfXfXfXfXfXfXfXfXfXfXfXfXfXfXfXfXfXfXfXfXfXfXP P P P P U w.w.w.e.y.u.p.i.b.b.n.n.m.m.m.m.m.m.n.n.n.n.n.n.n.n.n.n.n.m.m.m.m.m.n.b.a.i.p.p.u.r.e.w.w.w.U P P P P P fXfXfXfXfXfXfXfXfXfXfXfXfXfXfXfXfXfXfXfXfXfXfXfXfXfXfXfXfXfXfXfXfXfXfX",
"fXfXfXfXfXfXfXfXfXfXfXfXfXfXfXfXfXfXfXfXfXfXfXfXfXfXfXfXfXfXfXfXfXfXfXH H H H I I K L P P w.w.e.r.y.p.p.p.p.p.p.p.p.p.p.p.p.p.p.p.p.p.p.p.i.i.i.i.i.i.i.p.p.u.r.e.w.w.P P L K I I H H H H fXfXfXfXfXfXfXfXfXfXfXfXfXfXfXfXfXfXfXfXfXfXfXfXfXfXfXfXfXfXfXfXfXfXfX",
"fXfXfXfXfXfXfXfXfXfXfXfXfXfXfXfXfXfXfXfXfXfXfXfXfXfXfXfXfXfXfXfXfXfXfXD D D D F F G G H H I L P U w.w.e.e.e.e.e.e.e.e.e.e.e.e.e.e.e.e.e.r.r.r.y.y.y.y.y.r.r.e.w.P P L I H G G F F D D D D fXfXfXfXfXfXfXfXfXfXfXfXfXfXfXfXfXfXfXfXfXfXfXfXfXfXfXfXfXfXfXfXfXfXfX",
"fXfXfXfXfXfXfXfXfXfXfXfXfXfXfXfXfXfXfXfXfXfXfXfXfXfXfXfXfXfXfXfXfXfXfXn n n n n C C D D F G G H I L L P U U U U U U U U U U U U U U U U U w.w.e.e.e.e.w.w.P P P L I H G F D D C C n n n n fXfXfXfXfXfXfXfXfXfXfXfXfXfXfXfXfXfXfXfXfXfXfXfXfXfXfXfXfXfXfXfXfXfXfX",
"fXfXfXfXfXfXfXfXfXfXfXfXfXfXfXfXfXfXfXfXfXfXfXfXfXfXfXfXfXfXfXfXfXfXfXfXv v b b b n n C C D F F F G H H H H H H H H H H H H H H H H L L L L L L P P P L L L L H H G F D C n n b b b v v fXfXfXfXfXfXfXfXfXfXfXfXfXfXfXfXfXfXfXfXfXfXfXfXfXfXfXfXfXfXfXfXfXfXfXfX",
"fXfXfXfXfXfXfXfXfXfXfXfXfXfXfXfXfXfXfXfXfXfXfXfXfXfXfXfXfXfXfXfXfXfXfXfXx x v v v v v b b C C C C C C F F F F F F F F F F F F F F F F F F J H H H H H H H G G F F D C n n b v v v v x x fXfXfXfXfXfXfXfXfXfXfXfXfXfXfXfXfXfXfXfXfXfXfXfXfXfXfXfXfXfXfXfXfXfXfXfX",
"fXfXfXfXfXfXfXfXfXfXfXfXfXfXfXfXfXfXfXfXfXfXfXfXfXfXfXfXfXfXfXfXfXfXfXfXfXfXl l l l x x v v v V V V V V V V V V V V V V V V V V V V V V C C C C Z C C C C C C C C n b b v v v x l l fXfXfXfXfXfXfXfXfXfXfXfXfXfXfXfXfXfXfXfXfXfXfXfXfXfXfXfXfXfXfXfXfXfXfXfXfXfX",
"fXfXfXfXfXfXfXfXfXfXfXfXfXfXfXfXfXfXfXfXfXfXfXfXfXfXfXfXfXfXfXfXfXfXfXfXfXfXfXfXk k l l c x x m m m m m m m m m m m m m m m m m m m m m m m m m m m V V m m m x x x x x x l l l fXfXfXfXfXfXfXfXfXfXfXfXfXfXfXfXfXfXfXfXfXfXfXfXfXfXfXfXfXfXfXfXfXfXfXfXfXfXfXfX",
"fXfXfXfXfXfXfXfXfXfXfXfXfXfXfXfXfXfXfXfXfXfXfXfXfXfXfXfXfXfXfXfXfXfXfXfXfXfXfXfXfXfXj z z z z M M M M M M M M M M M M w w w w 1 w 1 1 1 z z z z z z z z z z z z c z z c c c fXfXfXfXfXfXfXfXfXfXfXfXfXfXfXfXfXfXfXfXfXfXfXfXfXfXfXfXfXfXfXfXfXfXfXfXfXfXfXfXfXfX",
"fXfXfXfXfXfXfXfXfXfXfXfXfXfXfXfXfXfXfXfXfXfXfXfXfXfXfXfXfXfXfXfXfXfXfXfXfXfXfXfXfXfXfXfX1 1 w w w w w w w w w w w w w w 8 8 8 < < < < < < < < < < < < < < < < < 1 1 1 1 fXfXfXfXfXfXfXfXfXfXfXfXfXfXfXfXfXfXfXfXfXfXfXfXfXfXfXfXfXfXfXfXfXfXfXfXfXfXfXfXfXfXfXfX",
"fXfXfXfXfXfXfXfXfXfXfXfXfXfXfXfXfXfXfXfXfXfXfXfXfXfXfXfXfXfXfXfXfXfXfXfXfXfXfXfXfXfXfXfXfXw w w w q q q q w 9 9 9 9 9 9 8 8 8 8 8 8 4 4 > > > > > > > > > > > < = = : fXfXfXfXfXfXfXfXfXfXfXfXfXfXfXfXfXfXfXfXfXfXfXfXfXfXfXfXfXfXfXfXfXfXfXfXfXfXfXfXfXfXfXfXfX",
"fXfXfXfXfXfXfXfXfXfXfXfXfXfXfXfXfXfXfXfXfXfXfXfXfXfXfXfXfXfXfXfXfXfXfXfXfXfXfXfXfXfXfXfXfXfXi i i i i i i u q q q q q q q q 5 5 5 5 5 4 4 4 4 4 4 4 4 > > > > > > > fXfXfXfXfXfXfXfXfXfXfXfXfXfXfXfXfXfXfXfXfXfXfXfXfXfXfXfXfXfXfXfXfXfXfXfXfXfXfXfXfXfXfXfXfXfX",
"fXfXfXfXfXfXfXfXfXfXfXfXfXfXfXfXfXfXfXfXfXfXfXfXfXfXfXfXfXfXfXfXfXfXfXfXfXfXfXfXfXfXfXfXfXfXE A A A s s s s i i i i i u u u q q q 6 5 5 5 6 5 4 4 4 4 4 3 3 4 4 4 5 fXfXfXfXfXfXfXfXfXfXfXfXfXfXfXfXfXfXfXfXfXfXfXfXfXfXfXfXfXfXfXfXfXfXfXfXfXfXfXfXfXfXfXfXfXfX",
"fXfXfXfXfXfXfXfXfXfXfXfXfXfXfXfXfXfXfXfXfXfXfXfXfXfXfXfXfXfXfXfXfXfXfXfXfXfXfXfXfXfXfXfXfXfX+.+.} } } } { { { ] ] ] ] ] s s s s s d i i u u u f 6 6 6 6 6 6 6 6 6 u fXfXfXfXfXfXfXfXfXfXfXfXfXfXfXfXfXfXfXfXfXfXfXfXfXfXfXfXfXfXfXfXfXfXfXfXfXfXfXfXfXfXfXfXfXfX",
"fXfXfXfXfXfXfXfXfXfXfXfXfXfXfXfXfXfXfXfXfXfXfXfXfXfXfXfXfXfXfXfXfXfXfXfXfXfXfXfXfXfXfXfXfX3.4.2.1.#.#.$.$.$.$.$.+.+.+.O.} } } } { { { ] ] ` s s s a i i i i d a s s ` fXfXfXfXfXfXfXfXfXfXfXfXfXfXfXfXfXfXfXfXfXfXfXfXfXfXfXfXfXfXfXfXfXfXfXfXfXfXfXfXfXfXfXfXfX",
"fXfXfXfXfXfXfXfXfXfXfXfXfXfXfXfXfXfXfXfXfXfXfXfXfXfXfXfXfXfXfXfXfXfXfXfXfXfXfXfXfXfXfXfX*X$X7.8.6.6.9.3.3.3.3.3.4.4.2.2.2.1.1.#.#.$.$.+.+.O.} { { ] ] ] ] ] ] ] { { } O.fXfXfXfXfXfXfXfXfXfXfXfXfXfXfXfXfXfXfXfXfXfXfXfXfXfXfXfXfXfXfXfXfXfXfXfXfXfXfXfXfXfXfXfX",
"fXfXfXfXfXfXfXfXfXfXfXfXfXfXfXfXfXfXfXfXfXfXfXfXfXfXfXfXfXfXfXfXfXfXfXfXfXfXfXfXfXfX>X-X=X=X:X&X*X*X%X%X%X$XhX7.7.7.7.8.8.6.6.9.3.3.3.4.2.1.#.$.$.+.O.O.O.O.O.O.+.+.$.#.1.1.fXfXfXfXfXfXfXfXfXfXfXfXfXfXfXfXfXfXfXfXfXfXfXfXfXfXfXfXfXfXfXfXfXfXfXfXfXfXfXfXfXfX",
"fXfXfXfXfXfXfXfXfXfXfXfXfXfXfXfXfXfXfXfXfXfXfXfXfXfXfXfXfXfXfXfXfXfXfXfXfXfXfX<X,X,X,X,X>X-X-X-X;X;X;X=X=X=X=X=X=X=X:X&X&X&X*X%X%XhX7.8.6.6.3.3.4.2.1.#.#.#.#.#.#.#.1.1.2.2.4.4.4.fXfXfXfXfXfXfXfXfXfXfXfXfXfXfXfXfXfXfXfXfXfXfXfXfXfXfXfXfXfXfXfXfXfXfXfXfXfXfX",
"fXfXfXfXfXfXfXfXfXfXfXfXfXfXfXfXfXfXfXfXfXfXfXfXfXfXfXfXfXfXfXfXfXfXfXfXfX,X,X,X,X,X,X,X,X,X,X<X<X<X<X<X<X<X,X,X,X,X,X,X-X-X;X;X=X=X&X&X*X%X7.8.6.9.3.3.4.4.4.4.4.4.4.4.4.4.4.4.4.4.4.fXfXfXfXfXfXfXfXfXfXfXfXfXfXfXfXfXfXfXfXfXfXfXfXfXfXfXfXfXfXfXfXfXfXfXfXfX",
"fXfXfXfXfXfXfXfXfXfXfXfXfXfXfXfXfXfXfXfXfXfXfXfXfXfXfXfXfXfXfXfXfXfXfXfX-X-X>X,X,X,X,X,X<X<X3X1X1X1X1X1X1X1X1X1X1X1X1X1X3X<X<X,X,X-X;X=X=X&X&X*X$X7.8.8.6.9.3.3.3.3.4.4.4.4.4.2.4.2.2.2.fXfXfXfXfXfXfXfXfXfXfXfXfXfXfXfXfXfXfXfXfXfXfXfXfXfXfXfXfXfXfXfXfXfXfXfX",
"fXfXfXfXfXfXfXfXfXfXfXfXfXfXfXfXfXfXfXfXfXfXfXfXfXfXfXfXfXfXfXfXfXfXfX=X;X;X;X-X-X,X,X,X<X3X1X1X2X2X2X2XaXaXaXaX2X2X2X2X2X1X1X3X3X<X,X>X;X=X=X&X*X%X7.7.7.8.6.3.3.3.3.4.4.4.2.2.2.2.#.#.#.fXfXfXfXfXfXfXfXfXfXfXfXfXfXfXfXfXfXfXfXfXfXfXfXfXfXfXfXfXfXfXfXfXfXfX",
"fXfXfXfXfXfXfXfXfXfXfXfXfXfXfXfXfXfXfXfXfXfXfXfXfXfXfXfXfXfXfXfXfXfX&X&X=X=X=X;X;X-X,X,X<X3X1X1X2X2XaXaXaXaXaXaXaXaXaX2X2X2X1X1X3X<X,X,X-X;X=X:X&X*X%X7.7.8.6.6.3.3.3.4.2.2.2.1.#.#.$.$.$.$.fXfXfXfXfXfXfXfXfXfXfXfXfXfXfXfXfXfXfXfXfXfXfXfXfXfXfXfXfXfXfXfXfXfX",
"fXfXfXfXfXfXfXfXfXfXfXfXfXfXfXfXfXfXfXfXfXfXfXfXfXfXfXfXfXfXfXfXfXfX7.*X&X&X=X=X=X;X-X,X,X<X3X1X1X2X2XaXaXaXaXaXaXdX2X2X2X1X1X3X3X<X,X,X-X;X=X&X&X*X%X7.7.8.6.9.3.3.4.2.2.1.#.#.$.$.$.$.+.} fXfXfXfXfXfXfXfXfXfXfXfXfXfXfXfXfXfXfXfXfXfXfXfXfXfXfXfXfXfXfXfXfXfX",
"fXfXfXfXfXfXfXfXfXfXfXfXfXfXfXfXfXfXfXfXfXfXfXfXfXfXfXfXfXfXfXfX2.3.6.7.$X*X&X&X=X=X;X-X>X,X<X3X1X1X2X2X2X2X2X2X2X2X1X1X1X3X3X<X,X,X-X;X=X=X&X&X*X%X7.7.8.6.9.3.4.4.2.1.#.$.$.$.+.+.O.} } { ] _ fXfXfXfXfXfXfXfXfXfXfXfXfXfXfXfXfXfXfXfXfXfXfXfXfXfXfXfXfXfXfXfX",
"fXfXfXfXfXfXfXfXfXfXfXfXfXfXfXfXfXfXfXfXfXfXfXfXfXfXfXfXfXfXfX} $.1.4.9.8.7.%X*X&X:X=X;X-X>X,X<X<X3X3X1X1X1X1X1X3X3X3X<X<X,X>X>X-X;X=X:X&X&X*X%X$X7.8.6.9.3.3.4.2.1.#.$.$.$.+.+.} } } { ] ] s s i fXfXfXfXfXfXfXfXfXfXfXfXfXfXfXfXfXfXfXfXfXfXfXfXfXfXfXfXfXfXfX",
"fXfXfXfXfXfXfXfXfXfXfXfXfXfXfXfXfXfXfXfXfXfXfXfXfXfXfXfX6 u s ] } $.#.4.3.6.7.$X%X*X&X:X=X;X-X>X>X,X<X<X<X<X<X<X,X,X>X>X-X;X=X=X:X&X&X*X%X$X7.7.8.6.9.9.3.4.2.2.#.#.$.+.+.O.} } { { ] ] s s i u u 6 6 3 fXfXfXfXfXfXfXfXfXfXfXfXfXfXfXfXfXfXfXfXfXfXfXfXfXfXfXfX",
"fXfXfXfXfXfXfXfXfXfXfXfXfXfXfXfXfXfXfXfXfXfXfXfXfXfX3 3 6 6 i s { } $.#.4.3.6.8.7.%X%X&X&X:X=X=X;X-X-X-X>X-X-X-X;X;X=X:X:X&X*X%X%X%XhX7.8.8.6.6.9.3.3.4.2.2.#.#.$.+.+.O.} } { { ] ` s s s i u u 6 6 6 3 3 3 fXfXfXfXfXfXfXfXfXfXfXfXfXfXfXfXfXfXfXfXfXfXfXfXfXfX",
"fXfXfXfXfXfXfXfXfXfXfXfXfXfXfXfXfXfXfXfXfXfXfXfXfX3 3 3 6 6 u s ] } +.$.#.4.3.6.8.7.7.%X%X*X&X&X:X:X=X=X=X=X=X:X&X&X&X*X%X$X7.7.7.8.8.6.9.3.3.3.4.4.2.2.1.#.$.$.+.O.} } { { ] ] s s s i i u u 6 6 6 6 3 3 3 3 fXfXfXfXfXfXfXfXfXfXfXfXfXfXfXfXfXfXfXfXfXfXfXfXfX",
"fXfXfXfXfXfXfXfXfXfXfXfXfXfXfXfXfXfXfXfXfXfXfXfX3 3 3 6 6 6 u s s { } +.$.2.4.3.6.8.7.7.7.%X%X*X*X&X&X&X&X&X*X*X%X%XK.7.7.8.6.6.9.3.3.3.4.4.2.2.2.2.#.#.$.$.$.+.} } } { { ] s s s s i i u u 6 6 6 6 6 6 3 3 3 3 fXfXfXfXfXfXfXfXfXfXfXfXfXfXfXfXfXfXfXfXfXfXfXfX",
"fXfXfXfXfXfXfXfXfXfXfXfXfXfXfXfXfXfXfXfXfXfXfXfX3 3 6 6 6 u u s s ] } O.$.;.2.4.3.9.6.8.8.K.K.K.OX%X%X%X%XOXK.K.K.7.8.6.9.9.3.3.4.4.2.2.2.;.;.;.;.$.$.$.$.@.+. . .} [ { ] E s s s p i u u u f 6 6 6 6 6 6 6 6 6 fXfXfXfXfXfXfXfXfXfXfXfXfXfXfXfXfXfXfXfXfXfXfXfX",
"fXfXfXfXfXfXfXfXfXfXfXfXfXfXfXfXfXfXfXfXfXfXfX6 6 6 6 6 y u i s A ] |  .@.;.;.4.5.5.5.6.8.K.K.K.K.K.K.K.K.K.K.K.K.8.5.5.5.5.5.4.4.;.;.;.;.:.;.;.:.;.:.@.@.@.@. . ...[ | ] E A s s p p i u u u e 6 6 6 6 6 6 6 6 6 fXfXfXfXfXfXfXfXfXfXfXfXfXfXfXfXfXfXfXfXfXfXfX",
"fXfXfXfXfXfXfXfXfXfXfXfXfXfXfXfXfXfXfXfXfXfXfX6 f y y y u i s s A [ [  .@.:.:.>.<.5.5.5.H.H.P.P.P.P.P.P.P.P.P.P.H.H.5.5.5.5.<.>.>.>.>.:.:.:.:.:.:.:.:.:.&.&...........[ | E E E E s p p d i u u u u u f 6 6 6 6 6 fXfXfXfXfXfXfXfXfXfXfXfXfXfXfXfXfXfXfXfXfXfXfX",
"fXfXfXfXfXfXfXfXfXfXfXfXfXfXfXfXfXfXfXfXfXfXfXy y u u u a s s A E [ ....&.&.:.>.>.>.c.c.H.H.H.H.H.H.H.H.H.H.H.H.H.H.c.c.c.>.>.>.>.>.>.>.>.>.>.>.>.=.&.&.&.&.&.&.........[ [ W W E E E h s s p d i i u u u u u u u fXfXfXfXfXfXfXfXfXfXfXfXfXfXfXfXfXfXfXfXfXfXfX",
"fXfXfXfXfXfXfXfXfXfXfXfXfXfXfXfXfXfXfXfXfXfXfXa a a a s s s ] ] [ ......&.&.=.-.>.z.z.z.z.c.c.c.c.v.J.J.J.J.J.v.c.c.c.z.z.z.z.z.z.z.z.f.-.-.-.-.-.=.=.=.=.=.=.&.&.&.........%.%.[ E E E E h s s s s s d i i i i i fXfXfXfXfXfXfXfXfXfXfXfXfXfXfXfXfXfXfXfXfXfXfX",
"fXfXfXfXfXfXfXfXfXfXfXfXfXfXfXfXfXfXfXfXfXfXfX_ ` ` ` ` ] ] { [ ......&.&.=.=.=.f.d.d.d.x.x.x.x.x.x.v.v.v.v.v.v.x.x.x.x.x.x.d.d.d.d.d.d.d.d.f.f.f.f.s.=.=.=.=.=.&.&.&.&.X.X.X.%.%.%.| [ | ] ] E h s s s s s s s s fXfXfXfXfXfXfXfXfXfXfXfXfXfXfXfXfXfXfXfXfXfXfX",
"fXfXfXfXfXfXfXfXfXfXfXfXfXfXfXfXfXfXfXfXfXfXfX` ] ] ] { } } }  .....&.&.=.=.s.s.d.d.j.j.j.k.k.k.x.x.x.x.x.x.x.x.x.x.x.x.x.k.k.k.j.j.j.j.j.j.j.g.d.d.s.s.s.s.=.=.-.-.*.*.*.*.X.X.X.X.%.%.%.| [ | ] ] ] ] ] _ _ s s fXfXfXfXfXfXfXfXfXfXfXfXfXfXfXfXfXfXfXfXfXfXfX",
"fXfXfXfXfXfXfXfXfXfXfXfXfXfXfXfXfXfXfXfXfXfXfX} } } } }  . . . .&.&.&.=.=.s.s.d.l.l.h.k.k.k.M.M.M.F.F.F.F.F.F.F.F.F.F.F.M.M.M.M.M.k.k.k.k.h.h.h.g.g.g.g.s.f.s.s.-.-.-.-.*.*.*.*.X.X.X.X.%.%.%.| | | { { { ] ] ] ] fXfXfXfXfXfXfXfXfXfXfXfXfXfXfXfXfXfXfXfXfXfXfX",
"fXfXfXfXfXfXfXfXfXfXfXfXfXfXfXfXfXfXfXfXfXfXfX+.$.$.$.@.$.@.@.:.:.=.-.-.f.d.d.j.k.k.M.M.B.B.B.B.B.N.F.N.N.N.N.N.N.N.N.N.B.B.B.B.B.B.B.B.B.B.b.b.g.g.g.g.g.l.s.f.f.f.-.-.-.,.,.,.*.:.X.X.X.X.%.%.} } } } } } { { { fXfXfXfXfXfXfXfXfXfXfXfXfXfXfXfXfXfXfXfXfXfXfX",
"fXfXfXfXfXfXfXfXfXfXfXfXfXfXfXfXfXfXfXfXfXfXfX;.;.;.;.:.:.:.:.:.>.>.z.z.z.x.x.x.F.F.F.F.F.N.N.S.S.S.S.S.C.C.C.C.C.C.C.C.C.C.C.C.m.m.m.m.m.m.n.b.b.b.b.g.h.h.g.l.f.f.f.-.-.-.-.,.,.,.*.:.X.X.X.X.O.O. .} } } } } } fXfXfXfXfXfXfXfXfXfXfXfXfXfXfXfXfXfXfXfXfXfXfX",
"fXfXfXfXfXfXfXfXfXfXfXfXfXfXfXfXfXfXfXfXfXfX4.;.;.:.>.>.>.>.>.>.z.z.c.c.v.v.v.G.G.G.G.G.G.D.D.D.D.D.Z.Z.Z.Z.Z.Z.Z.Z.Z.Z.Z.Z.Z.C.C.C.V.V.V.m.m.n.n.n.b.b.b.h.h.l.l.f.f.f.f.-.-.-.-.,.,.*.:.:.@.@.@.+.+.+.+.+.O.O.O.O.fXfXfXfXfXfXfXfXfXfXfXfXfXfXfXfXfXfXfXfXfXfX",
"fXfXfXfXfXfXfXfXfXfXfXfXfXfXfXfXfXfXfXfXfX5.5.5.5.>.>.z.z.z.z.c.c.J.J.J.J.U.U.U.U.U.U.U.U.U.G.D.!.!.R.R.R.Y.Y.Y.Y.T.T.A.A.A.A.Z.Z.Z.C.C.V.V.V.V.V.m.m.m.n.b.h.h.k.l.l.f.f.f.-.-.-.-.*.*.:.:.:.;.@.$.$.$.$.$.+.+.+.+.O.fXfXfXfXfXfXfXfXfXfXfXfXfXfXfXfXfXfXfXfXfX",
"fXfXfXfXfXfXfXfXfXfXfXfXfXfXfXfXfXfXfXK.P.H.H.H.H.c.z.x.x.x.v.J.J.J.I.I.I.oXoXoXoXoXoX@X].]._._.).!.!.Q.E.E.E.R.R.R.Y.Y.Y.Y.T.T.A.A.A.Z.Z.Z.V.V.V.V.V.m.m.m.B.B.h.k.l.l.f.f.f.f.-.>.-.>.:.:.:.:.;.;.$.$.$.$.$.$.+.+.+.O.O.fXfXfXfXfXfXfXfXfXfXfXfXfXfXfXfXfXfXfX",
"fXfXfXfXfXfXfXfXfXfXfXfXfXfXfXfXfX%XK.K.P.P.H.J.J.v.v.v.G.G.G.U.U.U.I.oX4X4X4X9X9X9X9X9X5X5X@X[.'.'.`././.Q.W.W.E.E.E.R.R.Y.Y.Y.Y.Y.A.A.A.A.Z.Z.Z.C.C.V.N.N.B.B.B.h.k.l.l.f.f.f.f.-.-.>.>.>.:.;.;.;.;.;.#.#.$.$.$.+.+.+.O.} } fXfXfXfXfXfXfXfXfXfXfXfXfXfXfXfXfX",
"fXfXfXfXfXfXfXfXfXfXfXfXfXfXfX$X%X%XK.K.L.P.J.J.J.G.G.G.G.G.U.U.U.I.5X9X9X9XyXyXyXyXyX0X8X7X6X6X+X[.'.`.^.^./.~.W.W.W.E.E.R.R.R.R.R.Y.Y.Y.A.A.A.Z.Z.C.C.C.N.N.B.B.B.h.h.l.l.l.f.f.f.z.>.>.>.>.<.<.<.2.2.1.1.#.$.$.$.+.+.} } } } } fXfXfXfXfXfXfXfXfXfXfXfXfXfXfX",
"fXfXfXfXfXfXfXfXfXfXfXfXfX$X$X%X%X%XK.L.L.L.J.J.U.U.G.G.G.)._.].].5X9X9XyXyXyXrXtXtXrXrXeX0X8X7X6X[.XXXX{.{.^.^./.~.W.W.W.E.E.E.E.R.R.R.R.Y.Y.A.A.A.Z.Z.C.C.C.N.B.B.B.B.h.h.l.l.d.d.f.z.>.>.>.<.<.<.2.2.2.1.#.#.$.$.+.O.} } } } } { { fXfXfXfXfXfXfXfXfXfXfXfXfX",
"fXfXfXfXfXfXfXfXfXfXfXfXfX$X%X%X%X%XK.L.L.L.I.U.U.U.).).)._.'.[.+X6X8X0XeXrXtXtXpXpXtXtXrXuXwXqXqX#XXXXX{.{.{.(.^.^././.W.W.W.E.E.E.E.R.R.R.R.R.Y.A.A.Z.Z.C.C.C.N.B.m.n.b.h.h.l.l.j.d.f.z.>.>.<.<.4.4.2.2.2.#.#.$.+.+.O.} } } | { { { fXfXfXfXfXfXfXfXfXfXfXfXfX",
"fXfXfXfXfXfXfXfXfXfXfXfX%X%X%X%X%X%XL.L.L.I.I.U.U._._._.'.'.[.+X6X7X8XeXrXtXtXsXsXsXpXtXiXuXwXqXqX#XXXXXXX{.{.(.(.^.^././.~.~.W.E.E.E.E.E.R.R.R.R.Y.A.A.Z.Z.C.C.V.N.m.m.n.b.h.h.h.j.j.d.z.z.>.<.<.4.4.2.2.2.#.$.$.+.O.} } } { { { ] ] ] fXfXfXfXfXfXfXfXfXfXfXfX",
"fXfXfXfXfXfXfXfXfXfXfXK.K.K.K.K.L.L.L.L.I.I.I.U.].].].[.[.[.+X6XqXqXwXuXrXtXtXpXsXsXtXtXiXuXwXqXqX#XXXXXXX{.{.(.(.(.^././.~.~.~.~.E.E.E.E.E.R.R.R.R.R.A.A.Z.Z.C.C.V.V.m.m.n.b.b.h.j.j.d.z.z.>.>.<.4.2.2.2.#.#.$.+.O.} } } { { ] ] A s s s fXfXfXfXfXfXfXfXfXfXfX",
"fXfXfXfXfXfXfXfXfXfX5.P.P.L.L.L.L.L.I.I.I.I.oXoX@X@X+X+X6X6XqXqXqXwXuXuXiXiXtXtXtXtXtXrXuXwXqXqX6X#XXXXX{.{.{.(.(.^.^.^././.~.~.~.~.E.E.E.E.E.R.R.R.R.Y.A.A.Z.Z.C.C.V.V.m.m.m.B.b.k.j.d.z.z.>.>.>.<.1.;.#.#.$.+.O.} } { { ] ] s s s s i i r fXfXfXfXfXfXfXfXfXfX",
"fXfXfXfXfXfXfXfXfX5.5.H.P.P.L.L.I.I.I.I.oX5X5X5X5X6X6X7X7XqXqXwXwXuXuXuXuXiXrXrXrXrXeXeXwX8X7X6X+X[.XXXX{.{.^.^.^.^.^././././.~.~.~.~.Q.E.E.E.E.R.R.R.Y.A.A.A.Z.Z.Z.C.V.V.V.m.m.B.k.k.j.d.z.>.>.:.;.;.$.$.$.+.O.} { ] ] ] s s s d i u e q 9 9 fXfXfXfXfXfXfXfXfX",
"fXfXfXfXfXfX .&.:.>.>.H.H.J.J.I.I.I.I.I.oX5X5X9X7X8X8X8XwXwXuXuXuXuXuXuXuXeXeXeXeX0X8X8X7X7X6X+X[.'.'.`.`.^.^.^././././././././.~.~.~.~.Q.E.E.E.R.R.R.Y.A.A.A.A.Z.Z.Z.C.C.V.V.m.B.M.k.j.d.z.>.>.:.:.$.$.$.+.O.} { ] ` _ s s i i u u q q 9 8 8 < = - fXfXfXfXfXfX",
"' ` ` ` ] [  ...:.>.>.z.v.J.J.U.U.U.U.].5X5X7X8X8X0XeXeXuXuXiXiXuXuXuXeXeXwX8X8X8X7X7X6X6X+X[.[.'.'.`.`././.~.~.~.~.~./././././.~.~.~.~.Q.Q.E.E.R.R.R.R.A.A.A.A.A.Z.A.Z.Z.C.C.N.N.M.k.j.d.z.>.>.:.:.@.+.O.} { ] ] ` s s i i u u q q q 8 8 < = = - - # # # # # # ",
"` ` ` ` ] [ ....&.>.>.z.x.G.G.U.U._.].].5X7X8X8XeXeXrXrXtXtXtXiXrXrXeXeX8X8X7X7X6X+X+X[.[.'.'.`.`.!.!./.Q.Q.Q.Q.Q.~.~.~././.^.^./.~.~.~.~.Q.Q.E.R.R.R.R.A.A.A.A.A.A.A.A.Z.Z.C.C.N.M.k.j.d.f.>.:.:.@.@. .} { ] ` _ s a i u u 6 6 5 5 5 4 > = = - - - # # # # # # ",
"` ` ` ] ] [ ....&.=.-.d.x.F.G.G.)._.].[.6X7X8XwXeXrXtXtXpXsXtXtXtXrXeX0X8X7X6X+X[.'.'.'.).).!.!.!.!.Q.Q.Q.Q.Q.Q.Q.Q.~.~./.^.^.^.^.^./.~.~.Q.Q.E.R.R.R.R.Y.A.A.A.A.Y.A.A.A.Z.Z.S.N.M.k.j.d.f.-.&.:... .} } ] ` _ s a u u f 6 6 6 4 4 4 > = = = - - - - # # # # # ",
"` ` ` ] ] [ ....&.=.=.d.x.F.D.D.).).'.[.6X7X8XuXeXrXtXsXsXsXsXtXtXrXeX8X7X6X[.[.'.).).!.!.!.Q.E.E.E.R.R.R.E.E.E.Q.Q.~.~.^.^.^.^.^.^.^./.~.~.Q.Q.E.R.R.R.Y.Y.Y.Y.Y.Y.Y.A.A.A.Z.S.N.M.k.j.d.f.-.&.&... .} { ] ` s a u y y 6 6 6 4 4 4 > = = = = - - - - - # # # # ",
"` ` ` ] ] [ ....&.=.s.d.k.F.D.!.!.`.'.[.+XqXqXwXuXiXtXpXsXsXpXtXtXeX0X8X6X+X]._.).!.!.E.E.R.R.R.R.R.R.R.R.R.E.E.Q.Q.~./.^.^.^.^.^.^.^.^./.~.Q.Q.E.R.R.R.R.Y.Y.Y.Y.Y.Y.Y.A.A.Z.S.N.M.k.j.d.f.-.&.&... .} { ] s s a u y f 6 6 4 4 4 4 > > = = - - - - - - - - - # ",
"` ` ] ] | [ ....&.=.s.d.k.N.S.R.!.`.'.[.#X6XqXwXuXuXrXtXtXtXtXtXrXeX8X7X@X].'.).!.E.R.R.T.T.T.T.Y.Y.R.R.R.R.E.E.Q.~./.^.^.^.{.{.{.{.^.^.^./.~.Q.Q.E.R.R.R.R.Y.Y.Y.Y.Y.A.A.Z.Z.S.N.M.k.j.d.f.-.&.&. . .} { ] ` s a u u y 6 6 6 4 4 4 > > > > < - < : : - - - ; ; ",
"h E E ] [ [ ....&.=.=.d.k.M.S.D.!./.`.'.[.#XqXqXwXeXeXrXtXtXrXeXeX8X7X5X]._.).!.E.R.Y.T.T.T.T.T.T.Y.Y.R.R.R.E.Q.~./.^.^.^.{.{.{.{.{.{.{.^.^./.~.Q.E.E.R.R.R.R.Y.Y.Y.A.A.A.Z.C.S.N.M.k.j.d.f.-.&.&... .} } { ` _ s a u u 6 6 6 5 4 4 4 > < < < < < < < 1 1 1 1 1 ",
"E E E E W [ ....&.=.=.d.j.M.S.D.!.!.`.'.[.+X6X7X7X8X0XeXeXeXeX8X8X7X5X@X].).!.!.R.Y.T.T.T.T.T.T.T.Y.R.R.R.E.Q.Q.~.^.^.{.{.{.}.}.}.}.{.{.{.^.^./.~.Q.E.E.R.R.R.Y.Y.A.A.A.Z.C.C.N.B.M.k.j.d.z.>.:.:.@.@. .} { ] ` _ s a u u 6 6 5 5 5 5 8 8 < < < 2 2 2 2 2 2 2 2 ",
"E E W W W W ..&.&.=.=.f.j.M.N.D.E.Q./.`.'.[.[.+X6X7X7X8X8X8X8X7X5X5X].]._.).!.R.R.T.A.A.A.A.T.T.Y.Y.R.R.E.E.Q.~./.^.{.{.{.}.}.}.}.}.}.}.{.{.^.^.~.~.Q.E.E.R.R.Y.Y.A.A.Z.C.C.C.B.B.k.j.d.d.z.>.>.:.:.@.+.O.} { ] ` _ s a i u e 6 q q 9 9 9 9 0 0 2 2 2 2 2 2 2 2 ",
"W W W W W ~ ~ &.&.=.-.f.j.M.N.S.R.!.!./.`.'.'.[.[.+X+X6X6X6X6X@X].]._.).).!.D.A.A.A.A.A.A.A.A.T.Y.R.R.E.E.Q.~./.^.^.{.{.}.}.|.|.|.|.}.}.}.{.{.^.^.~.Q.E.E.R.R.Y.A.A.Z.C.C.V.m.m.M.k.j.d.z.>.>.>.:.:.@.$.+.O.} { ] ` _ s a i u u e e q 9 0 t t t t t t t B B M M ",
"W W W W W ~ ~ ) *.=.-.f.l.k.F.S.D.R.Q.!.!.`.`.'.'.'.[.[.[.[.].'._._.).).!.D.D.Z.Z.Z.Z.Z.Z.A.A.T.Y.R.R.E.E.~.~.^.^.{.{.}.}.|.|.|.|.|.|.}.}.{.{.^.^.~.~.E.E.R.R.Y.A.Z.Z.V.V.m.m.B.h.k.j.d.d.>.>.>.>.;.;.$.$.+.O.} { ] ` s s d i u e e e r r r r t B B B B B B B B ",
"W W ~ ~ ~ ~ ~ ) *.-.-.f.l.k.B.S.Z.D.R.!.!./.!.!.`.`.).).).).).).).!.!.!.D.D.Z.S.C.C.C.Z.Z.Z.A.A.R.R.E.E.E.~.~.^.^.{.{.}.}.|.|.|.|.|.|.}.}.}.{.^.^.~.~.E.E.R.R.A.A.Z.V.V.m.n.n.b.h.l.j.d.d.>.>.>.:.;.;.$.$.$.O.o.} ] ] _ s s i i u r r r r r r N N N N B B B B B ",
"~ ~ ~ ~ ~ ~ ~ ) ) -.-.f.l.k.B.N.S.Z.D.R.R.E.Q.Q.Q.Q.!.!.!.!.!.!.!.R.R.A.Z.Z.C.C.C.C.C.C.C.Z.A.A.R.R.E.E.E.~.~.^.^.{.}.}.}.|.|.|.|.|.|.}.}.{.{.^.^.~.~.E.E.R.Y.A.Z.C.V.m.n.b.b.g.g.g.d.d.f.>.>.>.:.;.;.$.$.$.+.O.} ] ] _ s s i i u u r r r p r N N N N N N N N N ",
"~ ~ ~ ~ ~ ~ ~ ) *.-.f.f.l.k.M.B.S.S.A.A.R.R.R.E.E.E.E.E.E.E.E.R.R.R.A.Z.C.C.C.C.C.C.C.C.C.Z.Z.A.R.R.E.E.E.~.~.^.^.{.{.}.}.|.|.|.|.|.|.}.}.{.{.^.~.~.E.E.R.R.A.Z.C.V.m.n.b.b.g.g.g.g.s.f.f.>.>.>.>.;.;.$.$.$.+.o.{ ] ` s s d i u u r r r r r r N N N N N N N N N ",
"~ ~ ~ ~ ~ ~ *.*.*.-.f.f.f.l.M.B.N.C.Z.A.A.Y.Y.Y.Y.R.R.R.R.R.Y.Y.T.A.Z.C.C.C.m.m.m.m.m.C.C.C.Z.A.A.R.R.E.E.~.~.^.^.{.{.}.}.}.|.|.|.}.}.}.{.{.^.^.~.E.E.R.R.A.Z.C.V.m.n.n.a.i.p.p.g.s.s.s.=.-.>.:.:.;.;.$.$.+.O.} ] ` s s i i u u e e e r r r r r N N N N N N N R ",
"X.X.X.X.*.*.*.*.*.-.f.f.f.l.h.B.B.C.C.Z.Z.A.T.T.T.T.T.T.T.T.T.A.A.Z.C.V.V.m.m.m.m.m.m.m.C.C.C.Z.A.R.R.E.E.Q.~./.^.^.{.{.}.}.}.}.}.}.}.{.{.^.^.~.E.E.R.R.A.Z.C.V.n.n.n.a.a.i.p.p.t.s.s.s.=.-.>.:.:.:.@.$.+.O.} { ] _ s i u u 6 6 6 q e e r r r r N N N N N N R R ",
"X.X.X.X.*.*.*.*.-.-.f.f.f.l.h.B.B.N.C.C.C.Z.Z.A.A.A.A.A.A.A.A.Z.Z.V.V.V.m.m.m.m.m.m.m.m.m.C.C.Z.A.A.R.R.E.Q.~.~.^.^.^.{.{.{.{.{.{.{.{.^.^.~.~.E.E.R.R.Z.C.C.V.m.n.b.a.a.i.p.p.u.t.t.s.=.=.=.&.:.&.@.@.+.O.} { ] _ a d u 6 6 6 5 5 5 5 9 t r r r N N N N N N N R ",
",.,.,.,.,.,.,.*.-.-.f.f.f.l.h.h.B.m.m.V.V.V.C.Z.Z.Z.Z.Z.Z.Z.Z.C.V.V.V.m.m.n.n.b.b.n.m.m.m.C.C.C.Z.A.R.R.E.E.Q.~.~./.^.^.^.{.{.{.{.^.^.^.~.~.E.R.R.A.Z.C.C.m.n.n.a.a.i.i.p.p.u.t.t.t.( =.=.=.&.&.@.@. . .} { ] _ a a y 6 6 3 3 3 3 4 4 5 9 t t t r N N N N N N N ",
",.,.,.,.,.,.,.,.-.-.-.f.f.l.l.h.b.B.m.m.m.V.V.V.V.V.V.C.C.C.C.V.V.V.m.m.n.n.b.b.b.b.b.m.m.m.C.C.Z.A.A.R.R.E.E.Q.~.~.~.^.^.^.^.^.^.^.~.~.E.E.R.R.A.Z.C.V.m.n.b.a.a.i.p.p.p.y.r.t.e.t.( ( =.&.&.&... . .} { ] ` s a y 6 7 3 3 3 , , , > 4 5 9 t t t r N N N N N N ",
",.,.,.,.,.,.,.,.-.-.-.f.f.l.l.h.h.b.b.n.n.n.n.V.V.V.V.V.V.V.V.V.m.m.m.n.n.b.b.b.b.b.b.m.m.m.C.C.C.Z.A.A.R.R.R.E.Q.Q.~.~.~.~.~.~.~.~.Q.E.E.R.A.Z.C.C.m.n.b.b.a.i.i.p.u.u.y.r.e.e.e.( ( ( ) &.&..... .} } { ` s a u f 6 3 3 O O O O , , > > 9 9 t t t t N N N N N ",
",.,.,.,.,.,.,.,.-.-.-.f.f.f.l.h.g.g.b.b.n.n.n.n.m.m.V.V.V.V.m.m.m.m.m.n.b.b.b.b.b.b.b.b.m.m.m.C.C.Z.Z.A.A.R.R.R.E.E.E.Q.Q.Q.~.E.E.E.E.R.R.A.Z.C.C.m.n.b.a.i.p.p.p.u.y.r.r.r.e.e.( ( ( ( ) / &.......[ [ ] s s u y 6 7 3 3 O O O O , , , > 5 9 9 0 t t t N N N N ",
",.,.,.,.,.,.,.,.-.-.-.f.f.f.l.g.g.i.i.b.b.b.n.n.n.m.m.m.m.m.m.m.m.m.m.b.b.b.b.b.b.b.b.b.m.m.m.C.C.C.Z.Z.A.A.R.R.R.R.E.E.E.E.E.E.E.R.R.R.A.Z.C.V.m.n.b.a.i.p.p.p.y.y.r.r.r.e.e.( ( ( ( / / / ! ......| ] E s s u y 6 7 3 3 O O O O * , , > > 9 9 0 0 t t t B B B ",
",.,.,.,.,.,.,.,.-.-.-.-.f.s.s.p.p.p.p.i.a.a.a.b.b.n.n.m.m.m.m.m.m.m.b.b.b.b.b.b.b.b.b.b.m.m.m.m.C.C.C.C.Z.Z.A.A.R.R.R.R.R.R.R.R.R.R.A.Z.C.C.V.m.b.b.i.i.p.p.y.y.r.r.r.w.q.q.P P U U ( / / / ! ! ..[ [ | E s s i y 6 7 3 3 O O O * , , , > > 8 9 0 0 0 0 t t t B ",
",.,.,.,.,.,.,.,.-.-.-.-.f.t.t.t.p.p.p.p.i.a.a.a.b.b.b.n.m.m.m.m.m.m.b.b.b.b.b.b.b.b.b.b.m.m.m.m.N.C.C.C.C.C.Z.Z.A.A.A.A.A.R.Y.A.A.Z.Z.C.C.m.m.b.b.i.p.p.p.y.y.r.r.w.q.q.q.P P P L L Y / / / ! ! ..[ [ | E E s d u f 6 7 3 3 3 , , , , > > > < 2 2 0 2 2 0 0 2 0 ",
",.,.,.,.,.,.,.*.*.*.-.-.( t.t.t.u.u.p.p.p.i.i.a.a.b.b.b.b.b.m.m.n.b.b.b.b.b.b.b.b.b.b.m.m.m.m.m.m.N.C.C.C.C.C.C.C.C.Z.Z.Z.Z.Z.Z.Z.C.C.C.m.n.b.b.i.p.p.p.y.r.r.r.w.q.q.q.P P L L L Y Y Y / / ! ! ! ! ! W E E h p d u f 6 6 7 3 3 3 4 > > > < < 2 2 2 2 2 2 2 2 2 ",
",.,.,.*.*.*.*.*.*.*.) ) ( ( t.t.t.u.u.p.p.p.i.i.i.a.b.b.b.b.b.b.b.n.b.b.b.b.b.b.m.m.m.m.m.m.m.m.m.m.m.m.m.m.C.C.C.C.C.C.C.C.C.C.C.C.m.m.n.b.a.i.p.p.p.y.r.r.r.w.q.q.P P L L L L H H Y Y / / ! ! ! ! ! W W E E h p d u e 6 6 6 5 5 4 4 4 > < < < 2 2 2 2 2 2 2 2 ",
"X.X.X.X.*.*.*.*.) ) ) ) ( ( t.t.t.r.r.y.u.p.p.p.i.i.a.b.b.b.b.b.b.n.n.m.m.m.m.m.m.m.m.m.m.m.m.m.m.m.m.m.m.m.m.m.m.m.m.m.V.m.m.m.m.n.n.b.b.a.i.p.p.p.y.r.r.r.w.q.q.P L L K K I H H J J Y / ^ ! ! ! ~ W W W W E E h p p u u e q 6 5 5 5 8 8 < < < 2 2 2 2 1 1 1 1 ",
"X.X.X.X.X.~ ~ ) ) ) ) ) ( ( ( e.e.t.r.r.y.u.p.p.p.i.i.a.b.b.b.b.b.b.m.m.m.m.m.m.m.m.m.m.m.m.m.m.m.b.b.b.b.b.n.n.n.n.n.m.m.m.m.n.b.b.b.b.i.i.p.p.u.y.r.r.r.w.q.q.P L L K I I H H H J J Y Y ^ ! ! ! ! ! W W W W E E h p p d u u e q q 9 9 8 < < < < < < < : - - - ",
"~ ~ ~ ~ ~ ~ ~ ~ ) ) ) ) ( ( ( ( e.e.r.r.r.y.u.p.p.p.i.i.i.a.b.b.b.b.b.m.m.m.m.m.m.m.m.m.m.m.m.b.b.b.b.b.b.b.b.b.b.b.b.b.b.b.b.b.b.b.i.i.p.p.p.y.y.r.r.e.w.q.P P L K I I H H G J J J J Y ^ ^ ! ! ! ! ! ! ! W W Q E E h s p p i u e q 9 9 8 < < < : : : - - - - - ",
"~ ~ ~ ~ ~ ~ ~ ~ ) ) / / ( ( ( ( ( e.e.r.r.r.y.y.p.p.p.p.i.i.a.b.b.b.b.m.m.m.m.m.m.m.m.m.m.m.b.b.b.b.b.b.b.b.b.b.b.b.b.b.b.b.b.a.i.i.p.p.p.p.y.r.r.r.e.w.q.P P L K I I G G G F F J J Z Z Z ^ ^ ! ! ! ! ! W W W Q E E E s s p i u u q q 9 8 < < : : : - - - # # # ",
"~ ~ ~ ~ ~ ~ ! ! ! / / / / / ( ( P P q.w.r.r.r.y.y.p.p.p.p.i.i.a.b.b.b.n.m.m.m.m.m.m.m.m.m.m.b.b.b.b.b.b.a.i.i.i.i.i.i.i.i.i.i.i.p.p.p.p.u.y.r.e.r.e.q.q.P L L L I I G G G F F F F Z Z Z Z S ^ ^ ^ ! ! W W W W Q E E h s s p i u u q 9 9 8 < < = - - - # # # # # ",
"~ ~ ~ ~ ! ! ! ! ! ! / / / / ( L P P P q.q.w.r.r.r.y.u.p.p.p.i.i.a.b.b.b.b.m.m.m.m.m.m.m.m.m.b.b.b.b.b.b.i.i.i.i.i.i.i.i.i.p.p.p.p.p.u.y.r.r.r.e.w.q.P P L L L I I G G G F D D F C C Z Z Z Z ^ ^ ^ Q Q Q Q Q Q E E h p p p i u u e q q 8 8 < = - - - @ @ @ @ @ @ ",
"! ! ! ! ! ! ! ^ ^ ^ / / / / Y L L P P P q.q.w.r.r.r.y.y.p.p.p.i.i.a.b.b.b.b.m.m.m.m.m.m.m.m.b.b.b.b.b.b.a.i.i.i.i.i.p.p.p.p.p.p.p.u.y.r.r.r.e.w.q.P P L L K I I G G G D D D D C C Z Z Z Z Z Z N R R R R E E h p p p p d u u u q q q 8 8 > = = & & @ @ @ @ @ @ @ ",
"Q R R R ^ ^ ^ ^ ^ ^ ^ / / Y Y H L L L P P q.q.w.r.r.r.r.y.p.p.p.p.i.a.b.b.b.b.m.m.m.m.m.m.m.b.b.b.b.b.b.a.i.i.i.i.i.p.p.p.p.p.u.y.r.r.e.r.e.w.q.P P L L I I H G G G D D D D C C C V Z V Z B B B N N N p p p p p d u u u u q 6 6 5 5 4 > > = & & @ @ @ @ @ @ @ @ ",
"R R R R R R ^ ^ ^ ^ ^ Z J J J H H L L L L P P q.w.e.r.r.r.y.p.p.p.p.i.i.b.b.b.b.b.n.m.m.n.n.b.b.b.b.b.b.b.a.i.i.i.p.p.p.p.p.y.y.r.r.r.e.w.q.q.P P L L I I H G G G D D D D n C C V V V V B B B B B r r r r r e e e f f 6 6 5 6 5 4 4 4 > = % % & @ @ @ @ @ @ @ @ ",
"R R R R R R R ^ ^ ^ Z Z Z J J J H H I I K L P P q.q.w.r.r.r.y.y.p.p.p.i.i.a.b.b.b.b.b.b.b.b.b.b.b.b.b.b.b.a.i.i.p.p.p.p.p.y.y.r.r.r.e.w.q.P P L L I I H H G G F D D D D n n n b b v m M M M B t t t e e e f 6 6 6 6 6 5 7 3 3 3 4 , * * % % % $ @ @ @ + @ @ @ @ ",
"R R R R R R R ^ S Z Z Z Z Z J J J G H H I K L L P P q.w.e.r.r.r.y.p.p.p.p.i.i.a.b.b.b.b.b.b.b.b.b.b.b.b.i.i.i.p.p.p.p.u.y.r.r.r.e.e.q.q.P P L L I H H G G F D D D D n n n n b b v x x m M M w w 9 9 5 5 5 5 5 7 7 3 3 3 3 3 3 3 * * * % % % $ $ + + + + + + + + ",
"R R R R R R N N N Z Z Z Z Z Z J F F G G G I I K L P P q.q.e.r.r.r.y.y.p.p.p.p.i.i.i.i.i.b.b.b.g.g.i.i.i.i.p.p.p.p.u.y.r.r.r.r.e.q.q.P P L L I I H G G F D D D C n n n n n b b v x x x z M w w 8 8 4 4 4 3 3 3 3 3 3 3 g g O O O O O % % % $ $ $ + + + + + + + + ",
"R R R R N N N N B B Z Z Z Z Z C C F D F G G G I K L L P P q.q.e.r.r.r.r.y.u.p.p.p.p.p.p.p.p.p.p.p.p.p.p.p.p.p.u.y.r.e.r.e.w.q.P P L L L I I H G G F D D C C C n n n b b v v v x x x z z 1 1 < < 4 4 4 4 4 3 3 3 g O O O O O O O O o o X X $ $ $ + + + + + + + + ",
"R R R R N N N N B B B B V V V V C C C D D D G G H I K L L L P q.q.w.w.r.e.e.r.r.r.y.y.u.y.u.u.u.y.y.y.y.r.r.r.e.r.w.w.q.P P L L K I I H G G F D D D C n n n b b v v v v x x x c c z z 1 1 < < > > > , , * * O O O O O O O O o o o o X X X X X $ + + + + + + + + ",
"N N N N N N N N N B B B m m m v b b n n n D D D G G G I I K L L L P P q.q.w.w.w.w.w.w.w.w.w.w.w.w.w.w.w.w.w.w.U P P P K K I I G G G F D D D n n n n b b v v v v x x l l l c c z z 1 1 ; : = = = = * * * * O O O O O o o o o o o X X X X X X X X X $ + + + + + + ",
"p p p p N N N N B B B B M M x x x v v v b n n T D D G G G G I I I K K K K L L P P P P P P P P P P P P P P P L K I I G G G F D D D n n n n n v v v v v x x x l l l c c c j j ; ; ; ; : : - = = % % % % % % o o X o o o X X X X X X X X X X X X X X X X X $ $ X $ ",
"p p p p p p p N B B B M M z z c c l x x v v v n n T D D D G G G G G G G G G G G G G H H H I H H H H H H G G G G D D D D n n n n b v v v v v x l l l l l j j j j j j ; ; ; ; ; ; - - - - & & & & % % % % $ X X X X X X X . . . . . . X X X X X X X X X X o o o o ",
"p p p p p p r r r t t 0 w z z z z c c l l l v v b n n n D D D D D D D D D D D D D D D D D D D D D D D D D D C C n n n b v v v x l l l l l l j j j j j j j j ; ; ; ; ; - # # - - # & # & & & @ $ $ $ $ $ $ X X X . . . . . . .   . . . X X X X X X X o o o o o o ",
"p p p p p i i r r q 0 w w 1 1 1 ; j j j j l l x v v v n n n n n n n n n C n n n n n n n n C C C C C n b b b b b v v x x l l l j j j j j j j j j ; ; ; ; ; ; ; ; - # # # # # # @ @ @ @ @ @ @ + + + $ $ + + . . . . . .             . . X X X X o o o o o O O O O ",
"s p p p i i i i r q q w w 1 1 : ; ; ; ; j j l l x v v b b n n n n b b b v v v v v v v v v v v v v v v x x x x x l l z c j j j j ; ; ; ; ; ; ; ; ; ; ; ; ; - - - - # # @ @ @ @ @ @ @ @ @ + + + + + + + + + + . . .                 . . X X X o o o o O O O O O O ",
"s s s p i i i u e q 9 9 8 < < : ; ; ; ; ; j c l c x v v b b b b V V V V x x x x x x x x x x x x x x x x x x c z z z z z ; ; ; ; ; ; ; ; ; ; ; ; ; ; ; ; - - - - - - & & @ @ @ @ @ + + + + + + + + + + + + + + . .                 . . X X X o o o O O O O O O O ",
"a a a p i i u u e q 9 9 8 < < : : : ; ; ; 1 z c x x m V V V V V V V V V m m m m m m m m m m m m m m m m m m z z z z z 1 1 1 1 1 1 1 : : : : : : : : : : : : : - - - & & & & & & % % % % $ $ + + + + + + + + + . . . .             . . X X o o o O O O O O O O O ",
"a a a d d i i u q q 9 9 8 8 < < < < < 1 1 1 z M m m m V Z Z Z Z Z Z Z Z Z V V V M M M M M M M M M M m m m m M M M M M M w w w 1 1 1 1 1 1 1 1 w w w 1 1 1 < < < < < = = = & & & % % % % % % % % % $ $ $ $ $ + . . . . . . . . . . . X X X o o o O O O O O O O O ",
"a a a d d i u u q q q 9 8 8 8 < < < < w w w M M B B S S S S S S S S S S S S S S A A A A A A A A A A A B B B B B B B B M M M M M 0 0 0 0 0 0 0 M 0 0 0 0 w w w w 9 8 8 < > > , , = = = * % % % % % % % % % $ $ $ $ X X X X X X X X X X X o o o O O O O O O O O O ",
"a a a d d i u u q q q q 9 9 8 8 8 8 9 w w M B B A S S S ! ! ! ! ! ! ! ! ! ! ! ! ! ! Q Q S S S S S S S S S S S A A A A A A A A A A B A A A A A A A A A B B B r r q q 9 9 9 8 4 4 > > > > > , = * * * % % % % % % % % X X X X X X o o o o o o O O O O O O O O O O ",
"fXfXfXfXfXfXfXu u q q q q q 9 9 9 9 q q r B A A A Q ! ....................................................[ [ [ [ W W W W A A A A A A A A A A A A A A A A A A A B i r r q q q 9 5 5 4 4 4 4 > > > , * * * * * % % % % % o o o o o o o o O O O O O fXfXfXfXfXfXfX",
"fXfXfXfXfXfXfXfXfXq q q q q q q q q r i i A A A W [ ......@.@.&.&.&.:.:.@.@.@.@.@.@.@.@.@.@.@.@.@.@. . ..... . . . . .......| [ [ [ [ [ [ [ ..[ [ [ [ [ [ [ E A A A p p i u e q q 6 5 5 5 4 4 4 4 4 , , , * * * * * * * * O O O O O O O O O O fXfXfXfXfXfXfXfXfX",
"fXfXfXfXfXfXfXfXfXfXe q q q e u u i i p A A E | |  . .@.@.@.;.;.;.;.;.;.;.;.;.;.;.;.;.;.;.;.;.;.$.@.@.@.@.@.@.@.@.@.+. . . . . . . . . . . . . . . . . . .} [ [ [ E A A s i i u u e q 6 5 5 5 4 4 4 3 4 4 4 4 , , , * * * * * * * O * O O O fXfXfXfXfXfXfXfXfXfX",
"fXfXfXfXfXfXfXfXfXfXfXu u u u u u i p s A ] | [ }  .+.$.$.;.;.;.;.;.2.2.2.2.2.2.2.2.2.2.1.;.;.;.;.;.;.$.;.$.$.$.$.$.$.$.$.@.+.+.+.+.+.$.+.+.+.+.+.+.+.+.O. .} } | [ ] ] A s s i i u u q 6 6 5 6 5 4 4 3 3 4 4 4 3 3 3 3 3 3 3 3 * * * , , fXfXfXfXfXfXfXfXfXfXfX",
"fXfXfXfXfXfXfXfXfXfXfXfXu i i i i s s s A ] [ } } +.+.$.$.$.;.;.1.2.2.2.2.2.2.2.4.4.4.2.2.2.2.2.2.;.;.#.;.#.#.#.$.$.$.$.$.$.$.$.$.$.$.$.$.$.$.$.$.$.$.$.+.+. .} } [ { ] A s s s i i u u 6 6 6 6 6 6 4 3 3 3 3 3 4 4 3 3 3 3 3 3 3 3 3 3 fXfXfXfXfXfXfXfXfXfXfXfX",
"fXfXfXfXfXfXfXfXfXfXfXfXfXi i i s s s s ] ] { } } } +.$.$.$.$.#.#.#.1.2.2.2.2.2.2.2.2.2.2.2.2.2.1.#.#.#.#.#.#.$.$.$.$.$.$.$.$.$.$.$.$.$.$.$.$.$.$.$.$.$.+.+.} } } { ] ] s s s s i i u u 6 6 6 6 6 6 6 3 3 3 3 3 3 3 3 3 3 3 3 3 3 3 3 fXfXfXfXfXfXfXfXfXfXfXfXfX",
"fXfXfXfXfXfXfXfXfXfXfXfXfXfXi a s s s s ` ] { { } } } O.+.+.$.$.$.$.#.#.#.#.#.2.1.2.1.1.1.1.#.#.#.#.$.$.$.$.$.$.$.$.$.$.$.$.+.+.+.+.+.+.$.$.$.$.+.+.+.+.O.} } } { { ] ` s s s i i u u y 6 6 6 6 6 6 7 3 3 3 3 3 3 3 3 3 3 3 3 3 3 3 fXfXfXfXfXfXfXfXfXfXfXfXfXfX",
"fXfXfXfXfXfXfXfXfXfXfXfXfXfXfXfXs s s s _ ` ] ] ] { { } } } } O.+.+.$.$.$.$.$.#.#.#.#.#.#.$.$.$.$.$.$.$.$.$.$.$.+.+.+.+.+.+.+.+.O.O.O.O.O.+.+.+.O.O.} } } } { { ] ] ` s s a i i u u y 6 6 6 6 6 6 6 7 3 3 3 3 3 3 3 3 3 3 3 3 3 fXfXfXfXfXfXfXfXfXfXfXfXfXfXfXfX",
"fXfXfXfXfXfXfXfXfXfXfXfXfXfXfXfXfXfXs s s s s _ ` ` ] ] ] ] { { } } } O.+.+.$.$.$.$.$.$.$.$.$.+.+.+.+.+.O.O.O.O.} } } } } } } } } } } } } } } } } } } } { { ] ] ] s s s a i u u u f 6 6 6 6 6 6 7 7 3 3 3 3 3 3 3 3 3 3 3 3 fXfXfXfXfXfXfXfXfXfXfXfXfXfXfXfXfXfX",
"fXfXfXfXfXfXfXfXfXfXfXfXfXfXfXfXfXfXfXfXs s s s s s s s s s s ` ] ] { } } } } O.+.+.+.+.+.+.O.} } } } } } } } } } } } } } } } } { { { { { { { { { { { { ] ] ` s s s s i i u u 6 6 6 6 6 6 6 6 7 7 3 3 3 3 3 3 3 3 3 3 3 fXfXfXfXfXfXfXfXfXfXfXfXfXfXfXfXfXfXfXfX",
"fXfXfXfXfXfXfXfXfXfXfXfXfXfXfXfXfXfXfXfXfXu u u u u u u i i i s s s ` ] { { } } } } } } } } } } } } { { { { { { { { { ] { ] { { ] ] ] ] ] ] ] ] ] ] ] ] s s s s s i i u u u 6 6 6 6 6 6 6 7 3 3 3 3 3 3 3 3 3 3 3 3 3 fXfXfXfXfXfXfXfXfXfXfXfXfXfXfXfXfXfXfXfXfX",
"fXfXfXfXfXfXfXfXfXfXfXfXfXfXfXfXfXfXfXfXfXfX6 6 6 6 6 6 6 6 u u i d s s _ ] ] { { { } } } { { { { ] ] ] ] ] ] ] ] ] ] ] ] ] _ _ ] ] _ s ` _ s s s s s s s s s i i u u u 6 6 6 6 6 6 7 3 3 3 3 3 3 3 3 3 3 3 3 3 3 3 fXfXfXfXfXfXfXfXfXfXfXfXfXfXfXfXfXfXfXfXfXfX",
"fXfXfXfXfXfXfXfXfXfXfXfXfXfXfXfXfXfXfXfXfXfXfX3 3 3 3 7 6 6 6 6 u u i s s s ` ] ] { { { { { ] ] ] ] ` s s s s s s s s s s s s s s s s s s s s s s s s s a i i u u u f 6 6 6 6 6 6 7 3 3 3 3 3 3 3 3 3 3 3 3 3 3 3 fXfXfXfXfXfXfXfXfXfXfXfXfXfXfXfXfXfXfXfXfXfXfX",
"fXfXfXfXfXfXfXfXfXfXfXfXfXfXfXfXfXfXfXfXfXfXfX3 3 3 3 3 3 3 6 6 6 u u i s s s _ ] ] ] ] ] ] ] ] s s s s s s s s s s s s s s s s s s s s s s s s s s a i i i u u u 6 6 6 6 6 6 6 3 3 3 3 3 3 3 3 3 3 3 3 3 3 3 3 3 fXfXfXfXfXfXfXfXfXfXfXfXfXfXfXfXfXfXfXfXfXfXfX",
"fXfXfXfXfXfXfXfXfXfXfXfXfXfXfXfXfXfXfXfXfXfXfXO g 3 3 3 3 3 3 6 6 6 u u i s s s s ] ] ] ] ] s s s s s s s s s s s s s s s s s s s s s s s s s s i i i i u u u u f 6 6 6 6 6 6 3 3 3 3 3 3 3 3 3 3 3 3 3 3 3 3 3 3 fXfXfXfXfXfXfXfXfXfXfXfXfXfXfXfXfXfXfXfXfXfXfX",
"fXfXfXfXfXfXfXfXfXfXfXfXfXfXfXfXfXfXfXfXfXfXfXfXO O O 3 3 3 3 3 6 6 6 u i s s s s s s A ] ] s s s s s s s s s s s s s s s s s s s s s s d i i i i i i i u u u y 6 6 6 6 6 6 7 3 3 3 3 3 3 3 3 3 3 3 3 3 3 3 3 3 fXfXfXfXfXfXfXfXfXfXfXfXfXfXfXfXfXfXfXfXfXfXfXfX",
"fXfXfXfXfXfXfXfXfXfXfXfXfXfXfXfXfXfXfXfXfXfXfXfXO O O O 3 3 3 3 6 6 6 u i i s s s s s s ] s s s s s s s s s s s s s s s s s s s s s s s i i i i i i i i u u u y 6 6 6 6 6 6 3 3 3 3 3 3 3 3 3 3 3 3 3 3 3 3 3 3 fXfXfXfXfXfXfXfXfXfXfXfXfXfXfXfXfXfXfXfXfXfXfXfX"
};
