/* XPM */
static const char *media0[] = {
/* columns rows colors chars-per-pixel */
"128 128 224 2 ",
"   c #152C0D",
".  c #13240C",
"X  c #17320F",
"o  c #19360F",
"O  c #1A2814",
"+  c #193610",
"@  c #1B3C12",
"#  c #21321A",
"$  c #2C2C2C",
"%  c #252624",
"&  c #2B3328",
"*  c #333333",
"=  c #3B3B3B",
"-  c #373C35",
";  c #1F4216",
":  c #204617",
">  c #214618",
",  c #244C19",
"<  c #224B16",
"1  c #26531A",
"2  c #29551E",
"3  c #2A5B1E",
"4  c #2C5B21",
"5  c #34582A",
"6  c #3C5834",
"7  c #31462A",
"8  c #2E6221",
"9  c #2F6823",
"0  c #326B25",
"q  c #356E29",
"w  c #336527",
"e  c #367329",
"r  c #38762C",
"t  c #3B7C2D",
"y  c #347327",
"u  c #3D6833",
"i  c #3C7930",
"p  c #2B601F",
"a  c #42593C",
"s  c #40483C",
"d  c #426739",
"f  c #437339",
"g  c #457939",
"h  c #3F3F40",
"j  c #444444",
"k  c #4B4B4B",
"l  c #4A5847",
"z  c #545454",
"x  c #5C5C5C",
"c  c #585C57",
"v  c #505C4D",
"b  c #4B6743",
"n  c #4F7248",
"m  c #4D7545",
"M  c #557D4B",
"N  c #54794B",
"B  c #5A6756",
"V  c #5E725A",
"C  c #597754",
"Z  c #52684D",
"A  c #637A5E",
"S  c #61735D",
"D  c #60695F",
"F  c #646364",
"G  c #656B63",
"H  c #6C6C6C",
"J  c #686A68",
"K  c #667E60",
"L  c #6E756C",
"P  c #697D64",
"I  c #71796F",
"U  c #706E71",
"Y  c #747474",
"T  c #757C73",
"R  c #7C7C7C",
"E  c #787779",
"W  c #6F6E70",
"Q  c #3D832E",
"!  c #3C892D",
"~  c #368426",
"^  c #3E8431",
"/  c #3F8B31",
"(  c #3D9130",
")  c #428633",
"_  c #428C33",
"`  c #4A823D",
"'  c #4B8B3C",
"]  c #458D38",
"[  c #439335",
"{  c #439B36",
"}  c #459539",
"|  c #4A943D",
" . c #46993A",
".. c #499C3D",
"X. c #4BA23E",
"o. c #47A23A",
"O. c #4D8440",
"+. c #4E8C42",
"@. c #508D42",
"#. c #55824C",
"$. c #58804F",
"%. c #538B4B",
"&. c #4D9741",
"*. c #529B46",
"=. c #559347",
"-. c #5B8552",
";. c #5C8954",
":. c #5C9951",
">. c #659B59",
",. c #62875C",
"<. c #4DA441",
"1. c #4EA841",
"2. c #51AB45",
"3. c #56A64A",
"4. c #56B54A",
"5. c #57BA4B",
"6. c #59BC4D",
"7. c #52B046",
"8. c #59AE4E",
"9. c #66A45A",
"0. c #63B358",
"q. c #6A8364",
"w. c #6E8669",
"e. c #698364",
"r. c #798377",
"t. c #7C857A",
"y. c #7A8578",
"u. c #72946C",
"i. c #6DA362",
"p. c #6CAE62",
"a. c #72A767",
"s. c #6DB564",
"d. c #73B76A",
"f. c #7AA871",
"g. c #7CB775",
"h. c #5CC351",
"j. c #5EC954",
"k. c #5BC950",
"l. c #60CD56",
"z. c #64C95B",
"x. c #63D55A",
"c. c #66DA5C",
"v. c #66D95C",
"b. c #67E45F",
"n. c #77D470",
"m. c #6BE462",
"M. c #6DEA64",
"N. c #71EC68",
"B. c #72F46A",
"V. c #70F167",
"C. c #70F368",
"Z. c #818A7E",
"A. c #80817F",
"S. c #81997E",
"D. c #82AB78",
"F. c #85B67C",
"G. c #82CA7C",
"H. c #7F7E80",
"J. c #807F80",
"K. c #838383",
"L. c #888689",
"P. c #8C8C8C",
"I. c #868785",
"U. c #8E928E",
"Y. c #8A9988",
"T. c #908E91",
"R. c #949494",
"E. c #989699",
"W. c #9B9B9C",
"Q. c #969996",
"!. c #909090",
"~. c #8EB685",
"^. c #8CB787",
"/. c #94B98D",
"(. c #98A696",
"). c #9ABC92",
"_. c #98B594",
"`. c #89A885",
"'. c #A0BA9A",
"]. c #9F9DA0",
"[. c #A09EA1",
"{. c #A4A3A4",
"}. c #ABABAB",
"|. c #A7A6A7",
" X c #B0AEB1",
".X c #B3B3B3",
"XX c #BBBBBB",
"oX c #B9B6B9",
"OX c #AFAEB0",
"+X c #8AC484",
"@X c #9BC594",
"#X c #A3C79C",
"$X c #ABC9A6",
"%X c #B1CCAB",
"&X c #AAD2A5",
"*X c #BBCEB6",
"=X c #BCD5B8",
"-X c #B4D3AF",
";X c #C1D3BD",
":X c #C2DABE",
">X c #C0BEC0",
",X c #C3C3C3",
"<X c #CCCCCC",
"1X c #C7D9C4",
"2X c #D3D3D3",
"3X c #D5DDD3",
"4X c #D0DECE",
"5X c #CEE0CB",
"6X c #DDE4DC",
"7X c #D7E4D5",
"8X c #D1E1CE",
"9X c #E2E5E1",
"0X c #E5EAE4",
"qX c #EEEEEE",
"wX c #E8EBE7",
"eX c #ECF2EB",
"rX c #EFEEF0",
"tX c #F1EEF1",
"yX c #F4F2F4",
"uX c #FEFDFE",
"iX c #F8F5F9",
"pX c #E0E3DF",
"aX c None",
"sX c black",
/* pixels */
"aXaXaXaXaXaXaXaXaXaXaXaXaXaXaXaXaXaXaXaXaXaXaXaXaXaXaXaXaXaXaXC.C.b.x.5.o.{ ( ! aXaXaXaXaXaXaXaXaXaXaXaXaXaXaXaXaXaXaXaXaXaXaXaXaXaXaXaXaXaXaXaXaXaXaXaXaXaXaXaXaXaXaXaXaXaXaXaXB.C.M.c.k.1.{ ( ! aXaXaXaXaXaXaXaXaXaXaXaXaXaXaXaXaXaXaXaXaXaXaXaXaXaXaXaXaXaXaX",
"aXaXaXaXaXaXaXaXaXaXaXaXaXaXaXaXaXaXaXaXaXaXaXaXaXaXaXaXaXaXaXB.C.b.x.5.o.{ ( / aXaXaXaXaXaXaXaXaXaXaXaXaXaXaXaXaXaXaXaXaXaXaXaXaXaXaXaXaXaXaXaXaXaXaXaXaXaXaXaXaXaXaXaXaXaXaXaXB.C.M.v.h.2. .( / aXaXaXaXaXaXaXaXaXaXaXaXaXaXaXaXaXaXaXaXaXaXaXaXaXaXaXaXaXaXaX",
"aXaXaXaXaXaXaXaXaXaXaXaXaXaXaXaXaXaXaXaXaXaXaXaXaXaXaXaXaXaXaXB.N.m.x.6.1. .[ _ aXaXaXaXaXaXaXaXaXaXaXaXaXaXaXaXaXaXaXaXaXaXaXaXaXaXaXaXaXaXaXaXaXaXaXaXaXaXaXaXaXaXaXaXaXaXaXaXB.B.M.v.h.7...} _ aXaXaXaXaXaXaXaXaXaXaXaXaXaXaXaXaXaXaXaXaXaXaXaXaXaXaXaXaXaXaX",
"aXaXaXaXaXaXaXaXaXaXaXaXaXaXaXaXaXaXaXaXaXaXaXaXaXaXaXaXaXaXaXN.N.m.x.6.3.&.&.+.aXaXaXaXaXaXaXaXaXaXaXaXaXaXaXaXaXaXaXaXaXaXaXaXaXaXaXaXaXaXaXaXaXaXaXaXaXaXaXaXaXaXaXaXaXaXaXaXN.N.N.v.z.8.*.&.+.aXaXaXaXaXaXaXaXaXaXaXaXaXaXaXaXaXaXaXaXaXaXaXaXaXaXaXaXaXaXaX",
"aXaXaXaXaXaXaXaXaXaXaXaXaXaXaXaXaXaXaXaXaXaXaXaXaXaXaXaXaXaXG.n.n.n.z.0.8.:.=.;.aXaXaXaXaXaXaXaXaXaXaXaXaXaXaXaXaXaXaXaXaXaXaXaXaXaXaXaXaXaXaXaXaXaXaXaXaXaXaXaXaXaXaXaXaXaXaXaXn.n.n.n.s.0.:.=.;.>.aXaXaXaXaXaXaXaXaXaXaXaXaXaXaXaXaXaXaXaXaXaXaXaXaXaXaXaXaXaX",
"aXaXaXaXaXaXaXaXaXaXaXaXaXaXaXaXaXaXaXaXaXaXaXaXaXaXaXaXaXaX+X+XG.n.n.d.i.>.>.u.u.aXaXaXaXaXaXaXaXaXaXaXaXaXaXaXaXaXaXaXaXaXaXaXaXaXaXaXaXaXaXaXaXaXaXaXaXaXaXaXaXaXaXaXaXaXaX^.G.G.n.n.d.p.9.>.u.u.aXaXaXaXaXaXaXaXaXaXaXaXaXaXaXaXaXaXaXaXaXaXaXaXaXaXaXaXaXaX",
"aXaXaXaXaXaXaXaXaXaXaXaXaXaXaXaXaXaXaXaXaXaXaXaXaXaXaXaXaX(.^.+X+X+XF.g.f.u.u.u.t.Y.aXaXaXaXaXaXaXaXaXaXaXaXaXaXaXaXaXaXaXaXaXaXaXaXaXaXaXaXaXaXaXaXaXaXaXaXaXaXaXaXaXaXaXaXY.`.^.+X+XF.g.f.f.u.u.S.Y.aXaXaXaXaXaXaXaXaXaXaXaXaXaXaXaXaXaXaXaXaXaXaXaXaXaXaXaXaX",
"aXaXaXaXaXaXaXaXaXaXaXaXaXaXaXaXaXaXaXaXaXaXaXaXaXaXaXaXR.Q.(._././.^.`.`.S.S.Y.Y.P.P.aXaXaXaXaXaXaXaXaXaXaXaXaXaXaXaXaXaXaXaXaXaXaXaXaXaXaXaXaXaXaXaXaXaXaXaXaXaXaXaXaXaXP.U.Y.`.^.^.^.`.`.`.Y.Y.Y.R.R.aXaXaXaXaXaXaXaXaXaXaXaXaXaXaXaXaXaXaXaXaXaXaXaXaXaXaXaX",
"aXaXaXaXaXaXaXaXaXaXaXaXaXaXaXaXaXaXaXaXaXaXaXaXaXaXaXR.Q.Q.(.(._._.(.(.(.Y.Y.U.U.P.P.L.aXaXaXaXaXaXaXaXaXaXaXaXaXaXaXaXaXaXaXaXaXaXaXaXaXaXaXaXaXaXaXaXaXaXaXaXaXaXaXaXL.P.U.Y.(.(.(.(.(.(.(.(.Q.Q.Q.R.R.aXaXaXaXaXaXaXaXaXaXaXaXaXaXaXaXaXaXaXaXaXaXaXaXaXaXaX",
"aXaXaXaXaXaXaXaXaXaXaXaXaXaXaXaXaXaXaXaXaXaXaXaXaXaXaXE.E.W.(.{.|.|.{.{.(.W.Q.R.U.P.L.L.aXaXaXaXaXaXaXaXaXaXaXaXaXaXaXaXaXaXaXaXaXaXaXaXaXaXaXaXaXaXaXaXaXaXaXaXaXaXaXaXI.L.P.!.Q.W.(.(.{.{.{.{.(.W.W.E.E.aXaXaXaXaXaXaXaXaXaXaXaXaXaXaXaXaXaXaXaXaXaXaXaXaXaXaX",
"aXaXaXaXaXaXaXaXaXaXaXaXaXaXaXaXaXaXaXaXaXaXaXaXaXaX{.[.{.{.{.}.}.}.}.}.{.{.W.R.P.L.I.K.aXaXaXaXaXaXaXaXaXaXaXaXaXaXaXaXaXaXaXaXaXaXaXaXaXaXaXaXaXaXaXaXaXaXaXaXaXaXaXaXK.I.L.P.R.W.{.{.}.}.}.}.|.{.{.{.{.{.aXaXaXaXaXaXaXaXaXaXaXaXaXaXaXaXaXaXaXaXaXaXaXaXaXaX",
"aXaXaXaXaXaXaXaXaXaXaXaXaXaXaXaXaXaXaXaXaXaXaXaXaXaX}.{.{.}.}. X X X X X}.|.[.R.P.I.K.R R aXaXaXaXaXaXaXaXaXaXaXaXaXaXaXaXaXaXaXaXaXaXaXaXaXaXaXaXaXaXaXaXaXaXaXaXaXaXR R R K.L.R.W.{.}. X.X.X.X X}.}.{.{.}.aXaXaXaXaXaXaXaXaXaXaXaXaXaXaXaXaXaXaXaXaXaXaXaXaXaX",
"aXaXaXaXaXaXaXaXaXaXaXaXaXaXaXaXaXaXaXaXaXaXaXaXaXOX.X}..X.X.XoXoXoXoX.X X}.{.R.L.R R E E R aXaXaXaXaXaXaXaXaXaXaXaXaXaXaXaXaXaXaXaXaXaXaXaXaXaXaXaXaXaXaXaXaXaXaXaXR E E R R L.R.[.|. X.XoXXXXXoX.X.X.X}..X}.aXaXaXaXaXaXaXaXaXaXaXaXaXaXaXaXaXaXaXaXaXaXaXaXaX",
"aXaXaXaXaXaXaXaXaXaXaXaXaXaXaXj j k k z J E L.W.}..X.X.XXXXXXXXX>XXXXXXX.X X{.R.I.R Y Y Y E E H F x z k a 6 5 8 8 0 0 q q q q q q q q q q 0 0 8 8 5 6 a k z x F H E E Y Y Y R K.R.{.}..XoXXX>X>XXXXXXXXX.X.X.X}.W.L.E J z k k j j aXaXaXaXaXaXaXaXaXaXaXaXaXaXaX",
"aXaXaXaXaXaXaXaXaXaXaXaXaXaXj j j k z c J E L.W.}..XXXXXXX,X,X,X,X,X,XXXXX X{.R.K.E H H Y E E H F x z k a 6 5 8 9 0 q e e e e e e e e e e q 0 8 8 5 6 a k z x F H E E Y H H E K.R.{. XoXXX,X,X,X,X,X,XXXXXXX.X}.W.L.E J c z k j j j aXaXaXaXaXaXaXaXaXaXaXaXaXaX",
"aXaXaXaXaXaXaXaXaXaXaXaXaXj j j k k z x H R L.W.}..XXX*X,X,X,X,X,X,X,X>XXX.X{.R.R Y H H H Y Y H F c z l a 6 w w 0 0 e r r r r r r r r r r e 0 0 w w 6 a l z c J H Y Y H H H Y R R.{..XXXXX,X,X,X,X,X,X,X;XXX.X}.W.L.R H c z k k j j j aXaXaXaXaXaXaXaXaXaXaXaXaX",
"aXaXaXaXaXaXaXaXaXaXaXaXaXk k k k z z x H R P.W.}..XXXXX,X,X,X,X,X,X,XXXXX.X{.R.R Y H H H Y Y H F c v l a 6 w 0 0 e r t t t t t t t t t t r e 0 0 w 6 a l v c F H Y Y H H H Y R R.{.OXXXXX,X,X,X,X,X,X,XXXXX.X}.W.P.R H x z z k k k k aXaXaXaXaXaXaXaXaXaXaXaXaX",
"aXaXaXaXaXaXaXaXaXaXaXaXaXz k z z z x F H R P.E.{.}..XXXXX,X,X,XXXXXXX.X.X}.{.R.R Y H H H Y H J D B v l a u q q r t t ^ ^ ^ ^ ^ ^ ^ ^ ^ ^ t t e q q u a l v B D J H U H H H Y R P.W.}..XXXXXXXXX,X,X,XXXXX.X}.{.E.P.R H J x z z k k z aXaXaXaXaXaXaXaXaXaXaXaXaX",
"aXaXaXaXaXaXaXaXaXaXaXaXx c z z c x F H E K.P.E.{.}.}..X.X.XXX.X.X.X.X.X}.{.W.P.K.E H H W U H J B Z b d u u e r t ^ ) _ ] ] ] ] ] ] ] ] _ ) ^ t r q u u d b B B J H U W H H E t.P.E.{.}..X.X.X.X.XXX.X.X.X}.}.{.E.P.J.E H F x c z z c x aXaXaXaXaXaXaXaXaXaXaXaX",
"aXaXaXaXaXaXaXaXaXaXaXJ F x x x F J H Y R K.P.R.W.{.}.}.}.}.}.}.}.}.}.|.{.{.E.P.K.R Y U U H H G B Z b d u r r t ^ _ }  ................. .} _ ^ t r r u d b Z B G H H W U Y R K.P.Q.{.{.}.}.}.}.}.}.}.}.}.}.{.W.R.P.K.R Y H J F x x x F J aXaXaXaXaXaXaXaXaXaXaX",
"aXaXaXaXaXaXaXaXaXaXH H J J J J H H E R K.I.P.R.E.W.{.{.{.{.{.{.{.{.{.{.W.E.R.P.I.R E Y U H J V Z n f f i i t ^ _ } ..<.1.1.1.1.1.1.2.1.1...} _ ^ t i i f f n Z D J H U Y E R I.P.R.E.W.{.{.{.{.{.{.{.{.{.{.W.E.R.P.L.K.R E H H J J J J H H aXaXaXaXaXaXaXaXaXaX",
"aXaXaXaXaXaXaXaXaXH H H H H H Y E R R K.I.P.R.R.E.W.W.W.W.W.W.W.W.E.E.E.E.R.R.P.I.K.R E U H G B Z m g g ^ ^ _ [ } <.2.4.4.4.4.4.4.4.4.4.4.2.X. .[ _ ^ ^ g g m Z B G H U E R K.I.P.R.Q.E.E.E.W.W.W.W.W.W.W.W.W.E.R.R.P.L.K.R R E Y H H H H H H aXaXaXaXaXaXaXaXaX",
"aXaXaXaXaXaXaXaXaXH H H Y Y E R R K.I.L.P.R.R.E.W.W.W.W.W.W.W.W.E.E.E.E.E.R.R.P.L.K.R E W H D B n g ) ) _ _ }  .<.2.4.6.h.h.h.6.6.h.h.h.6.4.2.<. .} _ _ ) ) g N B D J Y E R I.L.T.R.Q.E.E.E.E.E.W.W.W.W.W.W.W.W.E.R.R.P.L.I.K.R R E Y Y H H H aXaXaXaXaXaXaXaXaX",
"aXaXaXaXaXaXaXaXH Y Y E R R R K.I.L.P.R.R.E.W.(.{.{.{.{.{.{.{.{.{.(.W.W.W.E.E.R.P.I.t.E L G V C m ` ] [ }  .X.1.7.5.h.j.l.l.l.l.l.l.l.l.j.h.5.7.1.X. .} [ ] ` m C V G L E K.L.P.R.E.W.W.W.W.W.{.{.{.{.{.{.{.{.{.(.W.E.R.R.P.L.I.K.R R E E Y Y H aXaXaXaXaXaXaXaX",
"aXaXaXaXaXaXaXaXY E R R K.K.I.L.P.R.E.W.{.{.{.}.}.}.}.}.}.}.}.}.}.}.}.}.{.{.W.E.R.L.K.T L S C N O.' | ..X.1.2.4.6.j.l.x.v.v.v.v.v.v.v.v.x.l.j.6.4.7.1.X...| ' O.N C S L T K.L.R.E.W.{.{.}.}.}.}.}.}.}.}.}.}.}.}.}.{.{.{.W.E.R.P.L.I.K.K.R R E Y aXaXaXaXaXaXaXaX",
"aXaXaXaXaXaXaXH E R K.I.L.P.R.R.E.W.{.{.}.}..X.X.X.XXXXXXXXXXXXX.X.X.X.X.X}.{.W.R.P.K.r.P C M O.+.&.X.1.7.5.6.h.l.x.c.m.m.m.m.m.m.m.m.m.m.c.x.l.h.6.4.7.1.X.&.+.#.M C P r.K.P.R.W.{.}..X.X.X.X.XXXXXXXXXXXXX.X.X.X.X}.}.{.{.W.E.R.R.P.L.I.K.R E J aXaXaXaXaXaXaX",
"aXaXaXaXaXaXF H E K.L.P.R.R.E.W.{.{.}.}..X.XXXXX,X,X,X,X,X,X,X,X,X,X,XXXXX.X}.{.E.P.I.r.e.-.%.+.&.*.2.7.5.h.j.x.c.m.M.M.N.N.N.N.N.N.N.N.M.M.m.c.x.j.h.5.7.2.*.&.+.%.-.e.r.I.P.E.{.}..XXXXX,X,X,X,X,X,X,X,X,X,X,XXXXX.X.X}.}.{.{.W.E.R.R.P.L.K.E H F aXaXaXaXaXaX",
"aXaXaXaXaXx J H R I.P.R.E.W.{.{.{.}..X.XXXXX,X,X<X<X<X<X2X2X2X2X<X<X<X<X,XXX.X}.W.U.I.w.,.%.+. .*.1.4.6.h.l.v.b.m.M.B.B.B.B.B.B.B.B.B.B.B.V.M.m.b.v.l.h.6.4.1.*.&.+.%.,.w.I.U.W.|..XXX,X<X<X<X<X<X2X2X2X<X<X<X<X,X,XXXXX.X.X}.{.{.W.W.E.R.P.I.R H J F aXaXaXaXaX",
"aXaXaXaXaXF J H R L.R.E.W.{.{.{.}.}..XoXXX,X,X<X<X2X2X2X2X2X2X2X2X2X2X<X<X,XXX}.W.R.Z.w.;.%.| ..X.2.4.h.l.x.c.m.M.V.B.B.B.B.B.B.B.B.B.B.B.B.V.M.m.c.x.l.h.4.2.X...| %.,.w.Z.R.W.}.XX,X<X<X<X2X2X2X2X2X2X2X2X2X<X<X,X,XXX.X.X}.}.{.{.{.W.E.R.L.R Y J F aXaXaXaXaX",
"aXaXaXaXF J H Y R L.R.E.W.{.{.{.}.}..X.XXXXX,X,X<X<X2X2X2X2X2X2X2X2X<X<X<X,XoX}.W.U.Z.w.;.+.}  .X.7.6.h.l.x.c.m.M.M.V.B.B.B.B.B.B.B.B.B.B.B.M.M.m.c.x.l.h.6.2.X. .} +.;.w.t.U.W.}.oX,X<X<X<X2X2X2X2X2X2X2X2X<X<X,X,XXXXX.X.X}.}.{.{.{.W.W.R.L.R Y H J F aXaXaXaX",
"aXaXaXaXJ H Y E K.L.R.E.E.W.W.[.{.{.}.}..XoXXX,X,X,X<X<X<X<X<X<X<X<X<X,X,XXX.X|.W.P.t.w.;.+.}  .X.7.6.h.l.x.v.c.m.m.m.M.M.M.M.M.M.M.M.M.M.m.m.m.c.v.x.j.h.6.7.X. .} +.;.w.t.P.W.|..XXX,X,X<X<X<X<X<X<X<X<X<X<X,X,XXX.X.X}.}.{.{.W.W.W.W.E.R.L.K.E Y H J aXaXaXaX",
"aXaXaXx J Y E R I.L.R.R.R.R.R.Q.E.W.{.{.}.}..X.XXXXX,X,X,X,X,X,X,XXXXXXXXX.X}.{.E.P.t.w.;.+.[ { X.2.5.6.h.j.l.x.x.x.v.v.v.v.v.v.v.v.v.v.v.v.x.x.x.l.j.h.6.5.2.X.{ [ +.;.w.t.P.E.{.}..XXXXXXXXX,X,X,X,X,X,X,XXXXX.X.X}.}.{.{.W.E.R.R.R.R.R.R.L.I.R E H J x aXaXaX",
"j j k x H E R K.I.L.P.P.P.P.P.P.R.R.R.E.W.{.{.}.}..X.X.XXXXXXX.X.X.X.X.X}.}.{.W.R.L.t.q.-.+.] } o.2.4.6.6.h.h.h.h.h.j.j.j.j.j.j.j.j.j.j.j.j.h.h.h.h.h.6.6.4.2.o.} ] +.-.q.t.L.R.W.{.}..X.X.X.X.X.XXXXXXX.X.X.X}.}.{.{.W.E.R.R.R.P.P.P.P.P.P.L.I.K.R E H x k j j ",
"j j k x H R I.L.L.L.L.L.I.I.I.I.I.L.P.R.R.E.W.[.{.{.}.}.}.}.}.}.}.}.{.{.{.{.W.E.T.I.r.q.-.` _ [ ..1.7.4.4.4.4.4.4.4.5.5.5.5.5.5.5.5.5.5.5.5.4.4.4.4.4.4.4.7.1...[ _ ` -.q.r.I.T.E.W.{.{.{.}.}.}.}.}.}.}.}.}.{.{.{.W.E.R.R.P.L.L.I.I.I.I.L.L.L.L.L.I.R H x k j j ",
"j j k x H R L.P.L.L.I.K.K.K.R R K.K.I.L.P.R.R.E.W.{.{.{.{.{.{.{.{.{.{.{.W.W.E.R.P.K.r.e.$.` _ [  .1.2.7.2.2.2.2.2.2.2.2.2.2.2.2.2.2.2.2.2.2.2.2.2.2.2.2.7.2.1. .[ _ ` $.e.r.K.P.R.E.W.W.{.{.{.{.{.{.{.{.{.{.{.W.E.R.R.P.L.I.I.K.R R t.K.K.I.L.L.P.L.R H x k j j ",
"j k k x H R L.P.P.I.K.R R R R R R K.I.L.P.R.R.R.E.W.{.{.{.{.{.{.W.W.W.W.W.E.R.T.L.K.T K M ` ) _  .X.2.2.2.1.<.<.<.<.<.<.<.<.<.<.<.<.<.<.<.<.<.<.<.<.1.2.2.2.X. ._ ) ` M K T K.L.T.R.E.W.W.W.W.{.{.{.{.{.{.{.W.E.Q.R.P.P.L.I.K.R R R R R R K.I.L.P.L.R H x k j j ",
"j k z x H R L.P.L.I.R R R R R R t.K.I.P.R.R.E.W.{.{.{.}.}.}.}.{.{.{.{.W.W.E.R.T.L.A.T K M ` ) _ } X.2.2.1.<.........................................<.1.2.1.X.} _ ) ` M K T t.L.T.R.E.W.W.{.{.{.{.}.}.}.}.{.{.{.W.E.R.R.P.L.K.K.R R R R R R K.L.P.L.R H x z k j ",
"j k z x H R L.L.I.K.R R R R R R K.L.P.R.R.W.{.{.}.}.}..X.X.X.X}.}.}.{.{.{.E.R.P.L.R T A M ` ) _ } ..1.1.1..... . . . . . . .} }  . . . . . .} }  .....1.1.1...} _ ) ` M A T R L.P.R.E.W.{.{.}.}.}..X.X.X.X}.}.}.{.{.W.R.R.P.L.I.J.R R R R R K.I.L.L.R H x z k j ",
"j k z x H R I.L.K.R E E E R R I.L.P.R.E.{.{.}..X.X.XXXXXXXXXXXXX.X.X}.}.{.W.E.T.L.R T A M ` ) _ } ..<.1.X... .} } } } } } } } } } } } } } } } } }  ...<.1.<...} _ ) ` M A T R L.T.R.W.{.}.}..X.XXXXXXXXXXXXX.X.X.X}.{.{.E.R.P.L.I.R R E E E R I.L.I.R H x z k j ",
"k k z x H R K.I.K.R E Y E R K.L.T.R.W.{.}..X.XXXXX,X,X,X,X,X,X,X,XXXXX.X}.{.E.T.L.R I A M g ) _ [ ..X.<.....} } } } } } } } } } } } } } } } } } }  .....<.<...[ _ ) ` M A I R L.T.E.{.}..XXXXX,X,X,X,X,X,X,X,XXXXX.X.X}.{.W.R.P.L.K.R E Y E R K.I.I.R H x z k k ",
"k k z x H R K.K.R E Y Y E R I.P.R.W.{.}..XXXXX,X<X<X<X<X2X<X<X<X<X,XXXXX X{.W.R.L.R I A M ` ) _ [ ....X... .} } } } } } } } } } } } } } } } } } } } ....X.....[ _ ) ` M A I R L.R.W.{.}.XXXX,X<X<X<X2X2X<X<X<X<X,XXXXX.X}.{.W.R.P.I.R E Y Y E R K.K.R H x z k k ",
"k k z x H E K.K.R E L Y E R L.R.E.{.}..X.XXX,X<X<X<X2X2X2X2X2X2X<X<X,XXX.X}.[.R.L.R I A M ` ) _ [  ....... .} } [ [ [ [ [ [ [ [ [ [ [ [ [ [ [ [ } }  ....... .[ _ ) ` M A I R L.R.[.}..XXX,X<X<X2X2X2X2X2X2X2X<X<X,XXX.X}.}.{.E.R.L.K.R Y Y E R K.R E H x z k k ",
"k z z x H E K.K.R E Y Y R K.P.R.W.{.}..X.XXX,X,X<X<X2X2X2X2X2X2X<X<X,XXX.X}.{.R.L.R I A M ` ) _ [  ....... .} [ [ [ [ [ [ [ [ [ [ [ [ [ [ [ [ [ [ }  ....... .[ _ ) ` M A I R L.R.{.}..XXX,X<X<X2X2X2X2X2X2X<X<X,X,XXX.X.X}.{.W.R.P.K.R Y Y E R J.R E H x z z k ",
"z z z F H R K.K.R E Y Y R I.R.E.{.{.}.}..XXXXX,X,X<X<X<X<X<X<X<X<X,X,XXXXX.X{.E.P.R I A M ` _ _ }  ....... .} [ [ _ / / / / / / / / / / / / _ [ [ }  ....... .[ _ _ ` M A I R P.E.{..XXXXX,X,X<X<X<X<X<X<X<X<X,X,XXXXX.X}.}.{.{.E.R.I.R Y Y E R K.K.R H F z z k ",
"z z c F H R K.K.R E Y E R L.R.W.{.{.}.}.}..X.XXXXX,X,X,X,X,X,X,X,X,X,XXXXX.X|.W.P.K.T A #.` ] [ }  ....... .} [ _ / ! ! ! ! ! ! ! ! ! ! ! ! / _ [ }  ....... .} [ _ O.#.A T t.P.W.}..XXXXX,X,X,X,X,X,X,X,X,X,XXXXX.X.X}.}.}.{.{.W.R.L.R E Y E R K.K.R H F c z z ",
"z z c J H R K.K.R R E R K.P.E.{.{.{.{.{.{.}.}..X.XXXXXXXXXXXXXXXXXXXXXXXXX.X}.W.T.K.T K #.+.] [ } ........ .} [ _ / ! ! Q Q Q Q Q Q Q Q ! ! / _ [ }  ....... .} [ ] +.#.K T K.T.].}..XXXXXXXXXXXXXXXXXXXXXXX.X.X.X}.}.{.{.{.{.{.{.E.P.K.E E R R K.K.R Y J c z z ",
"z c x J Y R I.I.K.R E R I.R.E.{.{.{.{.{.{.{.{.}.}.}..X.X.X.X.X.X.X.XXXXXXX.X}.[.R.K.r.e.-.+.} [ { ........ .} [ _ / ! Q Q Q Q Q Q Q Q Q Q ! / _ [ }  ......... .[ } +.-.e.T K.R.[.}..XXXXXXX.X.X.X.X.X.X.X.X}.}.}.{.{.{.{.{.{.{.{.E.P.K.R E R K.I.I.R Y J x c z ",
"z c x J Y R I.I.K.R R R I.R.W.{.{.{.(.W.W.W.{.{.{.{.}.}.}.}.}.}.}..X.XXXXXXX.X{.R.I.r.e.-.+.} [  ......... .} [ _ _ _ _ ) ) ) ) ) ) ) ) _ _ _ _ [ }  ......... .[ } +.-.e.r.I.R.{. XXXXXXX.X.X}.}.}.}.}.}.}.{.{.{.{.W.W.W.{.{.{.{.W.R.I.R R R K.I.I.R Y J x c z ",
"c c F H E R I.I.K.R R R I.R.W.{.{.{.W.E.E.E.W.W.{.{.{.{.}.}.}.}.}.}..XXXXXXX.X{.R.L.r.q.;.+.} }  ......... .} } } | ' +.@.@.@.@.@.@.@.@.@.' | } } }  ......... .[ } +.;.q.r.L.R.{..XXXXXXX.X}.}.}.}.}.}.{.{.{.{.W.W.E.E.E.W.{.{.{.W.R.I.R R R K.I.I.K.E H F c c ",
"c x F H E K.I.L.K.R R R I.R.W.{.{.{.W.E.R.E.E.W.W.{.{.{.{.}.}.}.}.}..XXXXXXX.X|.E.L.t.q.;.+.} [  ....... . .} } &.=.:.>.>.>.>.>.>.>.>.>.>.:.=.&.} }  ......... .[ } +.;.q.t.L.E.{..XXXXXXX.X}.}.}.}.}.{.{.{.{.W.W.E.E.R.E.W.{.{.{.W.R.I.R R R K.L.I.K.E H F x c ",
"x x F H E K.I.I.K.R R R I.R.W.{.{.{.E.R.R.R.E.W.W.{.{.{.{.}.}.}.}.}..XXXXXXX.X|.E.L.t.q.-.+.] [ }  ..... . .}  .*.>.a.f.D.D.D.D.D.D.D.D.f.a.>.*. .}  . .......} [ ] +.-.q.t.L.E.|..XXXXXXX.X}.}.}.}.}.{.{.{.{.W.E.E.R.R.R.E.{.{.{.W.R.I.R R R K.L.L.K.E H F x x ",
"x F J H E K.L.L.K.R R R I.R.W.{.{.W.E.R.R.R.E.W.W.{.{.{.{.}.}.}.}..X.XXXXXXX.X|.E.P.t.w.-.+.] [ }  ..... .[ } &.:.a.F./.).'.'.'.'.'.'.)./.F.a.:.&.} }  ..... .} [ ] +.-.w.t.P.E.|..XXXXXXX.X.X}.}.}.}.{.{.{.{.W.W.E.R.R.R.E.W.{.{.W.R.I.R R R K.L.L.K.E H J F x ",
"x F J H E K.I.I.K.R R R I.R.E.{.{.W.E.R.R.R.E.W.W.{.{.{.}.}.}.}.}..X.XXXXXXX.X|.W.P.t.w.-.O._ _ [  ..... .[ } &.9.D.).%X*X*X*X*X*X*X*X*X$X).D.9.&.} [  ..... .[ _ _ O.-.w.t.P.W.|..XXXXXXX.X.X}.}.}.}.}.{.{.{.W.W.E.R.R.R.E.W.{.{.E.R.I.R R R K.I.I.K.E H J F x ",
"x F J H E K.I.I.K.R R R I.P.E.W.W.W.E.R.R.Q.E.W.(.{.{.{.}.}.}.}..X.XXXXXXXXX.X}.W.U.t.w.-.O.) _ [  ..... .[ } *.i.~.$X1X3X3X3X3X3X3X3X3X1X$X~.i.*.} [  ..... .[ _ _ O.-.w.Z.P.W.}..XXXXXXX.X.X.X}.}.}.}.{.{.{.W.W.E.R.R.R.E.W.W.W.E.P.I.R R R K.I.I.K.E H J F x ",
"x F J H E K.I.I.K.R R R I.P.R.W.W.W.E.R.R.Q.E.W.{.{.{.|.}.}.}..X.X.XXXXXXXXX.X}.W.!.Z.w.-.O.) _ [ } ....{ [ [ *.a./.*X3X9XwXwX0X0XwXwX9X3X*X/.a.*.[ [ { ....} [ _ ) O.-.w.Z.R.W.}..XXXXXXXXX.X.X.X}.}.}.}.{.{.{.W.E.Q.R.R.E.E.W.W.R.P.I.R R R K.I.I.K.E H J F x ",
"x F J H E R I.I.K.R R R K.P.R.W.W.W.E.R.R.E.E.W.{.{.{.}.}.}.}..X.X.XXXXXXXXX.X}.W.R.Z.w.-.O.) _ _ } } } [ ( [ *.a.).;X6XqXtXyXtXtXyXtXqX6X;X).a.*.[ ( [ } } [ _ / ) O.-.w.Z.R.].}..XXXXXXXXX.X.X.X}.}.}.}.{.{.{.W.E.Q.R.R.E.W.W.W.R.P.I.R R R K.I.I.t.E H J F x ",
"x F J H E R I.I.K.R R R K.P.R.W.W.W.E.R.R.E.E.W.{.{.{.}.}.}.}..X.X.XXXXX,XXX.X}.W.R.Z.w.-.` ) Q ! _ [ [ ! ! / &.a.).1X9XtXiXyXyXyXyXyXtX9X1X).a.&./ ! ! [ [ _ ! Q ) ` -.w.Z.R.].}..XXX,XXXXX.X.X.X}.}.}.|.{.{.{.W.E.E.R.R.E.W.W.W.R.P.I.R R R K.I.I.R E H J F x ",
"x x F H Y R K.K.K.R R R I.P.R.W.W.W.E.R.R.E.E.W.{.{.{.}.}.}..X.X.X.XXXXX,X;XoX}.].R.Z.w.-.` ) Q ! ! / ! ! ~ ! | i.).;X9XtXiXiXyXyXiXiXtX9X;X).i.| ! ~ ! ! / ! Q Q ) ` -.w.Z.R.[.}.oXXX,XXXXX.X.X.X.X}.}.}.{.{.{.W.E.E.R.R.E.W.W.W.R.P.I.R R R K.K.K.R Y H F x x ",
"c x F H Y R K.K.K.R R R I.P.R.W.W.W.E.Q.Q.E.E.W.{.{.{.}.}.}..X.X.X.XXX,X,X,XXX}.[.R.Z.w.-.` ) Q Q Q ! ! ~ ~ Q ' i.).;X6XrXyXyXyXyXyXyXrXpX;X).i.' Q ~ ~ Q ! Q Q Q ) O.-.w.Z.R.[.}.XX,X,X,XXXXX.X.X.X}.}.|.{.{.{.W.W.E.Q.Q.E.W.W.W.R.P.I.R R R K.K.K.R Y H F x c ",
"c x F J Y R K.K.R R R R I.P.R.W.W.W.E.Q.E.E.W.W.{.{.{.{.}.}..X.X.XXXXX,X,X,XXX}.[.R.Z.w.-.` ) Q Q Q Q Q ~ ~ Q +.i.).=X6XqXtXtXtXtXyXtXqX6X;X).i.' Q ~ Q Q Q Q Q Q ) O.-.w.Z.R.[.}.XX,X,X,XXXXX.X.X.X}.}.|.{.{.(.W.W.E.E.E.E.W.W.W.R.P.I.R R R R K.K.R Y J F x c ",
"c c F J Y R K.K.R R R R K.P.R.W.W.W.E.E.E.E.W.W.{.{.{.{.}.}.}..X.XXXXX,X,X,XXXOX[.R.Z.w.-.` ) ) ) _ _ _ ) ) _ =.a.).;X6XqXtXtXqXqXtXtXqX6X;X).a.=._ ) ) _ _ ) ) Q ) ` -.w.Z.R.[.}.XX,X,X,XXXXX.X.X}.}.}.}.{.{.[.W.W.E.E.E.E.W.W.W.R.P.K.R R R R K.K.R Y J F x c ",
"c c F J Y R K.K.R R R R K.P.R.W.W.W.E.E.E.E.W.W.(.{.{.{.}.}.}..X.XXXXX,X,X,XXXOX[.R.Z.w.-.` ) ) ] +.=.=.=.@.=.>.D.'.1X6XqXtXtXqXqXtXtXqX6X1X'.D.>.=.@.@.=.=.+.] ) ) ` -.w.Z.R.[.OXXX,X,X,XXXXX.X.X}.}.}.}.{.{.{.W.W.E.E.E.E.W.W.E.R.P.K.R R R R K.K.R Y J F x c ",
"c x F H Y R K.K.R R R R K.L.R.E.W.W.E.E.E.E.W.W.[.{.{.{.}.}.}..X.XXXXX,X,X,XXX X[.R.Z.w.-.` ) ] =.>.9.i.i.i.a.f./.%X1X9XqXtXtXqXqXtXtXqX9X1X%X/.f.a.i.i.a.>.>.=.] ) ` -.w.Z.R.[.OXXX,X,X,XXXXX.X.X}.}.}.|.{.{.{.W.W.E.E.E.E.W.W.E.R.L.K.R E R R K.K.R Y H F x c ",
"x x F H Y R K.K.R R E R K.L.R.E.W.W.E.E.E.E.W.W.[.{.{.{.}.}.}..X.XXXXX,X,X,XXX X[.R.Z.w.-.` ' @.>.f.F.~.~.~.~.).$X*X3X0XqXtXtXqXqXtXtXqX0X3X;X$X).~.~.~.~.F.f.>.@.' ` -.w.Z.R.[. XXX,X,X,XXXXX.X.X}.}.}.{.{.{.{.W.W.E.E.E.E.W.W.E.R.L.K.R E R R K.K.R Y H F x c ",
"x x F H E R I.K.R R E E R L.R.E.E.E.E.E.E.E.W.W.{.{.{.{.}.}.}..X.X.XXX,X,X,XXX X[.R.Z.w.$.` ' =.a.~.#X%X%X%X%X-X:X4X6XwXqXqXtXqXqXtXtXqXwX6X4X:X-X%X%X%X%X#X~.a.=.' ` $.w.Z.R.[. XXX,X,X,XXX.X.X.X}.}.}.{.{.{.{.W.W.E.E.E.E.E.E.E.R.L.R E E R R K.I.R E H F x x ",
"x F J H E R I.I.R R Y E R I.R.R.E.E.E.E.E.E.W.W.{.{.{.{.}.}.}.OX.X.XXX,X,X,XXX X[.R.Z.q.$.` ' >.D.#X:X5X8X8X5X8X7X6X0XwXqXqXqXqXqXqXqXqXwX0X6X7X8X5X8X8X5X:X#XD.>.' ` $.w.Z.R.[. XXX,X,X,XXX.X.X.X}.}.}.{.{.{.{.W.W.E.E.E.E.E.E.Q.R.L.R E E R R I.I.R E H J F x ",
"x F J H E K.I.I.R R E E R I.P.R.E.E.E.Q.E.E.W.W.[.{.{.{.{.}.}.}..X.XXX,X,X,XXX X[.R.Z.q.#.` +.>.~.-X7XwXeXeXwXwXwXwXqXqXqXqXqXqXqXqXqXqXqXqXwXwXwXwXeXeXwX7X-X~.>.+.` #.q.Z.R.[.OXXX,X,X,XXX.X.X}.}.}.{.{.{.{.{.W.E.E.E.E.E.E.E.R.U.I.R E E R R I.I.K.E H J F x ",
"F F J H E K.I.I.R R E E R I.P.R.E.E.Q.R.E.E.W.W.(.{.{.{.{.}.}.}..X.XXX,X,X,XXXOX[.R.t.q.#.` @.9./.:XwXiXuXuXiXiXiXyXyXeXqXqXqXqXqXqXqXqXrXyXyXiXiXiXuXuXiXwX:X/.9.@.` #.q.t.R.[.}.XX,X,X,XXX.X.X}.}.}.{.{.{.{.W.W.E.E.E.R.E.E.E.R.P.I.R E E R t.I.I.K.E H J F F ",
"F F J H E K.I.I.R R E E R I.P.R.E.E.Q.R.Q.E.E.W.W.{.{.{.{.}.}.}..X.XXXXX,X,XXX}.W.U.t.e.#.` @.i.).1XeXuXuXuXuXuXiXiXyXyXqXqXqXqXqXqXqXeXyXyXiXiXuXuXuXuXuXeX1X).i.@.` M e.t.U.W.}.XX,X,XXXXX.X.X}.}.|.{.{.{.{.W.W.E.E.E.R.Q.E.E.R.P.I.R E E R R I.I.K.E H J F F ",
"F F J H E J.I.K.R R E E R I.P.R.Q.E.R.R.R.E.E.W.W.W.{.{.{.{.}.}.}..XXXXX,X,XXX}.W.P.t.e.M ` @.i.).1XeXuXuXuXuXuXiXiXyXyXyXqXqXqXqXqXqXeXyXyXiXiXuXuXuXuXuXeX1X).i.@.` M e.t.P.W.}.XX,X,XXXXX.X}.}.}.{.{.{.{.W.W.W.E.E.Q.R.R.E.Q.R.P.I.R E E R R I.I.R E H J F F ",
"F F J H E R K.K.R R E R R I.P.R.Q.Q.R.R.R.E.E.E.E.W.W.{.{.{.}.}.}..X.XXX,XXX.X}.W.P.t.e.M ` @.i.).1XeXuXuXuXuXuXiXiXyXyXyXqXqXrXqXqXeXeXyXyXiXiXuXuXuXuXuXeX1X).i.@.` M e.t.P.W.}.oXXX,XXX.X.X}.}.{.{.{.{.W.W.W.E.E.Q.R.R.R.E.Q.R.P.I.R E E R R K.K.R E H J F F ",
"F F J H E R K.K.R R E R R L.P.R.Q.R.R.R.R.R.E.E.E.W.W.W.{.{.{.}.}. X.XXXXXXX.X}.E.P.t.e.M ` @.i.).1XqXuXuXuXuXuXiXiXyXyXyXqXqXqXqXqXqXqXyXyXiXiXuXuXuXuXuXqX1X).i.@.` M e.t.P.E.}..XXXXXXX.X.X}.}.{.{.{.(.W.W.E.E.Q.R.R.R.R.Q.Q.R.R.I.R R E R R K.K.R E H J F F ",
"F F J H E R K.K.R R E R K.L.R.R.R.R.R.R.R.R.R.R.E.E.W.W.{.{.{.}.}.}..XXXXXXX.X|.E.L.t.K M ` @.>./.:X0XiXiXiXiXyXyXyXyXeXqXqXqXqXtXtXrXqXeXyXyXyXyXiXiXiXiX0X:X/.>.+.` M e.t.L.E.|..XXXXXXX.X}.}.}.{.{.{.W.W.E.E.R.R.R.R.R.R.R.R.R.R.L.K.R R R R K.K.R E H J F F ",
"F F J H E R K.K.R R R R K.L.R.R.R.R.R.R.R.R.R.R.E.E.W.W.{.{.{.|.}.}..XXXXXXX.X|.E.L.r.K M ` +.>.~.*X7XwXeXeXwXwXwXqXqXqXqXqXqXqXtXtXqXqXqXqXqXwXwXwXeXeXwX7X-X~.>.+.` M K r.L.E.|..XXXXXXX.X}.}.{.{.{.{.W.E.E.E.R.R.R.R.R.R.R.R.R.R.L.K.R R R R K.K.R Y H J F F ",
"F F J H E R K.K.R R E R K.L.R.R.R.R.R.R.R.R.R.R.R.E.E.W.W.{.{.{.}.}..XXXXXXX.X|.E.L.r.K M ` ' >.F.$X1X7X6X6X7X6X6X0XwXqXqXqXqXqXqXqXqXqXqXwX0X6X6X7X6X6X7X1X$XF.>.' ` M K r.L.E.{..XXXXXXX.X}.}.{.{.{.W.W.E.E.Q.R.R.R.R.R.R.R.R.R.R.L.K.R E R R K.K.R Y H J F F ",
"F F J H E R K.K.R R E R K.L.R.R.R.R.R.R.R.R.R.R.R.E.E.W.W.{.{.{.}.}..XXXXXXX.X|.E.L.r.K M ` ' :.f.@X-X:X1X1X:X1X5X7X0XwXqXqXqXqXqXtXtXqXwX0X7X5X1X:X1X1X:X-X@Xf.:.' ` M K r.L.E.{..XXXXXXX.X}.}.{.{.{.W.W.E.E.R.R.R.R.R.R.R.R.R.R.R.L.A.R E R R K.K.R Y H J F F ",
"F F J H Y R J.K.R R E R R I.P.R.R.R.R.R.R.R.R.R.R.E.E.W.W.{.{.{.}.}..XXXXXXX.X|.E.L.r.e.M ` ] =.i.F.@X$X&X&X&X-X=X5X6X0XqXqXrXqXqXrXtXqX0X6X5X=X-X&X&X&X$X@XF.i.=.] ` M K r.L.E.|..XXXXXoX.X}.{.{.{.{.W.W.E.E.R.R.R.R.R.R.R.R.R.R.P.L.R R E R R R R R E H J F F ",
"F F J H Y R R R R E E E R I.P.R.R.R.R.P.U.R.R.R.R.E.E.W.W.{.{.{.{.}..X.XXXXX.X|.E.L.r.e.M ` ] @.>.a.F.^.+X+X+X@X&X=X7X0XqXtXrXqXqXtXtXqX0X7X=X&X@X+X+X+X^.F.a.>.@.] ` M P r.L.E.|..XXXXX.X.X}.{.{.{.{.W.W.E.E.R.R.R.R.P.P.R.R.R.R.P.I.R E E E R R R R Y H J F F ",
"F F J H Y R R R R E Y E R I.P.R.R.R.R.P.P.R.R.R.R.E.E.W.W.{.{.{.{.}..X.XXXXX.X|.E.L.r.e.$.` ) ' *.9.p.d.d.d.d.G.@X-X4X9XqXtXtXqXqXtXtXqX9X4X-X@XG.d.d.d.d.p.9.*.' ) ` $.e.r.L.E.|..XXXXX.X.X}.{.{.{.{.W.W.E.E.R.R.R.R.P.P.R.R.R.R.P.I.R E E E R R K.R Y H J F F ",
"F F J H Y R H.R R E Y E R I.P.R.R.R.R.P.P.R.R.R.E.E.E.W.W.{.{.{.{.}..X.XXXXX.X|.E.L.r.e.$.` ) ]  .*.3.8.8.8.0.s.+X&X1X6XwXtXtXqXqXtXtXqX6X1X&X+Xs.0.8.8.8.3.*. .] ) ` $.e.y.L.E.|..XXXXX.X.X}.{.{.{.{.(.W.W.E.R.R.R.U.P.P.P.R.R.R.P.I.R E Y E R R K.R Y H J F F ",
"F F J H E R K.R R E Y E R I.P.R.R.R.P.P.P.R.R.R.E.E.W.W.{.{.{.{.{.}..X.XXXXX.X{.E.L.y.q.$.` ) _ [ ..<.1.1.1.2.0.g.#X1X6XqXtXtXqXqXtXtXqX6X1X#Xg.0.2.1.1.1.<...[ _ ) ` $.P r.L.E.{..XXXXX.X.X}.{.{.{.{.{.W.W.E.E.R.R.U.P.P.R.R.R.R.P.I.R Y Y E R R H.R Y H J F F ",
"F F J H E R K.R R E Y E R I.P.R.R.R.R.P.P.R.R.R.E.E.W.W.{.{.{.{.{.}.}..XXXXX.X{.E.L.r.e.$.` ) _ [ { ..X.o.o.X.8.g.@X1X6XqXtXtXtXtXtXtXqX6X1X@Xg.8.X.o.o.X... .[ _ ) ` $.P r.L.E.{..XXXXX.X}.}.{.{.{.{.{.W.W.E.E.R.R.R.P.P.R.R.R.R.P.I.R Y Y E R R R R Y H J F F ",
"F F J H E R J.R R E Y E R I.P.R.R.R.R.P.R.R.R.E.E.W.W.{.{.{.{.{.{.}.}..X.X.XOX{.R.L.r.P $.` ) _ [ { o.o.{ {  .3.d.@X1X9XtXtXyXyXyXyXtXrX9X1X@Xd.3. .{ { o.o.{ [ _ ) ` $.e.r.L.R.{.}..X.X.X}.}.{.{.{.{.{.{.W.W.E.E.R.R.R.U.R.R.R.R.P.I.R Y Y E R R R R Y H J F F ",
"F F J H E R J.R R E Y E R I.P.R.R.R.R.R.R.R.R.E.E.W.{.{.{.{.{.{.{.}.}..X.X.X}.{.R.I.r.P $.` ) _ [  .X.o.{ { { *.a.@X1X9XtXiXyXyXyXyXyXtX9X1X@Xa.*.[ { { o.X. .[ _ ) ` $.P r.I.R.{.}..X.X.X}.}.{.{.{.{.{.{.{.W.E.E.R.R.R.R.R.R.R.R.P.I.R Y Y E R R R R Y H J F F ",
"F F J H Y R R R R E Y Y R I.P.R.R.R.R.R.R.R.R.E.W.(.{.{.{.{.{.{.{.}.}..X.X.X}.[.R.I.r.P M ` ) _ } ..X.X.{ [ [ *.a.).1X9XtXyXyXyXyXyXyXtX9X;X).a.*.[ [ { X.X.o.} _ ) ` $.P r.I.R.[.}..X.X.X}.}.{.{.{.{.{.{.{.W.W.E.R.R.R.R.R.R.R.R.P.I.R Y Y E R R K.R E H J F F ",
"F F J H Y R J.R R E Y Y R I.P.R.R.R.R.R.R.R.E.W.W.{.{.{.{.{.{.{.{.}.}..X.X.X}.[.R.I.r.K M ` ) _ { X.1.1. .[ _ @.a.).*X6XwXtXtXqXqXtXtXqX6X*X).a.@._ [  .1.1.X.{ _ ) ` M K r.I.R.].}..X.X.X}.}.{.{.{.{.{.{.{.{.W.E.E.R.R.R.R.R.R.R.P.I.R Y Y E R R K.R E H J F F ",
"F F J H E R t.R R E Y Y R I.P.R.R.R.R.R.R.R.E.W.{.{.{.{.{.{.{.{.{.}.}. X.X.X}.W.T.I.T K M ` ) _  .X.2.1. .[ _ @.i./.*X3X9X0X0X0X0X0X0X9X3X*X/.i.@._ [ ..1.2.X. ._ ) ` M K T I.R.W.}..X.X.X}.}.|.{.{.{.{.{.{.{.W.W.E.R.R.R.R.R.R.R.P.I.R Y Y E R K.K.R E H J F F ",
"F F J H E R K.t.R E Y Y R I.P.R.R.R.R.R.R.E.E.W.{.{.{.{.}.}.|.{.{.}.}. X.X.X}.W.T.K.T K M g ) _ } X.1.1. ._ _ ' >.`.$X1X4X7X7X8X8X7X7X4X1X$X~.>.' _ [  .1.2.X.} _ ) g M K T K.T.W.}..X.X.X}.}.{.{.}.}.{.{.{.{.{.W.E.Q.R.R.R.R.R.R.P.I.R Y Y E R K.K.R E H J F F ",
"F F J H E R K.K.R E Y Y R I.P.R.Q.R.R.R.R.E.W.{.{.{.{.{.}.}.}.|.{.}.}..X.X.X}.W.T.K.T A N g ) _ } ..1.1. ._ _ ' >.f.).%X=X=X=X=X=X=X=X=X%X).f.>.' _ _  .<.1...} _ ) g N A T K.T.W.}..X.X.X}.}.{.{.{.}.}.{.{.{.{.(.W.E.R.R.R.R.R.R.P.I.R Y Y E R K.K.R E H J F F ",
"F F J H E R K.K.R E Y Y R K.P.R.Q.R.R.R.R.E.W.{.{.{.{.}.}.}.}.}.{.}.}..X.X.X}.W.T.K.T A N g t ^ [ ..<.X. ._ ) ] =.i.F.@X@X#X#X#X#X#X#X@X@XF.i.=.] _ _  .X.<...[ ^ t g N A T K.T.W.}..X.X.X}.}.{.{.{.}.}.}.{.{.{.{.W.E.R.R.R.R.R.R.P.I.R Y Y E R K.K.R E H J J F ",
"F F J H E J.I.K.R E Y Y R K.P.R.R.R.R.R.R.E.W.{.{.{.|.}.}.}.}.{.{.}.}..X.X.X}.W.P.t.T S N g t ^ _ ..X...} _ ) _ @.>.a.g.F.F.F.F.F.F.F.F.g.a.>.@._ _ _  ......._ ^ t f N S T K.T.W.}..X.X.X}.}.{.{.}.}.}.}.}.{.{.{.W.E.R.R.R.R.R.R.P.I.R Y Y E R K.I.K.E H J F F ",
"F F J H E K.I.I.R E Y Y R K.P.R.R.R.R.R.R.E.W.{.{.{.}.}.}.}.}.{.{.}.}..X.X.X}.W.P.R I S N f i ^ _ } ....} _ _ _ ' *.9.9.p.p.p.p.p.p.p.p.9.9.*.' _ _ _ } ....} _ Q i f n S I t.P.W.}..X.X.X}.}.{.{.}.}.}.}.}.}.{.{.W.E.R.R.R.R.R.R.P.I.R Y Y E R K.I.K.E H J F F ",
"F F J H E K.I.I.R E H Y R K.P.R.R.R.R.R.R.E.W.{.{.}.}.}.}.}.}.}.}.}.}..X.X.X}.W.P.R L V n f i Q / } ....} ] ) ) ] | *.3.3.3.3.3.3.3.3.3.3.*. .] ) ) _ } ....} _ Q i f n V L R P.W.}..X.X.X}.}.}.}.}.}.}.}.}.}.{.{.W.E.R.R.R.R.R.R.P.K.R Y H E R I.I.K.E H J F F ",
"x F J H E K.I.K.R E H Y R K.P.R.R.R.R.R.R.E.W.{.{.}.}.}.}.}.}.}.}.}.}..X.X.X}.W.P.R L V n f i t / } ....} ] _ ) _ ] | ....................| [ _ ) ) ] } ....} / t i f n V L R P.W.}..X.X.X}.}.}.}.}.}.}.}.}.}.{.{.W.E.R.R.R.R.R.R.P.K.E H H E R K.I.R E H J F x ",
"c x F H Y R K.K.R Y H H E K.P.R.R.R.R.R.R.E.W.{.{.}.}.}.}.}.}.}.}.}.}..X.X.X}.W.P.R L V n f r t / } ....} ] _ ) _ _ [ } } } } } } } } } } [ _ _ ) ) ] } ....} / t i f n V L R P.W.|..X.X.X}.}.}.}.}.}.}.}.}.}.}.{.{.E.R.R.R.R.R.R.P.K.E H H Y R K.K.R Y H F x c ",
"z c x J Y R K.K.R Y H H E K.P.R.R.R.R.R.R.E.W.{.{.}.}.}.}.}.}.}.}.}.}..X.X}.|.W.P.R L V n f i t / } ....} ] _ ) ) _ _ [ [ [ [ [ [ [ [ [ [ _ _ ^ ^ _ ] } ....} / t i f n V L R P.E.{.}..X.X}.}.}.}.}.}.}.}.}.}.}.{.{.E.R.R.R.R.R.R.P.K.E H H Y R K.K.R Y J x c z ",
"z z c F H R t.R R U H H E R L.R.R.R.R.R.R.E.W.{.|.}.}.}.}.}.}.}.}.}.}..X.X}.{.E.P.R L V n f i t / } ....} ] _ ) Q ! _ _ _ _ _ / / _ _ _ _ _ ! Q ) _ ] } ....} / t i f n V L R P.E.{.}..X.X}.}.}.}.}.}.}.}.}.}.{.{.W.E.R.R.R.R.R.R.L.K.E H H Y R R K.R H F c z z ",
"k z z x H E R R E H H H Y R L.R.R.R.R.R.R.E.W.{.|.}.}.}.}.}.}.}.}.}.}.}.}.}.{.E.P.R L V n f i t / } ....} ] _ ) Q Q / _ _ _ _ _ _ _ _ _ _ ) Q Q ) _ ] | ....} / t i f n V L R L.E.{.}.}.}.}.}.}.}.}.}.}.}.}.}.{.{.W.E.R.R.R.R.R.R.L.R Y H H H E R R E H x z z k ",
"k k z x H Y R R E H H H Y R L.R.R.R.R.R.R.E.W.{.{.}.}.}.}.}.}.}.}.}.}.}.}.}.{.R.L.R L V n f r t / } ....} ] ) Q Q Q ^ ) ) ) ) ) Q Q ) ) ) ) Q Q Q ) ] } ....} / t r f n V L R L.R.{.}.}.}.}.}.}.}.}.}.}.}.}.}.{.{.W.E.R.R.R.R.R.R.L.R Y H H H E R R E H x z k k ",
"k k z c J Y R R Y H J H Y R I.P.R.R.R.R.R.E.[.{.{.}.}.}.}.}.}.}.}.}.}.}.}.{.W.R.L.R L V n f r t / [ ....} _ ) Q Q Q Q Q Q Q Q Q Q Q Q Q Q Q Q Q Q ) _ } ....[ / t r f n V L R L.R.W.{.}.}.}.}.}.}.}.}.}.}.}.}.{.{.W.E.R.R.R.R.R.P.I.R Y H J H Y R R Y J c z k k ",
"j k k c J Y E E Y H J H Y R I.P.R.R.R.R.R.W.{.{.}.}.}.}.}.}.}.}.}.}.}.}.{.{.W.R.I.R L V n u e t ^ [  . .} _ ^ Q t t t t t t Q Q t t Q t Q t t t Q ^ _ } ..} [ ^ r e u n V L R I.R.W.{.{.}.}.}.}.}.}.}.}.}.}.}.{.{.W.E.R.R.R.R.R.P.I.R Y H J H Y E E H F z k k j ",
"j j k z F H E E Y H J H Y R I.L.R.R.R.R.E.W.{.{.}.}.}.}.}.}.}.}.}.}.}.{.{.W.E.P.K.R L B b u q r Q _ } } } _ ^ t t t t t t t t t t t t t t t t t t ^ _ } } } _ Q r q u b B L R K.P.E.W.{.{.}.}.}.}.}.}.}.}.}.}.{.{.W.E.R.R.R.R.P.L.K.R U H J H Y E E H F z k k j ",
"j j k z F H Y Y H H J H H R K.L.P.R.R.R.E.W.{.}.}.}.}.}.}.}.}.}.}.}.{.{.{.E.R.P.K.E L B b u w y t _ } } _ ) t t t t t t t t t t t t t t t t t t t t _ [ } } _ t y w u b B L E K.P.R.E.{.{.{.}.}.}.}.}.}.}.}.}.{.{.W.E.R.R.R.!.P.L.K.E H H J H H Y Y H x z k j j ",
"j j k z x H Y Y H H J J H E R I.L.P.R.R.E.W.{.}.}.}.}.}.}.}.}.}.}.}.{.{.E.R.P.L.R E J B b u 8 0 r / [ } _ ^ t t r r r r r r r r r r r r r r r r t t ^ _ } [ / r 0 8 u b B J E H.L.P.R.W.{.{.}.}.}.}.}.}.}.}.{.{.{.W.E.R.R.R.P.L.I.R E H J J H H Y L H x z k j j ",
"j j k z x J H H H J J J H Y R K.I.P.R.R.E.W.{.}.}.}.}.}.}.}.}.}.}.{.{.W.R.R.L.K.R Y G B a 5 4 9 r ^ _ [ _ ^ t r r r r r r r r r r r r r r r r r r t ^ _ [ _ ^ r 8 4 5 a B G Y R K.L.R.R.W.{.{.}.}.}.}.}.}.{.{.{.W.W.E.R.R.P.L.I.K.R E H J J J H H H J x z k j j ",
"j j j k c J H H H J F J H Y E R K.L.P.R.R.W.{.{.{.}.}.}.}.|.{.{.{.{.W.E.R.L.I.H.R Y G Z a 5 4 8 y Q _ _ / ^ t r e r r r r r r r r r r r r r r r r t ^ _ _ _ Q y 8 4 5 a Z G Y R J.I.L.R.R.W.{.{.{.}.}.{.{.{.{.W.W.E.R.R.U.P.I.K.R R Y H J J J H H H J c k j j j ",
"= = j k z F H H H J F F J H Y R R K.L.P.R.R.E.W.{.{.{.{.{.{.{.{.W.E.R.R.L.I.R R E H G v a 5 4 8 y t / _ ^ ^ t r r r r r r r r r r r r r r r r r r t ^ ^ _ / t y 8 4 5 a v G H E R K.I.P.R.R.E.W.{.{.{.{.W.W.E.R.R.R.R.P.L.I.K.R R Y H J F F J H H H F z k j j = ",
"= = j k z F J H J F x x F J H Y E R K.I.L.P.R.R.R.E.E.E.Q.R.R.R.R.R.P.L.K.R R Y U H B v a 5 4 p 0 t ^ ^ ^ ^ t t r r r t t t t r r r t t t t r r t t ^ ^ ^ ^ t 0 p 4 5 a v B H Y E R t.I.L.P.R.R.R.R.R.R.R.R.R.P.P.L.L.I.K.R R E Y H J F x x F J H J F z k j = = ",
"* = = j z x J J J x c c x F J H Y E R R R K.I.L.P.P.P.P.L.L.L.L.L.L.I.K.R E Y H H J B v 6 5 2 3 0 r ^ ^ ^ ^ t t t t t t t t t t t t t t t t t t t t ^ ^ ^ Q r 9 3 2 5 6 v B J H Y E R R K.K.I.I.L.L.L.L.L.L.I.I.K.K.R R R E E Y H J F x c x x J J J x z j = = * ",
"* * = j z x F J F x c z c x F J H H Y Y E R R R K.K.K.K.K.K.K.K.K.R R E Y H H H J F c l 6 5 2 3 9 e t ^ ^ t t t t t t t t t t t t t t t t t t t t t ^ ^ ^ t e 9 3 2 5 6 l c F J H Y E E R R R R R R K.K.K.R R R R R E Y Y L H H J F x c c c x F J J x z j = * * ",
"* * = j k c F F F c z z z c x F J J H H H Y E E R R R R R E R R E E E Y H H H J F x c l 6 5 2 3 8 q t t t t t Q Q Q Q Q Q Q Q Q Q Q Q Q Q Q Q Q Q Q t t t r 0 8 3 2 5 6 l c B J H H U Y Y Y Y Y E E E R E E E E Y Y W H H H J J F x c z z z c x F F c k j = * * ",
"$ * * = k c F F x c z z z c x F F J J H H H H Y Y Y Y Y Y Y Y Y Y Y Y H H H J J F x c l 6 5 2 3 8 0 e t t t t Q Q Q Q Q Q Q Q Q Q Q Q Q Q Q Q Q Q t t t t e 0 8 3 2 5 6 l c x F J H H H H H H H H Y Y Y Y Y Y Y Y H H H H J J F F x c z z z c x F x z k j * * $ ",
"$ $ * = k z x x x c z z c c x F J J H H H H Y Y Y Y Y Y Y Y Y Y Y Y Y H H H H J F F c l 6 5 2 3 8 0 q e r t t t t t t t t t t t t t t t t t t t t t t r e q 0 p 3 2 5 6 l c F J H H Y Y H H H H H Y Y Y Y Y Y Y Y Y H H H H J J F x c z z z c x x x z k = * $ $ ",
"$ $ * = k z c c c c c c x F J H H H Y Y E E E E R R R R R R R R R R E E Y Y H H H J B v a 5 2 3 3 8 0 q e r r r r r r r r r r r r r r r r r r r r r r e q 0 8 3 3 2 5 a v B H H Y E E E E E Y E E E R R R R R R R E E E Y Y H H H J F x c c c c c c z k = * $ $ ",
"$ $ * = j k z c c x x F J H W Y E R R R K.K.K.K.K.K.K.K.I.K.I.I.K.K.K.R R R R E Y H J B a 5 2 3 3 8 w 0 0 q y e e e e e y y y y e e e e y y y e e y q q 0 w 8 3 3 2 5 a B G Y E R R R K.K.R R R K.K.K.K.K.K.K.K.K.K.K.K.R R R E Y H H J F x x c c z k j = * $ $ ",
"aXaX* = j k z z c x J H W E R R K.I.L.P.P.P.P.P.P.P.P.P.P.P.T.R.P.P.P.L.L.I.K.K.R R L B b 5 4 1 3 3 8 8 9 w 0 0 0 0 0 0 0 0 0 0 0 0 0 0 0 0 0 0 0 0 0 9 8 8 3 3 1 2 5 b B L R J.K.I.L.L.L.L.L.P.P.P.P.P.P.P.P.P.P.P.P.P.P.L.I.K.R R E H H J x c z z k j = * aXaX",
"aXaXaXaXj k k z c F H Y E R K.L.P.R.R.Q.E.E.E.R.Q.E.E.E.E.E.E.E.E.E.R.R.R.P.P.L.L.K.T S b 5 4 1 1 3 3 4 4 8 8 8 8 8 8 8 8 8 8 8 8 8 8 8 8 8 8 8 8 8 8 4 4 3 3 1 1 4 5 b S T K.L.P.T.R.R.R.R.R.E.E.E.E.E.E.E.E.R.E.E.E.E.R.R.R.P.I.K.R E Y H F c z k k j aXaXaXaX",
"aXaXaXaXj j k z z F H Y R K.L.P.R.Q.W.W.W.(.W.W.W.W.(.{.{.{.{.{.{.{.W.W.E.R.R.T.P.I.T S b 5 2 1 1 1 2 3 3 3 3 3 3 3 3 3 3 3 3 3 3 3 3 3 3 3 3 3 3 3 3 3 3 2 1 1 1 4 5 b S T I.P.R.R.R.E.W.W.W.{.{.{.{.{.{.W.W.W.W.{.{.(.W.E.R.R.P.L.K.R Y H F c k k j j aXaXaXaX",
"aXaXaXaXaXj j k z F H Y R K.L.P.R.R.W.W.{.{.[.W.W.(.{.{.{.{.{.{.{.{.W.W.E.R.R.T.P.I.T S b 5 2 , , 1 1 1 1 1 1 1 1 1 2 2 2 2 1 1 1 1 2 2 2 2 1 1 1 1 1 1 1 1 1 < , 2 5 b S T K.P.R.R.R.E.W.W.{.{.{.{.{.{.{.{.{.W.W.{.{.{.W.W.E.R.P.L.K.R Y H F z k j j aXaXaXaXaX",
"aXaXaXaXaXj j k z x J H Y R K.I.L.P.R.R.E.E.E.E.E.E.E.E.W.W.E.E.E.E.E.R.R.P.P.L.I.R I B l 5 , < < < , , , , , , , , , 1 1 1 , , , , 1 1 1 , , , , , , , , , < < < , 5 l B I R K.L.P.P.R.R.E.E.E.W.W.W.E.E.E.E.E.E.E.E.Q.R.R.P.L.I.K.R Y H J x z k j j aXaXaXaXaX",
"aXaXaXaXaXaXj k k z c F J H Y R R K.K.I.L.L.L.L.P.P.P.P.P.P.P.P.P.P.P.L.I.K.R R E Y J Z a 7 > ; ; : : < : : : : < < , , , , , , , , , , , , , < : : : : : : ; ; ; > 7 a Z J Y E R R K.I.L.L.P.P.U.P.P.P.P.P.P.P.L.L.L.L.I.K.K.R R Y H J F c z k k j aXaXaXaXaXaX",
"aXaXaXaXaXaXaXj k k k z c x J H H H Y Y E E R R R R R R R R K.K.A.R R R E Y U H H F c l 7 7 @ @ @ @ ; ; ; ; ; ; ; : < , , , , , , , , , , : : ; ; ; ; ; ; ; @ @ @ @ 7 6 l c F H H Y Y E R R R H.K.t.R R R R R R R R R E Y Y H H H F x c z k k k j aXaXaXaXaXaXaX",
"aXaXaXaXaXaXaXaXj j j j k k z c c x x B F J H H H H L L H Y H Y Y H H H J F F x c z k s 7 # + + o @ @ @ @ @ @ @ ; ; : : , , , : : , , : : : ; @ @ @ @ @ @ @ @ o o + # 7 s k z c x F F J H H H Y Y Y Y W H H H H H H J F x x x c c z k k j j j j aXaXaXaXaXaXaXaX",
"aXaXaXaXaXaXaXaX= * = = = j j k k k k k z z c x F F F F F F F F F F x x c z z z k k j - & # X   X o @ @ @ @ @ @ @ @ ; : : : : : : : : : : ; ; @ @ @ @ @ @ @ o X   X # & - j k k z z z c c x F F F F F F F F F F x c z z k k k k k j j = = * * = aXaXaXaXaXaXaXaX",
"aXaXaXaXaXaXaXaXaX$ $ * * * = = j j h j j k k z z c z z z z z z z z z z k k k j j = = & & O       X o + + + + + @ @ ; ; : : : : : : : : ; ; @ @ + + + + + + X       O & & = = j j k k k z z z z c z z z z z c z z k k j j j = = = = * * * $ $ aXaXaXaXaXaXaXaXaX",
"aXaXaXaXaXaXaXaXaX% $ $ $ * * * = = - = = j j k z z z z z z z z z k k k j j j h = = * & # O . .     X X X X X + @ @ @ ; ; ; ; ; ; ; ; ; ; ; @ @ + X X X X X     . . O # & * = = h j j j k k k z z z z z z z z k k j j = = = * = * * * $ $ $ % aXaXaXaXaXaXaXaXaX",
"aXaXaXaXaXaXaXaXaX% % % $ $ * * * * * * * = j j k k k k k k k k k k k j j j = = = * $ & O O . .     X X X X X X + @ @ ; ; ; ; ; ; ; ; ; ; @ @ + X X X X X X     . . O O & $ * = = = h j j k k k k k k k k k k k j j = * * * * * * * $ $ % % % aXaXaXaXaXaXaXaXaX",
"aXaXaXaXaXaXaXaXaX% % % % $ $ * * * * * * = = j k k k k k k k k k k j j j = = = * * $ % O O . . .     X X X X X + @ @ ; ; ; ; ; ; ; ; ; ; @ @ + X X X X X       . . O O % $ * * = = = j j j k k k k k k k k k k j = = * * * * * * $ $ % % % % aXaXaXaXaXaXaXaXaX"
};
