/* XPM */
static const char *pista0[] = {
/* columns rows colors chars-per-pixel */
"128 128 147 2 ",
"   c #040404",
".  c #0C0C0C",
"X  c #141414",
"o  c #1B1B1B",
"O  c #232323",
"+  c #2B2B2B",
"@  c #2F3030",
"#  c #333333",
"$  c #3B3535",
"%  c #363939",
"&  c #3B3B3B",
"*  c #5D1B1B",
"=  c #661414",
"-  c #6D1414",
";  c #661B1B",
":  c #6E1B1B",
">  c #482C2C",
",  c #532424",
"<  c #5C2525",
"1  c #522C2C",
"2  c #433434",
"3  c #4A3535",
"4  c #433D3D",
"5  c #4D3E3E",
"6  c #523333",
"7  c #5B3030",
"8  c #523A3A",
"9  c #5A3939",
"0  c #652424",
"q  c #6D2525",
"w  c #632D2D",
"e  c #6D2C2C",
"r  c #643030",
"t  c #6C3333",
"y  c #643939",
"u  c #6C3B3B",
"i  c #3E4040",
"p  c #434343",
"a  c #4B4444",
"s  c #474A4A",
"d  c #4B4B4B",
"f  c #534242",
"g  c #594242",
"h  c #534C4C",
"j  c #5C4C4C",
"k  c #4F5151",
"l  c #535353",
"z  c #5C5555",
"x  c #565858",
"c  c #5B5B5B",
"v  c #624444",
"b  c #6B4545",
"n  c #634C4C",
"m  c #6A4B4B",
"M  c #665353",
"N  c #675151",
"B  c #635757",
"V  c #655454",
"C  c #675454",
"Z  c #665555",
"A  c #685353",
"S  c #6D5454",
"D  c #655959",
"F  c #665A5A",
"G  c #625D5D",
"H  c #635D5D",
"J  c #645D5D",
"K  c #645E5E",
"L  c #645F5F",
"P  c #645C5C",
"I  c #6C5B5B",
"U  c #5D6161",
"Y  c #5E6161",
"T  c #5F6262",
"R  c #5F6363",
"E  c #5F6464",
"W  c #5E6262",
"Q  c #606060",
"!  c #616161",
"~  c #616262",
"^  c #626262",
"/  c #626363",
"(  c #636363",
")  c #656060",
"_  c #616565",
"`  c #626464",
"'  c #636464",
"]  c #626565",
"[  c #606666",
"{  c #616767",
"}  c #626767",
"|  c #646464",
" . c #646565",
".. c #656565",
"X. c #656666",
"o. c #656767",
"O. c #666666",
"+. c #676767",
"@. c #646464",
"#. c #6B6565",
"$. c #626868",
"%. c #626969",
"&. c #676868",
"*. c #686868",
"=. c #696969",
"-. c #6A6A6A",
";. c #6B6B6B",
":. c #6C6C6C",
">. c #6D6D6D",
",. c #6E6E6E",
"<. c #6F6F6F",
"1. c #6B6969",
"2. c #707070",
"3. c #717171",
"4. c #727272",
"5. c #737373",
"6. c #747474",
"7. c #757575",
"8. c #767676",
"9. c #777777",
"0. c #787878",
"q. c #797979",
"w. c #7A7A7A",
"e. c #7B7B7B",
"r. c #7C7C7C",
"t. c #7D7D7D",
"y. c #7E7E7E",
"u. c #7F7F7F",
"i. c #808080",
"p. c #818181",
"a. c #828282",
"s. c #838383",
"d. c #848484",
"f. c #858585",
"g. c #868686",
"h. c #878787",
"j. c #888888",
"k. c #898989",
"l. c #8A8A8A",
"z. c #8B8B8B",
"x. c #8C8C8C",
"c. c #8D8D8D",
"v. c #8E8E8E",
"b. c #8F8F8F",
"n. c #909090",
"m. c None",
"M. c black",
/* pixels */
"m.m.m.m.m.m.m.m.m.m.m.m.m.m.m.m.m.m.m.m.m.m.m.3.3.3.3.:.:.1.1.+.+.+.+.m.m.m.m.m.m.m.m.m.m.m.m.m.m.m.m.m.m.m.m.m.m.m.m.m.m.m.m.m.m.m.m.m.m.m.m.m.m.m.m.m.m.m.m.m.m.m.m.m.m.m.m.m.m.m.m.m.m.m.m.m.m.m.m.m.m.m.m.m.m.m.m.m.m.m.m.m.m.m.m.m.n.c.c.k.k.p.r.w.9.3.:.:.",
"m.m.m.m.m.m.m.m.m.m.m.m.m.m.m.m.m.m.m.m.m.m.m.3.3.3.3.:.:.1.+.+.+.+.^ m.m.m.m.m.m.m.m.m.m.m.m.m.m.m.m.m.m.m.m.m.m.m.m.m.m.m.m.m.m.m.m.m.m.m.m.m.m.m.m.m.m.m.m.m.m.m.m.m.m.m.m.m.m.m.m.m.m.m.m.m.m.m.m.m.m.m.m.m.m.m.m.m.m.m.m.m.m.m.m.m.c.c.c.k.g.p.r.w.6.3.:.:.",
"m.m.m.m.m.m.m.m.m.m.m.m.m.m.m.m.m.m.m.m.m.m.m.3.3.3.:.:.1.1.+.+.' ^ ^ m.m.m.m.m.m.m.m.m.m.m.m.m.m.m.m.m.m.m.m.m.m.m.m.m.m.m.m.m.m.m.m.m.m.m.m.m.m.m.m.m.m.m.m.m.m.m.m.m.m.m.m.m.m.m.m.m.m.m.m.m.m.m.m.m.m.m.m.m.m.m.m.m.m.m.m.m.m.m.m.m.c.c.c.k.g.p.r.9.3.3.:.:.",
"m.m.m.m.m.m.m.m.m.m.m.m.m.m.m.m.m.m.m.m.m.m.m.:.:.:.:.:.1.1.+.+.^ ^ ^ m.m.m.m.m.m.m.m.m.m.m.m.m.m.m.m.m.m.m.m.m.m.m.m.m.m.m.m.m.m.m.m.m.m.m.m.m.m.m.m.m.m.m.m.m.m.m.m.m.m.m.m.m.m.m.m.m.m.m.m.m.m.m.m.m.m.m.m.m.m.m.m.m.m.m.m.m.m.m.m.m.c.k.k.k.g.p.w.9.3.3.:.:.",
"m.m.m.m.m.m.m.m.m.m.m.m.m.m.m.m.m.m.m.m.m.m.m.:.:.:.1.1.&.+.+.^ ^ ^ ^ m.m.m.m.m.m.m.m.m.m.m.m.m.m.m.m.m.m.m.m.m.m.m.m.m.m.m.m.m.m.m.m.m.m.m.m.m.m.m.m.m.m.m.m.m.m.m.m.m.m.m.m.m.m.m.m.m.m.m.m.m.m.m.m.m.m.m.m.m.m.m.m.m.m.m.m.m.m.m.m.m.k.k.k.g.p.r.w.9.3.:.:.:.",
"m.m.m.m.m.m.m.m.m.m.m.m.m.m.m.m.m.m.m.m.m.m.m.1.1.1.1.+.+.^ ^ T c c c m.m.m.m.m.m.m.m.m.m.m.m.m.m.m.m.m.m.m.m.m.m.m.m.m.m.m.m.m.m.m.m.m.m.m.m.m.m.m.m.m.m.m.m.m.m.m.m.m.m.m.m.m.m.m.m.m.m.m.m.m.m.m.m.m.m.m.m.m.m.m.m.m.m.m.m.m.m.m.m.m.g.g.g.g.p.r.w.9.3.:.:.:.",
"m.m.m.m.m.m.m.m.m.m.m.m.m.m.m.m.m.m.m.m.m.m.+.+.+.+.+.^ ^ c c c c c c c m.m.m.m.m.m.m.m.m.m.m.m.m.m.m.m.m.m.m.m.m.m.m.m.m.m.m.m.m.m.m.m.m.m.m.m.m.m.m.m.m.m.m.m.m.m.m.m.m.m.m.m.m.m.m.m.m.m.m.m.m.m.m.m.m.m.m.m.m.m.m.m.m.m.m.m.m.m.m.r.i.p.p.p.r.w.9.3.:.:.:.:.",
"m.m.m.m.m.m.m.m.m.m.m.m.m.m.m.m.m.m.m.m.m.m.' ' ^ ^ ^ c c c c c c c c c m.m.m.m.m.m.m.m.m.m.m.m.m.m.m.m.m.m.m.m.m.m.m.m.m.m.m.m.m.m.m.m.m.m.m.m.m.m.m.m.m.m.m.m.m.m.m.m.m.m.m.m.m.m.m.m.m.m.m.m.m.m.m.m.m.m.m.m.m.m.m.m.m.m.m.m.m.m.m.w.w.r.r.r.w.9.9.3.:.:.1.1.",
"m.m.m.m.m.m.m.m.m.m.m.m.m.m.m.m.m.m.m.m.m.' T T c c c c c x x x x x c c G +.m.m.m.m.m.m.m.m.m.m.m.m.m.m.m.m.m.m.m.m.m.m.m.m.m.m.m.m.m.m.m.m.m.m.m.m.m.m.m.m.m.m.m.m.m.m.m.m.m.m.m.m.m.m.m.m.m.m.m.m.m.m.m.m.m.m.m.m.m.m.m.m.m.m.m.9.9.9.9.w.w.w.9.9.3.:.:.:.1.1.",
"m.m.m.m.m.m.m.m.m.m.m.m.m.m.m.m.m.m.m.$.' E T c c c x x x l l l l x x c c ^ +.1.:.:.3.3.9.r.g.k.c.k.p.:.c s & & p l +.w.g.g.w.1.x p & & a c :.r.g.p.9.+.l p % $ & p l c ^ &.1.:.:.3.6.w.r.p.k.c.c.n.n.n.c.c.c.n.n.n.n.c.k.g.p.w.9.6.3.3.3.9.9.3.3.3.:.:.1.1.1.1.",
"m.m.m.m.m.m.m.m.m.m.m.m.m.m.m.m.m.m.m.' ' T c c x x l l d d d d d l x c c ^ +.1.1.:.:.3.9.r.g.k.k.k.r.:.c s & & p l +.9.p.p.w.1.x p & & p c :.r.g.p.9.^ k i % $ & p l c ^ +.1.1.:.:.3.9.r.p.g.k.c.c.c.c.c.c.c.c.c.c.c.c.k.g.p.w.9.3.3.:.:.:.:.:.:.:.1.1.1.1.+.+.",
"m.m.m.m.m.m.m.m.m.m.m.m.m.m.m.m.m.m.+.' ^ c c x l l d d s s s s s d l x c ^ +.+.1.1.:.2.9.w.p.g.g.g.w.1.c s & & p l ^ 9.r.p.9.+.x p & & p x 1.w.p.r.3.^ d i % $ & p l c ^ +.1.1.:.:.3.9.w.i.g.k.k.c.c.c.c.k.k.c.c.c.c.k.g.p.r.w.9.3.:.:.1.1.1.1.1.&.+.+.+.+.+.+.",
"m.m.m.m.m.m.m.m.m.m.m.m.m.m.m.m.m.m.) K G c z x h d s p p p p p p s l x c c ^ +.+.1.1.:.3.9.r.p.p.p.9.+.x p & & p d ^ 3.w.w.3.^ l p & & p x +.9.r.w.:.c d & $ $ & p l c ^ +.+.1.1.:.:.3.w.r.p.g.k.k.k.k.k.k.k.k.k.k.k.g.g.p.w.9.3.:.1.1.+.+.+.+.+.^ ^ ^ ^ ^ ^ ^ ",
"m.m.m.m.m.m.m.m.m.m.m.m.m.m.m.m.m.F F F B z z h d s p p p p p p p a d l x c c ^ ^ +.+.1.:.3.9.w.e.w.3.^ l p & & & d c 1.9.9.:.c d p & & p l ^ :.9.3.1.c s & $ $ & p l c c ^ +.+.1.1.:.3.9.w.r.p.p.g.g.g.g.p.g.g.g.g.g.p.p.r.9.3.:.1.1.+.^ ^ ^ ^ c c c c c c c c ",
"m.m.m.m.m.m.m.m.m.m.m.m.m.m.m.m.m.A M n n n j h a a p p i i & i p p s d l z c c c ^ ^ +.+.1.:.3.3.:.+.c d p & & & s x ^ 1.:.+.c s 4 & & p d c +.:.1.^ x s & $ % & p d x c ^ ^ ^ +.+.1.:.3.9.w.w.r.r.r.r.r.r.r.r.r.r.r.r.w.9.3.:.1.+.+.^ c c c c c c c c c c c c ",
"m.m.m.m.m.m.m.m.m.m.m.m.m.m.m.m.M m b b v v g f a p p & & & & & & p p s d l x x c c c c ^ ^ +.+.+.^ c l s i & $ & p d c ^ ^ c l p & & & & s l c ^ c c d p & $ % & p d x c c c G ^ ^ +.1.1.:.3.9.9.9.9.9.9.9.9.9.9.9.9.9.3.3.:.1.+.^ c c c c x x x l l l l l l l ",
"m.m.m.m.m.m.m.m.m.m.m.m.m.m.m.Z m b u u y y 9 8 5 4 & & & & & & & & p p s d d l l x x x c c c c c x l s p & $ $ & i s d l l k s p & $ $ & p s l l l d p & & $ % & p s l x c c c c c T ^ +.#.1.:.:.:.:.:.:.:.:.:.:.:.:.:.1.1.+.^ ^ c c c x l l h d d d d d d d d ",
"m.m.m.m.m.m.m.m.m.m.m.m.m.m.G M m u t t w w 7 6 3 4 & & & & % & & & & p p p s s d d l l k d d d s s p p & % $ $ $ & i p p p p p & & $ $ & & p p p p p & & $ $ % & p s d l x x c c c c c c ^ ^ +.+.+.+.+.+.+.+.+.+.+.+.+.^ ^ c c c c x l l d d s s p p p p p p p ",
"m.m.m.m.m.m.m.m.m.m.m.m.m.' G M b u e q q 0 < 1 3 2 & & % % $ $ $ % & & & i p p p s s s p p p p & & & $ $ $ $ $ $ $ % % & & & & $ $ $ $ $ $ % & & & & $ $ $ $ & & p p d h l l x l l x x c c c c c c c c c c c c c c c c c c c x x l d d s s p p p p p p p p p & ",
"m.m.m.m.m.m.m.m.m.m.m.m.$.' K M b t e : : ; * , > 2 & % % $ $ $ # $ $ $ & & & & 4 p p p & & & $ # + + + # # # # # # @ + + + + # # # # $ # # @ + + + + @ # # $ & & p p s d d k l d d l l l l l l l l l l l l l l l l l l l l l l d d s s p p p p & & & & & & & & ",
"m.m.m.m.m.m.m.m.m.m.m.m.$.' K M b t q : - = * , > 2 $ % # # # # # # # # # $ $ & & & & & & $ @ + O O O + + # # # # + + O O O O + + # # # # + + O O O O + + # $ & & p p a s d d d s d d d d d d d d d d d s s s s d s s s s s s s s p p p p & & & & & $ $ $ $ $ $ ",
"m.m.m.m.m.m.m.m.m.m.m.m.' ' K Z b t q : - = * , > $ $ $ # # # # + + # # # # # $ $ $ & $ $ # + O O o O O + # # $ # + + O o o O O + # # # @ + O O o o O O + # $ & & p p p s s s s s s s s s p p p p p p p p p p p p p p p p p p p p p p p & & & & $ $ # # # # # # ",
"m.m.m.m.m.m.m.m.m.m.m.' ' +.) Z m u e : - = * , > $ $ $ # @ @ + + + + + + + # # # $ $ $ # + O O o o o O + # $ $ # + O O o o o O + # # # + + O o o o O O + # $ & & p p p p a a a a p p p p p p p p p p p p p p p p p p p p p i i p p & & & & & $ # # # # # # @ @ ",
"m.m.m.m.m.m.m.m.m.m.m.E ' +.) F m u e q : ; < , > $ $ # # @ + + + + + + + + + # # # # # # + O O o o O O + # $ $ $ + + O o o O O + # $ # # + O O o o O O + # $ & & p p p p p p p p p p p p p p & & & & 4 & & & & & & & & & & & & & & & & & $ $ $ # # # # # # @ @ ",
"m.m.m.m.m.m.m.m.m.m.c T ' +.#.I S b u e q 0 < 1 2 $ $ # # @ + + + + + + + + + # # # # # + + O O O O O O + $ & & $ # + O O O O O + # # # @ + O O O O O + + # $ & & p p p p p p p p p p p p p & & & & & & & & & & & & & & & & & & & & & & $ $ $ # # # # # # @ @ @ ",
"m.m.m.m.m.m.m.m.m.l x T ' +.#.#.S m b u t r 7 6 2 $ $ # @ + + + + + + + + + + # # # # # + + + O O O O + # $ & & & $ + + O O O + + # # # # + + O O O O + + # $ & & & p p p p p p p p p p p p & & & & & & & & & & & & & & % & % % & & $ $ $ $ # # # # # # # # # # ",
"m.m.m.m.m.m.m.p s d x c ' &.1.1.I S m b u y 9 8 3 & $ # @ + + + + + + + + + + # # # # # # + + + + + + @ $ & & & & $ # + + + + + # # $ $ # # + + + + + + # $ % & & & p p p p p p p p p p p & & & & & & & & & & & & $ $ $ $ $ $ $ $ $ $ $ $ # # # # # # # # # # # ",
"m.m.m.m.m.m.m.p s d x c ^ 1.1.1.#.I S m m v g 5 4 & $ # + + + + O O + + + + + # # # # # # + + + + + # $ & & & & & & $ # + + + # # $ $ $ $ # # + + + + # # $ % & & & p p p p p p p p p p p & & & & & & & & & & % $ $ $ $ $ $ $ $ $ $ # # # # # # # # # # $ $ $ $ ",
"m.m.m.m.m.m.p p s d x c ^ +.1.1.1.#.I Z M j h a 4 & $ # + + + O O O + + + + + + # # # # # @ @ @ # # # $ & & & i & & % # # # # # # $ $ $ $ $ # # # # # # # $ $ & & & p p p p p p p p p p & & & & & & & % % % % $ $ # # # # # # # # # # # # # # # # # # $ $ $ $ $ ",
"m.m.m.m.m.m.p p s d l c ^ +.1.1.1.#.) K z z h a p & $ # + + + O O O + + + + + + + + + + + + @ # # $ $ & & & & & & & & $ $ $ $ $ # $ $ $ $ $ # # $ # $ $ $ $ $ % & & & p p p p p p p p i & & & & $ $ $ $ $ $ $ $ # # # @ @ + + + + + @ + + + + + + # # # $ $ $ $ ",
"m.m.m.m.m.m.p p s d l c c ^ +.+.#.+.^ G c l d p & & $ # + + + O O O + + + + + + + + + + + + + @ # # $ $ & & & & & & & $ $ $ $ $ # # $ $ $ # $ # $ $ $ # $ $ $ $ & & & & p p p p p & & & & & % $ $ $ $ $ # # # # # @ + + + + + + + + + + + + + + + + # # # # # # ",
"m.m.m.m.m.m.m.p s d l x c G ^ ^ ^ ^ c c x l s p & $ # + + + + O O O + + + + + + + O O O + + + + @ # # $ & & & & & & $ $ $ # # # # # # # # # # # # # # # # # $ $ $ & & & & & & & & & & & $ $ $ # # # # # # # # + + + + + + + + + + + + + + + + + + + + + + # # # ",
"m.m.m.m.m.m.m.p s s h x c c c c c c x l k d p i & # + + + + + O O O + + + + O O O O O O O O + + + + # # $ $ $ $ $ $ $ # # # # # # # # # # # # # # # # # # # # # $ $ $ % & & & & & $ $ $ # # # @ + + + + + + + + + + + O O O O O O O O O O O O O O O + + + + + + ",
"m.m.m.m.m.m.m.m.s s d l l x x x l l k d s p i & # + + + + + + + + + + O O O O O O o o o o o O O + + + # # # # # # # # # # # @ @ + + # # + # + + # # # @ + + # # # # # $ $ $ $ $ # # # # + + + + + + + + + + + + O O O O O O O O O O O O O o o O O O O O O + + + ",
"m.m.m.m.m.m.m.m.m.s d d d d d d d d s p p & % # + + + + + + + + + + + O O O O o o o o X o o o O O + + + + + + + + + + + + + + + + + + + + + + + + + + + + + + + + + # # # # @ + + + + + + + + + + + + + + + O O O O O O o o o o o o o o o o o o o o o O O O O O ",
"m.m.m.m.m.m.m.m.m.m.s s s s s p p p i & & $ # + + O O O O + + + + + + O O O o o o X X X X X o o O O O O + + + + + + + + + + + + + + + + + + + + + + + + + + + + + + + + + + + + + + + + O O O O O O O O O O O O O o o o o o o o o o o o o o X X o o o o o o o o ",
"m.m.m.m.m.m.m.m.m.m.m.p p p p p & & % $ # + + + O O O O O + + + + + + O O o o o X X . . . X X o o O O O O O O O O O O O O + + + + + O O O O + + O O + + + + O + + + + + + + + O O O O O O O O O O O O O O O O o o o o o o o o o o o o X X X X X X X X o o o o o ",
"m.m.m.m.m.m.m.m.m.m.m.p & & & & & $ # + + + O O O O O O O O + + + + + O O o o X X . . . . . X X o o o O O O O O O O O O O O O O O O O O O O O O O O O O O O O O O O O O O O O O O O O O o o o o o o o o o o o o o o o X X X X X X X X X X X X X X X X X X X X X ",
"m.m.m.m.m.m.m.m.m.m.m.m.& & & $ # + + + O O O o o o o O O O + + + + + O O o o X . .       . . X o o o o o o o o o o O O O O O O O O O O O O O O O O O O O O O O O O O O O O O O o o o o o o o o o o o o o o o o o X X X X X X X X X X X X . . . . X X X X X X X ",
"m.m.m.m.m.m.m.m.m.m.m.m.& $ $ # + + O O o o o o o o o o O O + + + + + O O o o X . .       . . X X o o o o o o o o o o O O O O O O O O O O O O O O O O O O O O O O O O O O O O o o o o o o o o o o o o o o o o X X X X X X X X X X X X X . . . . . . . X X X X X ",
"m.m.m.m.m.m.m.m.m.m.m.m.m.$ # @ + O O o o o o o X o o o O O O + + + + O O O o X X .       . . X o o o o o X X X X o o o O O O O O O o o O O O O O O O O O o o o O O O O O O O o o o o o o o o o o o o X X X X X X X X X X X X X X X X . . . . . . . . X X X X X ",
"m.m.m.m.m.m.m.m.m.m.m.m.m.$ # + O O o o X X X X X X o o o O O O + + + + O O O o X .       . . X o o o o X X X X X X o o O O O O o o o o o o O O O O O O o o o o o O O O O O o o o o o o o o o o X X X X X X X X X X X X X X X X X X X . . . . . . . . . X X X X ",
"m.m.m.m.m.m.m.m.m.m.m.m.m.m.# + O o X X X X X X X X X o o o O O O O + + + O O o X . .     . . X o o o o X X X . X X o o o O O O o o o o o o O O O O O O o o o o o o O O O O o o o o o o o o X X X X X X X X X X X X X X X X X X X X . . . . . . . . . . . X X X ",
"m.m.m.m.m.m.m.m.m.m.m.m.m.m.m.m.o X X . . . . X X X X o o o O O O O + + + + O O X . .     . . X o o o o X X . . . X X o o O O o o o o o o o O O O O O o o o o o o o o O O O o o o o o o o X X X X X X X X X X X X X X m.m.m.m.m.m.m.m.m.m.m.m.m.m.m.m.m.m.m.m.m.",
"m.m.m.m.m.m.m.m.m.m.m.m.m.m.m.m.o X . . . . . . X X X o o o o o O O + + + + + O o X .     . . X o o o o X . . . . X X o o O O o o o o o o o o O O O o o o o o o o o o O O O O o o o o o o X X X X X X X X . . . . . m.m.m.m.m.m.m.m.m.m.m.m.m.m.m.m.m.m.m.m.m.m.",
"m.m.m.m.m.m.m.m.m.m.m.m.m.m.m.m.m.. .       . . . X X X o o o o O O + + + + + O o X .     . . X o o o o X . . . . . X o o O O o o o X X o o o O O O o o o o o o o o o O O O O o o o o o o X X X X X X X . . . . . m.m.m.m.m.m.m.m.m.m.m.m.m.m.m.m.m.m.m.m.m.m.m.",
"m.m.m.m.m.m.m.m.m.m.m.m.m.m.m.m.m.          . . . X X X X o o o o O + + # # + O o X .     . X X o o o X X .     . . X o o O O o o o X X o o o O O O o o o X X X o o o O O O O o o o o o o X X X X X X . . . . . . m.m.m.m.m.m.m.m.m.m.m.m.m.m.m.m.m.m.m.m.m.m.m.",
"m.m.m.m.m.m.m.m.m.m.m.m.m.m.m.m.m.            . . X X X X o o o o O + + + # + O o X .     . X X o o o X . .       . X o o O O o o o X X o o o o O o o o o X X X o o o O O O O o o o o o o X X X X X X . . . . . . m.m.m.m.m.m.m.m.m.m.m.m.m.m.m.m.m.m.m.m.m.m.m.",
"m.m.m.m.m.m.m.m.m.m.m.m.m.m.m.m.m.            . . X X X X o o o o O O + + + + O o X . . . . X X o o X X .         . X o o O O o o o X X X o o o o o o o o X X X o o o o o o o o o o o o o X X X X X . . . . . . m.m.m.m.m.m.m.m.m.m.m.m.m.m.m.m.m.m.m.m.m.m.m.m.",
"m.m.m.m.m.m.m.m.m.m.m.m.m.m.m.m.m.            . . X X X X o o o o O O + + + + O o X X . . . . X X X X X .         . X o o O O o o o X X X o o o o o o o o X X X o o o o o o o o o o o o o X X X X X . . . . . . m.m.m.m.m.m.m.m.m.m.m.m.m.m.m.m.m.m.m.m.m.m.m.m.",
"m.m.m.m.m.m.m.m.m.m.m.m.m.m.m.m.m.            . X X X o o o o o o O O O + + + O o o X . . . . X X X X . .         . X o o O O o o o o X X o o o o o o o o X X X o o o o o o o o o o o o o X X X X . . . . . . m.m.m.m.m.m.m.m.m.m.m.m.m.m.m.m.m.m.m.m.m.m.m.m.m.",
"m.m.m.m.m.m.m.m.m.m.m.m.m.m.m.m.m.            . X X X o o o o o o o O O O O O O o o X X . . . . . . . .           . X o o O O o o o o o o o o o o o o o o X X X o o o o o o o o o o m.m.m.m.m.m.m.m.m.m.m.m.m.m.m.m.m.m.m.m.m.m.m.m.m.m.m.m.m.m.m.m.m.m.m.m.m.m.",
"m.m.m.m.m.m.m.m.m.m.m.m.m.m.m.m.m.          . . X X X o o o o o o o O O O O O O o o X X X . . . . . .             . X o o O O O o o o o o o o o o o o o o o X X o o o o o o o o o m.m.m.m.m.m.m.m.m.m.m.m.m.m.m.m.m.m.m.m.m.m.m.m.m.m.m.m.m.m.m.m.m.m.m.m.m.m.m.",
"m.m.m.m.m.m.m.m.m.m.m.m.m.m.m.m.m.          . . X X o o o o o o o o o O O O O o o o o X X X . . . .               . X o o O O O o o o o o o X X X X X o o o o o o o X X X X X o m.m.m.m.m.m.m.m.m.m.m.m.m.m.m.m.m.m.m.m.m.m.m.m.m.m.m.m.m.m.m.m.m.m.m.m.m.m.m.m.",
"m.m.m.m.m.m.m.m.m.m.m.m.m.m.m.m.m.          . . X X o o o o o o o o o o o o o o o o o o X X . . .                 . X o o O O O o o o o o X X X X X X X o o o o o X X X X X X X m.m.m.m.m.m.m.m.m.m.m.m.m.m.m.m.m.m.m.m.m.m.m.m.m.m.m.m.m.m.m.m.m.m.m.m.m.m.m.m.",
"m.m.m.m.m.m.m.m.m.m.m.m.m.m.m.m.m.          . . X X o o o o o o o o o o o o o o o o o o X X . .                 . . X o O O O O o o o o o X X X X X X X o o o o o X X X X X X m.m.m.m.m.m.m.m.m.m.m.m.m.m.m.m.m.m.m.m.m.m.m.m.m.m.m.m.m.m.m.m.m.m.m.m.m.m.m.m.m.",
"m.m.m.m.m.m.m.m.m.m.m.m.m.m.m.m.m..       . . . X X o o o o o o o o o o o o o o o o o o X X . . .             . . X o o O O O O O o o o o X X X X X X X o o o o o X X X X X X m.m.m.m.m.m.m.m.m.m.m.m.m.m.m.m.m.m.m.m.m.m.m.m.m.m.m.m.m.m.m.m.m.m.m.m.m.m.m.m.m.",
"m.m.m.m.m.m.m.m.m.m.m.m.m.m.m.m.m.. . . . . . . X X o o o o o o o o o o o o o o o o o o X X X . .         . . . X X o O O O O O O O o o o X X X X X X X o o o o o X X X X X m.m.m.m.m.m.m.m.m.m.m.m.m.m.m.m.m.m.m.m.m.m.m.m.m.m.m.m.m.m.m.m.m.m.m.m.m.m.m.m.m.m.",
"m.m.m.m.m.m.m.m.m.m.m.m.m.m.m.m.o X . . . . . X X X X o o o o o o o o o X X X X o o o o X X X . . . . . . . X X X o O O + + + + O O o o o X X X X X X X X o o o o X X X X X m.m.m.m.m.m.m.m.m.m.m.m.m.m.m.m.m.m.m.m.m.m.m.m.m.m.m.m.m.m.m.m.m.m.m.m.m.m.m.m.m.m.",
"m.m.m.m.m.m.m.m.m.m.m.m.m.m.m.O o o X X . . . X X X X o o o o o o o o o X X X X X o o o X X X . . . . . X X X o o O O + + + + + + O o o X X X X X X X X X o o o o X X X m.m.m.m.m.m.m.m.m.m.m.m.m.m.m.m.m.m.m.m.m.m.m.m.m.m.m.m.m.m.m.m.m.m.m.m.m.m.m.m.m.m.m.m.",
"m.m.m.m.m.m.m.m.m.m.m.m.m.m.+ + O o o X X X X X X X X X o o o o o o o X X X X X X X X X X X X X X X X X X o o o O O + + + # # + + O m.m.X X X X X X X X X o m.m.m.m.m.m.m.m.m.m.m.m.m.m.m.m.m.m.m.m.m.m.m.m.m.m.m.m.m.m.m.m.m.m.m.m.m.m.m.m.m.m.m.m.m.m.m.m.m.m.",
"m.m.m.m.m.m.m.m.m.m.m.m.m.# + + O O o X X X X X X X X X X o o o o o o X X X X X X X X X X X X X X X X o o o O O O + + + # # # # + m.m.m.m.X X X X X X X X m.m.m.m.m.m.m.m.m.m.m.m.m.m.m.m.m.m.m.m.m.m.m.m.m.m.m.m.m.m.m.m.m.m.m.m.m.m.m.m.m.m.m.m.m.m.m.m.m.m.m.",
"m.m.m.m.m.m.m.m.m.m.m.m.# # + + O O o o X X X X X X X X X o o o o o o X X X X X X X X X X X X X X X o o o O O + + + + # # # # # m.m.m.m.m.X X X X X X X m.m.m.m.m.m.m.m.m.m.m.m.m.m.m.m.m.m.m.m.m.m.m.m.m.m.m.m.m.m.m.m.m.m.m.m.m.m.m.m.m.m.m.m.m.m.m.m.m.m.m.m.",
"m.m.m.m.m.m.m.m.m.m.m.m.# + + + O O o o o X X X X X X X X o o o o o o o X X X X X X X X X X X X X o o o O O O + + + + # # # $ $ m.m.m.m.m.m.X X X X X X m.m.m.m.m.m.m.m.m.m.m.m.m.m.m.m.m.m.m.m.m.m.m.m.m.m.m.m.m.m.m.m.m.m.m.m.m.m.m.m.m.m.m.m.m.m.m.m.m.m.m.m.",
"m.m.m.m.m.m.m.m.m.m.m.m.+ + + + O O O o o o X X X X X X o o o o o o o o X X X X X X X X X X X X o o o O O O O + + + + # # # # # m.m.m.m.m.m.X X X X X X m.m.m.m.m.m.m.m.m.m.m.m.m.m.m.m.m.m.m.m.m.m.m.m.m.m.m.m.m.m.m.m.m.m.m.m.m.m.m.m.m.m.m.m.m.m.m.m.m.m.m.m.",
"m.m.m.m.m.m.m.m.m.m.m.m.+ + + + O O O o o o o o o o o o o o o o o o o o o o X X X X X X X X X X o o o O O O O O + + + + + + + + m.m.m.m.m.m.X X X X X m.m.m.m.m.m.m.m.m.m.m.m.m.m.m.m.m.m.m.m.m.m.m.m.m.m.m.m.m.m.m.m.m.m.m.m.m.m.m.m.m.m.m.m.m.m.m.m.m.m.m.m.m.",
"m.m.m.m.m.m.m.m.m.m.m.m.+ + + O O O o o o o o o o o o o o o o o o o o o o o o X X X X . . X X X o o o o O O O O O O O O O O O O O m.m.m.m.m.X X X X X m.m.m.m.m.m.m.m.m.m.m.m.m.m.m.m.m.m.m.m.m.m.m.m.m.m.m.m.m.m.m.m.m.m.m.m.m.m.m.m.m.m.m.m.m.m.m.m.m.m.m.m.m.",
"m.m.m.m.m.m.m.m.m.m.m.m.+ O O O O O o o o o o o o o o o o o o o o o o o o o o o X X . . . . X X o o o o o o o o o o o O O O o o o o m.m.m.m.X X X X m.m.m.m.m.m.m.m.m.m.m.m.m.m.m.m.m.m.m.m.m.m.m.m.m.m.m.m.m.m.m.m.m.m.m.m.m.m.m.m.m.m.m.m.m.m.m.m.m.m.m.m.m.m.",
"m.m.m.m.m.m.m.m.m.m.m.m.O O O O O o o o o o o o o O O O o o o o o o o O O O O o X X . . . . X X o o o o o o o X X o o o o o o X X X X X X X m.m.m.m.m.m.m.m.m.m.m.m.m.m.m.m.m.m.m.m.m.m.m.m.m.m.m.m.m.m.m.m.m.m.m.m.m.m.m.m.m.m.m.m.m.m.m.m.m.m.m.m.m.m.m.m.m.m.",
"m.m.m.m.m.m.m.m.m.m.m.m.O O O O o o o X X o o o O O O O O o o o o o O O O O O o X X . . . . X X X o o o X X X X X X X X X X X X X X X X X X m.m.m.m.m.m.m.m.m.m.m.m.m.m.m.m.m.m.m.m.m.m.m.m.m.m.m.m.m.m.m.m.m.m.m.m.m.m.m.m.m.m.m.m.m.m.m.m.m.m.m.m.m.m.m.m.m.m.",
"m.m.m.m.m.m.m.m.m.m.m.m.O O O o o o o X X o o O O O + O O O o o o o O O O O O o X X .     . . X X o o X X X . . . . . . . . . . X X X X X X m.m.m.m.m.m.m.m.m.m.m.m.m.m.m.m.m.m.m.m.m.m.m.m.m.m.m.m.m.m.m.m.m.m.m.m.m.m.m.m.m.m.m.m.m.m.m.m.m.m.m.m.m.m.m.m.m.m.",
"m.m.m.m.m.m.m.m.m.m.m.m.o o o o o o X X X o o O O + + + O O o o o o O O + + O O o X .     . . X X o o X X . .             . . . . . X X X X m.m.m.m.m.m.m.m.m.m.m.m.m.m.m.m.m.m.m.m.m.m.m.m.m.m.m.m.m.m.m.m.m.m.m.m.m.m.m.m.m.m.m.m.m.m.m.m.m.m.m.m.m.m.m.m.m.m.",
"m.m.m.m.m.m.m.m.m.m.m.o o o o o o o X X X o o O O + + + O O O o o O O O + + O O o X .     . . X X o X X . .                   . . . X X X X m.m.m.m.m.m.m.m.m.m.m.m.m.m.m.m.m.m.m.m.m.m.m.m.m.m.m.m.m.m.m.m.m.m.m.m.m.m.m.m.m.m.m.m.m.m.m.m.m.m.m.m.m.m.m.m.m.m.",
"m.m.m.m.m.m.m.m.m.m.m.O o o o o o o o X o o o O O + + + O O O O O O O O O O O o X . .     . . X X o X X . .                   . . . X X X m.m.m.m.m.m.m.m.m.m.m.m.m.m.m.m.m.m.m.m.m.m.m.m.m.m.m.m.m.m.m.m.m.m.m.m.m.m.m.m.m.m.m.m.m.m.m.m.m.m.m.m.m.m.m.m.m.m.m.",
"m.m.m.m.m.m.m.m.m.m.m.O O o o o o o o o o o O O O + + + + O O O O O O O O O O o X . .     . . X X o X X . .                   . . . X X X m.m.m.m.m.m.m.m.m.m.m.m.m.m.m.m.m.m.m.m.m.m.m.m.m.m.m.m.m.m.m.m.m.m.m.m.m.m.m.m.m.m.m.m.m.m.m.m.m.m.m.m.m.m.m.m.m.m.m.",
"m.m.m.m.m.m.m.m.m.m.+ O O o o o o o o o o o O O O O + + + O O O O O O O O o o o X . . . . . X X o o o X X .                   . . . X X X m.m.m.m.m.m.m.m.m.m.m.m.m.m.m.m.m.m.m.m.m.m.m.m.m.m.m.m.m.m.m.m.m.m.m.m.m.m.m.m.m.m.m.m.m.m.m.m.m.m.m.m.m.m.m.m.m.m.m.",
"m.m.m.m.m.m.m.m.m.& # + O o o o o o o o O O O O O O O O + + + + O O O O o o X X X . . . . . X X o o o X X .                   . . . X X m.m.m.m.m.m.m.m.m.m.m.m.m.m.m.m.m.m.m.m.m.m.m.m.m.m.m.m.m.m.m.m.m.m.m.m.m.m.m.m.m.m.m.m.m.m.m.m.m.m.m.m.m.m.m.m.m.m.m.m.",
"m.m.m.m.m.m.m.m.p & # + O o o o o o O O O O O O O O O O + + + + + O O o o X X X . . . . . X X X o o o X X . m.m.m.m.m.m.m.m.m.m.m.m.m.m.m.m.m.m.m.m.m.m.m.m.m.m.m.m.m.m.m.m.m.m.m.m.m.m.m.m.m.m.m.m.m.m.m.m.m.m.m.m.m.m.m.m.m.m.m.m.m.m.m.m.m.m.m.m.m.m.m.m.m.m.",
"m.m.m.m.m.m.m.p p & $ + O O o o o O O O O O O O O O O O O + + + + O O o X X . . . . . . . X X X o o o X X m.m.m.m.m.m.m.m.m.m.m.m.m.m.m.m.m.m.m.m.m.m.m.m.m.m.m.m.m.m.m.m.m.m.m.m.m.m.m.m.m.m.m.m.m.m.m.m.m.m.m.m.m.m.m.m.m.m.m.m.m.m.m.m.m.m.m.m.m.m.m.m.m.m.m.",
"m.m.m.m.m.m.m.p p & $ + O O o o o O O O + + O O O O O O O + + + + + O o X . . . . . . . X X X X o o o o X m.m.m.m.m.m.m.m.m.m.m.m.m.m.m.m.m.m.m.m.m.m.m.m.m.m.m.m.m.m.m.m.m.m.m.m.m.m.m.m.m.m.m.m.m.m.m.m.m.m.m.m.m.m.m.m.m.m.m.m.m.m.m.m.m.m.m.m.m.m.m.m.m.m.m.",
"m.m.m.m.m.m.p p p & $ + + O o o O O O + + + O O O O o O O + + # + + O o X .     . . . X X X X o o o o o o m.m.m.m.m.m.m.m.m.m.m.m.m.m.m.m.m.m.m.m.m.m.m.m.m.m.m.m.m.m.m.m.m.m.m.m.m.m.m.m.m.m.m.m.m.m.m.m.m.m.m.m.m.m.m.m.m.m.m.m.m.m.m.m.m.m.m.m.m.m.m.m.m.m.m.",
"m.m.m.m.m.m.p p i & $ + + O o o O O O + + + + O O O o O O + + # + + O X . .     . . . X X X X o o o o o m.m.m.m.m.m.m.m.m.m.m.m.m.m.m.m.m.m.m.m.m.m.m.m.m.m.m.m.m.m.m.m.m.m.m.m.m.m.m.m.m.m.m.m.m.m.m.m.m.m.m.m.m.m.m.m.m.m.m.m.m.m.m.m.m.m.m.m.m.m.m.m.m.m.m.m.",
"m.m.m.m.m.m.p p & & $ + O O o o o O O + + + O O O O O O + + + + + O o X . .     . . X X X X o o o o o o m.m.m.m.m.m.m.m.m.m.m.m.m.m.m.m.m.m.m.m.m.m.m.m.m.m.m.m.m.m.m.m.m.m.m.m.m.m.m.m.m.m.m.m.m.m.m.m.m.m.m.m.m.m.m.m.m.m.m.m.m.m.m.m.m.m.m.m.m.m.m.m.m.m.m.m.",
"m.m.m.m.m.m.p & & & # + O O o o o O O O + + O O O O O O + + + + + O o X . .   . . . X X X X o o o o o m.m.m.m.m.m.m.m.m.m.m.m.m.m.m.m.m.m.m.m.m.m.m.m.m.m.m.m.m.m.m.m.m.m.m.m.m.m.m.m.m.m.m.m.m.m.m.m.m.m.m.m.m.m.m.m.m.m.m.m.m.m.m.m.m.m.m.m.m.m.m.m.m.m.m.m.m.",
"m.m.m.m.m.m.& & & % # + O o o o o o O O O O O O O O O O + + + + + O o X . . . . . X X X X o o o o o m.m.m.m.m.m.m.m.m.m.m.m.m.m.m.m.m.m.m.m.m.m.m.m.m.m.m.m.m.m.m.m.m.m.m.m.m.m.m.m.m.m.m.m.m.m.m.m.m.m.m.m.m.m.m.m.m.m.m.m.m.m.m.m.m.m.m.m.m.m.m.m.m.m.m.m.m.m.",
"m.m.m.m.m.m.& & & $ + + O o o o o o O O O O O O O O O O + + + + O O o X . . . . . X X X o o o o o m.m.m.m.m.m.m.m.m.m.m.m.m.m.m.m.m.m.m.m.m.m.m.m.m.m.m.m.m.m.m.m.m.m.m.m.m.m.m.m.m.m.m.m.m.m.m.m.m.m.m.m.m.m.m.m.m.m.m.m.m.m.m.m.m.m.m.m.m.m.m.m.m.m.m.m.m.m.m.",
"m.m.m.m.m.m.& & $ # + O O o o X o o o O O O O O O + O + O O O O O o o X X . . . X X X o o o o o m.m.m.m.m.m.m.m.m.m.m.m.m.m.m.m.m.m.m.m.m.m.m.m.m.m.m.m.m.m.m.m.m.m.m.m.m.m.m.m.m.m.m.m.m.m.m.m.m.m.m.m.m.m.m.m.m.m.m.m.m.m.m.m.m.m.m.m.m.m.m.m.m.m.m.m.m.m.m.m.",
"m.m.m.m.m.m.$ $ # # + O O o X X X o o o O O O O + + + + O O O O o o o X X X . X X X X o o o o m.m.m.m.m.m.m.m.m.m.m.m.m.m.m.m.m.m.m.m.m.m.m.m.m.m.m.m.m.m.m.m.m.m.m.m.m.m.m.m.m.m.m.m.m.m.m.m.m.m.m.m.m.m.m.m.m.m.m.m.m.m.m.m.m.m.m.m.m.m.m.m.m.m.m.m.m.m.m.m.m.",
"m.m.m.m.m.m.# # # + + O o o X X X o o o o O O O + + + + O O O O o o o X X X X X X X o o o o o m.m.m.m.m.m.m.m.m.m.m.m.m.m.m.m.m.m.m.m.m.m.m.m.m.m.m.m.m.m.m.m.m.m.m.m.m.m.m.m.m.m.m.m.m.m.m.m.m.m.m.m.m.m.m.m.m.m.m.m.m.m.m.m.m.m.m.m.m.m.m.m.m.m.m.m.m.m.m.m.m.",
"m.m.m.m.m.m.# # + + O O o o X X X X o o o O O O + + + + O O O o o o X X X X X X X X o o o o o m.m.m.m.m.m.m.m.m.m.m.m.m.m.m.m.m.m.m.m.m.m.m.m.m.m.m.m.m.m.m.m.m.m.m.m.m.m.m.m.m.m.m.m.m.m.m.m.m.m.m.m.m.m.m.m.m.m.m.m.m.m.m.m.m.m.m.m.m.m.m.m.m.m.m.m.m.m.m.m.m.",
"m.m.m.m.m.m.+ + + + O O o o X X X o o o O O O O + + + + + O O o o o X X X X X X X X o o o o o m.m.m.m.m.m.m.m.m.m.m.m.m.m.m.m.m.m.m.m.m.m.m.m.m.m.m.m.m.m.m.m.m.m.m.m.m.m.m.m.m.m.m.m.m.m.m.m.m.m.m.m.m.m.m.m.m.m.m.m.m.m.m.m.m.m.m.m.m.m.m.m.m.m.m.m.m.m.m.m.m.",
"m.m.m.m.m.# + + + O O o o o X X o o o O O O O O + + + + O O O O o o X X X X X X X X o o o o o m.m.m.m.m.m.m.m.m.m.m.m.m.m.m.m.m.m.m.m.m.m.m.m.m.m.m.m.m.m.m.m.m.m.m.m.m.m.m.m.m.m.m.m.m.m.m.m.m.m.m.m.m.m.m.m.m.m.m.m.m.m.m.m.m.m.m.m.m.m.m.m.m.m.m.m.m.m.m.m.m.",
"m.m.m.m.$ + + + O O o o o o X o o o o O O O O O + + + O O O O O o o o X X . . X X X o o o o o m.m.m.m.m.m.m.m.m.m.m.m.m.m.m.m.m.m.m.m.m.m.m.m.m.m.m.m.m.m.m.m.m.m.m.m.m.m.m.m.m.m.m.m.m.m.m.m.m.m.m.m.m.m.m.m.m.m.m.m.m.m.m.m.m.m.m.m.m.m.m.m.m.m.m.m.m.m.m.m.m.",
"m.m.m.& $ + + O O o o o o o o o o o O O O + + O O O O O O O O O O o o X . . . . X X X o o o o m.m.m.m.m.m.m.m.m.m.m.m.m.m.m.m.m.m.m.m.m.m.m.m.m.m.m.m.m.m.m.m.m.m.m.m.m.m.m.m.m.m.m.m.m.m.m.m.m.m.m.m.m.m.m.m.m.m.m.m.m.m.m.m.m.m.m.m.m.m.m.m.m.m.m.m.m.m.m.m.m.",
"s p p & $ + + O o o o o o o o o o O O + + + + + O O O O O O O O O o o X . . . . . X X o o o o m.m.m.m.m.m.m.m.m.m.m.m.m.m.m.m.m.m.m.m.m.m.m.m.m.m.m.m.m.m.m.m.m.m.m.m.m.m.m.m.m.m.m.m.m.m.m.m.m.m.m.m.m.m.m.m.m.m.m.m.m.m.m.m.m.m.m.m.m.m.m.m.m.m.m.m.m.m.m.m.m.",
"s p p & $ + + O o o o o o o o o O O + + + + + + O O O O O O + + O O o X . . . . . X X o o o o m.m.m.m.m.m.m.m.m.m.m.m.m.m.m.m.m.m.m.m.m.m.m.m.m.m.m.m.m.m.m.m.m.m.m.m.m.m.m.m.m.m.m.m.m.m.m.m.m.m.m.m.m.m.m.m.m.m.m.m.m.m.m.m.m.m.m.m.m.m.m.m.m.m.m.m.m.m.m.m.m.",
"p p p & $ + + O o o X X X o o o O O + + + + + + O O O O O O + + O O o X .     . . X X o o o o m.m.m.m.m.m.m.m.m.m.m.m.m.m.m.m.m.m.m.m.m.m.m.m.m.m.m.m.m.m.m.m.m.m.m.m.m.m.m.m.m.m.m.m.m.m.m.m.m.m.m.m.m.m.m.m.m.m.m.m.m.m.m.m.m.m.m.m.m.m.m.m.m.m.m.m.m.m.m.m.m.",
"p p p & $ + O o o X X X X o o o O + + # # + + + O O O O O O + + + O o X .     . . X X o o o o m.m.m.m.m.m.m.m.m.m.m.m.m.m.m.m.m.m.m.m.m.m.m.m.m.m.m.m.m.m.m.m.m.m.m.m.m.m.m.m.m.m.m.m.m.m.m.m.m.m.m.m.m.m.m.m.m.m.m.m.m.m.m.m.m.m.m.m.m.m.m.m.m.m.m.m.m.m.m.m.m.",
"p p p & $ + O o o X X X X o o o O + + # # + + + O O o O O + + + + O o X .     . . X o o o o o m.m.m.m.m.m.m.m.m.m.m.m.m.m.m.m.m.m.m.m.m.m.m.m.m.m.m.m.m.m.m.m.m.m.m.m.m.m.m.m.m.m.m.m.m.m.m.m.m.m.m.m.m.m.m.m.m.m.m.m.m.m.m.m.m.m.m.m.m.m.m.m.m.m.m.m.m.m.m.m.m.",
"p p & & $ + O o o X X X X o o o O + + + # + + + O O O O O + + + O O o X . . . . X X o o O O O m.m.m.m.m.m.m.m.m.m.m.m.m.m.m.m.m.m.m.m.m.m.m.m.m.m.m.m.m.m.m.m.m.m.m.m.m.m.m.m.m.m.m.m.m.m.m.m.m.m.m.m.m.m.m.m.m.m.m.m.m.m.m.m.m.m.m.m.m.m.m.m.m.m.m.m.m.m.m.m.m.",
"p p & & # + O o o X X X X o o o O O + + + + + + O O O O O O + + O O o X . . . . X o o O O O O m.m.m.m.m.m.m.m.m.m.m.m.m.m.m.m.m.m.m.m.m.m.m.m.m.m.m.m.m.m.m.m.m.m.m.m.m.m.m.m.m.m.m.m.m.m.m.m.m.m.m.m.m.m.m.m.m.m.m.m.m.m.m.m.m.m.m.m.m.m.m.m.m.m.m.m.m.m.m.m.m.",
"& & & $ # + O o o X X X X o o o O O + + + + + + O O O O O O + O O O o X X . . X X o O O O + + m.m.m.m.m.m.m.m.m.m.m.m.m.m.m.m.m.m.m.m.m.m.m.m.m.m.m.m.m.m.m.m.m.m.m.m.m.m.m.m.m.m.m.m.m.m.m.m.m.m.m.m.m.m.m.m.m.m.m.m.m.m.m.m.m.m.m.m.m.m.m.m.m.m.m.m.m.m.m.m.m.",
"& & & $ # + O o o X X X X X o o o O O O + + + + O O O O O O O O O o o X X X X X o o O + + + + m.m.m.m.m.m.m.m.m.m.m.m.m.m.m.m.m.m.m.m.m.m.m.m.m.m.m.m.m.m.m.m.m.m.m.m.m.m.m.m.m.m.m.m.m.m.m.m.m.m.m.m.m.m.m.m.m.m.m.m.m.m.m.m.m.m.m.m.m.m.m.m.m.m.m.m.m.m.m.m.m.",
"& & $ # + + O o o o X X X X o o o o O O O O + + + O O O O O O O O o o X X X X o o O + + + + + m.m.m.m.m.m.m.m.m.m.m.m.m.m.m.m.m.m.m.m.m.m.m.m.m.m.m.m.m.m.m.m.m.m.m.m.m.m.m.m.m.m.m.m.m.m.m.m.m.m.m.m.m.m.m.m.m.m.m.m.m.m.m.m.m.m.m.m.m.m.m.m.m.m.m.m.m.m.m.m.m.",
"$ $ $ # + + O o o o X X X X X o o o o O O O O O + + + + O O O O o o o X X X o o O O + + # # # m.m.m.m.m.m.m.m.m.m.m.m.m.m.m.m.m.m.m.m.m.m.m.m.m.m.m.m.m.m.m.m.m.m.m.m.m.m.m.m.m.m.m.m.m.m.m.m.m.m.m.m.m.m.m.m.m.m.m.m.m.m.m.m.m.m.m.m.m.m.m.m.m.m.m.m.m.m.m.m.m.",
"$ # # @ + + O o o o X X X X X X X o o o O O O O + + + + O O O O o o o o o o o o O + + # # $ $ m.m.m.m.m.m.m.m.m.m.m.m.m.m.m.m.m.m.m.m.m.m.m.m.m.m.m.m.m.m.m.m.m.m.m.m.m.m.m.m.m.m.m.m.m.m.m.m.m.m.m.m.m.m.m.m.m.m.m.m.m.m.m.m.m.m.m.m.m.m.m.m.m.m.m.m.m.m.m.m.m.",
"# # + + + O O o o o X X X X X X X X o o o O O O + + + + O O O o o o o o o o o O O + # # $ $ m.m.m.m.m.m.m.m.m.m.m.m.m.m.m.m.m.m.m.m.m.m.m.m.m.m.m.m.m.m.m.m.m.m.m.m.m.m.m.m.m.m.m.m.m.m.m.m.m.m.m.m.m.m.m.m.m.m.m.m.m.m.m.m.m.m.m.m.m.m.m.m.m.m.m.m.m.m.m.m.m.m.",
"+ + + + + O O o o o X X X X X X X X X o o o O O O + + + O O o o o o o o o o o O O + # $ $ & m.m.m.m.m.m.m.m.m.m.m.m.m.m.m.m.m.m.m.m.m.m.m.m.m.m.m.m.m.m.m.m.m.m.m.m.m.m.m.m.m.m.m.m.m.m.m.m.m.m.m.m.m.m.m.m.m.m.m.m.m.m.m.m.m.m.m.m.m.m.m.m.m.m.m.m.m.m.m.m.m.m.",
"+ + + + O O O o o X X X X X X X X X X X o o o O O O O O O O o o o o o o o o o O O + # $ $ & m.m.m.m.m.m.m.m.m.m.m.m.m.m.m.m.m.m.m.m.m.m.m.m.m.m.m.m.m.m.m.m.m.m.m.m.m.m.m.m.m.m.m.m.m.m.m.m.m.m.m.m.m.m.m.m.m.m.m.m.m.m.m.m.m.m.m.m.m.m.m.m.m.m.m.m.m.m.m.m.m.m.",
"+ + O O O O o o o X X X X . . . . X X X o o o O O O O O O o o o o o o o o o o O O + # $ & m.m.m.m.m.m.m.m.m.m.m.m.m.m.m.m.m.m.m.m.m.m.m.m.m.m.m.m.m.m.m.m.m.m.m.m.m.m.m.m.m.m.m.m.m.m.m.m.m.m.m.m.m.m.m.m.m.m.m.m.m.m.m.m.m.m.m.m.m.m.m.m.m.m.m.m.m.m.m.m.m.m.m.",
"O O O O O O o o o X X . . . . . . . X X X o o o O O O O o o o o X X o o o o o O O + # $ m.m.m.m.m.m.m.m.m.m.m.m.m.m.m.m.m.m.m.m.m.m.m.m.m.m.m.m.m.m.m.m.m.m.m.m.m.m.m.m.m.m.m.m.m.m.m.m.m.m.m.m.m.m.m.m.m.m.m.m.m.m.m.m.m.m.m.m.m.m.m.m.m.m.m.m.m.m.m.m.m.m.m.m.",
"O O O O O o o o X X X . . . . . . . X X X o o o o o o o o o o X X X X o o o o O O + + m.m.m.m.m.m.m.m.m.m.m.m.m.m.m.m.m.m.m.m.m.m.m.m.m.m.m.m.m.m.m.m.m.m.m.m.m.m.m.m.m.m.m.m.m.m.m.m.m.m.m.m.m.m.m.m.m.m.m.m.m.m.m.m.m.m.m.m.m.m.m.m.m.m.m.m.m.m.m.m.m.m.m.m.m.",
"O O O o o o o o X X X . .       . . . X X X X o o o o o o o X X X X o o o o o o O O m.m.m.m.m.m.m.m.m.m.m.m.m.m.m.m.m.m.m.m.m.m.m.m.m.m.m.m.m.m.m.m.m.m.m.m.m.m.m.m.m.m.m.m.m.m.m.m.m.m.m.m.m.m.m.m.m.m.m.m.m.m.m.m.m.m.m.m.m.m.m.m.m.m.m.m.m.m.m.m.m.m.m.m.m.m.",
"o o o o o o o o X X . . .       . . . X X X X X o o o o X X X X X X X o o o o o O m.m.m.m.m.m.m.m.m.m.m.m.m.m.m.m.m.m.m.m.m.m.m.m.m.m.m.m.m.m.m.m.m.m.m.m.m.m.m.m.m.m.m.m.m.m.m.m.m.m.m.m.m.m.m.m.m.m.m.m.m.m.m.m.m.m.m.m.m.m.m.m.m.m.m.m.m.m.m.m.m.m.m.m.m.m.m.",
"o o o o o o o X X X . .         . . . X X X X X X X X X X X X X X X X o o o o o o m.m.m.m.m.m.m.m.m.m.m.m.m.m.m.m.m.m.m.m.m.m.m.m.m.m.m.m.m.m.m.m.m.m.m.m.m.m.m.m.m.m.m.m.m.m.m.m.m.m.m.m.m.m.m.m.m.m.m.m.m.m.m.m.m.m.m.m.m.m.m.m.m.m.m.m.m.m.m.m.m.m.m.m.m.m.m.",
"o o o o o o o X X X . . .       . . . X X X X X X X X X X X X X X X X o o o o o o m.m.m.m.m.m.m.m.m.m.m.m.m.m.m.m.m.m.m.m.m.m.m.m.m.m.m.m.m.m.m.m.m.m.m.m.m.m.m.m.m.m.m.m.m.m.m.m.m.m.m.m.m.m.m.m.m.m.m.m.m.m.m.m.m.m.m.m.m.m.m.m.m.m.m.m.m.m.m.m.m.m.m.m.m.m.m.",
"o o o o o o X X X X . . .       . . X X X X X X X X X X X X X X X X X o o o o o m.m.m.m.m.m.m.m.m.m.m.m.m.m.m.m.m.m.m.m.m.m.m.m.m.m.m.m.m.m.m.m.m.m.m.m.m.m.m.m.m.m.m.m.m.m.m.m.m.m.m.m.m.m.m.m.m.m.m.m.m.m.m.m.m.m.m.m.m.m.m.m.m.m.m.m.m.m.m.m.m.m.m.m.m.m.m.m.",
"o o o o o o X X X X X . . . . . . . X X X X X X X X X X X X X X X X X o o o o o m.m.m.m.m.m.m.m.m.m.m.m.m.m.m.m.m.m.m.m.m.m.m.m.m.m.m.m.m.m.m.m.m.m.m.m.m.m.m.m.m.m.m.m.m.m.m.m.m.m.m.m.m.m.m.m.m.m.m.m.m.m.m.m.m.m.m.m.m.m.m.m.m.m.m.m.m.m.m.m.m.m.m.m.m.m.m.m.",
"o o o o o o X X X X X X . . . . . X X X X X X X X X X X X X X X X X o o o o o m.m.m.m.m.m.m.m.m.m.m.m.m.m.m.m.m.m.m.m.m.m.m.m.m.m.m.m.m.m.m.m.m.m.m.m.m.m.m.m.m.m.m.m.m.m.m.m.m.m.m.m.m.m.m.m.m.m.m.m.m.m.m.m.m.m.m.m.m.m.m.m.m.m.m.m.m.m.m.m.m.m.m.m.m.m.m.m.m.",
"m.m.m.o o o o X X X X X X . . . X X X X X X X X X X X X X X X X X X o o o o m.m.m.m.m.m.m.m.m.m.m.m.m.m.m.m.m.m.m.m.m.m.m.m.m.m.m.m.m.m.m.m.m.m.m.m.m.m.m.m.m.m.m.m.m.m.m.m.m.m.m.m.m.m.m.m.m.m.m.m.m.m.m.m.m.m.m.m.m.m.m.m.m.m.m.m.m.m.m.m.m.m.m.m.m.m.m.m.m.m.",
"m.m.m.m.o o o o X X X X X X X X X X X X o o o o X X X X o o o o o o o o o m.m.m.m.m.m.m.m.m.m.m.m.m.m.m.m.m.m.m.m.m.m.m.m.m.m.m.m.m.m.m.m.m.m.m.m.m.m.m.m.m.m.m.m.m.m.m.m.m.m.m.m.m.m.m.m.m.m.m.m.m.m.m.m.m.m.m.m.m.m.m.m.m.m.m.m.m.m.m.m.m.m.m.m.m.m.m.m.m.m.m.",
"m.m.m.m.m.o o o o o X X X X X X X X X o o o o o o o o o o o o o o o o o m.m.m.m.m.m.m.m.m.m.m.m.m.m.m.m.m.m.m.m.m.m.m.m.m.m.m.m.m.m.m.m.m.m.m.m.m.m.m.m.m.m.m.m.m.m.m.m.m.m.m.m.m.m.m.m.m.m.m.m.m.m.m.m.m.m.m.m.m.m.m.m.m.m.m.m.m.m.m.m.m.m.m.m.m.m.m.m.m.m.m.m.",
"m.m.m.m.m.o o o o o o o o o o o X o o o o o o o o o o o o o o o o o o m.m.m.m.m.m.m.m.m.m.m.m.m.m.m.m.m.m.m.m.m.m.m.m.m.m.m.m.m.m.m.m.m.m.m.m.m.m.m.m.m.m.m.m.m.m.m.m.m.m.m.m.m.m.m.m.m.m.m.m.m.m.m.m.m.m.m.m.m.m.m.m.m.m.m.m.m.m.m.m.m.m.m.m.m.m.m.m.m.m.m.m.m.",
"m.m.m.m.m.m.o o o o o o o o o o o o o o o o o o o o o o o o o o o o o m.m.m.m.m.m.m.m.m.m.m.m.m.m.m.m.m.m.m.m.m.m.m.m.m.m.m.m.m.m.m.m.m.m.m.m.m.m.m.m.m.m.m.m.m.m.m.m.m.m.m.m.m.m.m.m.m.m.m.m.m.m.m.m.m.m.m.m.m.m.m.m.m.m.m.m.m.m.m.m.m.m.m.m.m.m.m.m.m.m.m.m.m.",
"m.m.m.m.m.m.o o o o o o o o o o o o o o o o o o o o o o o o o o o o o m.m.m.m.m.m.m.m.m.m.m.m.m.m.m.m.m.m.m.m.m.m.m.m.m.m.m.m.m.m.m.m.m.m.m.m.m.m.m.m.m.m.m.m.m.m.m.m.m.m.m.m.m.m.m.m.m.m.m.m.m.m.m.m.m.m.m.m.m.m.m.m.m.m.m.m.m.m.m.m.m.m.m.m.m.m.m.m.m.m.m.m.m.",
"m.m.m.m.m.m.o o o o o o o o o o o o o o o o o o o o o o o o o o o o o m.m.m.m.m.m.m.m.m.m.m.m.m.m.m.m.m.m.m.m.m.m.m.m.m.m.m.m.m.m.m.m.m.m.m.m.m.m.m.m.m.m.m.m.m.m.m.m.m.m.m.m.m.m.m.m.m.m.m.m.m.m.m.m.m.m.m.m.m.m.m.m.m.m.m.m.m.m.m.m.m.m.m.m.m.m.m.m.m.m.m.m.m.",
"m.m.m.m.m.m.o o o o o o o o o o o o o o o o o o o o o o o o o o o o o m.m.m.m.m.m.m.m.m.m.m.m.m.m.m.m.m.m.m.m.m.m.m.m.m.m.m.m.m.m.m.m.m.m.m.m.m.m.m.m.m.m.m.m.m.m.m.m.m.m.m.m.m.m.m.m.m.m.m.m.m.m.m.m.m.m.m.m.m.m.m.m.m.m.m.m.m.m.m.m.m.m.m.m.m.m.m.m.m.m.m.m.m.",
"m.m.m.m.m.m.o o o o o o o o o o o o o o o o o o o o o o o o o o o o o m.m.m.m.m.m.m.m.m.m.m.m.m.m.m.m.m.m.m.m.m.m.m.m.m.m.m.m.m.m.m.m.m.m.m.m.m.m.m.m.m.m.m.m.m.m.m.m.m.m.m.m.m.m.m.m.m.m.m.m.m.m.m.m.m.m.m.m.m.m.m.m.m.m.m.m.m.m.m.m.m.m.m.m.m.m.m.m.m.m.m.m.m."
};
