/* XPM */
static const char *weapon_idle_1[] = {
/* columns rows colors chars-per-pixel */
"82 92 58 1 ",
"  c black",
". c #070707",
"X c #0B0B0B",
"o c #170F07",
"O c #1F170B",
"+ c #131313",
"@ c #1B1B1B",
"# c #2F1B0B",
"$ c #2B230F",
"% c #372313",
"& c #332B13",
"* c #3F2F17",
"= c #3F2B1B",
"- c #232323",
"; c #272727",
": c #2F2F2F",
"> c #373737",
", c gray23",
"< c #430000",
"1 c #470000",
"2 c #7F0000",
"3 c #432F1B",
"4 c #43331B",
"5 c #4B371B",
"6 c #533F1F",
"7 c #473323",
"8 c #4F3B23",
"9 c #5F4323",
"0 c #6B4727",
"q c #774F2B",
"w c #7F532F",
"e c #434343",
"r c gray28",
"t c #4B4B4B",
"y c gray31",
"u c gray34",
"i c #5B5B5B",
"p c gray39",
"a c gray42",
"s c #6F6F6F",
"d c #777777",
"f c gray50",
"g c #875733",
"h c #8F5F37",
"j c #9B633B",
"k c #A36B3F",
"l c #AB6F43",
"z c #B37347",
"x c #BF7B4B",
"c c #CB7F4F",
"v c #CF8353",
"b c #D78B5B",
"n c #DF9363",
"m c #E79B6B",
"M c #838383",
"N c #8B8B8B",
"B c #9F9F9F",
"V c None",
/* pixels */
"VVVVVVVVVVVVVVVVVVVVVVVVVVVVVVVVVViiVVVVVVVVVVVVVVVVVVVVVVVVVVVVVVVVVVVVVVVVVVVVVV",
"VVVVVVVVVVVVVVVVVVVVVVVVVVVVVVVVVV22VVVVVVVVVVVVVVVVVVVVVVVVVVVVVVVVVVVVVVVVVVVVVV",
"VVVVVVVVVVVVVVVVVVVVVVVVVVVVVVVVVV@@VVVVVVVVVVVVVVVVVVVVVVVVVVVVVVVVVVVVVVVVVVVVVV",
"VVVVVVVVVVVVVVVVVVVVVVVVVVVVVVVVut@;:;VVVVVVVVVVVVVVVVVVVVVVVVVVVVVVVVVVVVVVVVVVVV",
"VVVVVVVVVVVVVVVVVVVVVVVVVVVVVVViye>>,:@VVVVVVVVVVVVVVVVVVVVVVVVVVVVVVVVVVVVVVVVVVV",
"VVVVVVVVVVVVVVVVVVVVVVVVVVVVVVipiyret,::VVVVVVVVVVVVVVVVVVVVVVVVVVVVVVVVVVVVVVVVVV",
"VVVVVVVVVVVVVVVVVVVVVVVVVVVVVydsiyttrtyt,VVVVVVVVVVVVVVVVVVVVVVVVVVVVVVVVVVVVVVVVV",
"VVVVVVVVVVVVVVVVVVVVVVVVVVVVr,Npyttttuu:@:VVVVVVVVVVVVVVVVVVVVVVVVVVVVVVVVVVVVVVVV",
"VVVVVVVVVVVVVVVVVVVVVVVVVVVydMpiitttuppupe@VVVVVVVVVVVVVVVVVVVVVVVVVVVVVVVVVVVVVVV",
"VVVVVVVVVVVVVVVVVVVVVVVVVV,y,;NBBNutsNMs@;e@VVVVVVVVVVVVVVVVVVVVVVVVVVVVVVVVVVVVVV",
"VVVVVVVVVVVVVVVVVVVVVVVVV,ydMNBspuyyieep;e,;XVVVVVVVVVVVVVVVVVVVVVVVVVVVVVVVVVVVVV",
"VVVVVVVVVVVVVVVVVVVVVVVVVpMraMs=2,tte2=e:.:e-VVVVVVVVVVVVVVVVVVVVVVVVVVVVVVVVVVVVV",
"VVVVVVVVVVVVVVVVVVVVVVVV:drpMsy>>>ee,>>:t:;:,+VVVVVVVVVVVVVVVVVVVVVVVVVVVVVVVVVVVV",
"VVVVVVVVVVVVVVVVVVVVVVVV,rpNNye>:>,,>:::,,,;r-@VVVVVVVVVVVVVVVVVVVVVVVVVVVVVVVVVVV",
"VVVVVVVVVVVVVVVVVVVVVVVVysNd,>:::::::---;-:e;:-VVVVVVVVVVVVVVVVVVVVVVVVVVVVVVVVVVV",
"VVVVVVVVVVVVVVVVVVVVVVVVpMy::-++++++++@@-@@;::;@VVVVVVVVVVVVVVVVVVVVVVVVVVVVVVVVVV",
"VVVVVVVVVVVVVVVVVVVVVVVyMp-;i:X.X......X:,@++::@VVVVVVVVVVVVVVVVVVVVVVVVVVVVVVVVVV",
"VVVVVVVVVVVVVVVVVVVVVVVps:+,p>XXXXXX.X.+;r@X.@;@VVVVVVVVVVVVVVVVVVVVVVVVVVVVVVVVVV",
"VVVVVVVVVVVVVVVVVVVVVVVptX@eu;X+@@@@@@@@@e-+XX-+VVVVVVVVVVVVVVVVVVVVVVVVVVVVVVVVVV",
"VVVVVVVVVVVVVVVVVVVVVVVe;.+>,--;-;;;:>::;>-+@.@@VVVVVVVVVVVVVVVVVVVVVVVVVVVVVVVVVV",
"VVVVVVVVVVVVVVVVVVVVVVV:@+>>:::::::@@:@@:@@-;@X+VVVVVVVVVVVVVVVVVVVVVVVVVVVVVVVVVV",
"VVVVVVVVVVVVVVVVVVVVVVV@Xeye,,>>>>>1o:1o:1o:::+XVVVVVVVVVVVVVVVVVVVVVVVVVVVVVVVVVV",
"VVVVVVVVVVVVVVVVVVVVVVVX:pyee,,,,,,<o><o><o>:,@XVVVVVVVVVVVVVVVVVVVVVVVVVVVVVVVVVV",
"VVVVVVVVVVVVVVVVVVVVVVVX,siytre,eeerr,et,er>er;+VVVVVVVVVVVVVVVVVVVVVVVVVVVVVVVVVV",
"VVVVVVVVVVVVVVVVVVVVVVV+>isiuuyyyyyttreeeeetr:-XVVVVVVVVVVVVVVVVVVVVVVVVVVVVVVVVVV",
"VVVVVVVVVVVVVVVVVVVVVVV+:epdappppppppiuuuiiy:-@+VVVVVVVVVVVVVVVVVVVVVVVVVVVVVVVVVV",
"VVVVVVVVVVVVVVVVVVVVVVVX;,>tasddfdddddsppu,:;@.X=55VVVVVVVVVVVVVVVVVVVVVVVVVVVVVVV",
"VVVVVVVVVVVVVVVVVVVVVVV@X;>,e:::>:::::::::@-@X #5565*VVVVVVVVVVVVVVVVVVVVVVVVVVVVV",
"VVVVVVVVVVVVVVVVVVVVVVVX@+;>,:;::::::;;:::@+++.O59995*VVVVVVVVVVVVVVVVVVVVVVVVVVVV",
"VVVVVVVVVVVVVVVVVVVVVVV@X@@+@@@@@@@@++@@@+.X ..=900095VVVVVVVVVVVVVVVVVVVVVVVVVVVV",
"VVVVVVVVVVVVVVVVVVVVVVV@+@-@@-@@@@@@@@@-@+++X. 59000095VVVVVVVVVVVVVVVVVVVVVVVVVVV",
"VVVVVVVVVVVVVVVVVVVVVVV++@;@-;;-;;;;;--;:++++XX60qqqqq06VVVVVVVVVVVVVVVVVVVVVVVVVV",
"VVVVVVVVVVVVVVVVV35665$X++;-@:;:::::::;;;+++X.%9qwggggq06VVVVVVVVVVVVVVVVVVVVVVVVV",
"VVVVVVVVVVVVVVV=599099*#++---:::::::::::;+++XX5qwghhhhgw06VVVVVVVVVVVVVVVVVVVVVVVV",
"VVVVVVVVVVVVVV*560000993++@-@>>::>>>>:::;+++XX9qghhjhhgw096VVVVVVVVVVVVVVVVVVVVVVV",
"VVVVVVVVVVVVVV3990000005X+@--:>>>>>>>>::;+++X30whhjjjhggq95VVVVVVVVVVVVVVVVVVVVVVV",
"VVVVVVVVVVVVV%5900000005*++-@:,>>>>>>>>:-+++#0wghjjjhhgwq06=VVVVVVVVVVVVVVVVVVVVVV",
"VVVVVVVVVVVVV%5600qqwqq96*+@@;eeeeeee,,:-+X+6qghhjjjhhgwq06=VVVVVVVVVVVVVVVVVVVVVV",
"VVVVVVVVVVVVV%390wwwgggq95*+@-,tyyyyyte>@XX%qghhhjjjhggq095%VVVVVVVVVVVVVVVVVVVVVV",
"VVVVVVVVVVVVV#50qgghjjhhw05%%@::>>>,,>:;+.%0wghhjjjjhgwq063*VVVVVVVVVVVVVVVVVVVVVV",
"VVVVVVVVVVVVV#60wghhjhhhgw053%%%%%%%#%%*350wghhjjjjjggq0953*%VVVVVVVVVVVVVVVVVVVVV",
"VVVVVVVVVVVV#*9qghhhhhhhhgwq953**%*56900wgghhhhjjjjhgwq065***VVVVVVVVVVVVVVVVVVVVV",
"VVVVVVVVVVVV#59qghhhhhhjhhggwq00900qwggghhhhhjjjjjhhgq0953*396VVVVVVVVVVVVVVVVVVVV",
"VVVVVVVVVVVV#390gggghhhjjhhhggggwwgggghhhhhhjjjjjjhgw009533506VVVVVVVVVVVVVVVVVVVV",
"VVVVVVVVVVVV%590wggghhhhjhhhhhggggghhhhhhhjjjjjjjjhgq09553360w5VVVVVVVVVVVVVVVVVVV",
"VVVVVVVVVVVV%560qwggggghhhhhhhhghhhhhhhhjjjjjjjjjhhw096533560q03VVVVVVVVVVVVVVVVVV",
"VVVVVVVVVVV#%%600wwggggghhhhhhhhhhhhhhhhhjjjjjjjhhgq09653356999%VVVVVVVVVVVVVVVVVV",
"VVVVVVVVVVV##%590qwwgggggghhhhhhhhhhhhhhhjjjjjjhhhgq09533356965%VVVVVVVVVVVVVVVVVV",
"VVVVVVVVVVVO#%3900qwwwggggggghhhhhhhhhhhhjjjjjhhhgw09953335665*%VVVVVVVVVVVVVVVVVV",
"VVVVVVVVVVVoO%*6900qwwwwggggggggghghhhhhhjjjjhhhggq0965333555*%$VVVVVVVVVVVVVVVVVV",
"VVVVVVVVVVVoO#*5990qqqwwwwwgggggggghhhhhhhhhhhhggwq0953335353%%OVVVVVVVVVVVVVVVVVV",
"VVVVVVVVVVVVOO%36990qqqqqwwwggggggghhhhhhhhhhhgggw09653*3553*%%VVVVVVVVVVVVVVVVVVV",
"VVVVVVVVVVV OO%35690000qqqwwwggggggghhhhhhhhhgggwq09653*333***%VVVVVVVVVVVVVVVVVVV",
"VVVVVVVVVV  oo%*56990000qqqwwwggggggghhhhhhhhggwq009653*****%3*VVVVVVVVVVVVVVVVVVV",
"VVVVVVVVVV  oO%35569990000qqwwwggggggghhhhhhggwwq09953***%*%%3*#VVVVVVVVVVVVVVVVVV",
"VVVVVVVVVV   o%=3556999000qqqwwwggggggggggggwwwqq09653**%%%%%3%#VVVVVVVVVVVVVVVVVV",
"VVVVVVVVVV   o#%=355699900qqqwwwgggggggggggwqq0009655**%%%%%%*%#VVVVVVVVVVVVVVVVVV",
"VVVVVVVVVV   .#%=3556699000qqqwwwggggggwwwwqqq0099655%%%%%#%%%#OVVVVVVVVVVVVVVVVVV",
"VVVVVVVVVV  ..o#%=355699900qqqqqwgggggwwwqqwqqq0009655%%#######OVVVVVVVVVVVVVVVVVV",
"VVVVVVVVVVV...o#%%3355669000000qwwwqq009990000000009653*%%##O#OOVVVVVVVVVVVVVVVVVV",
"VVVVVVVVVVV...oo#%==55569900000wwq996999990000099666653*%%%##OOVVVVVVVVVVVVVVVVVVV",
"VVVVVVVVVVV.o.ooO%%*3555569900009556690qqwwwwqwq0009653*%*%##OOVVVVVVVVVVVVVVVVVVV",
"VVVVVVVVVV.oooooo#%**3335559900555900qwqq099999999966555**%%#OVVVVVVVVVVVVVVVVVVVV",
"VVVVVVVVVV.ooooooO%%=*****56095559qqq096669996666555**355%%%#OVVVVVVVVVVVVVVVVVVVV",
"VVVVVVVVVVooOooooo#%=%%%%*595335000996699000q0q009555*****%%%#OVVVVVVVVVVVVVVVVVVV",
"VVVVVVVVVV.oOOOooOO%%%%#%*55**50065690000096999996665555**%%##OVVVVVVVVVVVVVVVVVVV",
"VVVVVVVVVVooooooooO%##O#%**%%599559909953*%%%%%%%%%*3333***%%#OVVVVVVVVVVVVVVVVVVV",
"VVVVVVVVVVooOoooOO###OO#%*%%5955690963%%#####%%%%######O#%%%%%#VVVVVVVVVVVVVVVVVVV",
"VVVVVVVVVVVooOOOOO$$OO#%%%%*5359996%%###%5665565655555*#O##%%%#OVVVVVVVVVVVVVVVVVV",
"VVVVVVVVVVVOOOO#$#$$&O#%%%=3%%555*##%*5690qhjzxcxzlljq953%###%#OVVVVVVVVVVVVVVVVVV",
"VVVVVVVVVVVVO#$#&$&&&O#%%%3%%*3*%##569qhjjklzxccccxzlkjg065%####OVVVVVVVVVVVVVVVVV",
"VVVVVVVVVVVVO#%$#*&$$$#%%*%%%**###560wgjklzzxcvvvvcxzlkhgw06*#O##VVVVVVVVVVVVVVVVV",
"VVVVVVVVVVV#%=%%&&&$$&#%*%#%%%#O#590qghjklzxxcvbbbvcxzljhgw06*%OOVVVVVVVVVVVVVVVVV",
"VVVVVVVVVVV$%%=%*&**&&O###%%%###5900qghjklzxcvbbbbbvcxzkjhgw06*%#VVVVVVVVVVVVVVVVV",
"VVVVVVVVVVV$%3=4***%&&O###%%#O#39000qghjklzxcvbbbbbbvxzlkjhgw06*%VVVVVVVVVVVVVVVVV",
"VVVVVVVVVVV*533==#OOOOOO#%%%#O#*6000qwhjklzxcvbbbbbbbvxzlkjhgq06*#VVVVVVVVVVVVVVVV",
"VVVVVVVVVV&3853%%O#OOOOO#%%#OO%59900qwhjklzxcvbbbbbbbbcxzlkjhgq06*#VVVVVVVVVVVVVVV",
"VVVVVVVVVV&38*%%O#$$%=3=O#%#O#*59900qwgjjlzxxvbbbbbbbbvcxzlkjhwq96*#VVVVVVVVVVVVVV",
"VVVVVVVVV*533*#&&=5855533O#OO#*69990qqghjkzzxcbbnbbbbbbvcxzljjgwq96*%VVVVVVVVVVVVV",
"VVVVVVVVV55&3&*56689688873OOO#*599900qghjklzxcvbnnbbbbbbvcxzkjhgw096*%VVVVVVVVVVVV",
"VVVVVVVVV*&$&48999999996675=O%%569900qwhjjlzzxvbnnbbbnnbbvxzlkjhgw096*%VVVVVVVVVVV",
"VVVVVVVVV#$&5900000000099873o%%569990qwghjklzxvbnnbnnnnbbvcxzlkjhgw0963%VVVVVVVVVV",
"VVVVVVVVV%*590qqqqqqqq0096833#%359990qwghjjlzxcbbnnnnnnnbbvcxzlkjhgw0963%VVVVVVVVV",
"VVVVVVVV#*690qwwggwwgwq009653#%3569900qwghjklzcvbnnnnnnnnbbvcxzlkjhgw0964%VVVVVVVV",
"VVVVVVV#*60qwgghhhhhhgwq09675O#*569990qwghjjlzxvbnnnnnnnnnbbvcxzlkjhgw0965%VVVVVVV",
"VVVVVV#*69qqghhhjkkjjhgq009853#%35690qqwggjjkzxvbnnnnnnnnnnbbvcxzzkjjgwq095%VVVVVV",
"VVVVV%*69qwwhhkklllljjgwq09653#%356900qwwghjklzcbnnnnnnnnnnnbbvcxzzlkjhwq0964VVVVV",
"VVVV%*690wghhjlzzzzlkjhgwq0653#%*55690qqwghjjlzxvbnnnnnnnnnnbbbvcxxzlkjhgq0965VVVV",
"VVV%*690wghhkklzxxxxzjjggq0953=%*356990qqggjjkzxvbnnnnnnnnnnnbbbvcxxzlkjhgqq096VVV",
"VV%3690wghjklzzxxcxxzljhgw0953=#%3556990qwghjklzcbnnnnnnnmnnnnbbbvcxxzlkjhgwq096VV",
"V%3690wghjklzzxxvccxxlkjhw0983=#%*456990qwghjklzxvbnnnnnnnmnnnnbbbvcxxzlkjhgwq009V",
"%4690wghjklzxxcvvvvxxzkjhw0953=##%*456990qwghjklzxvbnnnnnnnmnnnnbbbvcxxzlkjhgwq009"
};
