/* XPM */
static const char *weapon_shoot_3[] = {
/* columns rows colors chars-per-pixel */
"128 128 256 2 ",
"   c #1C1716",
".  c #240000",
"X  c #2C0100",
"o  c #280F03",
"O  c #330100",
"+  c #3B0200",
"@  c #3A0C06",
"#  c #251404",
"$  c #291605",
"%  c #2C1906",
"&  c #2E1A09",
"*  c #271806",
"=  c #331D09",
"-  c #351B07",
";  c #261B19",
":  c #36210B",
">  c #3C240C",
",  c #3E290D",
"<  c #27221C",
"1  c #382615",
"2  c #242423",
"3  c #2C2B2B",
"4  c #282826",
"5  c #343434",
"6  c #3C3C3C",
"7  c #393836",
"8  c #342F2C",
"9  c #162421",
"0  c #430300",
"q  c #4B0400",
"w  c #4D0B06",
"e  c #530600",
"r  c #5B0900",
"t  c #570800",
"y  c #511A07",
"u  c #630B00",
"i  c #6B0D00",
"p  c #660A0B",
"a  c #740F00",
"s  c #6A1401",
"d  c #741300",
"f  c #7B1501",
"g  c #7B1A01",
"h  c #41260E",
"j  c #432A0F",
"k  c #4B2D0E",
"l  c #452B11",
"z  c #492E11",
"x  c #432712",
"c  c #4C3212",
"v  c #473418",
"b  c #523513",
"n  c #553915",
"m  c #5B3A16",
"M  c #5B3816",
"N  c #522D0F",
"B  c #792705",
"V  c #633D17",
"C  c #643E18",
"Z  c #6A3E19",
"A  c #673A16",
"S  c #6F2E0C",
"D  c #473430",
"F  c #664019",
"G  c #6C411A",
"H  c #684017",
"J  c #74441C",
"K  c #7B461E",
"L  c #7C481F",
"P  c #48413D",
"I  c #7D4920",
"U  c #794721",
"Y  c #6C4E34",
"T  c #5B421E",
"R  c #444343",
"E  c #4C4B4B",
"W  c #484747",
"Q  c #534E4C",
"!  c #545353",
"~  c #5C5B5B",
"^  c #585857",
"/  c #51504F",
"(  c #65584E",
")  c #6A635B",
"_  c #676666",
"`  c #787878",
"'  c #776D65",
"]  c #5E6063",
"[  c #3F4141",
"{  c #841B01",
"}  c #8A1C00",
"|  c #851600",
" . c #951B00",
".. c #950202",
"X. c #AC0F02",
"o. c #8B2402",
"O. c #942301",
"+. c #9A2400",
"@. c #9C2A01",
"#. c #942B03",
"$. c #92370C",
"%. c #A42C01",
"&. c #AA2A01",
"*. c #B72A01",
"=. c #AC3201",
"-. c #A63706",
";. c #BC3B01",
":. c #B63602",
">. c #AA3D11",
",. c #AE2B3E",
"<. c #C23D01",
"1. c #C93A01",
"2. c #D73A01",
"3. c #D31803",
"4. c #81471F",
"5. c #9B4412",
"6. c #B34812",
"7. c #844B22",
"8. c #8B4E24",
"9. c #814720",
"0. c #8D5025",
"q. c #8B572F",
"w. c #935226",
"e. c #9A5427",
"r. c #965428",
"t. c #9B5629",
"y. c #9E582B",
"u. c #905027",
"i. c #A45B2B",
"p. c #AA5E2D",
"a. c #A15728",
"s. c #B05C2A",
"d. c #AD602F",
"f. c #B2612F",
"g. c #B9642F",
"h. c #AD6130",
"j. c #B46431",
"k. c #BA6632",
"l. c #BD6934",
"z. c #A3723C",
"x. c #CC4301",
"c. c #C64607",
"v. c #D74902",
"b. c #DA5208",
"n. c #D65717",
"m. c #C75217",
"M. c #E64A01",
"N. c #E85605",
"B. c #FB5C02",
"V. c #F65803",
"C. c #EC560C",
"Z. c #FC6607",
"A. c #FD740A",
"S. c #E86419",
"D. c #F96917",
"F. c #FD7619",
"G. c #E5610F",
"H. c #CE5B25",
"J. c #C36B35",
"K. c #C86E38",
"L. c #CD713A",
"P. c #C97038",
"I. c #D3753C",
"U. c #DB793E",
"Y. c #D9763B",
"T. c #D56729",
"R. c #E66927",
"E. c #FB7827",
"W. c #F87A35",
"Q. c #ED722F",
"!. c #D96118",
"~. c #8B6E53",
"^. c #987051",
"/. c #DC7B41",
"(. c #D77741",
"). c #E27E43",
"_. c #FD842A",
"`. c #FD8639",
"'. c #F99236",
"]. c #FE9126",
"[. c #B6885F",
"{. c #E58145",
"}. c #E98246",
"|. c #ED8549",
" X c #EA8748",
".X c #F1874B",
"XX c #F3894D",
"oX c #FB8B45",
"OX c #FD944B",
"+X c #FD9D5B",
"@X c #FD9854",
"#X c #F98C51",
"$X c #FDA55C",
"%X c #FDAB50",
"&X c #F99E63",
"*X c #FEA868",
"=X c #FEB56A",
"-X c #FEAC75",
";X c #FEB678",
":X c #EBB076",
">X c #D59768",
",X c #FEC57A",
"<X c #898889",
"1X c #FEB886",
"2X c #FEBD94",
"3X c #F6B084",
"4X c #D1B396",
"5X c #FEC68A",
"6X c #FEC797",
"7X c #FED499",
"8X c #F0C791",
"9X c #FECCA3",
"0X c #FECCAB",
"qX c #FEC6A4",
"wX c #FED3AB",
"eX c #FED9A7",
"rX c #FDCEB3",
"tX c #FED3B4",
"yX c #FED4BB",
"uX c #FEDCBC",
"iX c #FEDAB3",
"pX c #E6D2BC",
"aX c #FEE3AD",
"sX c #FEECBB",
"dX c #FEE6B7",
"fX c #FCF8BA",
"gX c #F9F9AB",
"hX c #D5D6BC",
"jX c #FEDBC2",
"kX c #FED9C7",
"lX c #F9DBD1",
"zX c #FEE3C4",
"xX c #FDEBC4",
"cX c #FDE3CB",
"vX c #FDEBCB",
"bX c #FDFCC4",
"nX c #FDFCCB",
"mX c #FDF4C7",
"MX c #FCE8D8",
"NX c #FDFCD3",
"BX c #FDFDDB",
"VX c #FCF3D8",
"CX c #EEE0D3",
"ZX c #FCEBE4",
"AX c #FCEBE9",
"SX c #FAE7E4",
"DX c #FDFDE3",
"FX c #FEFDEC",
"GX c #FDF3E7",
"HX c #FEFDF3",
"JX c #FEFDFD",
"KX c #F9F5F3",
"LX c #D3D7D3",
"PX c None",
"IX c black",
"UX c #867E80",
/* pixels */
"PXPXPXPXPXPXPXPXPXPXPXPXPXPXPXPXPXPXPXPXPXPXPXPXPXPXPXPXPXPXPXPXPXPXPXPXPXPXPXPXPXPXPXPXPXPXPXPXPXPXPXPXPXPXPXPXPXPXX O + 0 q w 0 O X . . PXPXPXPXPXPXPXPXPXPXPXPXPXPXPXPXPXPXPXPXPXPXPXPXPXPXPXPXPXPXPXPXPXPXPXPXPXPXPXPXPXPXPXPXPXPXPXPXPXPXPXPXPXPXPXPXPXPXPX",
"PXPXPXPXPXPXPXPXPXPXPXPXPXPXPXPXPXPXPXPXPXPXPXPXPXPXPXPXPXPXPXPXPXPXPXPXPXPXPXPXPXPXPXPXPXPXPXPXPXPXPXPXPXPXPXPXPX. O + w r s s s t 0 + PXPXPXPXPXPXPXPXPXPXPXPXPXPXPXPXPXPXPXPXPXPXPXPXPXPXPXPXPXPXPXPXPXPXPXPXPXPXPXPXPXPXPXPXPXPXPXPXPXPXPXPXPXPXPXPXPXPXPXPX",
"PXPXPXPXPXPXPXPXPXPXPXPXPXPXPXPXPXPXPXPXPXPXPXPXPXPXPXPXPXPXPXPXPXPXPXPXPXPXPXPXPXPXPXPXPXPXPXPXPXPXPXPXPXPXPXPXX X q t s s B o.o.g i e 0 X PXPXPXX X PXPXPXPXPXPXPXPXPXPXPXPXPXPXPXPXPXPXPXPXPXPXPXPXPXPXPXPXPXPXPXPXPXPXPXPXPXPXPXPXPXPXPXPXPXPXPXPXPXPXPXPXPX",
"PXPXPXPXPXPXPXPXPXPXPXPXPXPXPXPXPXPXPXPXPXPXPXPXPXPXPXPXPXPXPXPXPXPXPXPXPXPXPXPXPXPXPXPXPXPXPXPXPXO + + O X X O + 0 i d B B $.$.$.#.B s e + O X X + 0 0 O X PXPXPXPXPXPXPXPXPXPXPXPXPXPXPXPXPXPXPXPXPXPXPXPXPXPXPXPXPXPXPXPXPXPXPXPXPXPXPXPXPXPXPXPXPXPXPXPXPXPX",
"PXPXPXPXPXPXPXPXPXPXPXPXPXPXPXPXPXPXPXPXPXPXPXPXPXPXPXPXPXPXPXPXPXPXPXPXPXPXPXPXPXPXPXPXPXPXPX. O 0 e u u u r q e r g o.$.$.5.6.>.-.#.o.d r r r r e e 0 + + . PXPXPXPXPXPXPXPXPXPXPXPXPXPXPXPXPXPXPXPXPXPXPXPXPXPXPXPXPXPXPXPXPXPXPXPXPXPXPXPXPXPXPXPXPXPXPXPXPX",
"PXPXPXPXPXPXPXPXPXPXPXPXPXPXPXPXPXPXPXPXPXPXPXPXPXPXPXPXPXPXPXPXPXPXPXPXPXPXPX. X O X . . . O 0 r u i f | g f d d g @.-.6.6.s.s.6.6.-.@.O.g { O.} d r q q q + + O PX. . X . PXPXPXPXPXPXPXPXPXPXPXPXPXPXPXPXPXPXPXPXPXPXPXPXPXPXPXPXPXPXPXPXPXPXPXPXPXPXPXPXPXPX",
"PXPXPXPXPXPXPXPXPXPXPXPXPXPXPXPXPXPXPXPXPXPXPXPXPXPXPXPXPXPXPXPXPXPXPXPXPXPX. O + 0 + O + 0 t u s g { O.O.O.O.} #.$.6.6.m.H.J.L.T.m.m.>.-.#.@.@.%.O.g s s i r e q + O O + O X . PXPXPXPXPXPXPXPXPXPXPXPXPXPXPXPXPXPXPXPXPXPXPXPXPXPXPXPXPXPXPXPXPXPXPXPXPXPXPXPX",
"PXPXPXPXPXPXPXPXPXPXPXPXPXPXPXPXPXPXPXPXPXPXPXPXPXPXPXPXPXPXPXPXPXPXPXPXPXX X 0 q q q e r i f f { O.=.=.=.%.%.@.>.6.T.T.Y.U.{. X`.Y.T.H.6.6.>.-.=.:.:.%.#.o.d s u e q q 0 0 + X X PXPXPXPXPXPXPXPXPXPXPXPXPXPXPXPXPXPXPXPXPXPXPXPXPXPXPXPXPXPXPXPXPXPXPXPXPXPXPX",
"PXPXPXPXPXPXPXPXPXPXPXPXPXPXPXPXPXPXPXPXPXPXPXPXPXPXPXPXPXPXPXPXPXPXPX. X + 0 q q e u i d f O.+.=.:.;.;.;.:.6.6.H.T.`.}. XOX@X@X+X@XOX`.Y.H.m.m.;.;.;.x.;.%.} f i i r e q q q 0 + X . PXPXPXPXPXPXPXPXPXPXPXPXPXPXPXPXPXPXPXPXPXPXPXPXPXPXPXPXPXPXPXPXPXPXPXPXPX",
"PXPXPXPXPXPXPXPXPXPXPXPXPXPXPXPXPXPXPXPXPXPXPXPXPXPXPXPXPXPXPXPXPXPXPXPXO 0 q + q i } O.} | @.=.;.;.;.6.m.H.H.Y.`. XOX@X$X$X*X$X$X$X$X+X@X.X`.U.n.m.6.c.x.;.@.{ d | | i e q 0 q 0 O PXPXPXPXPXPXPXPXPXPXPXPXPXPXPXPXPXPXPXPXPXPXPXPXPXPXPXPXPXPXPXPXPXPXPXPXPXPX",
"PXPXPXPXPXPXPXPXPXPXPXPXPXPXPXPXPXPXPXPXPXPXPXPXPXPXPXPXPXPXPXPXX X + O O 0 q e r { =.:.=.=.;.<.<.x.x.n.T.U.}. X@X+X$X*X*X$X$X$X*X*X*X*X*X+X+X@X{.Y.H.b.v.v.;.%.O.@.%.O.d u q e q + + + X X PXPXPXPXPXPXPXPXPXPXPXPXPXPXPXPXPXPXPXPXPXPXPXPXPXPXPXPXPXPXPXPXPXPX",
"PXPXPXPXPXPXPXPXPXPXPXPXPXPXPXPXPXPXPXPXPXPXPXPXPXPXPXPXPXPXPX. . O q 0 0 e r i d @.<.x.<.<.v.v.x.v.b.S.Q.+X$X+X+X$X=X=X=X=X=X;X=X=X=X=X=X*X=X*X+X.XQ.G.N.b.x.x.<.;.;.:.+.g i r r q q q O . . PXPXPXPXPXPXPXPXPXPXPXPXPXPXPXPXPXPXPXPXPXPXPXPXPXPXPXPXPXPXPXPXPX",
"PXPXPXPXPXPXPXPXPXPXPXPXPXPXPXPXPXPXPXPXPXPXPXPXPXPXPXPXPXPXPXX O + e r u s d } O.:.c.v.v.v.N.V.N.C.S.`.OX*X*X*X$X$X;X,X5X5X5X5X,X,X,X;X=X=X;X=X=X$XoXQ.G.N.N.N.b.b.v.x.:.@.} f d u r e + O X PXPXPXPXPXPXPXPXPXPXPXPXPXPXPXPXPXPXPXPXPXPXPXPXPXPXPXPXPXPXPXPXPX",
"PXPXPXPXPXPXPXPXPXPXPXPXPXPXPXPXPXPXPXPXPXPXPXPXPXPXPXPXX + + q q e i a f { O.%.=.c.b.N.N.N.Z.A.F.E.`.$X*X$X$X=X=X,X5X7XeXaXeX7X7X7X7X7X5X5X,X;X;X=X$X`.R.S.Z.B.N.V.S.G.b.;.%.O.} g d i e 0 0 O X X PXPXPXPXPXPXPXPXPXPXPXPXPXPXPXPXPXPXPXPXPXPXPXPXPXPXPXPXPXPX",
"PXPXPXPXPXPXPXPXPXPXPXPXPXPXPXPXPXPXPXPXPXPXPXPXPXPXPX. O q q e i f  . .&.=.:.6.m.H.n.S.D.A.D.F.`.OX*X;X,X=X=X,X5X7XeXaXaXaXaXaXaXaXaXeXeXeX5X5X;X;X;X=X$XOXE.F.F.F.F.E.S.m.6.:.=.&.+. .a i e q + O O PXPXPXPXPXPXPXPXPXPXPXPXPXPXPXPXPXPXPXPXPXPXPXPXPXPXPXPXPX",
"PXPXPXPXPXPXPXPXPXPXPXPXPXPXPXPXPXPXPXPXPXPXPXPX. X O O 0 r u u a | &.*.;.c.m.H.H.R.R.D.F.F.F.E.oX*X5X5X5X5X5X7XaXaXiXiXaXdXsXsXdXaXaXaXaXaXeX7X5X5X5X6X5X*X`.E.F.F.F.D.R.R.n.m.c.<.:.&.| a u e q 0 + X X PXPXPXPXPXPXPXPXPXPXPXPXPXPXPXPXPXPXPXPXPXPXPXPXPXPXPX",
"PXPXPXPXPXPXPXPXPXPXPXPXPXPXPXPXPXPXPXPXPXPXPXPX. X + t u g { | |  .:.1.v.n.T.Q.Q.W.E.E.E.E.`.oX$X;X6X5X6X7XeXaXsXsXaXaXdXdXdXdXdXdXaXaXdXsXaXaX7X5X5X6X5X;XOX`.E.E.D.D.E.Q.R.R.!.N.v.;.+.} f g s u r 0 O X . PXPXPXPXPXPXPXPXPXPXPXPXPXPXPXPXPXPXPXPXPXPXPXPXPX",
"PXPXPXPXPXPXPXPXPXPXPXPXPXPXPXPXPXPXPXPXPXPXO O O + e d g O.+.+.+.&.;.x.v.n.R.Q.E.E.E.E.W.`.+X*X=X1X5X7X7XdXsXsXsXsXdXdXfXmXxXsXxXxXsXsXsXsXsXsXaXeX7X7X6X5X-X*X@X`.E.F.F.D.D.D.S.V.b.x.=.+.+.+.} g d r + + O O X PXPXPXPXPXPXPXPXPXPXPXPXPXPXPXPXPXPXPXPXPXPXPX",
"PXPXPXPXPXPXPXPXPXPXPXPXPXPXPXPXPXPXPXPXPXO + 0 q r i f } +.=.=.;.1.x.x.x.n.R.D.E.E.`.`.OX+X;X1X5X5X6X7XeXsXsXaXsXsXmXmXfXBXHXBXbXbXmXxXsXdXsXsXdXaXeX7X6X5X5X1X;X$XoX`.E.F.D.D.C.N.b.v.x.;.=.=.@.} { d u r q + + PXPXPXPXPXPXPXPXPXPXPXPXPXPXPXPXPXPXPXPXPXPXPX",
"PXPXPXPXPXPXPXPXPXPXPXPXPXPXPXPXPXPXPXPXX 0 0 t u f { } O.=.1.v.M.V.M.M.b.S.Q.W.`.`.OX$X-X;X6X9XeXeXeXeXaXzXsXdXfXbXBXNXfXDXJXHXnXbXbXsXsXsXxXxXsXdXaXiXwX9X9X9X6X5X-X*XoX`.W.Q.D.N.N.V.V.V.v.x.:.%.O.{ { d u e q . . PXPXPXPXPXPXPXPXPXPXPXPXPXPXPXPXPXPXPXPXPX",
"PXPXPXPXPXPXPXPXPXPXPXPXPXPXPXPXPXPXPXPXO t r d } O.@.=.;.x.v.N.B.B.B.B.Z.E.oX*X*X+X*X1X6X6XiXuXcXzXdXsXsXsXsXfXfXbXgXfXGXHXJXHXNXfXgXgXgXbXmXxXsXsXsXzXiXiXcXjXyX0X2X;X*X*X*XOX`.A.Z.B.B.B.V.v.x.c.c.=.@.O.g s u O . PXPXPXPXPXPXPXPXPXPXPXPXPXPXPXPXPXPXPXPXPX",
"PXPXPXPXPXPXPXPXPXPXPXPXPXPXPXPXPXX X . O u d } +.=.:.x.x.v.V.B.B.B.Z.F.E.oX&X1X1X1X2X6X0XtXzXxXzXdXaXdXsXfXfXbXbXbXbXNXBXFXJXJXHXBXfXbXmXbXbXbXmXxXsXaXaXdXcXcXcXyX0X2X1X1X5X*X@X`.F.F.Z.B.B.V.V.v.v.<.=.@.+.O.d + X X X PXPXPXPXPXPXPXPXPXPXPXPXPXPXPXPXPXPXPX",
"PXPXPXPXPXPXPXPXPXPXPXPXPXPXPXX O 0 0 0 q { @.=.:.<.x.v.N.V.B.B.Z.F.OX@X+X-X2XqXqX9XrXyXjXjXxXsXeXaXsXdXsXBXGXDXbXfXDXJXJXJXJXJXDXFXHXJXFXbXBXDXVXVXsXaXdXaXaXsXxXiXiXwXwX9X6X1X-X+X@XOXE.Z.B.B.B.V.N.v.x.<.;.=.O.e 0 0 0 O X PXPXPXPXPXPXPXPXPXPXPXPXPXPXPXPXPX",
"PXPXPXPXPXPXPXPXPXPXPXPXPXPX. X O q q r s %.:.<.x.v.N.V.Z.Z.D.D.E.oX1X2X2X6X9XrXyXkXkXkXcXzXxXzXuXdXsXmXbXNXBXbXbXbXNXJXJXJXJXJXJXJXJXJXFXbXfXfXbXbXmXxXsXdXdXxXxXxXzXjXjXyXyX9X6X1X;X;XoX_.F.F.Z.Z.Z.N.b.x.x.;.%.d r 0 0 + X . PXPXPXPXPXPXPXPXPXPXPXPXPXPXPXPX",
"PXPXPXPXPXPXPXPXPXPXPXPXPXPXPX+ q u u i } ;.x.v.v.V.B.Z.F.'.oXOX+X-XqX0X6X0XyXtXyXlXlXcXlXcXmXvXMXmXbXBXNXfXfXNXDXDXFXJXJXJXJXJXJXJXJXJXHXFXDXDXNXfXmXBXfXxXMXmXxXxXjXjXjXjXkXtXwX6X9X6X*X+XOXoX`._.A.Z.Z.N.v.x.<.@.f i u q + X PXPXPXPXPXPXPXPXPXPXPXPXPXPXPXPX",
"PXPXPXPXPXPXPXPXPXPXPXPXPXPXO r i f g { %.x.b.N.V.B.Z.F.oX*X-X*X1X6XtXyX0X0X0XrXyXjXzXmXcXcXmXmXZXmXfXfXNXDXDXDXHXJXJXJXJXJXJXJXJXJXJXJXJXJXJXJXBXbXfXfXfXnXGXNXbXxXzXxXxXuXyXrX0X9X0XwX6X1X;X-X*X+XF.A.Z.Z.V.N.v.<.+.} { i r + PXPXPXPXPXPXPXPXPXPXPXPXPXPXPXPX",
"PXPXPXPXPXPXPXPXPXPXPXPX. . O r i g O.=.x.M.B.Z.Z.F._.OX*X;X-X-X5XwXwXtXrXrXrXyXyXuXzXvXzXyXxXmXnXbXnXfXnXFXJXJXJXJXJXJXJXJXJXJXJXJXJXJXJXJXJXJXJXFXBXnXbXnXBXmXmXsXdXsXxXuXrX0X0XrXwXeXwX5X;X;X=X*X'._.Z.Z.Z.Z.N.x.=.+.| d i 0 O X PXPXPXPXPXPXPXPXPXPXPXPXPXPX",
"PXPXPXPXPXPXPXPXPXPXPXPXX X X q u f O.:.M.V.B.F._.OX*X5X5X1X-X1X9XyXtXtXyXyXjXzXxXmXmXvXcXkXsXfXfXNXJXHXDXFXJXJXJXJXJXJXJXJXJXJXJXJXJXJXJXJXJXJXJXDXNXHXDXbXfXsXzXuXdXsXvXzXuXuXyXyXtXtXyXwX5X*X;X5X1X*XoX_.F.Z.V.M.<.@.| i e X X X PXPXPXPXPXPXPXPXPXPXPXPXPXPX",
"PXPXPXPXPXPXPXPXPXPXX X + 0 0 r i g +.;.M.V.D.`.OX*X1X9XwXwX6XqX0XyXkXkXiXdXxXmXmXNXnXnXVXVXBXNXNXDXJXJXJXJXJXJXJXJXJXJXJXJXJXJXJXJXJXJXJXJXJXJXJXJXJXJXFXBXDXNXmXMXvXmXmXmXmXsXdXtXyXkXkXrX9X6X9XwX9X1X*XOX`.D.B.M.v.=.} d u e q q O O PXPXPXPXPXPXPXPXPXPXPXPX",
"PXPXPXPXPXPXPXPXPXPXPX. + t d } O.O.%.x.D.E.OX+X*X;X5X9XwXwX0X0XrXyXkXcXxXvXVXVXMXMXMXFXDXBXJXFXBXFXJXJXJXJXJXJXJXJXJXJXJXVXlXlXMXGXJXJXJXJXJXJXJXJXJXHXHXBXBXJXHXNXDXFXMXMXVXNXVXvXcXkXyX0X0XrXwXwX6X5X;X*X+X`.E.Z.N.:.O.+. .d u q X O PXPXPXPXPXPXPXPXPXPXPXPX",
"PXPXPXPXPXPXPXPXPXPXPX+ e  .*.1.1.=.;.b.`.@X-X;X;X6XwXyXtXwX9XtXkXkXcXmXVXVXZXAXSXCXMXDXFXHXJXJXJXJXJXJXJXJXJXJXJXJXJXJXKX;XK.,.(.8XJXJXJXJXJXJXJXJXHXBXBXHXJXJXJXHXHXHXMXMXMXAXAXVXvXvXjXkXyX9X9XwXwX9X5X;X*X*X@XW.S.<.=.1.2.*.%.u + PXPXPXPXPXPXPXPXPXPXPXPXPX",
"PXPXPXPXPXPXPXPXPXX + i } *.1.1.2.c.v.S.*X;X6X6X6XiXuXjXjXkXyXjXkXMXcXcXSXMXcXVXVXbXnXfXfXBXJXJXJXJXJXJXJXJXJXJXJXJXJXKXhX~.M N M ~.LXKXJXJXJXJXJXJXJXHXHXJXJXHXFXbXmXGXNXmXVXZXSXZXMXzXMXlXjXtXyXjXkXjXwX6X1X1X-X*XQ.b.c.v.M.v.<. .i 0 O X . PXPXPXPXPXPXPXPXPX",
"PXPXPXPXPXPXPXPXPXO t } &.&.+.&.;.n.R..X1X5XwXeXiXuXuXuXkXlXlXkXkXkXkXcXVXxXsXbXnXNXZXmXgXfXBXFXJXJXJXJXJXJXJXJXJXrX>X[.' ( D D 8 D ( ~.>X6XKXJXJXJXJXJXJXJXJXBXbXgXfXZXNXnXnXbXcXVXMXkXkXjXjXlXlXlXkXkXdXuXwXwX6X1X#XT.H.c.;.=.*.*. .i q X PXPXPXPXPXPXPXPXPXPX",
"PXPXPXPXPXPX. . X X r +.+. .o.=.m.oX@X;X6XwXiXuXdXcXlXlXlXMXcXcXvXvXcXsXgXbXNXNXBXFXFXDXBXbXnXDXJXJXJXJXJXJXJXFXpX[.z.~.) Q P D 7 P P v G z.CXJXJXJXJXJXJXJXJXDXnXbXNXHXFXFXBXbXbXfXdXdXxXzXzXuXlXMXMXcXzXzXuXiXeXwX2X+XW.n.<.#.+.&.&.f q X . . . PXPXPXPXPXPXPX",
"PXPXPXPXPXPXPXO O + u  . .O.-.m.Q.*X1X7XeXiXjXkXzXcXcXlXMXMXvXMXMXZXVXmXgXbXDXDXbXbXbXnXNXHXJXJXJXJXJXJXJXJXKX8X[.~.~.` ~ E R 6 6 R E D 1 v ' 4XZXJXJXJXJXJXJXJXHXHXBXNXnXbXNXFXbXgXbXVXMXVXvXxXMXMXcXzXzXzXzXjXiXiXeX1X*XW.n.-.#.O.%.| t + X X . PXPXPXPXPXPXPX",
"PXPXPXPXPXPXX q r e r f o.-.T.XX+X*X;X6XtXyXjXuXdXMXMXZXMXMXZXZXAXVXbXbXbXbXnXNXgXbXNXNXBXJXJXJXJXJXJXJXJXGX4X^.~.' UX` ^ W R R R R W W 8 1 l U :XGXJXJXJXJXJXJXJXJXDXNXbXgXbXNXbXbXbXbXvXSXZXZXVXVXMXMXcXuXuXjXyXyX7X,X=X$XoXT.>.@.O.d t r q + PXPXPXPXPXPXPXPX",
"PXPXPXPXPXPXO e u u i g #.m.Q.@X*X;X5XeXtXuXzXcXMXMXZXAXSXMXSXGXGXFXNXbXbXbXBXHXbXnXFXJXJXJXJXJXJXJXHXHXGXpXz.~.' ` <X` / R P R R R W W 3 1 1 n z.CXHXJXJXJXJXJXJXJXJXHXnXfXBXHXnXbXbXbXBXGXZXAXSXSXAXZXMXcXzXcXkXuXeX5X;X-X+XQ.m.>.#.g u u r q O X PXPXPXPXPXPX",
"PXPXPXPX. O e u d g o.-.6.Q.W.`.@X*X5XwXyXkXzXMXZXGXGXFXSXMXVXBXNXbXfXbXbXDXHXJXFXNXFXJXJXJXJXJXJXFXmXaX8X[.~.' _ ` <X_ W R R R W W W W 8 < < 1 T 4XiXxXBXFXJXJXJXJXJXJXNXBXJXJXHXbXfXfXbXbXnXMXMXMXGXFXGXVXMXcXjXjXiX5X;X*XoXW.Q.T.6.$.{ d s r + X . PXPXPXPXPX",
"PXPXPXPXO 0 u d } +.=.b.R.W.OX@X*X1X6XwXkXcXMXSXSXAXAXAXVXVXbXNXBXNXNXFXHXJXJXJXFXNXFXJXJXJXJXHXKXVXaX1X>X^.~._ ~ ` <X_ W W W W W W R R 8 < < 1 c z.3XeXsXGXJXJXJXJXJXHXBXDXJXJXJXFXDXnXbXBXNXbXVXVXAXAXGXAXZXMXkXjXtX6X1X-X@XOXoXW.R.m.%.O.f d e + . . PXPXPXPX",
"PXPXPXPX0 e u { +.:.x.Z.E.oX&X-X1X6XwXuXcXvXSXAXAXAXVXvXfXfXbXbXNXJXJXJXJXJXJXJXFXNXFXJXJXDXBXcXjXiX9X>X^.~._ R 6 ' <X_ E W W W W W W R 5 PXPX< 1 n >X6XwXjXvXNXDXJXJXJXFXHXJXJXJXJXJXJXJXDXfXgXfXfXvXMXSXAXAXAXMXzXuX0X6X2X1X*X@X`.D.C.:.=.O.| i e O X PXPXPXPX",
"PXPXPXPXq r i } =.2.M.Z.F.oX+X*X-X5XwXzXvXMXZXAXAXGXBXbXgXgXVXGXFXJXJXJXJXJXJXJXHXFXHXJXFXnXsXwX9X5X;X X~.^ 5 PXR ` <X_ ! E W W E E W R 5 4 PXPXPXv [.*X6X9XiXsXmXFXJXJXJXJXJXJXJXJXJXJXHXDXBXfXgXgXbXnXVXAXAXAXMXvXzXwX2X1X;X+X@XoXF.V.v.;.&.d u t + PXPXPXPXPX",
"PXPXPXPX+ q i { +.1.v.C.E.oX@X*X-X1X9XuXvXMXAXAXAXHXDXNXBXDXBXNXBXJXJXJXJXJXJXJXJXJXJXDXmXsX7X;X-X$X`.T.) 5 6 ! ~ <X` ~ E W W E E E W R 6 4 < PXPXPXU P.+X-X1X7XdXmXDXHXJXJXJXJXJXJXJXJXDXNXNXBXBXNXnXBXHXAXAXAXMXvXzXtX2X1X-X+XOX#XE.b.1.=.+.f u q X PXPXPXPXPX",
"PXPXPXPXX 0 i }  .;.x.n.R.oXOX3X2X6XwXuXvXMXAXSXmXmXBXDXJXJXDXBXDXJXJXJXJXHXHXHXHXFXFXBXsX7X=X@X`.E.C.6.^ ^ ~ ~ _ <X' ~ E W W W W E W R 6 3 < < < PX, 5.E.`.$X=X6XsXNXDXHXHXHXJXJXJXJXJXJXHXDXBXHXJXDXBXNXVXZXAXZXvXzXtX6X6X2X*XOX`.R.c.=.=.=.} i 0 . PXPXPXPXPX",
"PXPXPXPXPX0 s +.+.=.;.m.R.oXOX;X2X6XiXzXMXAXAXAXbXgXmXDXFXHXJXJXJXJXJXJXJXVXmXcXzXsXvXMXzX5X'._.Z.M.;.q.' ] ! R _ <X' ~ / E E E E E E R 6 5 PXPX; 1 1 N <.N.F.'.;XxXVXvXuXzXvXZXFXJXJXJXJXJXJXJXJXJXFXBXfXbXZXAXAXMXcXuX0X6X2X-X@X'.Q.6.@.=.=. .a 0 . PXPXPXPXPX",
"PXPXPXPX+ 0 s O.O.@.:.n.W.+X*X-X3X1X0XjXvXMXAXAXVXnXfXfXbXNXHXJXFXBXDXJXJXVXsXzXdXeXeXiXiX5X'.A.2.&.5.' ~ R PX3 _ <X' ~ E E E E E E E W 6 3 PXPXPXPX1 h B <.N._.;XiXdXiX9XiXsXxXVXJXJXDXBXDXJXJXDXNXfXfXGXmXZXAXSXMXjXtX2X2X2X3X*XOXW.m.=.O.O.} d 0 PXPXPXPXPXPX",
"PXPXPX0 e e u } O.=.;.b.D.OX-X-X-X3XqX0XzXvXMXSXSXSXZXGXbXNXBXBXBXDXFXHXHXDXBXGXxX7X5X1X;XOX_.G.*.| q.) 5 PX6 E ` <X_ ^ / E E W E / / E R 3 < PXPXPXPX1 y O.b.E.+X;X6X6X7XaXNXDXHXHXHXFXDXDXBXBXBXnXVXVXSXMXSXMXcXcXrXqX2X1X3X1X-X`.Z.v.;.%.O.{ u 0 0 + X PXPXPX",
"PXPXPXX 0 e u d { @.:.v.Z.`.+X-X-X*X2XqXtXzXcXZXAXGXGXGXgXbXBXBXDXJXFXNXNXDXHXxX5X=X+XoXE.E.S.b.;.{ Q ^ W / ~ ~ ` ` ~ ~ ! E E E ! ! ^ ! W 3 < < 2 PXPXPXx #.:.b.R.`.OX+X-X5XzXKXDXNXNXFXJXHXBXBXNXgXVXKXAXAXZXzXdXuX0X6X;X1X1X-X@XF.C.x.:.+.| d u e 0 + PXPXPXPX",
"PXPXPX. 0 t u i d } @.;.N.D.`.+X*X*X1X2XqXuXdXcXMXZXAXAXmXbXnXFXHXHXJXHXFXeX,X,X%X].F.V.N.n.>.#.g S ( ~ ~ ! W ~ ` ` _ _ ^ ! E E ! ~ ~ ^ W 5 PXPXPX< < < h s B $.6.n.D.F.'.*X;X5X7XDXFXJXHXHXHXNXnXnXZXAXAXMXvXuXtXrX6X2X-X-X-X@XW.V.x.:.@.} f u r e + X PXPXPXPX",
"PXPXPX. 0 i r r u f { O.=.x.N.F.`.@X-X;X1X6X9XtXyXvXMXZXAXVXgXbXBXDXJXDXmX,X%X].F.Z.V.2.2.c.B s o.q.' ~ / 6 3 ~ ` ` _ _ ~ ! W W ^ _ _ ~ E 8 PXPXPXPX< < 1 k B s 5.v.M.M.D._.OX%X=XmXDXJXDXnXnXgXmXAXAXMXvXuXwXqX6X1X3X3X*XOX`.D.N.;.%.O.{ d u e e u 0 O PXPXPXPX",
"PXPXPXPXO + 0 e t u d { O.:.x.B.D._.OX+X*X1X6XqX0XyXkXvXMXVXMXGXZXMXBXfXaX=X].A.B.2.&.*.M.n.y @ S Y _ E PX[ / _ ` <X` ` _ ~ W E _ ' ' _ ! 5   2 PXPXPX< 1 h y w 6.G.c.*.1.C.F.'.%XaXxXBXVXMXZXVXMXMXvXzXtX0XqXqX1X*X&X+X`.F.B.b.<.%.O.{ i e q e 0 O X X PXPXPXPX",
"PXPXPXPXPXX O q e e d | O.=.:.M.B.A.`.OX*X1X6X6XqXqXrXuXxXVXAXKXVXaX,X,X=X%X_.G.<. . .+.%.c.5.S Y ) ~ E / ~ _ ` <X` ~ Q W W W ! ^ D D D D 5 4 2   PXPXPX< 1 N 5.m.c.&. . .&.v.E.OX=X;X5XeXvXZXGXMXxXuXtX0XqXqXqX2X*X@XoXF.Z.V.1.=.+.{ d r q 0 0 O . . PXPXPXPXPX",
"PXPXPXPXPXPXX + q q r a O.%.:.M.V.A.oX*X-X*X;X2X6X0XrXrXyXzXvX7X,X=X'._.F.S.S.G.;.o.f s s o.n.6.~._ ~ ~ _ ` <X<X` W PXq 0 & 6 W PX+ q + PX5 5 3 2 < PX; < 1 A !.6.B a | { %.b.E.S.F._.'.=X,X6XvXzXuXyXyXyX0X6X1X*X*X*XOXF.Z.V.;.=.%.d e q q q O X PXPXPXPXPXPXPX",
"PXPXPXPXPXPX. O 0 q u a { o.%.M.V.A.`.@X*X@X*X1X2XqX2X2XqXtXiX=X'.]._.Z.M.<.c.S.S.>.s + PX@ s $.~._ _ ` ' ` ' ! PXPXPXPXPXPXPXPXPXPXPXPXPXPXPX6 5 8 8 4 4 < 1 s s w O 0 $.!.F.S.x.M.Z.F.].'.%XiXuXtXqXqXqXqX2X*X+X*X+X`.F.Z.V.:.+.} d u q q 0 PXPXPXPXPXPXPXPXPX",
"PXPXPXPXPXX X + 0 0 r i d O.:.M.V.A.F.F.E.`.@X*X;X2X;X;X2X0X9XOX].A.B.2.&. .O.6.n.R.5.S PX. PXU ' ` ` ] PXPX< PXPXPXPXPXPXPXPXPXPXPXPXPXPXPXPXPXPX6 6 6 5 < & # PX@ y $.H.S.m.-.%.*.2.B.F.].OX0XtXqX2X2X6X2X-X+X`._.F.F.A.Z.V.1.%.d i u 0 0 0 O . PXPXPXPXPXPXPX",
"PXPXPXPXPXPXPXPXPX0 r u i O.=.<.x.N.B.B.B.F._._.OX*X;X2X2X2X2X*X'.A.2.&. .} d s B 5.6.6.5.PXPX) ) ~ [ PX2 2 4 4 2 2 PXPXPXPXPXPXPXPXPXPXPXPXPXPXPXPXPXPX3 PX= & PXS 6.T.6.$.s g O. .&.2.A.'.*X6XqXqXqX2X-X@X`.`.F.Z.B.B.N.b.x.:.@.i u t 0 PXPXPXPXPXPXPXPXPXPXPX",
"PXPXPXPXPXPXPXPXPX+ t u r d o.@.=.<.N.N.V.Z.D.F.`.@X-X*X*X-X-X*X'.B.*.} B #.#.B PXPXy $.6.$.PX~ ~ E 2 4 4 4 3 3 4 2 2 PXPXPXPXPXPXPXPXPX< 2 2 2 2 2 PXPXPXPX& & S $.5.B y y B o.o.B } *.D.OX;X1X1X-X-X1X+X`.E.D.Z.V.N.M.x.:.%.+.{ u u r O PXPXPXPXPXPXPXPXPXPXPX",
"PXPXPXPXPXPXPXPXPXX 0 r e u d { O.@.:.x.v.B.Z.F._.oX*XOXoX@X@XoXE.N.&.{ -.-.:.<.6.B PXPXS m.S Q ! [ 4 3 3 3 3 3 4 4 2 4 4 4 4 2 2 2 2 2 2 2 4 2 2 2 2 < PXPX& & $.Z h PXS 5.c.-.-.5.o.+.C.`.+X*X&X@XOX*XOX_.F.Z.Z.M.x.<.%.O.} f s t t q X PXPXPXPXPXPXPXPXPXPXPX",
"PXPXPXPXPXPXPXPXPXX O + q e t u d } } +.;.M.V.A.A.E.@XoX`.W.R.b.c.:.o.B 5.S w y #.m.S - # PXN Y / 5 4 3 3 3 3 3 3 3 3 4 2 @ @ PX2 PXPXPX2 2 PXPXPX< 2 2 PXPXPXPX: c M M M M S y S 5.B B ;.b.S.Q.oXOX@X@X_.F.Z.V.N.;.%.O.O.| i u t q + O X PXPXPXPXPXPXPXPXPXPXPX",
"PXPXPXPXPXPXPXPXPXPXPXPXO + + q i | f { @.1.v.V.Z.Z._._.E.Q.c.:.&.| t PXPXPXPXPXPXPXPXPXPXo N P W 6 3 3 3 5 5 3 3 3 8 3 w X.X.e 9 w X.X.w 9 p 3...@ 2 3 3 PXPXPX: V J G C m b PXPXPXPXe g %.6.n.Q.oX`._.D.V.N.M.<.&.O.g } d e q 0 + PXPXPXPXPXPXPXPXPXPXPXPXPXPX",
"PXPXPXPXPXPXPXPXPXPXPXPXPXPXX + q u i { o.%.:.x.v.N.Z.A.Z.C.:.+.| r 0 PXPXPXPXPXPXPXPXF n l PXPXW W 5 8 5 5 5 3 5 5 5 5 x X.X.w 9 w 3.X.w 9 p 3...& 4 5 3 PXPXPX> Z K I K J C c > PXPXPXr } %.6.G.D.F.Z.N.x.<.:.@.O.| i u e + O PXPXPXPXPXPXPXPXPXPXPXPXPXPXPXPX",
"PXPXPXPXPXPXPXPXPXPXPXPXPXPXPX+ + + e f { O.@.@.=.x.M.B.N.x.+.f t 0 PXPXPXPXz c m Z K K J C PXPXE ! 6 5 5 5 6 5 7 6 6 6 5 8 x 3 5 8 x D 5 5 3 x 8 3 8 5 PXPXPXPXk J 7.7.7.7.J C n j : PX0 i | &.<.M.B.V.;.%.+.O.O.} f t 0 + + PXPXPXPXPXPXPXPXPXPXPXPXPXPXPXPXPX",
"PXPXPXPXPXPXPXPXPXPXPXPXPXPXPXX X X + t r s d f  .&.1.M.1.%.a e O PXPXPXk b m C J 7.8.7.G n # PXR ^ E 6 6 6 6 6 6 6 6 6 6 6 6 6 6 6 6 6 6 6 6 5 6 5 6 5 PXPXPXPXb 4.w.w.8.7.7.J C b , PXPX0 t f +.*.2.2.&.} d s d u e 0 O X X PXPXPXPXPXPXPXPXPXPXPXPXPXPXPXPXPX",
"PXPXPXPXPXPXPXPXPXPXPXPXPXPXPX. X + + + + e r i | +.=.=.} a q + PXPXPXV Z J K 7.0.w.r.8.G k $ PX3 R ^ E R R D 6 D R R R R [ R R 6 R R R D 6 6 6 R R R 5 PXPXPX: M 8.t.r.w.8.8.7.J C b > PXPX+ q u | %.&. .f u r e 0 + + + O . PXPXPXPXPXPXPXPXPXPXPXPXPXPXPXPXPX",
"PXPXPXPXPXPXPXPXPXPXPXPXPXPXPXPXX X X X X + 0 e d } O.f u q 0 PXPXk m K 7.w.r.w.r.w.r.0.G k = PXPX3 W ~ E W W W W W E W W W W W W W W W R 6 6 R W W 6 PXPXPXPX, J a.i.a.t.r.r.8.7.J m c > > PXO 0 r d | f i e 0 + O X X O X PXPXPXPXPXPXPXPXPXPXPXPXPXPXPXPXPXPX",
"PXPXPXPXPXPXPXPXPXPXPXPXPXPXPXPXPXPXPX. . X X O e d | u q + PXPXc m K 8.t.i.a.a.a.t.r.8.J n > PXPXPXPXW ~ ^ ! E E E ! / / / / E / E E E E W W E W 7 PXPXPXPX= b 8.p.i.i.a.y.t.w.8.I H m c j PXPXO 0 t i u e PXX . . . PXPXPXPXPXPXPXPXPXPXPXPXPXPXPXPXPXPXPXPXPX",
"PXPXPXPXPXPXPXPXPXPXPXPXPXPXPXPXPXPXPXPXPX. PXPXO 0 w 0 PXPXPX> n G 7.e.i.p.p.p.p.i.y.w.K V k PXPXPXPXPXW ^ ~ ] ~ ~ ] ] _ _ _ _ _ ] ~ ~ ~ ! / W 5 PXPXPXPXPXk J a.f.p.i.a.y.y.r.w.7.G C n j = PXPXPX0 0 0 + PXPXPXPXPXPXPXPXPXPXPXPXPXPXPXPXPXPXPXPXPXPXPXPXPXPX",
"PXPXPXPXPXPXPXPXPXPXPXPXPXPXPXPXPXPXPXPXPXPXPXPX. . . PXPXPXPXk C U w.t.i.p.d.d.d.d.i.e.8.J n > $ PXPXPXPXPX/ ^ ~ ~ ~ _ _ _ ~ ^ ^ ! E W W R PXPXPXPXPXPXPX> C a.f.k.d.p.i.t.r.r.w.7.J Z n c j PXPXPXPXPXX X . PXPXPXPXPXPXPXPXPXPXPXPXPXPXPXPXPXPXPXPXPXPXPXPXPX",
"PXPXPXPXPXPXPXPXPXPXPXPXPXPXPXPXPXPXPXPXPXPXPXPXPXPXPXPXPXPXz m G 7.w.a.i.i.p.d.h.d.h.i.e.8.J b = # PXPXPXPXPXPXPXPXPXPXPXPXPXPXPXPXPXPXPXPXPXPXPXPXPXPX: A w.j.k.j.p.a.y.r.w.w.8.7.J C n c l j PXPXPXPXPXPXPXPXPXPXPXPXPXPXPXPXPXPXPXPXPXPXPXPXPXPXPXPXPXPXPXPX",
"PXPXPXPXPXPXPXPXPXPXPXPXPXPXPXPXPXPXPXPXPXPXPXPXPXPXPXPXPX, b F K 7.w.e.t.a.p.p.i.p.p.d.i.e.8.J b h & PXPXPXPXPX4 2 4 4 4 4 4 4 4 4 4 4 4 PXPXPXPXPXPX= n 8.p.k.k.f.i.a.t.r.w.w.8.7.G C b c c l > PXPXPXPXPXPXPXPXPXPXPXPXPXPXPXPXPXPXPXPXPXPXPXPXPXPXPXPXPXPXPX",
"PXPXPXPXPXPXPXPXPXPXPXPXPXPXPXPXPXPXPXPXPXPXPXPXPXPXPXPXPX, b H K K w.e.e.e.i.i.i.p.i.p.p.i.w.8.J n j = $ PXPXPX2 2 4 4 4 4 4 3 3 3 4 4 4 PXPXPXPX# : b 4.a.f.g.f.p.i.a.e.w.w.8.7.K G m c c c c z : PXPXPXPXPXPXPXPXPXPXPXPXPXPXPXPXPXPXPXPXPXPXPXPXPXPXPXPXPXPX",
"PXPXPXPXPXPXPXPXPXPXPXPXPXPXPXPXPXPXPXPXPXPXPXPXPXPXPXPXPXc n F K K 8.w.w.t.i.p.p.i.i.p.d.p.a.e.7.J C N > % PXPXPX4 5 5 6 6 6 D 6 5 3 3 PXPXPX= : c Z 7.e.i.p.f.f.i.a.a.t.8.7.7.7.K H C n b c M m c , PXPXPXPXPXPXPXPXPXPXPXPXPXPXPXPXPXPXPXPXPXPXPXPXPXPXPXPXPX",
"PXPXPXPXPXPXPXPXPXPXPXPXPXPXPXPXPXPXPXPXPXPXPXPXPXPXPXPX: c M m K K 8.8.w.t.i.p.p.p.i.i.d.d.p.p.y.w.8.K A k > = PXPXPXPXPXPXPX7 8 1 1 : - j b n J 8.w.a.i.i.i.i.i.i.t.t.r.0.7.7.I J V M n c n C G C c > PXPXPXPXPXPXPXPXPXPXPXPXPXPXPXPXPXPXPXPXPXPXPXPXPXPXPXPX",
"PXPXPXPXPXPXPXPXPXPXPXPXPXPXPXPXPXPXPXPXPXPXPXPXPXPXPXPX= z M m G H L 8.8.w.t.i.p.p.d.p.p.p.p.p.i.i.p.i.e.8.7.K K 4.4.4.K 4.4.4.K K K K 4.8.w.e.i.p.p.p.p.p.i.a.a.a.r.e.w.8.7.7.K G m n c z M m G K m j PXPXPXPXPXPXPXPXPXPXPXPXPXPXPXPXPXPXPXPXPXPXPXPXPXPXPXPX",
"PXPXPXPXPXPXPXPXPXPXPXPXPXPXPXPXPXPXPXPXPXPXPXPXPXPXPXPX- j b M C H K 7.8.8.w.e.y.i.p.p.i.i.p.d.p.p.p.p.p.a.a.e.e.r.r.r.t.e.e.a.a.i.a.p.p.p.f.j.j.f.p.p.i.p.i.i.i.a.e.w.8.7.7.I K G m n c z n V G K C c , PXPXPXPXPXPXPXPXPXPXPXPXPXPXPXPXPXPXPXPXPXPXPXPXPXPXPX",
"PXPXPXPXPXPXPXPXPXPXPXPXPXPXPXPXPXPXPXPXPXPXPXPXPXPXPXPX- l b M V H K L 4.7.8.w.r.y.t.t.a.a.i.d.d.d.p.p.d.p.p.p.i.a.i.i.i.i.i.p.p.d.d.d.p.d.k.k.f.p.p.p.p.i.i.i.i.t.r.w.8.7.K J G C m n b z n F H H C M c PXPXPXPXPXPXPXPXPXPXPXPXPXPXPXPXPXPXPXPXPXPXPXPXPXPXPX",
"PXPXPXPXPXPXPXPXPXPXPXPXPXPXPXPXPXPXPXPXPXPXPXPXPXPXPXPX= l n n M C J K K 4.8.8.w.r.r.t.a.y.y.y.i.i.i.p.d.j.f.j.d.p.p.p.d.d.h.d.d.d.d.d.d.d.f.f.f.p.p.p.i.i.i.i.y.r.w.8.8.7.U G H m n n c c M G H C C m n PXPXPXPXPXPXPXPXPXPXPXPXPXPXPXPXPXPXPXPXPXPXPXPXPXPXPX",
"PXPXPXPXPXPXPXPXPXPXPXPXPXPXPXPXPXPXPXPXPXPXPXPXPXPXPXPX= j l c M C G J J K I 7.8.8.w.r.r.r.y.y.t.t.a.i.p.p.p.d.i.p.d.d.h.h.h.h.h.d.d.d.k.j.d.p.p.p.p.i.i.i.a.y.r.w.8.8.7.I K G C M c n z c M C H C V m n l PXPXPXPXPXPXPXPXPXPXPXPXPXPXPXPXPXPXPXPXPXPXPXPXPXPX",
"PXPXPXPXPXPXPXPXPXPXPXPXPXPXPXPXPXPXPXPXPXPXPXPXPXPXPXPX= > l c n V C H G J K K 7.7.8.0.w.w.r.r.w.r.a.i.p.p.p.i.a.i.i.d.d.d.d.p.d.h.p.p.h.h.d.p.i.p.i.i.i.y.r.r.r.w.8.7.L K K H M M n c c n m H C C C M c > PXPXPXPXPXPXPXPXPXPXPXPXPXPXPXPXPXPXPXPXPXPXPXPXPXPX",
"PXPXPXPXPXPXPXPXPXPXPXPXPXPXPXPXPXPXPXPXPXPXPXPXPXPXPXPX= > l z c M C F H J K K K L 7.8.8.8.w.w.e.r.t.t.y.a.i.i.i.i.i.i.i.i.i.i.d.p.i.p.d.h.d.p.p.i.i.i.i.y.r.e.r.7.7.7.K J K F n n b z c n m C n M M n z > PXPXPXPXPXPXPXPXPXPXPXPXPXPXPXPXPXPXPXPXPXPXPXPXPXPX",
"PXPXPXPXPXPXPXPXPXPXPXPXPXPXPXPXPXPXPXPXPXPXPXPXPXPXPXPX% > l z c b m V V H J J K K L 7.8.8.8.0.w.w.r.t.a.a.t.i.i.i.i.a.a.i.p.p.d.p.p.p.p.d.i.a.i.i.i.i.y.r.r.w.8.7.K K K J H C n c c l c n m M b b b z z > PXPXPXPXPXPXPXPXPXPXPXPXPXPXPXPXPXPXPXPXPXPXPXPXPXPX",
"PXPXPXPXPXPXPXPXPXPXPXPXPXPXPXPXPXPXPXPXPXPXPXPXPXPXPXPX= = l l z c n n n m V G J J K 7.7.8.8.8.8.8.w.r.t.e.t.y.i.y.i.i.i.i.p.i.h.p.h.j.h.d.i.i.i.i.i.r.y.t.w.8.8.7.K J G G F m n c z l c n M n n c c z l = PXPXPXPXPXPXPXPXPXPXPXPXPXPXPXPXPXPXPXPXPXPXPXPXPXPX",
"PXPXPXPXPXPXPXPXPXPXPXPXPXPXPXPXPXPXPXPXPXPXPXPXPXPXPXPXPX& > h j l c b b b M C H C K K K 7.8.8.7.7.8.8.8.8.r.t.i.t.y.p.i.a.a.i.i.i.h.h.h.d.i.i.i.a.r.r.t.r.0.8.7.7.K G H H C m n c l l c n n n c c z l h : PXPXPXPXPXPXPXPXPXPXPXPXPXPXPXPXPXPXPXPXPXPXPXPXPXPX",
"PXPXPXPXPXPXPXPXPXPXPXPXPXPXPXPXPXPXPXPXPXPXPXPXPXPXPXPXPX% = > h h l c b b n V C C J K K K I I I 7.8.8.7.8.0.r.r.r.y.a.y.r.y.y.y.i.i.i.i.i.y.y.i.i.t.r.w.0.0.8.7.K K J G F M n b c z l c b b c z z l h h : PXPXPXPXPXPXPXPXPXPXPXPXPXPXPXPXPXPXPXPXPXPXPXPXPXPX",
"PXPXPXPXPXPXPXPXPXPXPXPXPXPXPXPXPXPXPXPXPXPXPXPXPXPXPXPXPX$ $ = > > l z c b n M M C G J K I K K I I 7.7.7.8.8.0.0.0.r.y.r.y.y.t.y.i.i.i.d.i.r.r.r.r.r.r.0.8.8.7.I J J G C V M n n c l z b c c c z z l h h : PXPXPXPXPXPXPXPXPXPXPXPXPXPXPXPXPXPXPXPXPXPXPXPXPXPX",
"PXPXPXPXPXPXPXPXPXPXPXPXPXPXPXPXPXPXPXPXPXPXPXPXPXPXPXPXPXPX$ $ : > x l c c n n n C H H G J K K K K U K K 7.8.8.8.0.0.w.w.r.y.t.i.i.i.i.i.y.w.0.w.w.w.0.8.8.7.I K J G G V m M n c z z c b c c z l x h > = = PXPXPXPXPXPXPXPXPXPXPXPXPXPXPXPXPXPXPXPXPXPXPXPXPXPX",
"PXPXPXPXPXPXPXPXPXPXPXPXPXPXPXPXPXPXPXPXPXPXPXPXPXPXPXPXPXPXPX$ % : > j z c n n n M M V H H H J K K K K K 4.8.7.8.8.8.w.w.r.r.r.r.r.r.y.y.r.w.0.8.8.0.0.7.I I I K G F F V M M n c z z c c c l > : : > > = % PXPXPXPXPXPXPXPXPXPXPXPXPXPXPXPXPXPXPXPXPXPXPXPXPXPX",
"PXPXPXPXPXPXPXPXPXPXPXPXPXPXPXPXPXPXPXPXPXPXPXPXPXPXPXPXPXPXPX$ # % = > j c n n n n n m H H H H J K K K K K K 7.7.7.8.0.w.w.0.0.0.w.w.w.w.0.0.0.8.0.8.7.7.K K I K G F C M n n n l l l z c z x : = : > > : PXPXPXPXPXPXPXPXPXPXPXPXPXPXPXPXPXPXPXPXPXPXPXPXPXPXPX",
"PXPXPXPXPXPXPXPXPXPXPXPXPXPXPXPXPXPXPXPXPXPXPXPXPXPXPXPXPXPXPXPX$ PX= : > j c b n c n n m C H H G G G K K K K I 7.7.8.8.8.8.8.8.8.0.w.0.8.7.7.8.8.7.I K K K K J H H C V M n b c c l > j l x > : = : > > = PXPXPXPXPXPXPXPXPXPXPXPXPXPXPXPXPXPXPXPXPXPXPXPXPXPXPX",
"PXPXPXPXPXPXPXPXPXPXPXPXPXPXPXPXPXPXPXPXPXPXPXPXPXPXPXPXPXPXPXPXPX# $ = > : > l c b n n n M C H F F F H K K K K I I 8.7.7.7.8.8.0.0.0.7.8.8.8.7.7.I J J J G G C C C m n n n c z l l > > > > = = = > > = & % PXPXPXPXPXPXPXPXPXPXPXPXPXPXPXPXPXPXPXPXPXPXPXPXPXPX",
"PXPXPXPXPXPXPXPXPXPXPXPXPXPXPXPXPXPXPXPXPXPXPXPXPXPXPXPXPXPXPXPXPX# # PX& = > > x z c b n n M C C F C C H J G K U I 7.7.I I 7.7.7.7.I I I I I K K J J H C C C C C V V n n c l x x , > = = = = = = > > = % % PXPXPXPXPXPXPXPXPXPXPXPXPXPXPXPXPXPXPXPXPXPXPXPXPXPX",
"PXPXPXPXPXPXPXPXPXPXPXPXPXPXPXPXPXPXPXPXPXPXPXPXPXPXPXPXPXPXPXPXPXPXPX$ # % : : > h l c n n n M C C C C F F H K U U U K G F C C m C C F C m m m m m m m M n n n M m m M n b c c c l x > = = = = = = = = & % PXPXPXPXPXPXPXPXPXPXPXPXPXPXPXPXPXPXPXPXPXPXPXPXPXPX",
"PXPXPXPXPXPXPXPXPXPXPXPXPXPXPXPXPXPXPXPXPXPXPXPXPXPXPXPXPXPXPXPXPXPXPXPX$ # % > > > x l c c n n m C C C C F C C m M n n M M m C F G J J U I U U K J J G C m m C C C C V m b b c c n z z l x > : = = = = & $ PXPXPXPXPXPXPXPXPXPXPXPXPXPXPXPXPXPXPXPXPXPXPXPXPXPX",
"PXPXPXPXPXPXPXPXPXPXPXPXPXPXPXPXPXPXPXPXPXPXPXPXPXPXPXPXPXPXPXPXPXPXPXPXPX$ % = > > > > x z n n n M V V m M n n n n M m Z J K 7.7.7.I U U G C V M n n n n b n n b n M m m m m M M n n c z l l , > = = % % # PXPXPXPXPXPXPXPXPXPXPXPXPXPXPXPXPXPXPXPXPXPXPXPXPXPX",
"PXPXPXPXPXPXPXPXPXPXPXPXPXPXPXPXPXPXPXPXPXPXPXPXPXPXPXPXPXPXPXPXPXPXPXPXPXPX% # : : > > > j c n n M b b c c c c m Z J J K J G V n n c j h h j l l h h h j l z j h h h h j j j l z c c c c c z l h : = $ % & PXPXPXPXPXPXPXPXPXPXPXPXPXPXPXPXPXPXPXPXPXPXPXPXPXPX",
"PXPXPXPXPXPXPXPXPXPXPXPXPXPXPXPXPXPXPXPXPXPXPXPXPXPXPXPXPXPXPXPXPXPXPXPXPXPXPX# = > > : : > j c c c c l l c M Z J J Z m z h > > j b n V G J K U K G H C m C m m C C m b c z l l x j > : > > h > j j > > = = PXPXPXPXPXPXPXPXPXPXPXPXPXPXPXPXPXPXPXPXPXPXPXPXPXPX",
"PXPXPXPXPXPXPXPXPXPXPXPXPXPXPXPXPXPXPXPXPXPXPXPXPXPXPXPXPXPXPXPXPXPXPXPXPXPXPX% $ : > > : > > j l h > j n Z Z m n c > > j b C J U I J J G H H m n c c c c z c c b n n b b n n n c n c z l j j > = = = = = = : PXPXPXPXPXPXPXPXPXPXPXPXPXPXPXPXPXPXPXPXPXPXPXPXPX",
"PXPXPXPXPXPXPXPXPXPXPXPXPXPXPXPXPXPXPXPXPXPXPXPXPXPXPXPXPXPXPXPXPXPXPXPXPXPXPX$ $ % = : : : > > , > h n C V c > = > z m G J G Z m n z l > : > = = & & & & & & & & & = = = > j x l c c n c c z l l > = % $ % = = PXPXPXPXPXPXPXPXPXPXPXPXPXPXPXPXPXPXPXPXPXPXPXPX",
"PXPXPXPXPXPXPXPXPXPXPXPXPXPXPXPXPXPXPXPXPXPXPXPXPXPXPXPXPXPXPXPXPXPXPXPXPXPXPXPX& PX# % % % % : > k b m c > = > b m H Z m b k > > = & & % % = > h l z z k j j j j : = % % % % % & & = > > h > > h k l > = $ # % PXPXPXPXPXPXPXPXPXPXPXPXPXPXPXPXPXPXPXPXPXPXPXPX",
"PXPXPXPXPXPXPXPXPXPXPXPXPXPXPXPXPXPXPXPXPXPXPXPXPXPXPXPXPXPXPXPXPXPXPXPXPXPXPXPXPX= % # % = > j c b b > = : z M m M z > : = & $ # = h l b Z K 8.0.e.r.i.t.e.e.8.7.K J Z V n z h : & $ # # $ % = = = > j > = % PXPXPXPXPXPXPXPXPXPXPXPXPXPXPXPXPXPXPXPXPXPXPXPXPX",
"PXPXPXPXPXPXPXPXPXPXPXPXPXPXPXPXPXPXPXPXPXPXPXPXPXPXPXPXPXPXPXPXPXPXPXPXPXPXPXPXPX= : = > j z z c j = & > c n b j : & $ $ % = j b Z 4.8.e.p.k.J.J.L.I.L.J.J.J.k.f.p.p.a.r.8.K J C b z h = = # # # $ $ & > h > % $ PXPXPXPXPXPXPXPXPXPXPXPXPXPXPXPXPXPXPXPXPXPXPX",
"PXPXPXPXPXPXPXPXPXPXPXPXPXPXPXPXPXPXPXPXPXPXPXPXPXPXPXPXPXPXPXPXPX# PXPXPX# PXPXPXPX> j j k l j : $ & > j z > = $ # & = j b J u.w.r.a.p.j.J.P.P.P.I.I.I.I.I.I.I.I.I.P.k.k.j.i.t.0.7.U K V b h = % # # # % = > % PXPXPXPXPXPXPXPXPXPXPXPXPXPXPXPXPXPXPXPXPXPXPXPX",
"PXPXPXPXPXPXPXPXPXPXPXPXPXPXPXPXPXPXPXPXPXPXPXPXPXPXPXPXPXPXPX# PXPXPXPXPXPXPXPXPXPXPX> j > = # $ = > > > = # # # = l n Z 7.r.p.p.p.j.k.l.P.I.I.I.I.I.I./.U.U.I.I.I.L.P.P.K.l.j.p.t.w.8.K K Z M c > : $ # $ = & # PXPXPXPXPXPXPXPXPXPXPXPXPXPXPXPXPXPXPXPXPXPXPX",
"PXPXPXPXPXPXPXPXPXPXPXPXPXPXPXPXPXPXPXPXPXPXPXPXPXPXPXPXPXPXPXPXPXPXPX$ # PXPXPXPXPXPXPX= % $ % = > > > = PXPX% : c C K 7.r.y.a.p.p.l.J.J.P.I.U.I.I.I.U./.).).{.{././.U.I.L.P.J.j.p.t.e.8.7.I J H M z > % # # & # PXPXPXPXPXPXPXPXPXPXPXPXPXPXPXPXPXPXPXPXPXPXPX",
"PXPXPXPXPXPXPXPXPXPXPXPXPXPXPXPXPXPXPXPXPXPXPXPXPXPXPXPXPXPXPXPXPX$ : : = = % % $ PXPXPXPX% = > > j > = PXPX% > c C K I 8.r.i.t.i.p.k.k.J.P.P.L.I.I.I.U.).).{.}.}.{.).U.U.I.P.l.k.j.p.a.w.0.8.I K G V c > % # PXPXPXPXPXPXPXPXPXPXPXPXPXPXPXPXPXPXPXPXPXPXPXPXPX",
"PXPXPXPXPXPXPXPXPXPXPXPXPXPXPXPXPXPXPXPXPXPXPXPXPXPXPXPXPXPX$ % = : > : = $ # # $ # PXPXPXPX= > > = & PXPX= > l M J 7.8.8.w.r.a.t.t.p.l.J.P.P.P.I.U.I.Y./.{.}.}.|.}.}.{.{./.I.K.J.l.k.j.i.r.w.8.7.4.J V b l > PXPXPXPXPXPXPXPXPXPXPXPXPXPXPXPXPXPXPXPXPXPXPXPXPX",
"PXPXPXPXPXPXPXPXPXPXPXPXPXPXPXPXPXPXPXPXPXPXPXPXPXPXPXPXPX& = = % $ $ PXPXPXPXPXPXPXPXPXPXPX& = = $ PX$ = > l b m J 7.8.w.e.t.a.i.r.a.l.l.K.I.I.I.I.Y././.).}.}.}.}.|.}.{./.I.I.I.L.J.l.f.i.r.w.w.8.7.J C M c h PXPXPXPXPXPXPXPXPXPXPXPXPXPXPXPXPXPXPXPXPXPXPXPX",
"PXPXPXPXPXPXPXPXPXPXPXPXPXPXPXPXPXPXPXPXPXPXPXPXPXPXPXPX# $ # # # PXPXPXPX= = = : = : PXPXPXPX$ # # PX& > z c M H K 7.8.8.w.r.r.i.a.t.d.k.J.I.U.Y.I.U./.).{.}.|.XX}.{.}.|.{././.I.L.J.k.f.p.i.y.r.w.8.7.J G m z c PXPXPXPXPXPXPXPXPXPXPXPXPXPXPXPXPXPXPXPXPXPXPX",
"PXPXPXPXPXPXPXPXPXPXPXPXPXPXPXPXPXPXPXPXPXPXPXPXPXPXPXPXPXPXPXPX: j k N N N V V V m b z j > % PX# PXPX= h z n M H K 7.8.8.8.w.r.y.i.a.i.k.l.K.I.I.I.U.).).).|..X|.|.|.|.|.}.{.)./.L.K.K.J.k.h.p.a.r.w.8.7.L Z M c j j PXPXPXPXPXPXPXPXPXPXPXPXPXPXPXPXPXPXPXPXPX",
"PXPXPXPXPXPXPXPXPXPXPXPXPXPXPXPXPXPXPXPXPXPXPXPXPXPXPXPXPX= h k b Z J K K K 7.4.K K J Z m b k , & % PX= > z n M C J 7.7.8.8.8.t.a.t.i.i.j.j.k.K.I.U./.U././.}.}.}.|.XX.X|.|.}.}.{./.L.P.J.l.j.j.p.i.r.r.w.7.K Z m c k PXPXPXPXPXPXPXPXPXPXPXPXPXPXPXPXPXPXPXPXPX",
"PXPXPXPXPXPXPXPXPXPXPXPXPXPXPXPXPXPXPXPXPXPXPXPXPXPXPXPX> b V Z J K 8.9.7.8.w.w.8.8.7.K J C m b k : $ % > j c M V C I I 7.7.8.w.t.y.a.p.p.d.j.J.I.I./.U.).).).).|.XXXX.X|.|.|.}.{./.U.L.K.J.l.l.j.p.i.i.t.0.K J Z m b z PXPXPXPXPXPXPXPXPXPXPXPXPXPXPXPXPXPXPXPX",
"PXPXPXPXPXPXPXPXPXPXPXPXPXPXPXPXPXPXPXPXPXPXPXPXPXPXPXPXb A J K 7.7.7.8.w.w.w.w.w.w.8.7.K J C M c j = % : j z b V V G K 7.7.0.r.r.r.t.i.i.p.f.l.L.I.U./.).).U.{.|.XXXX|.|.|.XX|.{.).U.Y.I.P.K.J.k.d.p.p.i.e.8.7.K Z m b z j PXPXPXPXPXPXPXPXPXPXPXPXPXPXPXPXPXPX",
"PXPXPXPXPXPXPXPXPXPXPXPXPXPXPXPXPXPXPXPXPXPXPXPXPXPXk b V J 4.8.w.e.r.i.a.a.a.t.t.t.8.8.7.K J V b z : % = j l b b V C J K 4.8.w.w.w.r.t.i.p.f.f.J.J.P.I././.).}.|.|.|.|..XXX|.|.|.{.).).U.I.I.K.k.f.f.d.p.e.0.8.7.K Z V b c j PXPXPXPXPXPXPXPXPXPXPXPXPXPXPXPXPX",
"PXPXPXPXPXPXPXPXPXPXPXPXPXPXPXPXPXPXPXPXPXPXPXPXPXb M C J 7.0.e.a.p.p.i.p.p.p.i.a.r.w.8.7.K J V n c h = = h l c b M C H K K 7.8.8.w.w.t.p.p.p.f.J.J.K.I.U.U.).}.{.{.|..XXXXX|..XXXXX}.)./.U.I.I.K.k.f.f.p.a.t.w.8.7.K Z M b z j PXPXPXPXPXPXPXPXPXPXPXPXPXPXPXPX",
"PXPXPXPXPXPXPXPXPXPXPXPXPXPXPXPXPXPXPXPXPXPXPXk n V G K 7.w.i.i.p.g.j.p.k.k.f.f.t.r.e.w.8.7.K Z V b j = % > l c n n M C J K L K 7.w.r.r.y.i.p.d.k.J.J.I.Y.U.).U.).}..XXX.X|.XXXX.X|.|.|.|.)././.I.P.l.k.f.p.a.t.w.7.K J Z m n b j PXPXPXPXPXPXPXPXPXPXPXPXPXPXPX",
"PXPXPXPXPXPXPXPXPXPXPXPXPXPXPXPXPXPXPXPXPXb b n H K 7.8.e.a.p.f.f.j.J.J.l.k.p.i.t.t.e.e.8.4.K G C M c > % : x l c b n V H J I 7.7.w.w.w.r.i.p.d.f.l.k.P.Y.I.Y.U.}.}.}.|..XXXXX.X.X|.|..X|.}.}./.I.I.P.J.l.p.p.i.r.8.7.K J Z C m c j PXPXPXPXPXPXPXPXPXPXPXPXPXPX",
"PXPXPXPXPXPXPXPXPXPXPXPXPXPXPXPXPXPXPXPXb b m C K 7.w.y.a.i.f.k.l.J.J.l.k.p.i.a.w.i.a.w.8.K J J C n c j = = > j l n M m C J K L 7.8.w.r.t.i.p.p.f.f.l.P.L.L.U.U.}..X|.}.|.XXXX.X.X|.|.}.}.|.|.}.).U.I.L.K.k.j.p.r.w.8.8.7.K G C n c > % PXPXPXPXPXPXPXPXPXPXPXPX",
"PXPXPXPXPXPXPXPXPXPXPXPXPXPXPXPXPXPXz b b V Z J 7.u.a.p.f.f.k.J.K.J.J.J.l.f.f.p.i.p.a.t.w.K J Z V M b j = % > > l c m m C G J K L 7.0.r.t.a.p.p.p.p.l.K.J.P.Y.U.).{.}.|.|..X.X.X.X|.|.|..X|.}.}.|.|./.I.P.l.k.j.i.t.8.8.8.7.K Z V n k > PXPXPXPXPXPXPXPXPXPXPXPX",
"PXPXPXPXPXPXPXPXPXPXPXPXPXPXPXPXPX: c n m G K 8.w.e.a.f.k.l.J.K.K.P.L.P.K.J.k.f.p.a.e.w.w.7.K Z m m b z > % = > x l b m C F H K K 7.7.0.w.w.t.i.i.p.j.l.K.K.I.U.).{.|.|.{.}.|..X.X}.|..XXX.X.X.X.X{.)./.K.l.l.l.k.p.r.w.8.8.7.K J Z n c k PXPXPXPXPXPXPXPXPXPXPX",
"PXPXPXPXPXPXPXPXPXPXPXPXPXPXPXPX: l n C J 9.8.e.a.p.f.k.J.K.K.J.J.P.K.J.K.J.k.d.a.t.w.8.7.7.K J C m n c l = % > , l c M m m H K K I 7.7.w.w.w.t.a.p.f.j.l.K.I.U.)./.).}.).).}..X|.|.|..X#XXXXXXX}././.U.P.l.l.l.k.h.y.r.e.w.8.7.7.K Z m b z PXPXPXPXPXPXPXPXPXPX",
"PXPXPXPXPXPXPXPXPXPXPXPXPXPXPXz b n C J 7.0.r.a.p.f.k.J.P.P.K.K.J.J.J.l.k.k.d.i.e.r.r.0.7.K J J H m n b l , PX: > l c b M m F K K K K I 0.w.e.e.a.p.p.f.k.J.L.U./.I.U.).).}.{.).}.|..X|.XX#XXX|.{.).U.I.L.K.l.k.j.p.i.y.t.w.w.w.0.7.K Z Z m l = PXPXPXPXPXPXPXPX",
"PXPXPXPXPXPXPXPXPXPXPXPXPXPXz b M C J 7.w.w.r.a.p.f.J.L.I.I.I.I.L.L.I.L.K.k.p.p.a.r.w.w.8.J G G G H m c l , PX= , l l c n m V G K K K I 8.0.0.r.a.i.p.j.k.k.P.L.I.I.U.).{.{.).).|.|.|..XXX#XXX|.|.|.{.U./.I.K.k.h.j.j.p.a.e.w.w.w.8.K J J G M k > PXPXPXPXPXPXPX",
"PXPXPXPXPXPXPXPXPXPXPXPXPXc b M H J 7.8.r.i.p.p.j.J.L.I.(./.(.I.I.I.L.K.J.j.p.i.t.e.w.w.7.K J J H V n c j > % PX> , x l b M M V J K U I 7.8.8.w.y.i.p.j.k.f.J.K.P.I./.}.{.U.).}.|.|.|..XXXXXXX|.XX|.).U.)./.P.l.k.k.j.f.p.i.t.r.w.8.7.7.I J C V b PXPXPXPXPXPXPX",
"PXPXPXPXPXPXPXPXPXPXPXk b b V H K 7.w.r.y.i.h.j.J.P.K.L.I./.(.I.L.J.l.k.k.j.p.i.t.t.w.8.7.7.L K G V n c l j > PX: > x l c n m m F J K K K 7.8.8.r.a.p.p.p.j.k.K.L.I./.).U./.).).{.}.|..XXX|.XX|.|.|.).U.Y.I.L.P.J.k.j.p.p.i.a.r.0.8.8.8.7.I J H M c h h PXPXPXPX",
"PXPXPXPXPXPXPXPXPXPXj c b m G U 7.w.r.a.p.k.J.P.L.L.P.L.I.I.I.I.P.K.l.k.k.j.j.h.t.w.8.8.7.L K G V m n c c x > $ % > x x l c m m m H K J K 7.7.7.8.r.a.p.f.k.k.k.J.L.U./.U.U.).).}.|.|.|.|.|.|.}.}.|./.I.I.L.L.I.J.l.J.k.j.d.i.r.w.w.r.w.8.8.I J C m n z = PXPXPX",
"PXPXPXPXPXPXPXPXPXk c n C G U 8.0.r.i.j.k.l.J.L.I.I.I./.).U.I.L.I.L.l.k.j.l.j.p.a.w.8.7.4.K J H V M b c c l > = PX> h l l c n M M V G J K I 7.7.0.w.y.p.p.d.k.k.l.P.I.I.I.U.{.|.|.|.|.|.|.}.}.|.}.)./.I.I.I.L.P.J.J.l.l.l.j.h.p.y.r.w.w.r.0.7.7.K G C M l , PXPX",
"PXPXPXPXPXPXPXj z c M V G U 7.0.r.i.p.h.k.J.P.L.I.I./././.I.P.J.J.K.j.j.k.j.i.y.r.e.w.7.L K G G G V n c l l x > PX= > x l z c n m m F G K K K L 8.w.r.a.y.i.j.k.l.P.I.I.I.U.).{.}.|.|.|..X}.}.XX|./././.(.I.I.L.J.J.l.l.j.j.h.p.i.i.r.w.w.0.7.7.K I J C M c j PX",
"PXPXPXPXPXPXl c b m C Z U 7.0.y.i.h.h.k.J.L.L.L.I.I.(././.(.L.K.J.l.k.j.h.p.i.t.w.w.8.7.K K K J G F M b c l j : * % > x l z c n M m H G J K K L 7.8.0.a.a.i.d.k.k.l.P.I.I.I.U./.{.{.|.|.|.|.XXXX}.).{./.(.I.I.L.J.J.J.k.k.k.p.y.i.i.i.y.r.r.8.7.7.I K Z C n c h ",
"PXPXPXPXPXj z c M C G K 8.w.t.y.i.h.j.l.P.I.L.L.L.L.I./.U.L.J.l.l.j.k.j.i.y.r.t.8.8.w.8.L J J G F m n n c j k > % PX= > x l c c n n F J G J K 7.8.0.0.r.i.i.i.k.j.j.J.L.L.I.U.).{.}.{.}.|.|.XX}.).{.{././.I.I.I.P.k.J.l.k.j.d.i.y.y.a.i.y.y.r.w.8.7.7.K J C m z "
};
