/* XPM */
static const char *rrock05[] = {
/* columns rows colors chars-per-pixel */
"128 128 246 2 ",
"   c #060907",
".  c #0C0C07",
"X  c #0B0D0A",
"o  c #1D0605",
"O  c #140D07",
"+  c #1B0B06",
"@  c #0E110B",
"#  c #141107",
"$  c #191107",
"%  c #15120A",
"&  c #1B150A",
"*  c #171908",
"=  c #1D190D",
"-  c #0F1110",
";  c #151612",
":  c #1A1611",
">  c #151816",
",  c #1C1A12",
"<  c #1D1D1A",
"1  c #230505",
"2  c #290605",
"3  c #260C06",
"4  c #2B0C05",
"5  c #250E09",
"6  c #2C0D0A",
"7  c #360605",
"8  c #3C0503",
"9  c #330C05",
"0  c #3B0B05",
"q  c #330E0A",
"w  c #251304",
"e  c #2B1007",
"r  c #23150A",
"t  c #2C120A",
"y  c #231B0D",
"u  c #2B1D0D",
"i  c #331007",
"p  c #3B1107",
"a  c #33140A",
"s  c #3C140A",
"d  c #341C0D",
"f  c #3B1C0C",
"g  c #2D1412",
"h  c #231D13",
"j  c #2B1E11",
"k  c #231D19",
"l  c #2D1919",
"z  c #341211",
"x  c #341C11",
"c  c #371A17",
"v  c #3A1D12",
"b  c #1E240D",
"n  c #1E211A",
"m  c #25210E",
"M  c #2C230F",
"N  c #25290F",
"B  c #2A290F",
"V  c #33210F",
"C  c #3D210E",
"Z  c #252213",
"A  c #2C2513",
"S  c #262A13",
"D  c #2D2A14",
"F  c #25231C",
"G  c #2B251C",
"H  c #252A19",
"J  c #2D291C",
"K  c #332513",
"L  c #3A2614",
"P  c #342A14",
"I  c #3B2C16",
"U  c #342619",
"Y  c #3A251B",
"T  c #342C1A",
"R  c #3C2D1B",
"E  c #2D331D",
"W  c #2E381F",
"Q  c #353017",
"!  c #3D3017",
"~  c #33331C",
"^  c #3D311C",
"/  c #1F2021",
"(  c #252522",
")  c #2A2722",
"_  c #272826",
"`  c #2D2A24",
"'  c #262728",
"]  c #2D2C2A",
"[  c #332D24",
"{  c #3B2E21",
"}  c #392824",
"|  c #322E29",
" . c #2E3326",
".. c #353125",
"X. c #3C3223",
"o. c #373B26",
"O. c #35322C",
"+. c #3B342B",
"@. c #3E382E",
"#. c #2E2F30",
"$. c #353431",
"%. c #3A3632",
"&. c #3D3933",
"*. c #353838",
"=. c #3C3C3B",
"-. c #430603",
";. c #4C0503",
":. c #450804",
">. c #4B0A04",
",. c #4B0C09",
"<. c #530402",
"1. c #5C0302",
"2. c #530A05",
"3. c #5B0B05",
"4. c #540D09",
"5. c #5C0D0A",
"6. c #471207",
"7. c #43160A",
"8. c #4C1309",
"9. c #431C0C",
"0. c #4A1C0E",
"q. c #541307",
"w. c #5A1007",
"e. c #541309",
"r. c #5C130A",
"t. c #56180A",
"y. c #5C180D",
"u. c #4D0F10",
"i. c #451D11",
"p. c #471817",
"a. c #4C1D12",
"s. c #521616",
"d. c #561A15",
"f. c #630302",
"g. c #6C0302",
"h. c #630B06",
"j. c #6C0A05",
"k. c #640D0A",
"l. c #6B0C0A",
"z. c #740302",
"x. c #7A0402",
"c. c #740A05",
"v. c #7C0A05",
"b. c #740C0A",
"n. c #7B0B0A",
"m. c #63130B",
"M. c #66170C",
"N. c #6A120B",
"B. c #641B0E",
"V. c #76160A",
"C. c #7D120C",
"Z. c #661A12",
"A. c #771D1A",
"S. c #40210E",
"D. c #49200F",
"F. c #432412",
"G. c #4C2413",
"H. c #412E17",
"J. c #4C2915",
"K. c #44211E",
"L. c #4D251A",
"P. c #412E1A",
"I. c #4C2B1B",
"U. c #532513",
"Y. c #582614",
"T. c #542B15",
"R. c #5B2B15",
"E. c #532619",
"W. c #532B1B",
"Q. c #5B2B1A",
"!. c #413117",
"~. c #43331B",
"^. c #49361C",
"/. c #45381E",
"(. c #4C3A1D",
"). c #563017",
"_. c #55321B",
"`. c #5C331C",
"'. c #523C1E",
"]. c #6A210F",
"[. c #682714",
"{. c #792210",
"}. c #64331C",
"|. c #68341C",
" X c #591F20",
".X c #4B2523",
"XX c #432C23",
"oX c #4B2B25",
"OX c #482A27",
"+X c #542D21",
"@X c #562B25",
"#X c #433422",
"$X c #493622",
"%X c #463923",
"&X c #4B3A23",
"*X c #43362A",
"=X c #4B352A",
"-X c #43392C",
";X c #4B3C2A",
":X c #543321",
">X c #583425",
",X c #523D22",
"<X c #5B3C23",
"1X c #523D2B",
"2X c #433C33",
"3X c #4B3D31",
"4X c #413D3A",
"5X c #4C3F39",
"6X c #5B3C36",
"7X c #6D2D26",
"8X c #663827",
"9X c #464128",
"0X c #4E412B",
"qX c #534125",
"wX c #5C4224",
"eX c #53422C",
"rX c #5A442B",
"tX c #5D492C",
"yX c #494135",
"uX c #46423B",
"iX c #4B4339",
"pX c #544333",
"aX c #584734",
"sX c #5B4935",
"dX c #634628",
"fX c #604D31",
"gX c #6B5334",
"hX c #494743",
"jX c #840301",
"kX c #8D0000",
"lX c #8C0100",
"zX c #830B06",
"xX c #8B0905",
"cX c #830C0A",
"vX c #8B0B09",
"bX c #930000",
"nX c #9C0000",
"mX c #910904",
"MX c #920C0B",
"NX c #86120A",
"BX c #951300",
"VX c #A30000",
"CX c #AB0000",
"ZX c #B30000",
"AX c #BB0000",
"SX c #C00000",
/* pixels */
"' ` ^ !.I I !.X.O.| U U | ] A y & 9 g.kXkXc.D.! (.&X[ [ &XwXwX<X~.I I C 2.;.t j R #X` ' ' ( Z M K K P I I I K M P P E W W ~ R R L K A y r y A I R P.P.P.P.R P.I K A ] O.X.P.P.P.P.!.~.!.!.I A f h.jXVXZXZXZXVXnXbXkXkXkXkXkXkXbXnXVXZXCXnXb.c ( T ~.(.(.~.I I !.",
"` [ X.^ T P I R [ [ K U [ [ J Z & 9 z.bXbXc.0.I ~.~.[ [ ~.,XqX,X~.I A d 2.;.t h { X.[ ) ' ) G A U U T T I I P K P P ~ ..o...R I L K A M y y D T R XX~.~.~.P.R U A Z ` | { P.H.H.P.!.!.!.I P A a >.z.nXCXCXVXxXcXcXC.n.n.n.v.v.v.x.jXnXVXbXc.c F R ~.(.(.!.I I I ",
"#XX.+.O.` G A K U K d K I { [ ) , p x.nXnXv.0.D I I A P ! %X2X2X#XK & 3 <.<.i h ` | U U ] ' ) ) ` | | [ D K P I P I ! X.O.+.T P U K A M M D E ..O.+.%X&X(.~.P A M Z ) ` R H.H.H.P.!.!.! P A u u w :.x.nXbXzXB.Y.}.8X@XOXQ.R.Y.a.p ;.x.bXbXg.q h ^ &X(.~.!.I P A ",
"~.#X+.$.] ( G A K K K K I R | _ Z s x.nXVXxXq.f K A M P !.%X@.+.X.K % 1 <.<.6 , ( [ T T [ ] ` ` | O.O.[ A K I R T T ! #X%.O.[ T I L K P T ~ ....O.+.=X&X&X~.I A A G ) [ R !.^ ^ R R !.! P M u r * e f.x.g.5.L.#XqXeX2X@.%X/.#XR Z a 2.g.jXz.-.t R ~.~.~.!.R P Z ",
"I R ^ X.$.#._ J I R [ [ R R ` ( Z f c.bXVXnXx.5.f A M P (.,X^ R ! P & 3 <.<.4 & Z P I I T T U T R X.^ R P P I R [ [ R X.O.$.] [ R P.I R +.O.O.O.X.#X~.#X+...^ R [ ` U I ~.=X+.O.` [ ^ !.I A y & # 3 1.f.-.d XX;X&X&X%X^ I R $X=X~.L i -.g.z.1.>.C I ~.^.~.^ [ ] ",
"T T R X.+.+.] ` T { [ [ T T ` G Z f w.x.bXnXbXx.8.d M P (.(.^ T ^ T y 6 1.1.8 e u P R R I P K L H.!.^ R I I T [ O.O.R P...O.O...^ !.R { +.%.$.O.^ !.P.R [ [ ^ ~...[ U I #X%X+.O.] ] R R T A Z = $ 4 <.<.4 h { ;X^.~.!.R T T -X;X&XI y e ;.f.g.3.f P ~.%X#XX.O.| ",
"| ] ` [ #X~.T T [ [ T T D D D P P K f e.x.bXnXbXz.4.d A I ^ +.O.O.` h i f.z.1.>.C T [ [ T P K L I ^ [ [ T P J ] $.+.^ P.#XX.X.^ !.^ [ [ X.X.O.| ^ P.P.R T T ~.~.^ R L U [ O.[ [ O.O.T A J J D m & 4 <.<.6 y I ~.!.I I I [ %.&.2X#X! P u e 8 1.3.f J +.&.+...X.R ",
"] ] ] [ ~.~.I T [ [ T D N S D T I P A d 2.z.bXnXjXf.f A D T +.+.O.` h 9 g.jXz.h.9.P ` [ [ T T U I R [ [ T T ` | O.+.X.#X#X#XR I ^ X.] ` X.X...[ R P.R R T I R R R R P U [ [ T R +.+.T A J ` P M & 4 <.<.i h T ~.!.I I Y O.$.%.+.X.^ I M % 3 <.1.a Z ] | ' ` R I ",
"' | X.#X~.P.R R #XX.T P M Z G ` R I A u e :.z.kXjXj.f Z ` [ X.^ ^ U = 9 g.jXx.g.7.A P [ O.%.| [ U L R { [ | X.#XX.X.+.+.$X~.P P [ O.] ] | ..{ R I ^ +.O...~ P P [ [ T P U U I ! ~.^ R I R T P m & 4 ;.<.e k | +.^ I P.{ O.O.X.X.@.+.T y % 1 <.<.6 & , , : h K I ",
"( [ #X^.P.R { X.#XX.R P P K J ` I I A Z = e <.g.x.f.f Z ` [ ^ ! ! P h t 2.g.x.g.p u A T +.%.O.[ } Y P.R ..O.X.#XR R O.+.#XR K A [ O.] ] ] [ ^ ! I ! +.O.o.E J J ] | T P K L I ! !.!.I I !.I A = $ 3 ;.<.e h ] O.R I P.{ [ [ X.X.%.O.G = X o <.f.-.3 O . O $ y A ",
"Z P R P.I Y +.%.O.| R R !.! T P U U J F Z y e :.f.1.i h A T ~ ~ ! R ` G t :.g.f.9 = A I T ~ R X.+.+.{ P.^ X.+.[ T I T T R R K A R X._ ) J T ~ ~ D D ! ^ ~  .] ] ] ] T P K U ~ ~ ! I I I ~.! m * X 1 <.<.i h ( ` U L P.P.R X.+.%.O._ k & X 1 f.x.z.;.o     . $ & ",
"y M P I L Y +.&.$.| R R ~.!.P K K K ) J A y & 4 <.1.i y K T ~ ~ R R ..` : 4 f.f.8 e M P P I I ^ +.%.X.{ !.^ ..[ T P P I I I A K ! ^ J G P Q ~ E S S P I ~ ~ [ | ] [ T I P T ~ ..~ I U I ~.R m * X 1 <.1.a h G ` T I I R I R +.O.` F = & o 8 x.bXbXz.8 1 1 2 4 9 ",
"& r M K I P.#X*XO.] T I I I K M M K T T V u & 6 <.1.p u L Y ` ` U I ~.R = 4 f.z.1.>.d P I I I I T ..+.+.^ ! R R R I R I P P A K I ! P I !.!.Q D A M M K U U U U A P !.~.~ ~ o.o.] J P P [ G = # . 3 <.1.f A T { +.O.T P L I T T A h & 4 ;.z.nXCXVXbXz.f.g.g.g.g.",
"O $ y A I R !.^ [ [ T P P P A A P P !.I K j y i <.1.s K Y } ) G K L ~.I y 9 g.jXx.1.a Z I R I P P T +.+.#X!.!.!.P.P.{ R T P A P ^ X.I I !.!.I P A Z Z A K K K K K P !.~.^ ..o.o.] J P P J F & + 3 -.f.1.a M P ^ +.+...T I K K A M = % 4 g.bXCXCXVXbXz.z.jXbXbXnX",
"O $ & y K P P K U U A A P P ` [ #X$X^.!.T F , t <.2.f A [ [ G j K L H.I Z s g.jXjXg.9 y P I I P M P X.*X=X$X~.~.~.#X+.O...~ P T +.+.I K I I P P J ` ` ` T P P P I I !.!.! ^ O.O.T P P P A h % 3 <.g.x.g.9 = A R ^ X.+.+.R P M y & $ X 2 z.nXCXVXbXz.-.:.z.nXVXCX",
"4 4 r j D P A M K K K P P T | +.=X;X$XX.[ F , 6 ;.2.f Z [ [ K V K I I I P f w.z.jXz.:.e K I I I P P R #X*X*X#X~.~.~.+.+...~ T [ +.+.} U P P P T ` ' ] [ T P T T ! !.!.!.!.^ [ ` A M A Z y r e :.z.bXbXx.>.e u P I #X+.+.^ K y $ # O o -.jXVXVXbXx.5.a a 3.xXVXZX",
"<.>.f U [ [ K K V K P R [ | X.#X$X$X+...T Z = 4 <.3.f A T R I I I I I I I P f 8.g.z.1.>.f P !.~.~.^ [ | O.+.#X!.! I T T P T [ [ X.X.[ [ U K P D ( ( J T P T O.+.#X~.!.!.~.!.T Z y & & % @ 3 ;.z.bXVXCXnXz.<.e y D R { { P M & # O 3 ;.z.bXVXbXx.q.F.H.H.S.r.xXVX",
"z.h.7.A ` [ } U A A P R [ { $X$X#XX.| ] G y & 4 <.3.f D I ! !.P.I ! ~.~.!.I P f 4.f.g.1.a A ^ &X^.~.[ ` ] [ ^ I P P I P K U [ ..{ { | | U L P T ` ) P P I T +.+.~.!.^ ^ !.I M r $ O 3 4 2 -.z.bXVXCXCXCXbXz.-.e u A I I A y $ + 3 :.z.bXnXbXn.m.J.^.'.(.P 9.v.nX",
"bXz.0 = Z J O.| A M A K U R ,X,X!.T ` ( h & $ 4 1.h.f S E ^ ~.~.I ! '.'.~.I I K t 8 f.1.6 , | @.#X!.Y U R R I P A P !.!.L L R X...| ' ` Y I I R | ] T I ! ! ^ ^ I T ..[ T M r $ . o -.f.z.jXbXVXVXVXVXVXVXbXz.2.t y K P u & $ 3 <.z.bXnXbXn.s.OX<XdX'.~.I 0.v.bX",
"VXjX>.e y Z [ | G Z Z A K R (.(.I Z F < % O 3 :.g.z.e.V D J ! !.! ~.,X,X~.I I K = 6 f.f.8 g [ +.X.! P K T R T T K P !.H.L L !.~.| ' ) ) Y R R { [ ` D P I ! !.!.I T [ ` Z = $ O o 8 g.kXnXVXVXnXvXcXcXzXnXnXbXz.-.t u m = $ 3 :.z.bXnXbXz.r.} -XsXdX,X!.K 7.z.kX",
"ZXnXx.<.4 = Z J F F Z Z G [ R I M y & % X o ;.z.bXbXx.2.t = A I ~.&X9X%X~.I P Z , z h.z.f.4.L ~ ~ ~ S S J ] O.O.R I I L d K !.~.[ _ G K I R [ [ J Z A A A P !.~.!.I P Z * * # 3 ;.z.kXnXVXnXbXcX[.@X.Xs.v.bXnXbXz.2.t % @ 5 ;.z.bXnXbXz.>.x XX;XyX3X#XI Z p z.kX",
"AXCXnXz.:.e y Z F G A Z F F Z m = r 4 4 2 -.z.bXVXVXbXg.-.3 y A ^ #Xo.~ T K M , > g g.jXjXj.9.P ~ ~ E J ` ` O.+.X.R L K V L R X.] ) Z A Y { O.[ P M K A A P ! ~.R K Z r w 3 6 >.z.kXnXnXzXn.b.M._.+.] U r.x.bXnXbXz.>.9 6 -.z.bXnXbXx.5.d P ~.=X-X+.X.P y p z.kX",
"AXAXCXnXz.<.e = A K d u = & & & $ 4 <.g.z.jXbXVXVXnXbXjXg.;.4 , ` ` Z Z F h = % X 6 z.bXkXc.9.D I X.&.%...T T } [ [ T P I R [ ] ] ` Z A [ O.#X~.I I I I P P [ ` F , % + -.f.g.z.jXkXkXv.s.K.W._.^.^ _ ) v e.x.bXnXbXjXx.x.kXnXnXbXx.q.C !.~.~.~.#XX.! P M 7.z.kX",
"AXAXZXVXbXg.-.e u u u r $ O O + 3 :.z.bXnXVXVXnXxXzXc.z.x.g.:.i c l y & : : 6 4 2 -.jXVXnXz.s m A R +.+.T M V K [ [ T I R R ` _ ] [ A A ` [ ~.~.~.X.#X#XR P G < > ; + 8 g.jXkXjXz.g.c.B.XX+.0X,X~.R ` ( F v 4.z.bXVXVXCXCXCXCXbXz.2.v I ~.^.I I ^ ^ T A u 7.z.kX",
"AXZXCXnXbXjXg.>.e & $ $ # O O 3 <.z.bXVXCXCXnXzXZ.E.f >.z.jXx.z.j.,.6 $ % 6 2.g.z.jXVXCXVXx.9 & & y K K y & r j K I R I I I P J T T K K A P I ~.+.&.4X2X%XI h % X + >.z.bXnXkXz.-.p G._.1XaXsXeX#XI T J ` ( l u.zXVXZXAXAXZXCXxX>.d I P.R I K P [ | ` F = 0 z.kX",
"CXnXxXv.v.v.x.f.-.4 4 4 4 4 4 :.z.bXVXZXZXVXjXm.I.[ , i z.nXVXnXjXf.8 4 4 :.z.bXVXCXZXZXCXjX>.3 + $ r r $ # $ r u K P P K K P P I I I L K P I ^ +.%.&.&.~.K & O o 8 z.bXVXbXx.3.a Z ! &XeXaXsXeX#XR P P [ ( < z v.VXAXSXAXZXVXx.s Z R ~.I K A G ` ] ' ( : 9 z.kX",
"kXx.q.0.U.B.c.x.g.f.1.<.<.<.1.g.bXCXZXAXZXmXr.v [ ( : 9 x.nXVXVXbXx.1.<.1.g.kXVXZXAXAXAXZXnXx.<.3 # $ $ # O $ $ r y m m y u P I R R P.R I I !.! ^ T T G h & X o ;.z.bXnXnXjXr.i.I !.^.(.^.&X&X(.~.I P I ^ T , q x.VXAXAXAXCXbXg.f A ! !.I P G ) J T ] ( , 0 z.kX",
"c.r.f D I F.r.z.x.z.f.1.3.3.1.g.kXCXZXAXCXzX9.F F k t :.x.nXVXnXzXb.N.N.k.c.bXCXZXAXAXZXCXVXkXg.0 4 4 4 4 4 4 6 6 t * * & y K I I R R ! I !.!.I P M M y $ O o 8 z.bXVXnXjXN.L.!.^.(.^.~.I R ~.~.R I I ! ^ T = 9 x.VXAXAXZXnXz.2.f P !.!.T J ` J P P ` ` h p z.kX",
"U.J.P D D K f 8.k.k.8.s f f i :.z.nXCXZXVXzXp.n > e >.g.jXbXbXzXZ.R.|.}.T.y.zXnXVXVXVXVXnXbXjXz.1.<.<.<.<.<.<.<.<.:.w # # & y u d V K P I ! I P y r u y $ 3 ;.z.bXVXVXxXr.G.`.<X'.^.~.! I T +.+.I I ^./.[ G , 0 x.VXAXAXCXjX;.t K ! ~.~.[ ` J P P P D H Z 9.c.kX",
"~.!.I P P P D L d.t.f K I P Z g 4.x.nXCXVXv.c < r 8 f.x.v.v.cXV.`.,XwXwX~.J.N.v.n.cXzXzXv.v.b.j.k.h.h.h.k.h.3.f.g.f.0 4 4 3 & & r y y M P P A y $ O r t 4 :.z.nXVXCXVXv.i.R <XwX&X~.!.I P T O.+.Y P.(.~.[ F : p x.VXZXZXVXz.p y P !.~.X.` J T I I P D H Z 9.c.kX",
"^.~.I I H.!.! I F.F.L P.!.~.O.[ L q.xXVXVXx.q r >.f.x.c.B.R.}.|.<XwX'.(.I L J.E..X.XE.Y.R.R.R.T.T.T.J.T.W.J.f 6.g.z.f.<.<.-.3 $ $ & r y m m = $ . . % 4 <.z.nXCXZXCXnXb.c [ &X,X+...^ I P A R ~.~.^.~.R Z : ; q v.VXCXVXbXc.G.R R R +.[ G K ! ~.~.X.[ ` Z 9.c.kX",
"^.~.I I ~.^.!.R R Y { ~.~.#X-XO.J 9.v.nXVXjX>.:.g.x.c.M.I.&X,XqXqX,X=X~.I I !.^ ..] [ R !.~.~.!.~.~.X.#X&X#X~ L r.g.1.1.g.1.-.4 4 4 & & * * # + o 1 4 >.x.nXCXAXZXVXzXm.Y ../.&X+...X.R K K R ~.&X$XR U y & r ,.jXVXVXbXv.m.J.!.R } | ] A P R ~.#X#X+.[ G f c.kX",
"~.~.P.P.~.~.! ^ +.%.O.[ R P.#X^ D f c.bXVXnXjXx.x.c.B.W.*X@.%X#X+.+.&.+.R H.~.~.T J ` ` T P P P ` ] | ..^ #X&.+.P.f i 8 f.z.z.g.f.>.3 $ # # # 3 -.f.z.jXnXCXAXAXZXmXd.XX#X&X(.~.#X#X~.R U U +.+.#X^ [ F & 4 ;.z.bXVXnXzXy.J.H.H.I U | ] T D J [ R !.~.R F v c.kX",
"! R I I I P A G | O.O.[ R P.R I P f 2.z.bXVXnXbXv.M.).%X@.+.~.^ [ O.$.+.^ ! ~.!.I D ) _ T I K A G ` O.+.#X$X4X2XX.D y t ;.g.jXbXkXg.-.4 4 4 4 0 f.jXbXVXCXCXZXZXCXcXp.] ^ ~.R I H.H.I U K T O.O.T K F k t :.z.bXnXbXcXZ.E.~.R I U U [ [ R T G G T ~.^.~.F z c.kX",
"D A y r y r & = , k T ^ ~.R P K I K t >.jXnXbXv.[.`.'.(.&X#X!.R T T ] ] T P I I P D ) ] *X#XI K K Y =XeXeX1X3X;X#XI K u e :.x.nXnXkXg.1.<.<.<.1.z.jXkXbXbXnXVXVXnXz.a , A A y y M V u u M U | ] Z y = t 2.z.bXnXbXn. X=X,X&X[ J U L Y { #X~.P G ` +.=X#XZ p z.kX",
"f a $ O O + 3 3 + & M I R R P P I K t :.x.kXz.m._.qX'.'.(.^.H.I P P ` _ J T P P P T [ ..*X$XI K U R &XeXpX3XpX1X$XR K y $ 9 z.nXVXbXz.h.k.m.h.k.j.b.b.b.c.c.v.jXjXz.:.9 s s 9 9 p a r & y Z _ ) h & # 9 g.bXVXbXz.r.XX-X,X&X[ ) U Y R P.#X~.P A [ +.*XX.Z p z.kX",
"j.2.4 O O 3 8 8 3 $ & y K I !.! P f 2.z.jXx.e.F.^.,X(.(.(.~.I L K U ` ] ] [ P P K I #X$X#X~.L U [ [ #X#X+.2XsXsX&XI u $ % 9 z.bXbXx.q.G.`.`.T.U.E.L.OX.Xi.9.9.e.g.x.z.z.c.z.g.g.f.>.3 $ $ , ( ( h & $ 9 z.nXVXjX>.d R #X~.!.I U [ [ R R ^ ~ P U { X.+.] h p z.kX",
"bXx.>.9 9 :.f.f.-.4 + $ y K I I A s z.kXkXc.9.D #X=X^.^.~.!.I K L Y ..O.$.] J K K L ~.$X~.R U U [ [ ^ #X%.4XaXaX%XK & + 3 :.z.jXz.5.i.~.,XqX(.~.R R +.O.T D D C q.g.jXkXbXbXbXbXkXz.>.9 9 e h < = & 4 >.jXVXnXx.7.A R !.I I L U [ [ Y R ~ ~ I I ~.#X+.` , 0 z.kX",
"CXnXkXjXx.jXbXkXz.<.3 $ $ & y y & 9 z.bXbXc.9.J +.+.~.H.I P P P P.#X$X*XO.] _ G h j R P.P.Y ) ) J T ! %XhXhXhX&.T M & 3 <.z.jXx.r.F.P.#X&X(.^.R P P R ^ ! ! ! I C 8.g.jXbXnXVXVXVXnXjXz.g.2.e % % 3 2.z.bXVXbXc.G.R !.!.I K P K K K P I I I I P.#X#X#XT = 9 g.kX",
"AXZXZXCXVXVXVXnXkXg.-.4 4 9 9 i 9 2.kXVXbXz.s Z O.+.X.I T T P T #X*X&X#X[ _ _ ( h h U R { { [ [ T R ! %XhXhX4XO.Z y e :.z.kXkXc.G.R ~.#X#X~.~.R K A P R ! !.~.! I C q.j.v.xXnXVXCXCXCXVXbXx.;.9 9 >.x.bXVXbXx.m.J.~.~.R U K D A u d P I !.~.^ { X.{ I A & 9 z.bX",
"AXAXZXCXVXnXnXbXjXx.f.1.f.g.g.z.z.kXVXCXVXz.9 y R #X[ ` O.O.T T +.2X#XI Z n ( ( ( G P T +.&.-X*X+.+.^ X.%.&.;X~.y 4 ;.g.bXnXjXj.T.(.!.^ ..+.#X!.K A J [ T R ~.~.!.H.F.9.9.q.x.bXnXVXCXCXCXnXkXjXjXkXnXCXVXxX5.9.H.!.!.R J F H M u V H.^.&X$X+.| | ) h & $ 9 z.nX",
"AXZXZXVXxXv.v.b.l.l.h.g.x.jXkXbXnXVXCXCXVXjX;.a I ^ ` ' #.O.^ ^ +.+.^ I Z n G ` ` [ I ~ %.=.2X-X*.%.#X~.[ ..$XI y 4 f.kXnXbXz.r.).(.!.R [ [ ~.H.P A F G D P R ~.^.~.! P D C r.c.v.xXnXCXCXCXCXCXCXZXZXZXVXjX8.K T ^ !.R ` ( H B V L ~.=X;X*X+.] ( < % + 3 >.jXVX",
"VXVXVXxXw.0.U.E..XY v 8.z.jXkXkXbXbXVXVXVXbXz.5.F.T ) ' ' | =X&X^ T R R ` ` T R ^ ^ I ^ %.*.%.$.$.+.&X(.~.^ R K & 9 g.bXnXxXq.L !.~.!.R T T I P S S Z Z A A K I ~.^.!.R I I F.0.0.q.x.bXnXCXCXZXAXAXAXZXVXzX0.K [ [ ^ ^ O.O.J P I ~.+.*X*X#XY G F < % 3 <.x.nXZX",
"zXzXvXV.F.J ~ X...] D C m.b.n.n.v.v.v.xXnXnXkXj.0.P J ) ) [ =X;X! P R T ` [ X.^ ^ ^ I Q O.O.O.O.O.+.&X'.(.!.K y $ 9 z.bXnXx.s A !.^.P.I I I U K S N M M M A K P ! ~.~.!.R R I D A f m.b.v.xXVXZXAXAXSXAXVXzXa.[ | +.X.X.+.+.R I ^.&X+.O.{ I K h > : 5 :.z.bXCXZX",
"U.Y.R.:X*XO.] ` J T I H.W.Q.Q.Q.R.Y.G.y.v.kXjXj.0.P R R Y } +.+.! R [ ) k F O.+.| J D S T T ^ X.o.o.&X,X,X~.u $ % 9 z.nXnXx.9 Z ^.'.H.I P.P.I D S N M u K K I R [ [ ~.~.[ ` P P K L E.T.a.r.jXVXZXAXAXAXVXcX.X+.*X*X+.&.-X%X! !.(.&X^ T A y r $ X + ;.z.bXVXVXVX",
"~./.&X;X-X%.] J P P I ! ~.&X#X#X~.~.! F.5.g.z.j.9.P R !.~.XX[ [ { T ` F = h ] $.] G D D D T ^ X.%X%X(.(.(.R y + 3 >.jXVXVXjX;.a P.~.I Y P.~.I D B M u d K L P.R ` [ R ! J F A K K I $X/.I f m.jXnXZXAXZXVXn..XO.*X%X2X2X%X#XR I !.! P m = & 4 4 2 -.z.bXnXnXxXx.",
"qXqXqX&X#X^ R T P P K P ! ~.P.P.~.~.!.I a 8 1.3.f A P ! ~.$X~.{ ..[ T A = b ( ] U P ! ! ` _ | +.&XqX^.!.! K & 4 <.x.nXZXZXnXx.2.a Z ` [ T I I P M u V K A K I R U K K D H Z M A J [ ~.~.! P C q.jXVXZXZXVXv.s F O.2X%X*X..[ K V Z h = & $ 3 ;.f.z.jXbXnXbXx.5.6.",
"qXqX,X(.~.R R R R I K K P I Y R ~.~.~.I y 6 <.1.a m A I ~.~.R T [ ` T D b b F ) U I ~.~.[ ] ] +.&X,X~.R P M & 9 g.bXCXAXAXCXnXz.-.t F ` J P P V u d K K A A P I L K A A S D M A ( ` ~.~.H.I P f 3.jXVXCXCXjX;.t ` O.^ R G k y t i 9 9 9 9 >.z.kXnXVXVXbXv.r.9.V ",
"! ~.^.(.~.{ [ [ #X~.I K d K J [ R ~.^.!.A a 1.<.6 = A K P P J G G A P D N N D T [ [ ~.~.#X*XO.O.#X#X..[ D m & 9 z.VXZXAXAXAXZXnXz.2.t , F J A u M M K P M M V V K K A A P I P A ( ) R H.I I R L d 4.xXVXCXnXx.2.g h A A , % $ 6 2.g.g.z.z.jXbXnXVXnXbXv.y.G.H.!.",
"I R ~.#X#X#X] | *X$XR K V K G ` R ~.(.~.P f 3.1.8 e u A A A G G Z A P D S B P T [ +.#X^.^.#X{ [ R ^ [ ` Z y e >.jXCXZXAXAXZXZXCXbXz.-.e k F A V Z A P I P K A K P I A K Y Y T J ` [ R I L I P.R h i z.VXZXCXnXx.;.9 s s 9 9 9 >.x.bXbXnXnXVXVXnXxXcXb.M.J.~.(.'.",
"~.X.+...~.#XO.$.%.+.T P I I A K !.(.;X#XP f 3.f.1.-.e y j U Y T ) J P P A M P P R #X(.(.~.R I U L I U A = e <.z.bXVXVXVXVXVXVXVXVXbXz.2.t h K U k F T !.! R [ [ ^ I P T [ | ` [ X.#X!.I P I ~.^ F z c.nXZXAXCXnXjXz.z.z.g.z.z.jXnXCXCXCXVXnXbXv.B.Y.Q._.&X,XwXdX",
"#X..| ..~.~...| %.+.T P I I K P ^ =X1X=XT f >.1.g.1.8 t x L I T ` J D D M A P I R P.(.'.^.P.I K K K j u t :.z.bXnXnXxXv.cXn.v.xXbXnXbXz.-.t L T F G R ~.!.^ [ ..^ ! T T [ | ` [ #X^.~.R T R ~.! F z g.nXZXAXAXZXCXVXbXbXbXbXVXCXZXZXCXVXmXcXn.B.J./.&X;X;X1XwXdX",
"` ` T ! (.(.T T X.^ P M A K K T +.2XaXeX~.L f 6.1.f.1.>.f K J ) J D A M N S ! R L I ^.'.'.&X[ G h y & t <.z.bXnXbXx.q.i.K.K.s >.x.bXnXbXg.4.L I P R ~.~.! I T T ! ^ [ [ { R U U L I !.^ [ ..~.! h i g.bXCXAXAXAXZXCXnXnXnXVXCXZXZXCXnXzX].R.Q.`.'.,X(.(.$X$X&X,X",
"( G D I ~.~.P K R R K Z G J T ..O.2XaXrX,XP.P d >.1.f.3.9.K J J T I T Z Z D R P.I I ~.'.qX=X[ k , & 4 -.z.bXnXbXx.r.L J ] ` Z a 5.x.bXnXjXf.f A T ! ~.~.I P P P P T [ [ R P.I L L L P.^ [ ..~.!.K f 2.x.nXZXAXAXZXVXxXxXzXxXVXCXCXnXx.m.W.&X&X&X,X'.^.!.~.#X#X*X",
"Z Z A K I I A K R ^ J _ O.%.%.+.X.#XeXtXdX<XI d e 8 1.1.s K T ^ !.~.+.[ A V I R [ { &X&X-X+.F = $ 4 <.z.bXnXbXv.t.L [ O.[ T P K f e.x.kXjXf.i , F [ ! !.I P V M B D T U L R ~.~.P.R P.R T T P.~.~.H.a >.jXCXZXZXVXzXZ.Y.0.r.xXnXnXjXq.F.$X=X&X~.!.! I P P T +.*.",
"M M M A D D M K !.^ J ] *.=.%...R ~.qXrXwX'.L y $ 4 <.1.s V I ~.^.&X@.O.G K { *X+.+.;X;X%.' h & 4 :.z.bXVXnXx.r.F.X.+.+.R I I I A f 2.g.x.g.8 r k F T I !.I K A S D U L K I ~.~.R I Y R T R !.^.&X^ = 9 z.VXCXVXxXM.OXX.T C 3.z.x.j.9.P %X;X~.I I I T T A J +.&.",
"K K B N N N M K !.!.T ..4X=.[ D P ! (.'.!.K y $ $ 4 <.1.s V I ~.^.^.#XX.G ` &.uX2X3XiX4X] ( : 4 <.z.bXVXVXxXr.F.#X%X%X#XP.I I K V t a :.g.z.1.-.r : Z P ! ^ [ [ T I R I P P I I K U [ O.%.+.#X~.+.` : 9 z.bXVXmX].I.X.O.^ I a -.f.h.9.I (.(.I K I ^ +.O.] [ *X%X",
"U T D S D D J T ~.(.~.#XuXuXX.P P I ^.~.K y $ + 3 -.f.1.p M !.&X&X~.!.R G ` &.iX;X=X2X%.( h 6 :.z.nXVXCXnXv.0.I #X;X$X#X{ Y Y L K j h t 4.f.g.1.-.9 s L I X.O.O.X.R I I P P P P A A [ O.%.-X#X#XO.( : 9 g.bXbXcXY.^ O.O.X.T y 4 <.3.i.H.^.~.I U I X.+.%.+.X.~.~.",
"| [ T ! #X*XO.+.&X'.wXrXhXhX-X#XR R I U u & $ 3 <.z.x.g.9 h %XeX-X+.R P A J X.$X~.~.^ J , 6 2.z.nXCXZXCXbXc.0.I ~.#X+.O.| [ R R } ` ( F v 8.f.z.z.g.f.q.Y ] X.X.O.[ K K K L I I P P R ^ X.#XP.{ | _ , 9 g.kXbXv.0.D  . .[ G , 6 <.h.G.~.I I P.{ [ [ X.$X=X/.! I ",
"O...~.^.;X=X+.+.&X,XwXrXiXiXeX;XP.U K u = $ 3 :.z.bXnXx.:.d ~.;X&.%.T P A T ^ ~.!.I P m & 4 g.bXCXZXCXnXv.m.F.! ^.^...O.O.[ R R [ ] ' ` D f 4.g.jXkXjXc.s.Y R ^ [ ` A V K U I T I I I P.P.R R X.O.] h p z.kXbXc.f A ~ ~ ` F = 6 <.h.T.~.I L P.{ [ [ #X$X(.(.^ T ",
"#X~.(.(.(.~.^ ! !.~.*X-X;XeXwX,XI Z r $ X o ;.z.nXCXCXnXz.5.9.Y %.%.^ R [ | O.+.~.I M = $ 9 z.VXCXCXnXv.y.L.$X=X(.(.~.~.^ R I I T J _ _ T K t -.g.kXnXbXz.r.L D T T U K K P ` ` P I R R L I X.o.o. .F z c.bXnXx.p Z ! !.U y & 6 <.h.T.^.P.I I R R ^ ~.^.~.~.+.%.",
"^.(.'.'.(.~.I P I R [ [ ~.'.'.^.K = $ O o 8 z.nXCXAXAXCXbXc.7.F [ O.^ R [ | %.+.X.T y r 4 >.jXCXCXnXx.r.J.#X;X;X&X(.^.!.! I P P P T J J T P y t 2.x.bXnXbXx.e.f M A A K P T [ ` T T R Y L I ^ o.o...F z g.bXnXxX,.x R R K y $ 4 <.h.G.!.P.R P I ! ~.^.~.!.^ @.&.",
"~.^.(.(.,X^.I P P P K U P.!.I V r $ # 3 ;.z.bXCXZXAXAXZXVXn.p.F J T R R I Y X.X.[ G h t 2.x.nXCXCXxXy.F.~.%XyX2X#X!.I I I P A P !.!.T P A K P K f q.x.bXnXbXx.2.t = , F R ~.R T [ | | [ R I ! ~./.! h q g.bXVXbXl.u.Y J A y & 4 <.3.9.P I I L L P.!.!.!.H.!.#X%X",
"! R I R ! R K Z Z y y u K K f p 9 9 9 >.z.bXVXCXZXAXAXZXVXzXs.l h M P I U U I I G n : q g.bXCXCXnXv.U.^ /.&X2X&.^ I I I I P P I !.!.I P A K I I P C w.x.bXnXbXz.:.5 : h R ~.! ^ [ | | ..^ ! ! ! ~.R = 9 g.bXVXbXb.s.Y J Z y e 8 1.1.f A T R U Y P.~.^ X.X.#X^.(.",
"P A y y y y = & % % $ $ & i 2.g.g.z.z.jXbXVXVXVXVXVXVXCXVXnXv.4.e & u A G G K d h : @ 6 z.nXCXVXbXC.8XeX&X~.^ ^ ! I I I I ! !.!.I I P P P P P I ! I C q.x.bXnXbXz.;.5 = K R ~ ~ T T R R ! ! ~ o.O.` : 9 g.bXnXxXy.F.R T y 4 ;.f.z.f.7.A [ | ` [ ~.#X@.&.&.2X=X;X",
"m u e 4 9 9 9 4 2 2 4 9 9 >.z.bXnXnXVXVXVXnXxXcXNXcXx.jXnXnXbXz.>.0 p s k < y r & & 5 -.jXVXVXbXx.B.<XrX&X!.T T I I !.P.I H.~.!.L K P P P P P I R R P C w.x.bXnXbXz.:.e u A ~ ~ I I ^ ~.R R Q ..] ( & 9 z.bXnXzX7.A P K = 6 f.jXkXg.p j ) ] ' [ ~.&X2X4X4X2X*X$X",
"= t 2.g.g.g.g.g.g.g.g.z.z.jXbXVXZXZXZXCXbXv.y.U.}.Q.7.;.x.nXnXbXjXz.z.2.t % $ $ $ 3 ;.z.bXVXnXjXt.F.(.(.! T O.O.T I ! P.I L I I P K K K J ` I Y [ [ ^ H.C e.x.bXnXbXz.<.6 y P ! ! ^ +.+.I I R R T Z % 9 z.nXnXx.p = y h > z z.bXnXz.0 & j G ] O.~.&X=X3X3X=XP.R ",
"p >.x.bXnXnXnXnXnXbXbXbXnXnXVXCXZXZXZXnXz.2.F.^ qX%XZ e 3.jXnXVXVXnXbXx.>.9 9 9 9 >.z.bXnXnXjXm.F.~ ~.~.! ^ +.+...! !.!.I K K K P P K K G ` } } ` [ ~.!.T v r.x.bXnXbXz.:.t V I ^ *X@.+.Y I I P M y e >.jXVXVXjX>.3 & = g u.xXVXVXjX>.e t A ) [ ~.^.$X$X$XX.K j ",
"x.xXnXCXZXZXZXZXCXCXnXnXbXbXbXnXVXVXnXx.:.a I ~.~.! P M f q.jXnXVXCXCXnXjXx.x.x.x.jXbXnXnXjXq.L +.@.#X~.^.#X#XX.+.+.#X~.H.I K K I I K A D J ` ` J T ! ^ [ [ v q.x.bXnXbXz.2.t h O.2X;X&X!.I I A y 6 <.x.nXZXZXnXx.<.3 5 2.v.nXZXZXnXx.2.f m h A R !.L K P A , : ",
"VXCXZXAXAXAXAXAXZXVXMXNXcXv.v.v.x.x.jXg.9 h ^ #X!.! ! I D f m.x.bXVXCXCXCXVXVXVXVXVXVXnXjXm.F.T +.@.X.!.#X#X~.X.%.%.#X~.!.I P K P P K M P P J ` P P I R [ ` D f w.x.bXnXbXz.-.t ) O.~.~.! P A y $ 4 g.bXCXZXZXVXbXz.:.:.g.bXVXCXCXVXbXz.8.d & = P P u t a s a 6 ",
"AXAXAXAXAXZXZXCXnXvX7X8X}.R.Y.G.7.>.f.1.a Z +.-X#X~.^.~.I K f e.x.bXVXCXCXZXZXZXZXCXnXjXr.F.#X%X%X~.! T [ [ R ^ O.O.^ !.H.I I P V V K K A K T R I P I I P D P P f e.x.bXnXbXz.2.t h A P P Z y $ X 2 z.VXZXZXCXnXbXjXz.z.jXkXbXbXbXbXkXjXg.>.o % Z Z % 3 2.g.g.g.",
"SXSXSXAXZXVXmXzXcXA.6XpXqX(.I A = 4 <.3.f T +.-X#X~.^.~.T J J L r.g.z.kXVXZXAXAXZXVXjXm.G.~.$X;X^.!.I T ` [ R R [ [ X.^ !.!.I I V d K K A K T T T T R I K K I ! P f 2.z.bXnXbXz.:.e y y y y 4 4 1 -.x.VXVXVXmXcXn.n.jXjXx.c.v.v.v.v.c.x.x.f.8 4 s s 6 -.z.bXnXnX",
"SXSXSXZXVXjXw.G.8X8X5X2X%X! A = X o <.3.9.I ~.#X!.! ! T ` _ ] [ v s 9 2.kXZXAXAXCXxXr.F.^.,X$X~.!.!.P.R R ^ R I T T O.+.#X~.I K K K K K K P J ` _ ` R I A K !.~.!.I d >.z.bXnXbXz.<.e % % e ;.f.g.z.kXbXbXcX[.>XOX.Xk.f.8.0.Y.R.Y.G.0.q.g.z.g.g.z.z.z.jXnXCXZXZX",
"AXAXAXVXxXm.S.^ eXpX2X+.X.T h $ o 7 1.h.9.P ~.~.! I T T ` ] | [ D m % 9 jXCXAXZXVXv.0.! &X,X~.R I I P.~.~.~.I I I T +.+.~.!.I K P P K U T T ` ` _ ` R I P P H.~.~.I A d 5.x.bXnXbXz.>.9 9 >.z.jXkXjXz.g.c.Z.:X;X&.XXa.8.f K !.~.^ T U f 2.g.jXkXbXbXVXCXZXAXAXSX",
"SXAXCXxXr.F.^.,X,X&X#XX.+.| , 3 ;.g.z.h.9.A [ ..T T O.O. ...{ R P M & 9 x.VXZXCXbXb.U.#X-X+.R I I I I !.^.~.I L I R #X~.! I I I P P J ` ] [ T T T T ! !.R I I I I ! R L f 4.x.bXnXbXjXx.x.jXbXnXkXz.-.s L.:X$X&X&X~.I L I I !.^ ..[ U K f 8.z.kXbXVXCXZXAXAXSXSX",
"AXZXVXv.0.! '.wX(.~.~.^ O.` t :.z.kXkXj.9.A [ ..T [ O.O.o.~ R I P M & 9 x.VXCXnXx.w.T.%X@.+.R I I I R ^ ^.~.R Y R P.^.~.! I I I I T ` ' | [ R I I I !.~.#XR L L I I ~.! K f 2.z.bXVXCXVXVXVXVXbXcXr.d Z #X;X=X~.~.!.I T R R R R [ ` K K G L r.c.cXxXVXZXAXAXAXAX",
"AXCXbXb.U.~.'.'.^.~.(.~.G x >.g.bXnXbXz.9.P ^ *X+.O.[ ^ X.~.I K K m % 9 x.VXVXjX>.d H.(.&X#X!.! !.^ ....~.#X+.+.{ P.~.~.~.!.I I I T _ _ } R R R I !.~.~.+.[ R I L I ~.~.I u 5 -.jXCXZXAXZXCXbXv.[._.#X#X$X=X-X+.^ I R R [ [ T P D A d K [ +.I.U.U.B.zXVXZXAXAXAX",
"ZXnXx.r.T.(.'.(.~.~.(.~.u 9 f.kXnXVXbXc.0.R ~.%X@.+.T T ^ P.Y K Z y e >.jXVXnXv.9.T ~.&X^.~.!.!.!.^ ....~.#X-X+.R R R !.!.H.L L I I [ [ I R R R I I !.~.[ [ { R I I ~.~.I m @ 2 z.VXZXAXCXnXn.Z._.&X&X;X^.~.+.O.T P R { | ..T P M u u K O.%.X.! ! J.N.zXnXZXAXAX",
"VXjX4.f ^.'.(.^.!.~.(.!.y 9 g.bXVXnXjXj.U.#X+.@.%X*XO.[ T T [ ` h t >.g.bXVXbXn.+X;XeX1X#XP.I I I ! ^ ^ !.~.#X#XR P I P K V K L L I I I L L I I K V P I U T [ [ R H.^.~.P y $ 4 z.nXCXCXbXn. XOX$X(.^.~.!.! T T P P R P.^ ^ ! P V u V T | | T I I H.J.B.zXVXZXZX",
"nXx.p A ~.,X&X#X~.P.~.I = 9 z.nXVXbXz.r.T.&X@.+.#XX.[ [ P P ` ( : 6 f.kXnXnXx.M.>XeXeX=XP.R K K I I I R R ^ ~.!.I I I P K K L L K K I I K L I I V V P P I I [ [ R !.~.!.P m & 9 g.bXnXbXv.Z.OX@.#X~.~.^ R I P P D T I P.! ! I I K K P T ..[ T L I R R J.k.x.nXCX",
"bXc.9.D ^.qXyX2X#XP.I K & 9 z.nXVXxXq.C ^.'.&X#X[ [ T P K K j : X 2 z.nXVXxXq.F.~.&X~.! R L d V P I I R [ [ T I I I R R R R R I P P P P P P R I P K P I !.~.R R P I !.!.I K & 9 g.kXkXv.[._.$X#X~.R [ [ R I K Z G ` R I I I I I I I I ! ^ ^ R I R P.!.I a ;.jXVX",
"bXc.9.P %X0X2X&.*XX.U j e >.jXVXnXv.G.! (.'.(.~.| ] T I I U y $ o 8 jXVXnXv.0.I ! !.I P I I K V P I ^ ..O.O.T I I P.P.P.P.R ^ ^ T T P P I ! R R P P I I !.~.P.R I I I H.I K & 4 f.x.g.m._.&X&X~.R Y [ [ } T K P ` [ ^ I P P I I !.!.I I R !.!.!.P.~.#XT = 9 z.nX",
"nXv.9.J &.2XX.X.@.O.( g >.z.bXnXkXb.>XeXqX(.~.^ %.%.X.^ +.| , 3 -.g.bXVXbXb.T.~.! I R R I P I I I ^ +.&.$.+.#X~.P.R L I I R [ ` ] [ T I ~.^.!.I P I !.~.I I P.~.~.~.!.I I K & 4 1.f.:.f !.&X-X+.R P T T ` [ R ! ^ ~.~.~.I L I !.!.I P K L I !.~.~.~.+.` , p z.bX",
"VXxXe.L &.&.X...%.#.n z f.jXnXbXz.y.<XrXqX(.~.X.+.@.#X#X&.] , 4 f.kXnXbXz.r.+X*XR P R P.I I I I I ^ %.*.*.+.~.~.R Y L I I R J ` | [ T ! ^.^.! P P I ~.~.I I P.~.~.~.!.I K y $ 4 <.<.i Z !.&X+.O.T P P T ` [ ^ !.!.!.~.~.L L P.!.! P A M K I P.~.^.#X..` h p z.kX",
"VXbXf.8.P.*X2X&.$.( > q g.kXbXx.8.L ^.,X'.&X+.+.X.~.^.#X+.' : 9 g.bXnXxX>.x +.+.I L I !.~.!.P P I ^ O.$.X.#XR T [ [ R I I P K U R ^ R R ! I P K P I ! !.!.!.!.!.P.!.~.I u $ $ 4 <.1.a A ~.&X#XR U K I R ^ ^ I I I I H.I L L I ! I P A M K P I !.~.#X^ T h p z.kX",
"VXbXf.6.J.%X2X&.` < % 9 g.kXkXc.9.P !.~.~.X.+.O.R I !.~...) : 9 g.bXnXv.9.G O.+.Y I R ~.^.~.P K I ^ O.+.#X~.I T [ [ R I P P K L I I P.I P A A A P P I !.!.!.!.!.P.P.P.K & + 3 -.f.3.f P ~.^.P.I L I R R R I P P K I H.I K K I I I P A D I I R R P.P.!.P y 0 z.kX",
"VXjX>.d ~.(.X.T Z = $ 9 g.kXjXk.G.! !.R T ` T T P K K P R U = 9 g.bXbXv.U.! ^ R R R +.-X&X~.I P ! ~.#X#X^.~.!.R ^ R I L P I I I L L L K K A D P K I R !.!.!.!.!.~.~.L u $ 3 <.g.x.f.f P P.P.I L I R [ [ K V M K I H.~.!.K A P I I Y [ [ ~.~...[ Y R !.P y 9 g.kX",
"nXx.p Z !.~.I M r & 3 :.z.jXg.r.J.~.^ T F F D P K A G T ! P = 9 g.kXkXv.R.~.!.H.P.{ %.&.#X~.I P ^ #X#X~.^.~.!.I I P L I P I I I I L L K K A P P L I ^ #X!.~.~.^.(.!.V t 4 :.z.kXjXj.9.D T Y I I I R ..[ K u M K I !.~.!.P P P I Y { | +.~.~.[ [ I R ^ T = 9 g.kX",
"bXv.7.K I I P m & 3 ;.g.jXx.4.9.H.~...] H S D P I R O.+.#XI r 9 z.bXkXv.Y.!.!.!.P.R O.O.#X!.I U [ +.#X~.!.!.!.I V V I I ! ! I I I I I I P P K L I ^ +.@.&X'.(.(.(.!.M t >.g.bXnXjXh.9.D ` [ R I I R ^ R U K K P P I P.P.R I I R ` [ X.~.~.P.I I P.~...` , 0 z.kX",
"kXv.a.I P P P M & 6 f.jXkXz.7.K ! #X+.] H H T T R { %.&.%XR y 4 g.kXkXc.0.R X.#X! R [ [ ^ I I Y [ [ R P.H.H.!.I K K I !.#XX.R I I I I I P P I I I ~.+.2X;XqX,X(.~.K = 6 f.kXnXbXz.q.F.T ` ) I I I I ~.~.I I P I T T R P.P.P.I P [ [ ! ! R I K L H.~..._ h p c.kX",
"kXv.Y.!.! I I K y 9 g.kXkXz.7.A [ O.{ { ] ] O.O.T T O.$.&.O., 4 1.x.jXg.6.U +.+.~ I R R I I R R U U R P.I !.~.~.T J R ^ +.+.^ I I P K K P I I R I R %X;XyXyX&X~.M & X 4 z.nXVXxXq.C ~.~.I U L P I !.(.(.~.R I R [ [ R R I L V K I R I I I P V d K P R T k z c.kX",
"kXv.R.~.^ R I K y i z.bXkXz.6.K [ | { { [ O.O.O.T T ` O.%.O.k e :.f.z.f.7.A O.+.~ I I I I I R R L L H.!.!.~.~.^ ] ` R ~.-X&.X.R I P K K I ! !.R L I ^.&XyX2X$XI r O o -.jXVXnXv.0.T %X&XR L U T R ~.&X;X~.!.! R [ [ Y L K K d K I R I P P P V V K P I U < z c.kX",
"kXv.R.#X..[ K u & 9 z.bXkXc.0.U ^ X.[ [ X.^ T T I T ) ` X.~.P u t 0 1.1.f A ^ #X! I I I I R I L R P.~.^.^.~.! T ] | R ~.&X%X+.[ R I I R !.~.!.I L I ^.(.=X#XP.K & 3 ;.z.nXCXnXv.Y.#X-X-X^ I [ [ ^ ~.@.-X%X~.I I R R Y K K K L Y [ [ T P I I K P H.! [ F : q z.kX",
"kXv.R.#X+.[ K y $ 9 g.kXkXc.0.I ^.^.[ [ ~.!.P P R { ` [ #X#X^ D y i <.3.f P !.^.#XX.! ! !.!.I L L R ~.^.~.!.T J ] [ T !.(.&X+.| R R R P.~.~.!.I L I ~.^.~.I K u t :.z.nXCXCXbXv.R.%X2X+.R R [ O.X.X.+.+.#X!.I I I R I K A A P Y [ [ T I R R I R ~.X.` F = 0 z.kX",
"kXv.Y.~.~.~.P M $ 4 1.x.jXg.6.L '.'.~.R P.P.I R +.+.{ { +.%.O.` Z p 1.3.f ! (.qX3X2X#X~.^.^.H.I K K I !.! T J ` T P K P ~.(.#X^ ! I L L I I I I P I !.!.I M y 6 <.z.nXCXAXZXnXv.R.(.&X~.P P R X.+.+.} I R R I P I I I I A M A P R R R R R R R R ..[ G Z y 7.z.kX",
"bXv.U.! ~.~.I D h t :.1.z.g.6.I '.,X~.R I I R ^ +.+.{ #X2X&.O.` j p 1.3.S.! '.rXyX2X#X~.~.~.! I V K I R P P ` ` P P P P !.~.!.! I I L K P I R R I I I I A y e -.z.nXCXAXAXZXnXv.R.^.~.I P P I ~.+.| I L R R I P T T R T K M M K I H.R R I I P.R | [ T A M 6.z.kX",
"nXv.0.J [ ..R R [ ) g 8 1.h.D.!.'.&X+.[ A K R R T T R ~.=X%X^ A y 6 <.3.S.! (.,X%X^ P P I I I P I I [ [ U U I Y I I I R I I I P K K K L I ^ ..[ T P P A y t 2.z.nXZXAXAXSXZXVXcX}.^.I V P I ! R I I I I !.!.R Y [ ] ` J K K K P ! !.I I I I I R XX#X^ I A 9.c.kX",
"VXxXq.K [ O.X.X.%.' ; 3 <.3.9.I ^.#XO.] G K I P A J R #X&X^.P y & 4 <.3.S.Q ~.^.~.I P P I I I I ! ^ ..[ T L R R R ^ ~.!.I P P D A K U Y ^ X.O.[ T A m y t >.z.bXCXZXAXAXAXZXVXcXQ.#XT K I I I I I I I !.!.R Y } | | ` [ U I I R ^ ^ I P I I I I P.#X~.I A s z.kX",
"VXbXf.8.L X.+.%.O.( - 1 <.1.a A R { ` ` T I K A ` ] | +.$X!.u $ $ 4 <.3.S.P P I !.~.~.!.!.! I I !.!.^ R R I I R [ [ R P.R T G G P R [ | | O.X.R Z y & e 2.z.bXVXVXVXCXZXZXZXVXcXL.] O.[ I I I H.P.!.!.!.I T ` [ X.X.R Y R P.!.^ +.+.T P R R I R P.P.!.P y 9 z.kX",
"VXbXf.>.F.^ +.O.` < X o <.<.6 y U Y [ [ I P A G [ O.O.+.#XT = O 3 0 f.h.f Z m A !.^.(.^.~.^ I I !.!.!.I I I I R ..| { { P.Y ) J R R [ ] ] [ ^ P y $ 3 :.z.bXVXnXvXcXvXmXVXVXVXzXs.} | [ U L I I !.~.~.!.! T J [ ^ !.P.P.P.R ^ X.+.+.[ T R P.!.R Y Y P A & 9 z.bX",
"VXjX>.d I R T J A , X o <.<.6 y U R R I K A G ` { #X#XX.[ F % o -.g.x.g.i & = Z I ^.^.~...[ P P ! !.!.I P P I R ^ X.+.+.#X!.R R I P D J T T P m % o ;.z.bXVXVXvX XOXW.B.zXbXVXbXc.4.v K K K P I !.~.^.^.~.!.U U R ~.~.!.I T [ +.*X*X....~.~.!.R [ G h & $ 9 x.nX",
"nXx.p = A U M y y y 3 7 1.1.4 & K R R P A Z ) ] X.#X!.R G < X 1 f.kXbXx.>.3 & y K R ~.#XO.[ G P ! ~.!.R T P R I I R +.@.#X!.I I I P M M K A m r 5 8 z.bXVXVXMXA.1X&.o.F.m.v.nXnXjXf.p u K I T T ! ~.^.^.^.~.I Y ~.~.~.! I T [ ..~.~.....~.~.I T G < % O 3 >.jXVX",
"nXx.9 $ & & & & & 4 <.g.x.f.4 & Z K K A M Z ` ] O.[ T A h % X 4 z.nXVXnXx.<.4 & y Z [ +.X.{ ` ` ~.^.~.^ [ [ ^ I P P ^ #X!.I I I I P V u M M = 4 ;.z.bXVXVXMX7X6XrX;X..[ F.B.xXnXbXg.p y P R [ [ R ~.^.^.~.^ +.+.&X(.~.I I R ^ ~.^.~.R T R R P Z h % X o ;.x.nXZX",
"VXjX>.4 4 4 4 4 4 -.z.kXbXx.>.e y y y y M A | $.] ` Z r $ + 3 >.jXCXZXCXnXz.:.4 & , ` [ ^ R [ [ ~.^.^.#X[ [ ^ ! I I ~.~.^ R U U R I V u y y e :.z.bXVXnXmXA.6XhXeX#X` F J 0.zXnXbXz.q y K R ....^ !.~.~.!.^ +.-X;X&X#X^ !.!.!.~.~.! I P T U Z r $ O o 8 z.bXCXZX",
"VXbXz.1.<.<.<.<.<.f.x.bXnXbXz.<.e & & & y J O.$.J Z y $ # 3 <.x.nXZXAXZXCXbXz.<.4 = Z T I L U T !.^.(.^.I T R !.^.(.'.&X..| ` [ R I V u & e 2.z.bXVXVXxX].:X2X=.+.` < > ; p x.nXnXz.9 & u L ~.~.!.I I I P.~.&X=X+.+.%.@.#X^.P.R P A G G A Z = $ # 3 ;.z.bXVXVXVX",
"VXbXz.k.N.N.m.k.5.k.g.x.bXnXbXz.:.3 + & Z J O.[ G y $ O 3 :.z.nXCXZXAXZXCXnXkXg.-.e u A K K K K I ~.(.(.H.I I ^ %X&X&X%X.._ ( G P K u t 4 :.z.nXCXCXVXxXY.^ +.O.( k g 6 9 2.kXVXVXjX>.4 r u P H.!.H.I I R ~.^.#XO.#.%.+.#X!.I K A Z k k v s 9 9 9 :.z.kXnXbXxXv.",
"kXv.q.J.<X8X`.W.OX} v >.z.bXnXbXz.;.3 & ( [ J G F > X o ;.z.nXCXZXZXZXCXnXbXkXjXg.>.e = M A A K P ! ~.~.!.R [ [ O.+.+...T Z , = y y & 4 <.z.nXCXAXZXVXv.9.Z J Z , t 2.g.z.kXCXZXZXnXx.<.4 & & M H.^.~.R I I I I ` ` } I I P y y m m = t 2.g.g.g.g.z.jXkXjXz.q.9.",
"c.m.F./.tXfXeX;X&.O.Z a 2.z.bXnXbXz.:.t G ) Z y , : + 8 z.nXCXZXCXVXmXxXv.v.n.v.x.g.-.e y y y m M A P I I R G ( ( _ _ ) Z r # O $ & 3 :.z.bXCXZXZXCXnXx.>.t a a 6 8 g.kXnXVXZXAXAXCXnXx.>.9 4 i L I I P K A j j F F j M A u e 9 s f 9 >.x.bXbXbXkXjXz.g.l.y.L J ",
"R.T.^.'.wXrXyX2X+.^ I K t :.z.bXnXbXg.>.t , y = % 5 ;.z.bXCXZXCXnXzXB.Y.Y.T.W.Z.v.jXg.<.e % & & & & & y d M m = : , h h & # .     o ;.z.bXVXVXVXnXbXkXx.f.<.<.<.<.1.z.kXnXVXZXAXAXAXCXnXjXz.g.2.i = = h , , = & & & & & & e >.f.g.z.x.jXnXCXVXnXkXz.-.s W.>X+.O.",
"#X%X(.'.,X=X+.+.#X~.#XT y 4 <.z.nXnXkXf.4 # $ & 4 :.z.nXCXZXZXnXx.r.I./.~.^ ^ L.v.kXbXx.>.9 9 9 9 9 4 3 r r * * # # & & 3 4 1 1 o 8 g.kXnXnXxXv.n.b.l.l.N.k.h.h.k.k.j.c.v.xXVXZXAXAXAXZXCXVXbXx.>.9 9 6 g g 6 4 4 4 4 4 4 8 g.jXbXnXVXCXZXZXVXbXx.5.v T ;XpX2X&.",
"O.X.(.^...[ J T ~.;X2X+.G y e >.jXVXnXz.9 . X o ;.z.bXCXAXAXCXxXq.F.1XeX~.I A s c.bXVXnXjXz.z.g.g.g.1.-.o X # # # O # 3 -.1.1.1.1.f.x.jXkXx.q.i.OXOXOXOX`.`.T.J.W.W.U.G.0.r.jXVXZXAXAXAXAXZXCXnXjXz.g.f.1.2.<.<.;.;.<.<.<.f.x.bXVXZXZXAXZXCXbXz.8.F.eXfXtXwX,X&X",
"#.O.#X~.[ ` A P !.=XuX&.T M & 9 z.nXVXjX>.4 o 7 g.kXnXCXZXZXVXC.F...0XeX~.K y 9 z.nXZXZXCXVXbXbXkXkXx.1.7 o 3 4 4 3 4 0 f.x.jXv.c.k.l.l.b.M.F.T O.*.&.2X;X&X~.~.=X%X! I P F.m.jXnXZXAXAXAXAXAXZXVXnXkXx.j.h.h.3.3.5.5.5.k.k.j.jXnXCXAXAXCXnXv.r.F./.fXgXwX'.'.'.",
"#.O.#X$X*X#XR I I X.%.&.#XP = 9 z.nXVXbXz.f.<.1.z.jXbXnXVXVXBX{.=X&.%X~.L u & 9 x.VXZXAXZXCXVXbXbXkXjXz.1.<.<.<.;.;.<.f.x.xXNXV.[.E..X.X+X>X'.%XO.| X.*X+.[ ! !.~.~.R ! ~.~.F.y.zXVXZXAXAXAXAXZXVXnXkXv.[.T.J.G.G.I.OXOX+XE.F.q.x.nXCXCXbXv.y.I.$XqXrXqX&X^.(.(.",
"O.| { $X1X1X$XP.I T O.+.%X!.y 9 g.bXVXnXx.j.N.N.b.b.b.n.cXNXV.[.;X2X*XR K y $ 9 z.VXZXZXCXVXMXNXNXC.C.V.N.k.k.5.5.5.3.k.v.C.{.[._.X.+.+.=X,X<X&X[ ] { { [ [ R !.!.! I ! (.(.! F.h.jXnXZXAXAXZXVXxXv.c.M.`.&X^ R X.@.2X2X%X#XP f 2.z.kXbXz.r.L.=XeXrX,X&X(.^.#X#X",
"^ T [ X.dXdX<X^.I U ` | %X~.A s z.bXnXxXq.F.>X8X8X>X.X.X@XQ.U.J.#X-X%.O.K y & 9 g.bXVXVXbXcX7X8X8X8X8X8X`.T.E.L.L.L.J.T.R.}.`.:XX.+.*X=X&X,X(.#X| ] ] [ T R P.P.!.! I !.^.^.~.I d 4.jXCXZXZXVXjXr.0.L.W.,X%XT T O.&.;X&XP.I I K 5 8 g.z.8.F.$XeXrXeX;X&X,X;X+.O.",
"R T ] +.wXdXqX#XY U [ [ *XX.A f c.bXnXv.i.~ 0XaXpX2XO.O.*X#XR R #X*X+.[ Z r $ 4 f.x.x.v.b.Z.>XaXsXsXsXrX0X=X#X$X*X*X~./.&X;X=X*X+.+.#X(.(.(.~.X.O.] _ J R I R R I I I !.^.(.#X^ Z s x.nXCXnXx.3.f P ^ $X$X#XK A [ @.&X(.R I R K % 1 <.h.f T %XpXeX,X$X$X;X;X+.| ",
"` ] $.%.$X&X-X%.| [ X.#X+.] Z p z.bXbXb.K.O.;XeX-XO.} T R ~.~.#X+.%...D y $ # 4 1.f.8.a.W.+X$X=XpXaXqX;X-X@.#X#X+.@.#X%X@.@.#X~.^ ~.!.~.~.~.^.#XO.] J P I I I P K P R ~.^.&X-X+.T 0.c.kXbXx.>.f I ~.~.~.~.R K u T ^ (.&X+.+.^ K & 3 <.3.9.T O.+.$X^.~.^ +.+.X.R ",
"( ' $.+.^ R ..O.O.+.~.~.+.[ Z s z.kXkXb.p.[ %X&X+.[ U I { *X%X%X2X@.T M $ O O 4 <.3.f T =X;X#X#X;X1X&X#X+.+.#X#X+.+.#X~.+.+.^ ! ^ ^ !.R R P.~.~...[ P P A A D P K P !.~.~.*X%.%.X.G.r.c.x.g.p Z !.(.~.!.R I L V P I %X%X%.O.T A & 3 <.3.i.T ` [ I R ^ X.[ [ T R ",
"' _ T T I P D T *X$X~.~.&X~.P 9.c.kXkXc.s G ~.$X#XR P R 2XuX9X9XqX%XI y @ . O 4 <.3.G.(.qX,XX.| #X$X$X#X#X#X^.#XO.O.^ ~.#X#X~.^ ....^ !.P.P.~.~.^ R K Z Z Z Z K P R ~.~...O.] [ R R Y p.h.f.9.P ~.(.~.I P I H.H.P T +.%.] ) Z = X 1 <.k.L.R T Z A T O.O.[ J G ) ",
") ` T T T J Z P ~.~.R R (.(.! 0.c.kXbXz.i y T P.!.! T ..uXuX9X%X(.!.A = X . 3 0 1.h.T.(.,X=XO.[ ~.~.~.#X~.~.~.#X..[ R !.~.~.!.^ O.O.X.!.P.P.!.!.I P P A F F A P Y P.~.#XO.] _ J R T F z 2.1.f U ~.#X#X^ R R ~.~.! ^ %.$.| G h $ o 7 1.k.W.~.I A A G | ..T D J ) ",
"K T O.O.| ` ) J R R ) } &X^.I 9.c.bXnXz.9 & u K I T [ O.*X$X^ I P A r %   o -.f.f.h.T.~...[ T T ~.^.~.~.^.~.+.O.{ ! !.!.!.!.I ~ O.%.#XP.P.P.!.R P P I R I Y R { | { ~.#X| ] J P I P h 6 <.<.i Z P ^ +.+.~.~.....~.%X4X4XX.T = 3 -.1.g.l.}.,X~.T J ) G A A K R R ",
"K T +.%.$.] ' _ T T J [ #X~.D f z.bXVXjX>.4 r y M Z ) ` T K j y y y e 4 2 8 g.z.f.q.J.#X| ` T I !.~.X.~.~.~.[ | X.X.#X#X! I P T O.O.{ P.{ { P.I A D ! ~.P.P.~.X.O.[ R P.....R I ! P & 4 1.f.:.a A J ] O.~.~.[ ..~.&X&.%.X.K = 4 <.g.f.y.>X,X#XT [ ) G Z A K I !.",
") ` { { | ] ' _ ..~ T R +.[ Z p z.bXCXnXx.<.4 $ & & : , = & % @ $ e 2.g.z.x.jXz.>.f P.*X%.O.R R [ [ | ..^ !.R { +.&.%.+.T P A A _ ` U Y +.+.Y K M S ~ ^ ~.!.R R R R R ~.&X&X~.!.!.P & 4 f.x.g.4.c F , h P I D T (.^.G k F h % 4 1.f.6.L X.%.[ ` T T ` G K K L L ",
"' ` Y R ..O.] ] ..^ ! R | _ Z s z.bXCXCXnXx.>.9 9 9 9 9 9 4 2 2 9 >.x.bXVXVXbXc.0.I P.#X+.O.R P G ) ` [ { R P.#X+.&.%.+.[ T A G ` [ U } +.+.Y P D D E ..^ R T T R R I R ^.(.~.R R A y 9 f.jXkXv.s.l & & Z Z y Z I P & $ ; : 6 :.g.f.f J O.O.` J T T ` J U L U U ",
"] | } P.$X#XO.O.X.~.!.R ` _ Z 9.j.bXCXZXCXnXkXjXx.z.z.g.g.g.z.x.jXkXnXCXCXVXbXb.E.$X$X#X^ T P A Z A U T [ ..~.^.#X#X#XX...] ] [ X.X.[ [ [ R R R I T ` ` R R ` ` Y R K P !.!.I U J F Z s f.jXnXbXz.2.3 % ; ; @ X % % $ @ % 6 2.z.jXj.f D R { U U ) ` U U I I ) ) ",
"| [ } R ^.&X....#X^.~.X.| ] T C 2.x.nXZXZXZXZXCXCXVXnXnXnXnXVXCXCXZXZXZXZXVXx.m.W.=X*X#X! P A M M K U } O.+.^ !.! ! !.^ [ | O.X.~.~.[ [ P P ! ! I I ` ` Y T ` ` T I A A P I U U G G A f >.g.bXVXbXx.>.q q 6 2 1 1 2 9 9 9 >.x.bXbXjXq.f L L K G ) ` U L I T ` ` ",
"U U ) [ ~.~.~.#X#X$X@.&.=.%.R d t >.kXZXAXAXAXAXAXZXZXZXZXZXAXAXAXAXAXAXZXmXr.L P.$X+.+.#X! K M K U +.%.%X#XQ D D P I R R { $X#XR L U U A A S D P T ] ] T T ] ] T P A M A A J ) J P I K t :.jXVXCXnXjXz.c.g.g.g.g.g.g.z.x.jXnXCXCXnXx.5.d h h F ' ] T P J G J T ",
"L K ( ) R !.~.~.#X*X&.=.hX4X{ j & 9 jXZXAXSXSXSXSXSXSXSXSXSXSXSXSXSXSXAXZXzX9.D ! #X%.&.%X~.P M K Y %.4X;X/.D N m A I R P.P.&X^.I K K K A M N N K U | ] T T | | T P A M M Z ( ` T I R K & 9 x.VXZXZXVXnXbXkXkXkXkXkXkXbXnXVXZXZXZXCXbXg.i = > / ' | T D ( F D P "
};
