/* XPM */
static const char *rrock04[] = {
/* columns rows colors chars-per-pixel */
"128 128 170 2 ",
"   c #0D0A07",
".  c #0E0C09",
"X  c #160E07",
"o  c #180F07",
"O  c #130E09",
"+  c #171107",
"@  c #181007",
"#  c #161806",
"$  c #1A1A07",
"%  c #16110A",
"&  c #1B1409",
"*  c #151908",
"=  c #1E190C",
"-  c #151412",
";  c #1B1611",
":  c #1D1912",
">  c #1E1C19",
",  c #22160B",
"<  c #29170A",
"1  c #231B0C",
"2  c #2A1C0D",
"3  c #311F0E",
"4  c #231C12",
"5  c #2A1E11",
"6  c #221E1A",
"7  c #311F10",
"8  c #1E240D",
"9  c #1D2213",
"0  c #25210D",
"q  c #2B220F",
"w  c #25290F",
"e  c #2B290F",
"r  c #33210F",
"t  c #262113",
"y  c #2D2412",
"u  c #262A13",
"i  c #2D2A14",
"p  c #25221C",
"a  c #2B251C",
"s  c #252A19",
"d  c #2E291C",
"f  c #332513",
"g  c #392614",
"h  c #342A14",
"j  c #3B2C16",
"k  c #342619",
"l  c #392719",
"z  c #342C1A",
"x  c #3B2D1B",
"c  c #2D331C",
"v  c #2E381F",
"b  c #353017",
"n  c #3E3017",
"m  c #33331C",
"M  c #3D311C",
"N  c #1F2021",
"B  c #262522",
"V  c #2A2622",
"C  c #262823",
"Z  c #2D2A24",
"A  c #262728",
"S  c #272829",
"D  c #2D2C2A",
"F  c #332D24",
"G  c #3B2E21",
"H  c #322E29",
"J  c #382F28",
"K  c #2F3424",
"L  c #2E302A",
"P  c #353125",
"I  c #3C3223",
"U  c #343925",
"Y  c #3B3D25",
"T  c #35322B",
"R  c #35342B",
"E  c #34312C",
"W  c #35322D",
"Q  c #36342C",
"!  c #3E3228",
"~  c #3B342B",
"^  c #3C352E",
"/  c #363C29",
"(  c #3E382E",
")  c #2E2F30",
"_  c #353332",
"`  c #3A3632",
"'  c #3D3934",
"]  c #3D3C3B",
"[  c #402F16",
"{  c #412E17",
"}  c #422F19",
"|  c #402C1A",
" . c #432F1A",
".. c #422E1B",
"X. c #413117",
"o. c #413118",
"O. c #443319",
"+. c #47361A",
"@. c #42311F",
"#. c #47311D",
"$. c #44311E",
"%. c #44341E",
"&. c #46341F",
"*. c #45361F",
"=. c #49361C",
"-. c #49371E",
";. c #46381D",
":. c #4C391C",
">. c #4C391D",
",. c #4D3A1D",
"<. c #4D3C1C",
"1. c #52371E",
"2. c #523C1E",
"3. c #583E1F",
"4. c #402F21",
"5. c #433422",
"6. c #403024",
"7. c #433224",
"8. c #453726",
"9. c #493622",
"0. c #483725",
"q. c #463923",
"w. c #483921",
"e. c #4B3A23",
"r. c #4C3922",
"t. c #483A24",
"y. c #44362A",
"u. c #48372A",
"i. c #43392C",
"p. c #4B3B2A",
"a. c #533F21",
"s. c #523D22",
"d. c #583D21",
"f. c #593E22",
"g. c #533E28",
"h. c #523E2A",
"j. c #433C32",
"k. c #4B3D31",
"l. c #483E35",
"z. c #413D39",
"x. c #454226",
"c. c #4C4127",
"v. c #42432E",
"b. c #4C402D",
"n. c #554126",
"m. c #584120",
"M. c #5E4321",
"N. c #5C4124",
"B. c #574228",
"V. c #54422C",
"C. c #5A442C",
"Z. c #5E4A2A",
"A. c #4A4135",
"S. c #46423B",
"D. c #4B4339",
"F. c #544333",
"G. c #5B4631",
"H. c #5D4934",
"J. c #54493E",
"K. c #594838",
"L. c #634425",
"P. c #62452A",
"I. c #624A2D",
"U. c #694829",
"Y. c #634E32",
"T. c #6B5334",
"R. c #454341",
"E. c #4C4741",
"W. c #4C4842",
"Q. c #4B4B4A",
/* pixels */
"A Z M o.j j o.I W H k k H D y 1 & X X X X & y n <.e.F F e.m.M.d.$.x j y % . & 5 x 7.Z A A B t q f f h h j j f q h h c v v m x x g f y 0 , 1 y h x } } } } x } l f t D W I } } } } o.@.o.o.j f 1 & & & = , & & X X X X X X X X X X & & & @ % 6 V x O.<.<.+.j j o.",
"Z F I M z h j x F F f k F F d t = & & & X & q j -.%.F F %.s.B.g.$.l y 1 % O & 5 G ! F V S V a y k k z z j l h f h h m U U U x l g f y q 1 0 i z x 4.$.$.$.} x k y t Z H x } [ [ } o.o.o.j h f 1 & @ & & & & , , 1 5 4 4 1 1 , & @ @ & & @ % > a x %.,.,.o.j j j ",
"7.! ^ W Z a y f k f 3 f l G F V 4 , < , @ & 1 f l l y h n t.A.l.7.k : % O % & 4 F H k k D D S V Z H H F i f h j h j M I W R z h f f y q q i m U W ^ 8.e.,.+.h y q t V Z x [ [ [ j o.o.n h f 3 < & # @ & & , 5 l %.q.~ T @.o.l 5 & X @ & X & = y 7.e.-.+.o.j h y ",
"@.7.^ _ D C a y f f f f j x H S 4 < < < & & , 2 f f q h o.q.j.' 7.k % . O @ & 4 V F z z F D Z Z H T T F y f j x z z n 7.` W F h l g f h z m U U W ^ t.e.e.%.j y y a V F x o.M M x x o.n h q 2 < # # @ X X , l 9.n.V.j.i.e.-.$.x 5 , & & X @ & 1 x 5.%.O.o.x h t ",
"j x M ! W D S d l x F F x x Z V y 1 < , & & & , 2 q q h -.,.M M @.h = O X X @ = t h l j z z k z x I M x h h j x J J x I W _ D J x } j x T W W W ! 5.$.7.~ ~ M x F Z k l $.t.^ W D F M o.j q 1 & @ @ @ X X 1 G e.s.e.e.I j x 0.e.$.f 1 & @ X @ & y j O.-.O.M F D ",
"z z x I ^ Q D Z z G F F z z Z a y q 1 , & & @ & , 1 q h +.;.M z M z 1 @ X X X & 1 h x x j h f g [ o.M x j j z F W W x x J W W P @.o.x G Q _ _ W M o.} x F J M @.P J k j 5.u.Q W D D x x z y t , & X X X X 1 4.e.-.O.o.x z z i.p.e.o.q & & X X & 1 h %.e.5.I T H ",
"H D Z F 5.%.z z F F z z i i i h h y q 1 & @ X @ & & 1 y j M R W W Z 4 & @ X X & q z F F z h f g j M J F z h d D _ Q M } 7.7.I M o.M F F I ! W H x [ } x z z o.@.M x g k J T F F W W z y a a i q & O . O & 1 x $.O.[ j l J _ ` j.5.n f 1 & X X & 1 z Q ' W P G x ",
"D D D F @.O.j z J J z i w u i h j h y 1 & @ X X X & 1 y h z ~ Q W Z 5 & & @ X & q z Z F F z z z l x J F z z Z H W Q I 7.5.$.j j M I Z Z I I P J x } x x z j j x x x k k F F z x ~ ~ z y d Z h e & O . O & 5 l 7.o.j g l W _ _ Q 5.M h 1 & X X & , y H W D Z x j ",
"S H ! 5.$.} x x 7.I j h e t a Z x j f 2 , & & X X & 1 y Z F I M M z 1 & & & @ & q y y d R _ W F k l x G F H ! 7.I I Q ^ 8.@.h h F H D D H T G x j M ~ W U m h h F F z h k z j n @.M x j x z h q & X O % & 4 H ! M [ } G W W I ! ( Q z 1 % . O @ & = 4 4 4 y h j ",
"B F 5.-.} x G ! 7.I x h h h a Z l l y y 1 & & X X & 1 y Z F M n n l y 4 = & @ & , q q z R _ W F F l } x P T ! 7.x x T Q 7.x f y F W D D D F M M j M ~ W U c d d D H z h f g j n o.o.j [ o.j y 1 & X O % & 4 D W x j } x J P I ! ` W d 1 O . O X X X % & & = q y ",
"t h x } l l ~ ` W J x x o.n z h k k d p y 1 & X X & & 5 f z m m n x F B : @ o @ & , q h z z z F ~ ^ G } M ! W J z j z z x x f f x I Z V d z m m i i M M m K D D D D z h f k b m n j l j O.n 0 $ @ O O O & 4 C Z k l x } x I ^ ` _ S 4 & .   O X X O   . . % = 1 ",
"1 q h l g l i.' _ H x x O.o.h f f f Z d y 2 & % O % & 2 f z m m x x P Z : X X X X & q h h h h z ~ ` ! x o.M P F z h h l l l y f n M d a j b m c u e h j m m F H D F z j h z m U m l k l @.x 0 # @ O O O & 5 a Z z l l j j x Q W Z p = %     O & & O     . O & & ",
"& , q f l } e.p.W D z j j j f q q f z h r < , & O O , r j x Z Z k j @.x 1 X X X X & 0 h j j j h z P ~ ~ M x x x l l x l l h y f j n j j o.O.b i y e q f h h k k y h o.O.m m U U D d h h F a = @ @ X X & 1 y h G ~ T z h g l z z y 5 & X X O & & & & O O O O % & ",
"X & 1 y h } +.%.P F z h h h y y h l o.j f 5 1 & O % < f x G Z a f j O.j 1 & & @ X & , y j x j h h z ~ ^ 5.o.o.} } } G x z h y h M M j j o.o.j h y t t y f f f f f h o.+.m U U R D d h h a p = X X X X & 1 y j M ~ Q P z l f f q q , & X X & & & & & @ @ & & & & ",
"X & & 1 f h h h k k y y h h Z F 7.9.-.o.z p 4 & % & 1 y F F y 5 f g [ j q 1 & & & @ & 1 l j j h q h I u.t.9.%.O.O.5.^ W U m h z Q Q l f j j h h a S Z Z z h h h g j o.o.n M W W z h j h y 5 & X X X X & & 1 h j M ! ^ Q M g q , & & O O O & & & & @ X & 1 1 = & ",
"X & , 5 i h y q f f f h h z H ~ u.p.9.I F p 4 & O & 1 y F F f r f l j j h y 1 & & X X & f j j j h h x 7.u.u.5.+.+.%.~ R U m z P Q Q F k h h h z Z S D F z h z z n o.o.o.o.M F Z y q q q 1 = & X & & & & & , q h j 7.^ ^ M f 1 & @ O O O % & & & & , 1 1 q q , & ",
"X & 2 f F F f f q f h x F H ! 7.0.8.~ P z t = O O % < f l x l l j j j j j h y 1 & X X & q h o.+.O.n F H W ~ 7.o.n j z z h z F F I I J F k f h i B B d z h z T ~ 5.+.o.o.+.o.z y 1 & & & O O X & & & & & & & , q h x G x h q & & X X O % & & & & 2 f [ o.h 1 & & ",
"X & 2 f Z F F k y q h x F J 8.r.5.I H Z d 2 & O . % < r j n o.} j n o.O.o.j h q & X X & , y M e.-.@.F Z D J M j h h h j g k J P I G H H k g h z Z V h h j z ~ ! %.o.M M o.j q , % X X O     O & & & & & & & & , q f l l y 1 & X X X X & & = = 5 j -.2.-.l 2 & X ",
"X @ & 1 y d T H y q y f f x s.s.o.z Z B 4 & @ X X & 1 y m m %.O.j n -.,.o.j j f & X X X & 4 H i.5.o.l k x x j h y h n o.g g x I P H S Z l j j x H D z h n n M M j z J F z q , % O . O X O O & & & @ @ & & & & & & 1 f h 1 & & X X X X X @ = p J d.L.3.+.j 2 & X ",
"& @ X @ , y F H d y y y f x ,.,.j y p 6 % O X X & & 1 t s m n o.n M ,.,.O.j j h 1 % O X X : Z ~ I M h f z x z z f h o.[ g g o.@.H S S Z l x x F F Z i h j n o.o.j z F Z t 1 @ X . O O X X @ & 1 1 4 = = & & @ X X & 1 q = & % X X X X X X : Z j.G.P.s.o.g 2 & X ",
"& & @ X & 1 y d p p y y a F x j q 1 4 = .   O & & & & & 1 t y j %.e.q.Y n j j h 4 ; % X X = y m m m i i a D W T x j j g 3 f X.%.F V a f l x J F d t y y y h o.+.o.j h u $ # @ X O O X X X @ & 5 l G V 6 = @ X X X @ & & O O O X X X X X & 5 G p.A.k.e.j y , & X ",
"& & & & X & , 5 p a y y p p t q , & & &     O & & & @ o & & , y M 8.U m z h y t > - % X X & q h m m c s Z Z W ~ I x g f r g x I D V t y l J T J h r f y q h n @.x f y = # + @ X X X @ & % = 1 k 5.u.H B : @ o X & & X O . O % & @ @ & & 1 k $.t.i.^ M l 2 & & X ",
"& & & & & X & 1 y f 3 2 = = 1 , & @ @ X X O & & & @ X X @ @ & 4 Z Z t t p 4 1 & % O O X X & 2 h j M W W z z z F J F z h j x F Z D Z t y F T 5.%.j l l l h h F Z p > % % @ @ X X X @ & = 6 a n +.+.M Z B t , @ @ & & @ X O O & & & & , y n +.O.@.M M j h 2 , & X ",
"& & & & @ X X & 2 2 2 , @ @ & & @ X @ & & & & , 1 , & & X X X % > 6 = = - - % X . O % & X & , q f x ~ T z y r f F F z j j x Z S D Z y y Z J @.+.@.I 7.7.n j a p > - . . O X X X @ & 1 y F ! g.s.O.x Z a a t = & & & & & & & & & & & y j -.-.j j x x z y 2 , & X ",
"& & & & X X X @ & & % O O X & @ X & & & & & & 1 k k 1 & @ X X % % = & % O O O X X % & & & @ & & 1 5 f y 2 1 1 5 f l x j l l h d z z f f y h j @.~ ` z.j.e.j y ; - . O X X X X X & 1 g %.p.K.H.V.5.l z d V B > ; & & & & & & & & & 1 l } } l f h F H Z p 5 , @ X ",
"1 , & & , , & & @ O . . O X X X & & & & & & , y G l 5 & @ X @ @ X X X O . . O & & & & & & & X & & & , , , & & , 2 f h h f f h j j l l g f h j M ~ _ ` ' @.g 1 % . . % & & & & , 1 f O.s.B.G.G.B.5.l h h Z V > ; % @ & & , & & & & y x @.l f y a D D S B 4 & @ X ",
"q 0 1 y h h q , & X O O X X X @ & & & & & & 1 y Z V : @ X & & & @ X X X O O & & & & & & & & @ X @ @ @ & & & & & , 1 0 0 1 2 h j x x } x j j o.n x z z d y 1 % O O O & = 1 2 2 f j O.-.,.-.e.e.,.O.j h j x z 4 % O & & & , & & & 1 y x o.j h a a d z D S 4 & @ X ",
"h f y h j j f 2 , & & & & & & & & & & & & & 5 p p > % X X & , 1 1 1 2 2 1 1 1 1 1 1 , , & & @ X X X X X X X X & & & * * & 1 f l j x x n j o.o.j h q q 2 , & O O O & & 1 q f j } -.,.-.O.j n %.%.x j n n M z 1 X X & & & , & & & q h o.o.z d Z a h h Z Z 5 & & X ",
"n j h h h y q q 5 2 < < q q , & & & & & @ = 6 p : % & X X & 0 h l O.1.1.} h f y y q 2 , & @ X X X X X X X X X X @ % % % % & 1 2 3 r f h j j j h q 1 2 < & % O % & & & & 2 [ 2.d.2.-.O.n j z ~ ~ l [ ,.e.P a 4 & @ & & & & & & & f o.+.@.F Z d h h h i s u 1 & X ",
"+.o.j h h f f f f f r f l j t 4 = & & & & = > > % X @ & , 2 l O.,.3.L.M.-.x j z z z f 3 2 < 1 1 1 1 , 1 1 , & & & & O O X @ & & , < 1 q h h y 0 & & , , & X & & & & & , 5 } d.L.e.%.o.j h z T ~ x } 2.e.F 6 : & & & & & & & 1 2 l o.%.I Z d j j j h i s y 1 & X ",
"-.O.l l [ o.n j g g j [ O.%.~ H t , & & & & = % O X & 1 f O.2.d.m.m.3.,.[ j } I J F l j j j j j [ j l l l k y < < , & O X @ @ @ @ & , 1 0 0 = & O O & & o & & & & , , 2 6 F e.g.! P M j h y x @.%.-.%.x y : ; = = & & & & 1 f x x x P F d f o.+.$.I F Z y 1 & X ",
"-.O.j j O.-.o.x l l G @.$.5.i.~ z 1 & & & & @ X & & 1 f @.e.s.m.g.g.t.@.j j $.7.T F F x o.+.O.O.%.%.I 7.5.@.z z f < & X X X X X X @ & & $ # @ O     O @ & & & & & , 5 k Z F ,.e.! P M x f f x @.e.9.x k 1 & % ; = , , 1 1 y x o.} l H D d h x @.$.7.~ F a 1 & X ",
"+.O.} } O.o.j M Q ` W J x } @.x f 1 & & & & @ & , q l M ! i.9.9.! ^ ' ^ M [ -.%.x z Z F z j h h F F H P M 7.' Q z q & X X X X X X X & @ @ @ @ X X X X & & & & & & = V J 5.,.-.%.%.%.@.x g k ~ ! 7.M F p = & & = & , 1 q f l [ [ l k H D z i d F x o.%.x p > & X ",
"x x x l x h y y H _ W J x } j l h q & @ & & & & y j -.e.i.! @.M F H _ Q M n o.o.j i V S z j f y a Z W ! 5.q.l.j.I f 1 & @ X X X X X X X X X X X X X X @ & & & & o = p F %.+.x j [ [ l k f z W W z f a 6 = & & & & 1 y z @.$.x l k k F J x z a a z @.-.@.p ; % X ",
"h y y 2 2 1 , = 4 a z M 5.} l g l f & X @ & & 2 n ,.2.<.e.%.o.x z z D D z h j j h i V D 7.5.l f f l t.V.V.g.k.p.%.j y , & X X X X X X X X X X X X X X X @ & & & X & = 4 f h y 2 r r 2 2 q k H D y 1 = = & & & & @ : Z ^ g.e.G d k g l G 5.@.h a Z ~ t.5.y = & X ",
"q 1 = & & & O O & , f j x } j l j f , X X & & y -.m.2.2.,.-.[ l h h Z S d z h h h z F ~ u.9.j f k x e.B.F.k.F.g.9.x y , & X X X X o & , 1 1 1 1 , , : : = & & & @ X X & , 1 & & , , & & < y S V 4 & @ @ & & & & @ 4 F i.g.e.F Z k l x } 8.5.h y F ~ i.! 5 & @ X ",
"1 = & & & O . . O & 1 q f j } x h q & X X & 1 h %.s.,.,.,.+.j g f k Z D D F h h f l 7.8.5.@.g k F J 5.5.~ j.K.H.e.l 1 & @ X X X X & 2 k %.e.o.j g k H Z y 1 1 1 & X X @ & & & @ & & & @ & : B B 4 & @ X & & & & & 5 x 5.%.o.l k F J x x I m h k G ! ~ F 4 & @ X ",
"& & & X X O O O O % & = 2 f g k y , & X X & 1 h 5.t.-.-.O.} l f g l ~ W _ D z f f g 5.9.$.x k k F J M 5.` z.J.K.e.f , X X X X @ & 1 f } g.n.2.-.x x ~ ~ z f h y , & @ X X X @ & & & X X o = > > = & & X & & & & 1 y x o.j l g k F F l x b m l j $.5.~ Z 4 & @ X ",
"& & & X X % & & & X O O & , 1 1 & & @ X X & 1 z ~ ^ %.[ j l h h x 5.8.i.W D S a 5 5 x } } l Z V d z n u.W.Q.R.' z q & X X X X & 2 f x 9.,.2.,.O.h h x M n n n l y , & X X @ & & & & @ @ & & = % & & X & & , 1 y h x o.o.l f h f f f h j j j j } 5.5.@.z 1 @ X X ",
"& & & @ X & & & @ X . . X @ & & @ X @ @ X & , y T Q I x z z h z 7.u.t.5.F S S B 4 5 k x G J H F z z n q.W.Q.z.T t , & X X X X , f } $.5.@.$.-.o.f y z x n o.$.o.l y 1 & & & , , & & & & & & @ X X O & & & , 1 y j O.+.x k f i y 2 3 h j o.@.M x I G l y & X X X ",
"& & & & & X @ @ X X X O X X @ @ X @ & & & & & y M 5.F Z W P z z Q ' I h t 9 B C B p h z Q ' i.y.Q ~ M I ` ' p.@.2 & @ X X X X 1 [ ,.O.x F F @.} f y d Z z x $.$.O.j h q 1 1 < , & & & & & & & X X & & & & & = q l o.O.x d s s e 2 3 [ -.e.8.~ H D V 4 & & X X X ",
", 1 1 1 & & , 1 : = & & & @ X X X @ & & & & & q j M Z S ) W M M Q Q z i t t a Z Z F h m ` ] j.i.` Q 7.@.J P -.[ 1 X X X X X & 2 O.,.O.x Z Z l l y y p a i h x $.-.+.j h h f r 2 , & , , & & & & & & & & & & , 5 z M o.x Z C s e r g @.t.p.u.~ D C 6 % X X X & & ",
"1 q f f q q h z Z V t 1 & & X X X X @ & & , 1 y h z V A A H t.e.M z x l Z Z z x M M j M ` ` _ W _ ~ e.,.%.M x f , X X X X & , y n +.o.j h h g f i u y t y y f l +.-.o.x j l h y q 1 < < & & & & & & & & & & 2 f F P n M W W d h j @.! i.u.5.l d p > % X X & & & ",
"y h n n z z x I P F h y y 5 1 1 1 , & & & & 1 q f h d V V F t.p.n h l F Z F I M M M j b T W T W W ~ e.2.,.o.k 2 & X X X & & 1 f o.-.} j j h f y u w e q q y f h n $.$.o.x x j h f f f 3 , & , , , & & & @ = f G H T I ! ^ ^ x n -.e.! T G l f 5 > - % X @ & & & ",
"l x %.q.^ W H Z z z j j o.@.x x x j f 1 & & & , f l x x l G ~ ~ n x F V 6 p T W H Z s i z z M I U Y e.s.e.@.y , & X X & & & & 2 -.2.[ l } x f e w w q 2 f f j x F F $.$.F Z h h f l O.x 1 & < < , & & & o : F ^ 5.5.^ ' i.5.o.o.,.e.M z y 1 , & % O O & & & & & ",
"$.9.e.e.j.` H d h h j n -.e.9.5.-.+.n f , X X & 2 g j o.@.4.J J G x Z p = 4 D _ D a i i i z M I q.x.,.,.,.x 5 & & X @ & & & @ 1 } -.l l } x h e 0 e 2 3 f g } M F F x n d p y f f l 9.%.f 2 2 2 1 1 , & & : V T 5.q.j.j.u.5.x j o.x h q , & o X . O % & & & & & ",
"B.n.s.e.5.M x z h h f h n $.} @.$.+.o.h 1 & @ & 2 f h n %.9.@.G P F z t = 9 C Z k h n M Z S H ! e.n.-.o.n h 1 & & & & & & & & & 1 y Z F z j h f q 2 r f y f j x k f f i s u q y d F %.-.j f q q q 1 1 & & & : p ~ j.u.5.J F f r y 1 , & & @ X X X % & & & & 1 1 ",
"g.s.2.,.O.x x x x j f f h l l x @.O.+.j y & % & , q f j @.@.x z F F z i 8 8 s Z k l O.$.J D D Q e.s.@.z h e 1 & & & & , & & & @ X = p Z d h h r 2 3 f f y y h l g f q e i i q y B Z @.O.[ l f y q 1 & & & & X : S ~ @.x a 6 1 , & & X X X X & & X @ & & , 1 y h ",
"} } -.,.%.G F F 5.$.l f 3 f d F x O.-.o.f 1 % O % , f f h h d a a y h i w w i z F J } $.5.y.W W 5.5.P F i q & o X & & & & & & & @ % = 6 p d y 2 q q f h q q r r f h y y h l h y B V l } j g j h 2 , & & & & @ & : 4 y y 1 % & @ & @ X X X & & & @ @ & 1 y l o.O.",
"g x @.5.9.7.Z H i.8.x f r f a Z x $.-.O.h 1 % . O & 2 5 y y a a t y h i i e i z F J 7.-.-.5.J J x x J Z y , & X & & & & & & & & & @ X % > p f 3 y y h j h f y f h j y f l x z d Z F l x g l } x 5 = & & & & & & X & , , & X X X & & & & X & & & & 1 2 f x -.2.2.",
"} 4.~ P %.5.H ) ` Q z h j l y f o.-.e.5.h 1 & O X & & , 5 k l z V a h h y y h h x 7.,.,.+.x l k g l l f 1 & X & & & & @ @ @ & & & & @ % % 4 f k 4 p z o.n x F F M j h h F H Z F I 5.o.j h j O.x p ; % & & & & & @ @ & & @ X X & & & & & @ X & 1 y l o.-.t.s.N.L.",
"7.P H P %.%.J H W W z h j j f h M t.g.t.l q , & @ X X & 7 g l z Z a i i e y h j j } ,.<.-.} l f f f 7 2 & X X & & & & & = = & & & & & X X , f z p a x +.o.M F P M n z z F H Z F 7.-.O.x z x +.o.p ; = & & & = & & & X X X @ & & & & & & , 1 2 f } -.2.s.p.g.N.L.",
"Z F z M ,.,.z d I M h q f f h z ~ j.K.V.@.k q , & X X & 7 k d a d i y e w i j x g j -.2.3.e.F a 5 1 , & o X X X @ & , t V V t , & @ X X X & y j h x +.+.n j z z n M J F G x k k g j o.M J P %.o.5 = 1 1 1 & & & & & @ X X & & & & & & , f o.+.,.s.s.2.,.9.0.r.s.",
"B a i j +.+.h f j n h t d d z P T j.K.G.s.} h 2 & X X & 2 f d d z j z s u i j } l l O.2.n.t.F 6 = & X X & & X @ & 1 t z F F h q , & @ X X & 1 f z n +.O.j h h h h z F J x | x l g g } M J P %.o.f q 2 1 & & & = & , 1 , & & & & & & & 2 o.s.2.2.3.2.-.O.@.7.7.7.",
"t y y h j j y f j M d S W _ _ R I 8.F.G.P.d.[ 2 & X X & < f l M o.%.~ F y r j x J P ,.e.i.~ p = & X X @ & & X & 1 d T W F z j h q , & X X @ & 4 a F n o.j g r q e i z k g x 5.9.} x } x z z } O.-.j 1 & & & & & & 1 k z y 1 , & & & , f 5.e.,.+.o.n j h h z ~ ` ",
"q q e y i i e f n M d D ] ] _ P x o.g.C.N.2.j 2 & X X & < r j +.-.e.( T y f G y.~ ^ p.p.` D 4 & X X & & & & & 1 h I ( ^ x l j l f 1 & @ X X X % > a z j o.j f y i i k g f l $.5.x l l x z x o.-.e.M 1 X X & & , 1 f G 7.j y 1 & X & 1 h 0.e.@.j j j z z y d ~ ' ",
"f f e w w w e f o.o.z P ] ] F y h n e.s.o.h 2 , & X X & < r j +.-.-.5.G a Z ' S.j.k.D.] D B = @ X & & & & & 2 k 7.t.t.5.} j g f 3 < , & @ X X % % 4 y h n M F F z j j l h h j j f k F W _ ^ 5.%.! F : X X X @ , g M ~ ~ @.g 1 @ X & 2 j 9.9.l f j M ~ W D F 5.e.",
"k z i i i i s z +.,.O.8.S.S.I h h j -.O.f 1 & & @ X X & , f o.e.e.%.o.x a Z ' D.p.t.j._ B > % X @ & & & & & y x 9.e.5.@.G l l k f 5 5 : & & @ X X & , y z I T T I x l l h h h h y y F W ` i.5.7.T V : @ X X X , l @.T W I x 1 X O & f } %.@.h k l ! Q ` Q ! %.O.",
"H F z M 5.! H P e.3.M.C.E.R.i.7.x x j f 2 & & @ X X X @ & f e.V.i.~ x h y d I 8.%.@.M z 4 % O & & & & & & 1 y j %.9.P T H J x x F Z B p 5 , & X X @ @ 1 a F I I T F f f f g j j h h x M I 7.} G H S 4 & @ X X & q h m K F a 4 & O = l O.n x x G F F ! 8.t.e.n j ",
"T P @.-.e.t.T P e.s.N.C.D.D.V.e.} g f 2 = & % X @ & & & & 5 $.p.' W z h y z M @.o.j h q & X X & & & & & 1 5 h n -.,.! T W J x x J D S V y q & @ X X X % > a x M F Z y r f k l z j j j } } x x I T D 4 = & X X & 1 y b m Z p 1 & O = j +.j h x I F F 7.9.,.,.M z ",
"5.e.s.s.2.%.x z n %.! i.p.B.N.s.j y 1 = % O O & & & & & & , r l ` ` M x F H W ! %.j q , @ X X & & & & & 2 k 7.t.<.<.;.%.M x j j z d S Z z f 1 & @ X X % % 1 y h z z k f f h Z d h h x x g l I U / K p ; & X X & & y n o.f 1 & O X 1 j -.j f h x x @.%.-.O.%.Q ` ",
"-.,.s.d.2.+.j h j x F J %.2.3.-.f 1 & & O O % & & , , & @ & 1 y F T M x J H _ Q I z 1 & @ @ @ & & & & 1 f } p.p.e.,.-.o.n j h h j z d d z h q 1 & & @ X X @ , q y y f f j z F Z z z x l g l m Y Y U p ; % X @ & & 5 x x f < & X X , l o.j g f l n O.-.O.[ M ^ ' ",
"+.-.,.2.s.-.j h h h f k } o.j f , & & % O % & & & = , & @ % 6 a d z x x l l I ! F a 4 & @ & & & & & 1 f [ 5.l.l.5.o.j j j h y h o.o.z h y y y y q , & X X @ & & , 4 4 p x O.x z F H H J x j n %.;.n 4 % O @ & & & 4 d F y 1 & X X & q h j j g g } o.o.o.j o.5.e.",
"x x j } o.x f y y q < 2 f f q , & X X X & & & & & & & & & = 6 p t q h l k k j l a 6 : & @ & & & & 1 z %.-.e.j.' M j j j j h h l o.o.j h y y h h h y , & X X X & & = ; 4 x O.n M F H H P M n n n %.x 1 X X & & & 1 5 d Z y , & X X & 1 f x x k k } @.M I I 7.-.,.",
"f f q 2 1 1 , & % % & & , & & & @ X X & & & & & @ @ & & & & = = 1 1 3 f p p f 3 5 : % O O & & & & y t.B.e.%.M m x j j j j n o.o.j l h h h h h j j j y , & X X X @ & % , f j b m z z x x n n m U T Z = X X X @ & 2 k x z 1 & @ X X & < f F H Z z @.5.^ ` ` j.t.s.",
"q 1 & & X X X X . . O X X X @ & & & & & & & & , 1 1 & & , , & & & , , 1 6 6 2 , , & O O % & & = , f p.C.,.n z z j j n j j [ O.O.l f h h h h h j M x h q , @ @ X X X X & 2 f m m j j M @.x x b U D B ; X X X X & 2 f l f 1 % O X X @ , 5 Z D S F %.e.j.z.z.j.u.0.",
"1 , & @ X X X X O O X X X & & & & & & & & & 1 h %.@.5 & 1 1 = & & & @ & % % & & @ O O O & & & 1 q j ,.,.n z T T z j n } l g j l h f f k d Z l l F F M j q , & X X X X o & 1 h n n M Q ~ l l j x z t % . X X X & , 1 2 5 > ; % X X o & , 5 y D T %.e.t.k.k.u.} x ",
"& & & & & & & & & @ X X X @ & & & & & & @ & f O.s.e.f 1 q q 1 & & & & @ X X X X & & & & & = , 5 z M +.+.n M ~ Q P M o.o.j f f f h h f f a Z z z Z F @.o.z y = & @ X X X X & y l M 5.' ^ l l j l q 1 % O O @ & & & & & = ; ; % & & & X @ , 5 V F @.-.9.8.0.@.k 5 ",
"& & & & & & & & & & X X X X @ & & & & X X , l -.-.o.h y e q 1 & & & & & & X X & & & & & & , 1 y T ^ 5.+.-.%.5.! Q ~ 5.+.[ l f f j j f y i d Z Z d z n M J Z y , & X X X X @ & 4 H i.p.e.o.j j f , & O O & & & & & & & & & & & & & & & & , 1 4 y x o.j h h y 6 ; ",
"& & & & & = 1 1 1 1 5 5 1 1 , & & @ X X & 1 M 5.o.j j j f q 1 , & & & & & & & & & & & , 1 2 f x ^ ( I o.5.5.O.I Q ` 5.+.o.j h f g g f q h h Z Z h h j x F Z h q , & @ X X X X : S ~ e.+.n h f 1 & X X & & & & & @ X X X X @ & & & & @ & & & & 1 h h y 1 1 1 % - ",
"= = & & & 1 1 q e j q.e.-.o.l f 1 & @ & , y ~ i.5.o.@.M h y q 1 & @ & & & & & & & & & 1 2 k 7.0.t.%.M z F F x M W W M o.o.j j g r r f f y f z x h h j j h h h h q , & X X X X & 4 y h h h q , & & X X & & & & X X X X X X X X & @ @ X X & O   % y y = % & & % % ",
", , & , 1 1 q y x q.F.K.n.-.j f 1 & % & 2 z Q i.5.O.$.@.z d d y = & X & & & & & & & , 2 g } 0.e.-.X.j z Z F x x F F I M o.o.j l r 3 f f y f z z z z j j y f j [ h q & @ X X X @ & & 1 1 1 , & X X X X & & , 1 4 4 : & & @ & , , , , & & @ O   O = 1 % O O & & & ",
", , , 1 1 q q h p.F.D.l.t.o.f 1 % O O & 2 l %.5.o.o.o.x F S D Z y , & X & & & & & & 1 f O.,.-.%.o.o.} x x x x j z z T ! 5.O.j f f f f f f h d Z S Z x j q f o.-.o.h 1 & & X X @ @ @ & & & & @ X X X X @ & 5 l ! H V 4 & , 2 g j l f f 2 & X O X & & & & & & & & ",
", , = 1 q y h o.B.F.j.Q ! z 1 % O . X & 2 g @.@.n j M I D D H F i q & X X & & & & & q j e.e.%.j j j } O.O.O.j l l z ~ ^ %.o.j f h h f k z z Z Z Z Z x j h h [ O.O.x y 1 & @ @ @ @ @ X X X X @ & X X X & 5 k 5.p.j.T y 1 3 g O.%.@.x g 7 , & & & X & & & , , = , ",
"& & & 1 0 h -.2.s.e.7.J T Z : X O O X & 2 f J P z z ~ W K P G x h q & X X & & & & 1 l %.i.^ x h h j j o.-.O.j g l x 5.%.n j j j h h d Z D F x z z z n o.x j j j [ o.x f 1 & @ & & & & X X & & & @ X & 1 l 5.e.e.e.%.h h j [ o.M P J k f 2 1 & & X @ & & , , & , ",
"= & & 1 y j 3.m.,.+.O.x F p = X @ & X & 1 y J P z P T W U m x l h q & X X & & & & 2 o.e.i.~ x j j j x M -.+.x l x } -.+.j j j j j z Z S H J x j j j o.$.7.x l g j [ O.x y = % % & & & & & & & & < 1 5 k 5.e.t.5.+.o.j x M M x x F Z f f f y y 1 1 , , , , & & = ",
"= & & 2 l -.2.2.-.+.,.O.y : & & & & & & 2 g @.5.Q T F M I @.j f f 0 & X X O & & & 2 [ ,.e.5.o.o.o.M P P %.5.! ~ G } O.+.+.o.j g j z Z S F x x x j o.+.%.P J x j g j O.O.h 1 % O O & & & & & @ , l %.5.5.e.t.i.~ M j j x P P z h y y 3 f J T x l h f q 1 , & & = ",
"& & & q o.2.2.,.$.%.,.+.2 & @ & & & & & f } %.q.( Q z z M } l f y 1 & X & & & & 5 z %.e.-.O.o.o.o.M P P %.5.i.^ G x x o.o.[ g g j x F F l x x x j j o.@.J F G x l j $.+.j y % . X & & & & = : y %.s.g.e.-.%.~ T z h x G J P z h q 2 2 f W ` I o.o.j h y 1 1 , & ",
"& & & y +.2.,.-.} $.-.o.1 X X & & & & , l 5.^ ( q.5.P F z z F Z 5 & & & & & & 5 I p.V.g.%.} j j j n M M o.O.5.5.x h j h f r f g g l l l g g j j f r h j k z F J x [ -.O.h 1 & O X & & & @ : V T 5.,.-.%.o.n z z h h x x M M n g r 2 r z H H l j j x x k y 1 , & ",
"X & & y -.s.e.5.@.} O.l , X X @ & & & 1 o.e.i.^ 5.I J F h h Z B : & X & & & , y t.V.V.t.@.x f f l j j x x M O.o.j j j h f f g g f f j j f g j l r r h h g l J J x o.+.o.h q & X X & & & , y T i.5.O.@.M x j h h i z l x o.n j l f f h z J J z g j } } l y 1 & & ",
"X & 1 h -.n.A.l.5.} j f , X X X & & , f +.2.e.5.F Z z h f f 5 : % O X & & 1 1 f %.e.%.n x g 3 r h j j x J J z j j j x x x x } j h h h h h h x j h f h j o.O.x x h j n o.j f , X X X X 1 l %.5.5.$.x P J x l f t a Z x j j j j j j j j n M M x j x } o.l 1 & & & ",
"X & 1 j e.b.j.' y.M k 5 & X & @ X & y o.<.2.,.@.H D z j l k 1 & O O O & & 1 f j o.o.j h l l f r h j M P W W z j j } } } } x M M z z h h j j x x h j j j o.O.} x j j j j j f , X X X X 1 O.s.e.%.x x F F F z f f Z F M j h h j j o.o.j j x o.o.o.} } 7.z 1 X X X ",
"X & 1 z j.j.I I ^ W V > & @ & & X 4 8.V.n.<.+.M ` ` I M ^ H 4 X X % & & & 2 o.+.n j j x h h l j j M ! ` _ Q 5.O.} x g g j x F D D F z j +.-.o.j h j o.O.j j } o.+.O.o.j j f & X X @ & 2 o.e.i.~ x h z z Z F x n M @.%.O.l l j o.o.j h f g j o.O.+.@.~ Z 4 & @ X ",
"& & = a ` j.I P _ ) p ; % @ & & & y p.C.m.,.%.! ^ ( 5.5.' D > X X & & & & y 5.e.j h x } j j j j j I ` ] ` ^ %.O.x l g g j x d Z H J z n -.-.n h h j O.O.j l } O.+.+.o.j f 2 & X X & & y o.e.^ T z h h h Z F M o.o.o.+.O.g g } o.n g y q f l x +.-.5.P Z 5 & & X ",
"& & % : z i.j.` _ C > % O o @ & , f %.s.2.e.! Q ! %.-.5.Q S : X X o & & & 4 T ! l g j o.O.o.h h j M W _ ^ 7.n z J J x j j h f k x M x x n j h f h j n o.o.} o.o.} o.o.l 2 & & X X & 1 f %.e.5.x k f l x M M j j l j [ [ g g j n j h y q f h j o.$.5.M z 5 & & X ",
"& & O = j e.j.` S 6 % X X X X & q h o.+.@.I ~ W x j o.@.P V = X X X X & 1 y T ~ l l x %.-.O.h f j M P ~ 5.$.j z F J x j h h f g j j } j h i q y h h j o.o.o.o.} } } } f , X X X X & 1 h %.-.} j g l x x x j h h f j [ j f f l j j h y i j j x x } } o.l 1 & & X ",
"& & & 1 o.,.M z t = & X X X X , h o.o.x z Z z z h r f h x k , X X X X , h o.M x x x ^ i.e.+.j h n @.7.5.-.+.n j x x l k h h j j g g g f f y i h f l j o.o.o.o.o.+.O.g 2 & X X X X & 1 f } } j g j x J F f r q f l [ O.o.f y h j j x F F @.@.P J l j o.l 1 O X X ",
"X & , y o.+.j q 1 & & X X o @ 1 j %.M z p s i h f y d z n g , X X X X 1 j -.o.[ } I ` ' 5.O.j h M 7.5.%.-.+.o.j j g g g h j j j l g g f f y h h g l M 5.o.+.+.-.,.X.r , & X X X X & 1 f l l g l j x P F f 2 q f j o.O.o.h h h j l G H P %.$.J F l j M z 1 X X X ",
"X & 2 f j j h q 1 & & X X @ , r o.%.P D s u i h l x T ! %.j , X X X X , l O.o.o.} x W W 5.o.l k J ~ 7.O.o.o.o.j r r l j n n j j j j j j h h f g j M Q ( e.<.<.<.,.o.q & & X X X X & q h Z F x j j x M x k f f h h j } } x x j x F F I @.$.} l l } @.P Z 4 & @ X ",
"X & f l l h h q 1 & & X X & < f } 5.T D s i z z x G ` ' u.x 1 X X X X , f x 7.5.n x J P M j j l F J x } j [ o.j f f l o.5.I j h j j j j h h l l j @.^ j.p.n.s.,.O.h 1 & % X X @ & 1 h x Z d l j j j O.O.j l h j z z x } } } j z F F x n x j f g [ @.P Z 4 = & X ",
"X , l O.j j j f 1 & & X X & < f F T G G D L W T z z W _ ' W 4 & @ X X & 2 k Q Q m j x x j j x x k k x j j o.+.@.z d x M ^ ^ M j j h f f h j j x l x e.p.A.A.e.O.f 1 % O O X X & , f +.+.l f k l j o.,.,.O.x j x F F x x j g r f l x j j j h r 3 f h l z 6 ; & X ",
"X 1 j -.@.x j f 1 & @ X X & < f J H G G J W W P z z D W ` ~ t , & @ X & < f ~ Q z j j j j j x x g g [ o.o.O.+.M D Z x @.i.' I x j h f f j n o.x g j -.e.A.j.9.j 1 % O O % & X & q j e.e.x k k z x +.e.e.%.o.n x J H l g f f 3 f l x j h h h r r f h l k 6 ; & X ",
"X < j %.P F f 2 , @ X X X & 2 g @.I F F I @.z z j z Z Z ! %.j q , & @ & 1 f x M x j j j x x j g x } O.-.-.O.n z D H x O.e.u.~ J x l l x o.+.o.j g j -.,.t.5.} f , O O O & & @ , g 5.i.i.M x F J M %.i.i.e.+.j j x x l f f f g l J F z h l l h h j n F p : % O X ",
"X , j 5.P F f < & X X X X & 2 g -.-.F F @.o.h h x G Z F 5.5.z y 1 & % & 1 h o.+.@.M x n o.o.j g g x O.-.+.o.j d D F z o.,.e.~ H x x x } O.+.o.j g l O.-.+.j f 2 & X @ & & & & < j e.i.^ x x J T ! ! ~ ~ 5.o.j j j x l f q y h l J J z l x x j j @.I Z p = @ o X ",
"X , l $.%.@.h q & X X X X & < g 1.3.@.x } } j x ^ Q G G ^ ` D a 5 , O % t j ,.g.i.( 5.+.-.+.[ l f f j o.j z d Z d h y h +.,.5.M n j g g j j j j h j o.o.l q < & o & & & & & @ , j ,.e.%.h h x ! Q ~ F l x x j h h j j l y q y h x x x x x x x x P F d y 2 , @ X ",
"X , k } %.%.j h 5 : & X X & 2 j 2.s.%.x l l j M ~ ~ G 7.i.` D a 5 , O % y o.3.n.j.^ %.O.O.o.n g r f l x h h Z Z h h h h o.+.o.n j l f f h j x x j j j j y 1 & X & & & , = & @ 1 [ ,.+.j h h j @.~ H l g x x j h z z x z f q q h j [ x x j [ } x J J z r r < & X ",
"X & q z J P x x F V : X X & f o.2.e.! F y f x x z z x %.t.q.z t 1 @ X = f O.2.s.5.x h h j j j h l l J F k k l l j j j j j j j h h f f g j M P F z h h y 1 & & @ & & & & , & & 1 O.,.j h l j n x l l j j o.o.x l F D Z d f f f h n o.j j j j j x 4.7.M j f 1 & X ",
"@ & 1 t Z T I ! _ D ; O O & y j -.5.T D d f l h y d x 5.e.%.h 1 & X X , f } +.-.O.j h h h j j j j M P J z g x x x M @.o.j h h i f f k l x I T F h q q 1 & & & & & & & & & & & 1 M 5.z z l j j j l j j o.o.n x G H H Z Z k g l x I M j h j j l j } 5.$.j y , & X ",
"& & % ; k I ^ ` W B %   . % 1 y x G Z Z z l f y Z D H ~ 9.o.2 & @ X X & y j h j O.+.O.o.o.n j j o.o.M x x j j x J J x } x z a a h x J H H T I x y 1 & & & & & & @ @ & & & & & 4 d H W T l l j [ } o.o.o.j z Z F I I x l x } o.M Q ~ z h x x j j } } o.l 1 & @ X ",
"& & O = k @.Q W Z > .     O & 1 k l F F l h y d F W W ~ 5.z = O X X X & 1 q q f o.-.,.-.%.M j j o.o.o.j j j j x P H J G } l d d z x F D D J M h 1 % O X X & , 1 4 4 1 1 & & & 4 6 C H J k g l j o.+.+.o.n z d F M o.} } } x M ! ^ Q F z x } } x l l h y & X X X ",
"& & & 1 l x z d y 4 %   O O X , k x x l f y a Z G 7.7.I J p - . X X X & & & , 5 j $.-.%.P F h h n o.o.j h h j x M ! Q ^ 7.o.x x j h i d z z h q %   O X X & 1 d H H z f , & & = = 4 5 f f f h j o.+.-.-.+.o.k k x o.o.o.j z J ~ 5.5.P P @.O.o.x F a 4 & & X X X ",
"X @ & 1 f k q 1 1 1 % O O X X & f x x h y t V D ! 7.o.x a > - . X o & & X X & 1 f x @.5.T F a h n O.o.j h h x j j x Q ( 5.o.[ j j h q q f y q = O   O & & 5 z ! j.j.I h 1 , & & @ @ , 2 f l z z n +.-.-.-.O.l l $.%.+.n j z F P %.%.P P @.O.j z a > % X X X & & ",
"X X & & & , & & & & O O X X X & y f f y q t Z D W J z y 1 % O X X & & & @ X @ & 1 y F ~ I G Z Z @.-.+.M F F M j h h M 5.o.j j l j g r 2 q q , & X X & 1 y x j.D.V.p.P Z z y , X X @ & 2 g x F F x O.-.-.O.M ~ ! e.,.O.j j x M %.-.+.x z x x h y 1 % % X X & & & ",
"& & X X X X X X X X X o & & X & 1 1 1 1 q d H _ D Z y , @ X X X & & & & & & X @ & 4 Z J M x F F @.-.-.5.J J M o.j j o.%.M x k k x j r 2 2 , & X @ & & 1 l q.S.W.V.0.Z p f f , X X @ & 1 f x P P M o.O.O.o.M ^ i.p.e.5.M o.o.o.O.O.n h h l k y , & X X o & & & & ",
"& & @ X X X X X X X X @ & & & @ & & & & 1 d W W d y = & @ X X & & & & & & & @ X X = y z l g k z o.-.,.-.l z x o.-.,.2.e.P H Z F x j r < , & @ & & & & 1 j t.z.] ' F 6 ; = , & & @ X @ & 2 g @.%.o.j j j } %.e.t.! Q ` ( 5.$.} x h y a a y y , & @ X X & & & & & ",
", , & 1 5 5 1 1 4 : & & & & & X X X X & t d T H a 1 & X X @ & & & , & & & & @ X X & 1 y f f f f j +.,.,.[ l l M e.e.e.q.P S B a h f 2 , @ X & & & & & , g @.~ W D B ; % O & & & & @ X @ , 2 g o.o.[ j j x O.-.5.W ) _ ^ 5.o.x k y t 6 6 5 , & X X X X @ & & & & ",
"< 2 q j e.g.%.G H Z y , & & X X X X & 4 V F z k p ; % . O & & & & , & & & X X X X @ & , q y y f h n +.%.o.x F F T Q Q P d t : = 1 1 , @ X @ & & & & & , 1 y y d t 4 = & % & & = & & @ o @ & 1 f o.-.O.x j j j l Z Z F l j h y 2 q 1 = = & & @ X X X X X X & , 1 ",
"r f j ;.Z.I.V.i.' T z q & X X @ & & & 4 B Z f 5 > - O O % & & & & , 1 1 1 , 1 , & X X & , 1 1 0 q y h l j x a B C S S V y , & O & & % X @ & & & & & & & & & 1 1 & & & & & & & = , & & @ X X & 1 k j j h f f 5 5 p p 5 q q q , & 1 , & X @ & & & X X X & 1 5 d d ",
"X.O.-.2.M.C.l.j.y.@.j f & X X & & & & & = : 1 1 = % O O & & & & & , f l l l x k , X X @ & & & & & & , 1 3 q 0 = : : 4 4 1 & O . . O O & & & & & @ @ @ @ @ % % % % @ @ @ X & & = & & & & & X @ & , 1 , 1 6 6 = & = = & & & & & & & & @ & & & & & & X @ 5 G y.Q W ",
"5.9.<.2.s.t.^ ~ 5.%.5.z 1 & X & & & & X @ & & & % X & & & & & & & 1 x ,.%.@.} k , X @ & X X X X X X X @ , < $ # @ O & & & & O . . . X & & , & = : : : 4 1 1 = = 4 1 1 & & & , 1 , & , & & & & & X X X % ; - % O O O X X X X X X & & & & & & & & & 1 y M g.F.j.' ",
"T ! ,.-.I F k l %.p.l.Q d , & X & & X & & & O O X @ & & & & & & , h p.V.-.j y 1 & & & & @ X X X X X X X & @ @ @ O O O @ & % O O O O X & 1 1 1 y F W D H 9.-.x l G x l f q 1 q 1 1 & & & & & & & @ X X O % O . . . . O X X X X & & & & & & & & & , h B.Y.I.N.g.e.",
") T 5.%.J Z f g O.t.z.' z q & X X X & & & & O . O @ & & , , & 1 t I V.V.O.f , & @ & & & & @ X X X X X X X X X O . . O X @ & & , , 1 : 4 y h l x W ` ' j.p.e.%.%.t.t.o.j j h f q 1 1 , & = = = & & o & & , 1 = % % ; : 4 4 1 & & & & & & & & & 1 y 5.Y.T.Z.3.2.2.",
") W 7.9.u.7.x l j I ` ' 5.g , X X & & & & X O O X X o & 1 q q z Q j.t.%.g 2 & X X & & & & & @ X X X X X X O . .   . O X & 1 y g j x Z Z ! 9.2.e.T W i.u.P F z n %.%.j j +.+.j y q 1 1 & & & , & & & , q j o.l f h z H W ! x y , & & & & & & 5 l 8.g.C.n.e.-.,.,.",
"H J J 8.g.g.9.} h z W Q e.o.2 & @ & & & & & 4 5 5 4 : 4 y h h x j.l.i.x f < & & X & & & , 1 5 5 5 5 5 5 1 1 : ; ; = , 1 2 f x %.%.5.~ ^ t.g.d.e.J D ! 7.F d z j o.n j n ,.,.n h y 1 & & & , 1 , & , y x ,.e.} x M 5.j.j.t.5.h q & O & & & 1 x r.V.V.s.9.9.5.5.5.",
"M z F ! P.U.d.-.j k Z H 8.%.f , & X @ & , f 8.p.t.7.F F 7.7.l l 7.i.` T f 2 , & & X @ & , f 8.p.p.p.p.p.-.o.x l l l l j o.-.t.u.~ ~ y.t.g.s.-.7.H D D F z x x } o.n j o.-.-.+.j 2 & & & & 1 1 q 1 y n e.g.e.l z T ' p.e.M x j f = . O & , f 0.V.C.B.e.0.p.t.! T ",
"x z D ~ N.L.n.5.l k F J 5.7.f 1 & X X & t M V.H.F.j.~ J y.9.} x 7.y.Q P y 1 , & & X & , 2 } g.G.H.H.H.C.V.t.9.5.8.8.%.-.p.e.e.u.~ ~ 5.,.,.,.$.I T D S d x j x x j j j o.-.-.5.M y 1 & & & , 1 q f j %.e.e.5.f y F ( e.<.M z n k = . O & 2 z u.F.V.g.9.8.p.i.~ H ",
"Z D _ ` 9.e.i.` H J I 7.~ F t & & X X = V ~ e.V.i.~ F l } } O.5.i.` P d 1 , & & o & , y x 9.9.e.F.G.g.e.i.( 5.5.^ ^ 5.5.i.( 5.@.M @.o.O.O.O.$.7.T D d h j j j h f h x +.-.e.i.^ x f 1 & & & & q j +.%.%.$.x f q z M <.e.! ~ M h = O X & 2 z ~ ` t.9.O.M ~ ~ I x ",
"C S _ ~ M x P W W ~ %.%.! F y , & X X = p J e.e.~ F k l G 8.e.t.j.( z q , & O X X & q x e.p.7.7.p.g.e.5.^ ^ 5.5.` ` 5.%.! ! M n M M n x x } -.%.P F h i y y i h f h o.%.%.5.` ` M l y = & & , y O.,.+.o.x l f r h n e.u.` W z y & O X , f l F F G } M I F F z x ",
"A S z z j h i z 5.8.$.$.e.%.j q & X X & : d @.9.7.x h x j.S.v.x.c.e.j 0 & % O . X , l -.d.g.! T 5.9.9.5.5.5.-.5.W W M O.5.5.%.M P P M o.} } O.o.M x f y t t y f h x O.%.P T D F x x a > % & 2 g -.,.O.j h l [ [ h z ~ ` D V y 1 O . O , l x z y y z T T F d a V ",
"V Z z z z d t h %.%.x x ,.<.n q & X X @ & 1 l } o.n z P S.S.v.q.,.o.y , % O . . O 1 j ,.s.t.~ J @.+.$.$.%.+.%.5.P J M o.+.+.o.M W W I o.} } o.o.j g h y p p y h l } $.5.T D S d x l a > % & 2 g $.5.@.M j n %.%.n M ` _ H a 4 & O . O 1 } -.j y y a H P z i d V ",
"f z T W W D V d x x Z F e.,.j 1 & X X X @ , 2 f g z F T i.8.M j h f , %     O O X , j %.I F k l O.-.%.%.-.%.P P G x o.o.o.o.j z W ` 7.} } } o.x h h j x l l x G H J @.7.H D d h j h 4 % O & , 2 h M ~ ! %.@.P P @.e.z.z.! z 1 & O O & 5 -.s.+.z d V d y y f x x ",
"f z ~ _ _ D S Z z z d F 5.%.f 1 & X @ @ X @ , < q t V Z z k 5 5 1 , & O     X @ @ 1 x 5.H Z k j o.@.I @.+.%.P H I I 5.7.n j h z W W G } G G } l y i M @.} } @.I P J x } P P x j j f , X X @ & 1 y z H W %.@.F J %.e.j.` I h 1 & @ & & y e.g.5.z F Z a y y f j o.",
"V Z G J H D S S c m z x ~ F t & & & & & & @ & & & & = : 1 = % % & & @ X X X X & , y } 5.` W x x F F H P M o.x J ^ ' ' ^ x h q y S Z k l ^ ^ l f e u m m @.o.x x x x x @.e.e.O.o.o.h , X X X @ = p p p y h j i z ,.,.z p p 4 = @ X & < y ~ ` F Z z z Z a f f g g ",
"S Z l x P W D D U m n x H S t , & & & & & & @ X X X X X X X . . % & & & & @ X & y x 7.5.Q T x z a V Z F x x } 7.^ ' ' Q F z y d Z F k F Q ~ l h i i c P M x z z x x l x -.,.O.x x f 1 & @ X @ = > > = , t y 1 y j l 1 = - - % X X & 1 z T W Z d z x Z d k g k k ",
"D H G } 9.5.W H I +.o.x Z Z y q & & & & & & & X X X X X X X X O & & & & & & @ 1 x 0.0.7.x z h y t y k z F P $.-.5.5.5.! P D D F I I J F F x x x j z Z Z x x Z Z l x f h o.o.j k d a t , & @ & & = % & & ; ; % O % & & % O . O X X & 1 h x G k k F F k k j l Z V ",
"H F F x -.e.P P 5.-.@.P H H z q & @ & & & & & & & & & & & & & & & = & & & & & 5 7.p.u.7.n h y q q f k G T ~ M o.n n o.M J H W ! $.@.J F h h j n j l Z Z l z Z Z l l y y h l k k a a y y & & & & & @ X O % O .       O X . O % & & & 1 y k g f k D H k k l z Z Z ",
"k k Z F @.%.@.7.5.8.^ ' ] ` x 2 & X @ & & & & & & & & & & & & & & & & & & & 1 y o.8.^ ^ %.n f q f k ~ ` u.5.b i i h j x x G 8.5.x g k f y y i i h z F D z z D D z h y q y y d Z d h l k 1 & & & & & & O O O O O O O X X X O & & & & 1 1 1 5 4 p S H z h d a d z ",
"g f B V x o.O.} 5.u.' ] R.z.G 2 & X X & & & & & & & , , , = & & & & & & & & 1 h j 5.` ` e.X.h q f l ` z.p.%.i w 0 y j } } } e.-.j f f f y e w w f k H H z z H H z h q q q t V Z z j x l 1 & @ & & & & X X X X o X X X X X & & & , & & & & = ; N S H z i B p i h "
};
