/* XPM */
static const char *rrock07[] = {
/* columns rows colors chars-per-pixel */
"128 128 236 2 ",
"   c #070807",
".  c #0C0B07",
"X  c #0C0D09",
"o  c #150605",
"O  c #1B0605",
"+  c #150D06",
"@  c #1D0B06",
"#  c #130D09",
"$  c #1E0D09",
"%  c #0F100A",
"&  c #151107",
"*  c #1C1106",
"=  c #151807",
"-  c #181A07",
";  c #15120A",
":  c #1B140A",
">  c #1E190D",
",  c #151412",
"<  c #1B1711",
"1  c #171817",
"2  c #1D1A12",
"3  c #1D1C1A",
"4  c #250304",
"5  c #2D0603",
"6  c #230C05",
"7  c #2A0B05",
"8  c #230E0A",
"9  c #2A0E09",
"0  c #340503",
"q  c #3B0302",
"w  c #340904",
"e  c #3B0B05",
"r  c #360B0A",
"t  c #3C0D0A",
"y  c #231007",
"u  c #2A1007",
"i  c #24130A",
"p  c #2B140A",
"a  c #231B0D",
"s  c #2B1C0D",
"d  c #341207",
"f  c #3D1207",
"g  c #33150A",
"h  c #3C1409",
"j  c #331C0D",
"k  c #3A1C0D",
"l  c #251311",
"z  c #2A1412",
"x  c #231D13",
"c  c #2B1E11",
"v  c #221D1A",
"b  c #2B1D1A",
"n  c #371516",
"m  c #3C1414",
"M  c #321E12",
"N  c #3B1D11",
"B  c #341C1B",
"V  c #3D1819",
"C  c #1E240D",
"Z  c #1E2117",
"A  c #25210E",
"S  c #2B230F",
"D  c #25290F",
"F  c #2B290F",
"G  c #33210F",
"H  c #3B210F",
"J  c #252213",
"K  c #2D2513",
"L  c #262A13",
"P  c #2D2A14",
"I  c #25221C",
"U  c #2B261C",
"Y  c #252A19",
"T  c #2D291C",
"R  c #332513",
"E  c #3A2514",
"W  c #342A14",
"Q  c #3B2C16",
"!  c #34261A",
"~  c #3A251B",
"^  c #342C1A",
"/  c #3C2D1B",
"(  c #2E331D",
")  c #2E381F",
"_  c #353016",
"`  c #3D3017",
"'  c #33331C",
"]  c #3D311C",
"[  c #1F2021",
"{  c #262523",
"}  c #2A2722",
"|  c #262823",
" . c #2D2A24",
".. c #262728",
"X. c #272829",
"o. c #2D2C2A",
"O. c #302323",
"+. c #3C2522",
"@. c #332D24",
"#. c #3B2E21",
"$. c #322E29",
"%. c #3A2F28",
"&. c #2E3424",
"*. c #2E302A",
"=. c #353125",
"-. c #3C3223",
";. c #343925",
":. c #3B3D25",
">. c #35322C",
",. c #3B342B",
"<. c #363C29",
"1. c #3E382E",
"2. c #2E2F30",
"3. c #353332",
"4. c #393632",
"5. c #3D3933",
"6. c #363838",
"7. c #3C3C3B",
"8. c #440301",
"9. c #4C0302",
"0. c #440B05",
"q. c #4C0A05",
"w. c #440D0A",
"e. c #4D0C09",
"r. c #530302",
"t. c #5C0101",
"y. c #540A05",
"u. c #5A0A06",
"i. c #580708",
"p. c #540C0A",
"a. c #5C0D0A",
"s. c #401207",
"d. c #43140A",
"f. c #4B140C",
"g. c #421B0C",
"h. c #4C1A0E",
"j. c #54120C",
"k. c #5A110C",
"l. c #511A0F",
"z. c #4B1712",
"x. c #441D12",
"c. c #461815",
"v. c #4D1A11",
"b. c #541D13",
"n. c #5C1814",
"m. c #591E15",
"M. c #640101",
"N. c #6C0000",
"B. c #620B06",
"V. c #6B0708",
"C. c #620D0A",
"Z. c #6C0B0A",
"A. c #730000",
"S. c #7B0000",
"D. c #770C0C",
"F. c #63120C",
"G. c #6B150F",
"H. c #621613",
"J. c #651813",
"K. c #691918",
"L. c #43200F",
"P. c #442413",
"I. c #4A2514",
"U. c #412D17",
"Y. c #4C2B16",
"T. c #452519",
"R. c #49251A",
"E. c #412E1A",
"W. c #4B2B1B",
"Q. c #532311",
"!. c #5A2513",
"~. c #522B15",
"^. c #5A2219",
"/. c #522D1B",
"(. c #413117",
"). c #42311A",
"_. c #43331B",
"`. c #49361C",
"'. c #46381E",
"]. c #4C3A1D",
"[. c #54331C",
"{. c #5C331C",
"}. c #523D1E",
"|. c #632417",
" X c #421F20",
".X c #432524",
"XX c #422B24",
"oX c #4C2C23",
"OX c #432D2A",
"+X c #492F2B",
"@X c #502B26",
"#X c #433422",
"$X c #493622",
"%X c #463923",
"&X c #4B3A23",
"*X c #44362A",
"=X c #49362A",
"-X c #43392C",
";X c #4B3C2A",
":X c #533323",
">X c #593424",
",X c #523D23",
"<X c #5B3D23",
"1X c #5B3628",
"2X c #523D2A",
"3X c #5C3A2A",
"4X c #433C33",
"5X c #4B3D32",
"6X c #413D39",
"7X c #4D3A38",
"8X c #5C3B33",
"9X c #632B23",
"0X c #613A25",
"qX c #454126",
"wX c #48422A",
"eX c #4E402B",
"rX c #544125",
"tX c #5C4224",
"yX c #54422C",
"uX c #5A442B",
"iX c #5E492C",
"pX c #494135",
"aX c #46423C",
"sX c #4B4239",
"dX c #544333",
"fX c #5B4631",
"gX c #5B4934",
"hX c #564639",
"jX c #634425",
"kX c #62452A",
"lX c #664B2C",
"zX c #614D31",
"xX c #6B5334",
"cX c #454341",
"vX c #4B4844",
"bX c #800000",
/* pixels */
".. .] ).Q Q ).-.>.$.! ! $.o.K a : 6 9.t.t.y.H ` ].&X@.@.&XtXtX<X)./ Q H 0.q y c / #X .....{ K S R R W Q Q Q R S W W ( ) ) ' / / E R K a a a K W / E.E.E.E./ E.Q R K o.$.#.E.E.E.E.).).).).Q K j 0.r.N.A.A.A.N.M.t.t.t.t.t.t.t.t.M.N.A.A.N.i.B } ^ ).}.].).Q Q U.",
" .@.-.] ^ W Q / @.@.R ! @.@.T J > 7 q.M.M.y.k Q ).).@.@.).,XuX2X#XQ K s q q y x #.-.@.} X.} U K ! ! ^ ^ Q Q W R W W ' ;.;.;./ Q E R K S a A P ^ / XX).).).E./ ! K K  .$.#.E.U.U.E.).).).Q W K s w 0.M.N.N.N.B.a.a.k.p.p.a.u.y.y.r.t.M.N.N.y.z I / ).].].).Q Q Q ",
"#X-.,.>. .U K R ! R j R Q #.@.} 2 p p.B.M.y.k R Q Q K W ` %XpX5X#XR : @ 0 q u x  .%.! ! o.X.} }  .$.$. .P R W Q W Q ` -.>.>.^ W R R K S K P ( ;.>.,.$X&X].).W K S K }  ./ U.U.U.U.).).` W K s s y 7 r.M.t.y.f.I.[.:X+XOX/.~.I.N d w 9.t.t.9.9 x ] &X].).).Q W K ",
").#X,.3.o.{ U K R R R R Q / $.X.x g p.V.N.t.s.j R R S W ).%X4X5.#XR & o 0 q 9 2 } @.^ ^ @.o. . .$.>.>.@.K R Q / ^ ^ ` #X4.>.@.^ Q E R W ^ ' ;.;.>.,.%X&X&X).Q K K U } @.] ).] ] / / ).` W S s a = y 0.r.8.w.T.$XrXyX4X1.%X].)./ J p 0 8.r.9.5 p / ).).).).Q W K ",
"Q / ] -.3.o.X.T Q / @.@./ /  .{ J k p.B.M.M.9.t j K S W ].,X] ] ).W : @ 0 q 8 : J W Q Q ^ ^ ! ^ / -.] / W W Q / @.@./ -.>.3.o.@./ E.Q / >.>.>.>.-.#X).#X,.=.] / @. .! Q ).%X,.>. .@.] ).Q S a : & 6 q 8.5 p XX;X&X&X*X] Q / $X;X).R u 5 8.9.q e G Q ).`.).] @.o.",
"^ ^ / -.,.,.o. .^ #.@.@.^ ^  .U K G d.y.t.M.t.9.h s S W `.].] ^ ] ^ a 9 q q 5 y s W / / Q W R E U.).] / Q W ^ @.>.>./ E.%.$.>.=.).)./ #.,.4.3.>.] ).E./ @.@.] ).=.@.! Q #X%X,.>.o.o./ / ^ K J > : 6 q q 8 x #.;X`.).)./ ^ ^ -X;X&XQ a i w q 8.q j W ).%X#X-.>.$.",
"$.o. .@.#X).^ ^ @.@.^ ^ P P P W W R G h 9.t.M.t.9.e s K Q ] ,.>.>. .x u 8.9.8.e G ^ @.@.^ W R E Q ] =.@.^ W T o.3.>.] E.#X#X-.] ).] @.@.-.-.>.$./ E.E./ ^ ^ ).).] / E ! @.>.@.@.>.>.^ K U U P S : 6 q q 9 a Q ).).U.Q Q @.4.5.4X#X(.W s y 5 q q j ^ ,.5.>.=.-./ ",
"o.o.o.@.).).Q ^ @.@.^ P D L P W Q W K s 0 9.t.t.r.0.j K P ^ >.,.>. .x 7 0.r.9.0.j ^  .@.@.^ ^ ! Q / @.@.^ ^  .$.>.,.-.#X#X)./ Q ] -.o. .-.-.=.@./ E.#.#.^ Q Q / / / E ! @.@.^ ^ ,.,.^ K T  .W S : 6 q q y x ^ ).).Q E ~ >.3.4.,.-.] Q S : @ q q p K o.$.X. ./ Q ",
"X.$.-.#X).E./ / #X-.^ W S J U  ./ Q K s y w 9.r.r.0.j K  .@.-.] ] ! > 9 0.r.r.0.j K K T >.4.>.@.! Q / #.@.$.%.#X-.-.,.,.$X).W W @.>.o.o.$.=.#./ Q ] ,.>.;.' W W @.@.^ W ! ! Q ` ).] / Q / ^ W A : 6 q q u x $.,.] U.E.#.>.>.-.-.1.,.^ a ; o q q 9 : 2 2 < x R Q ",
"{ @.#X`.E./ #.-.#X-./ W W R U  .Q Q K J > y 0 8.9.0.j K  .@.] ` ` W x i e 9.9.0.p A S ^ >.4.>.@.@.~ E./ =.>.-.#X/ / >.,.#X/ R K @.>.o.o.o.@.] ` Q ` ,.>.;.( T T o.$.^ W R E Q ` ).).Q Q ).Q K a & @ q q u x o.>./ Q E./ @.@.-.-.4.>.U > X o q 8.5 @ + # # & a K ",
"K W / E.Q ~ ,.4.>.%./ / ).` ^ W ! ! T I J a y 5 8.8.u x R ^ ' ' ` /  .I i w 8.8.7 > K W ^ ^ / -.,.,.#.E.] -.>.@.^ Q ^ ^ / / R K / -.X.} T ^ ' ' P P ` ] ' &.o.o.o.o.^ W R ! ' ' ` Q Q Q ).` A = . o 0 q u x {  .! E / / / -.,.4.>.X.x : . o 8.r.9.0 o     . & : ",
"a S W Q E ~ ,.5.3.$./ / ).(.W R R R } T K a : 8 q q u a R W ' ' / / =. .< 6 8.8.5 y S W W Q Q ] ,.4.-.#.).] =.@.^ W W Q Q Q K R ` ] T U W _ ' ( L L W Q ' ' @.$.o.@.^ Q W ^ ' ;.' Q ! Q )./ A = . o 0 q p x U  .^ Q Q Q Q / ,.4. .I a : o 5 9.M.t.9.5 o o O 6 5 ",
": a S R Q E.#X*X>.o.^ Q Q Q R S S R ^ ^ R s : y q q d s Q /  . .! Q )./ a 6 8.9.8.e s W Q Q Q Q ^ =.,.,.] ` / / / / / Q W W K R Q ` W Q ).)._ P K S S R ! ! ! ! K W ).).' ' ;.;.o.T W W @.U > & # @ 0 q s K ^ #.>.>.^ W E Q ^ ^ K x : 8 0 9.M.N.N.M.9.q 8.9.r.r.",
"+ : a K W / (.] @.@.^ W W W K K R W (.Q R c a u q q g R Q ^ } U R E ).Q a 7 0.r.r.8.p J Q / Q W W ^ ,.,.#X).).).E.E.#./ ^ W K W ] ] Q Q (.).Q W K K K K R R R R R W ).).] ;.;.;.o.T W W U I : + 8 5 8.8.p S W ] ,.,.=.^ Q R R K S a & 6 8.t.N.A.A.M.9.9.t.M.N.N.",
"+ : : a R W W R ! ! K K W W  .@.#X$X`.).^ I x u q q j K @.@.K c R E U.Q K j q.t.t.9.7 a W ` Q W S W -.=X%X$X).).).#X,.>.;.' W ^ ,.,.Q R Q Q W W U  . . .^ W W W Q Q (.).` ] >.>.^ W W W K x : @ 0 9.t.9.7 a K / ] -.,.,./ Q S a : & . O 9.N.A.A.N.r.w w y.V.A.A.",
"6 8 i c P W K S R R R W W ^ $.,.=X;X$X-.@.I 2 9 q q j K @.@.R G R Q Q Q W G f.y.t.9.5 y R Q Q Q W W / #X=X=X#X).).).,.>.=.' ^ @.,.,.@.! W W W T  .X.o.@.^ W ^ ^ ` ).(.(.(.] @. .K S K S a a y w 9.M.N.t.w y s W Q #X,.,.] R a : & + o 5 r.N.N.M.t.w.p s f.C.N.A.",
"q w j ! @.@.R R G R Q / @.%.-.#X$X$X,.=.^ K > 8 q q g R / ] Q Q Q Q Q Q Q Q G h 9.9.q e j W (.).).` @.$.>.,.#X).` Q ^ ^ W ^ @.@.-.-.@.@.! R W P { { T ^ W ^ >.,.).).(.(.).).^ J a : : : ; @ w 9.M.N.A.M.9.w y a W / #.#.W S : & + @ 0 9.t.M.t.r.d.E U.(.E d.u.N.",
"9.0.g K  .@.@.! K K Q / @.%.$X$X#X-.$.o.U a : 6 q 8.g R ` ).).E.Q ` ).).).Q W j t 8.8.q p K ] &X`.).@.} o.@.] Q W W W Q R ! @.=.#.#.$.$.! E W ^  . .W W Q ^ ,.,.).).] ] ).Q S a & o @ 6 O 5 9.M.N.A.A.N.M.9.w y s R Q Q K a : + 8 w 9.t.M.t.q.d.P.`.}.].W k y.M.",
"M.9.9 > J T >.%.K S K R ! / ,X,X).^  .{ x : & 6 q 0.j K ' ] ).).Q ` }.}.).Q Q R p 5 8.8.9 x $.-X#X).! ! / / Q W K W (.(.E E / -.=.$.X. .~ Q Q / $.o.^ Q ` ` ] ] Q ^ @.@.^ S a & . o 0 8.9.r.M.N.N.N.N.N.N.M.9.w y a R W a : & @ 0 9.t.M.t.e.V XX<XjX}.).Q k y.t.",
"N.t.w y a K @.$.U J J K R / ].].Q K I 3 ; + @ w 9.9.h G P T ` (.` ).,X,X).Q Q W > 8 8.8.5 l @.,.-.` W ! ^ / ^ ^ R W (.U.E E (.).$.X.} } ~ / / #.@. .P W Q ` (.(.Q ^ @. .J > * + o 4 8.t.M.N.N.N.C.a.i.i.M.N.t.9.w y s A > : @ w 9.t.M.t.9.f +.-XfXkX,X).! k y.t.",
"A.M.9.0 8 > K U I I J K U @./ Q S a > ; X o 0 9.t.t.9.e i a K Q ).&XqX%X).Q Q P 3 l 8.9.8.t ! ' ' ' L L U o.>.>./ Q Q E j R (.).@.} U K Q / @.@.T K K K K W (.).(.Q W J - = & @ 0 8.t.M.N.N.M.a.^.oX~ m q.t.M.t.9.w y ; % @ 0 9.t.M.t.9.w c #.;XpX5X%XQ J d 9.t.",
"S.A.M.9.w 8 a J I U J J I I K A a : 8 6 O 5 9.t.M.M.t.9.5 8 a K ] #X;.' ^ W K J 2 l 0.r.r.q.k W ' ' ( T  . .>.,.-./ E R G E / -.o.} K K ~ %.>.@.W S K K K W ` )./ R J a * * 9 w 9.t.M.M.i.i.k.b.$X*XX.b t 9.t.M.t.9.w 6 8 5 9.t.M.t.9.t j W ).%X4X,.-.W s d 9.t.",
"S.S.A.M.9.0 y > K R j s > : : : : 8 0 8.9.r.M.N.N.M.t.r.8.0 8 2  . .K J I x > & X $ 9.M.t.q.k W Q -.5.4.=.^ ^ @.@.@.^ W Q / @.o.o. .K K @.>.#X).Q Q Q Q W W @. .I 3 ; + 0 8.9.9.r.t.t.i.V ~ W.[.`.] X.{ c h 9.t.M.M.t.r.9.r.M.N.t.9.h G (.).).).#X-.` W s d r.t.",
"S.S.A.N.t.8.5 y s s s i * + + + @ w 9.t.N.N.N.N.B.i.y.9.r.9.w u b b a : < < 8 6 O w t.N.M.r.g S R / ,.,.^ S G R @.@.^ Q / /  .X.o.@.K K  .@.).).).-.#X-./ W U 3 1 , # 4 8.t.t.r.9.q.p.v.#.,.eX,X)./  .} U c e q.M.A.A.N.N.A.A.M.9.t M Q ).`.Q / ] ] ^ K s d 9.t.",
"A.A.N.N.t.r.8.0 y : : : & + + @ 0 9.M.N.A.N.N.C.m.T.k e r.M.t.9.0.r 8 & & 8 0 8.9.t.N.N.N.r.9 : : a R K a : a s R Q / Q Q W W T ^ ^ R R K W Q ).,.5.6X4X%XQ x ; X # 5 8.t.M.t.9.0 p P.[.2XhXgXyX).Q ^ T  .I v r i.A.A.S.S.S.A.t.e s Q E./ Q R W @.$. .I > 9 9.t.",
"N.N.u.y.y.y.r.9.w 6 6 6 6 6 6 w 9.M.A.A.A.N.i.z.E.@.x u r.N.N.M.r.8.5 6 6 0 9.t.N.A.A.A.N.t.w @ + * i i * & : a s R W W R R W Q W W Q E R W Q ] ,.4.5.5.] R : + o 4 8.t.M.M.r.e p S (.&XuXfXfXuX).Q W W  .{ 3 z y.N.S.bXS.A.N.r.d J / ).Q R K U o.o.X.{ < 5 9.t.",
"M.i.d.k P.v.p.r.8.q q q q q q 9.M.A.S.S.A.u.d.R @.{ < 7 r.N.A.N.t.9.8.q q 9.t.N.A.S.S.S.A.M.9.0 @ & * * + + & : a a A A a s W Q / / E./ Q Q ).` ] ^ ^ U x : X o 5 8.t.M.M.i.d.N Q ).`.].`.&X&X]._.Q W Q ] ^ 2 9 r.N.S.S.S.N.t.9.d R / ).Q W U } T ^ o.} x 9 9.t.",
"j.f.G P Q U.f.y.r.9.0.q e 0.8.9.M.A.S.S.N.y.k I I v i w r.N.A.V.u.p.j.j.e.y.M.N.S.S.S.S.A.N.t.8.5 6 6 6 6 6 6 8 9 i - = : a R Q Q Q / ` U.).).Q R S S a : + o 4 9.t.M.M.i.j.P.).`.].`.).Q / ).)./ Q Q ` ] ^ > 7 r.N.S.S.A.M.9.e j E ).).^ T  .U W W  . .x d 9.t.",
"Y.U.W W P R j h q.q.t g j j u w 9.M.A.A.N.i.B I 2 i 0 9.r.M.V.F.Q.~.{.{.Y.I.F.Z.D.D.S.A.N.M.r.9.8.q q q q q q q q w * & & : s G G G R W Q ` Q W a i s s : @ 0 9.M.N.N.u.f.P.[.<X}.`.).` Q ^ ,.,.Q Q `.'.@.U 2 9 r.N.S.S.A.t.0 y R U.`.).@. .T W W P P Y J j 9.t.",
").).Q W W W W R d.d.k R Q W J l e r.M.N.N.y.n 3 : 5 8.r.y.k.J.|.[.,XjXtX`.Y.m.J.K.H.C.B.B.a.p.e.q.q.w.w.w.w.0.8.9.8.5 6 6 8 i s s s a S W W K a & + i i 9 w 9.M.N.A.N.i.N / <XjX&X).).Q W ^ >.,.~ E.].).@.I < p r.N.S.S.N.y.d a W ).).-. .T Q Q Q W P Y K j q.t.",
"`.).Q Q U.).` Q E N E U.).).>.@.R d.u.N.N.r.9 : w 8.9.p.Q.~.{.0X<XtX}.].Q Q Y.W.XX.XR.I.~.~.Y.Y.Y.Y.P.T.W.T.j h q.r.8.q q 0 8 : : : a a A A > : . . & 9 0 9.M.N.A.A.N.p.B @.&X,X,.=.] Q W K / ).).`.)./ K 2 , 9 y.N.A.A.M.p.P./ / / =.@.U R ` ).).-.@. .K j q.t.",
"`.).Q Q ).`.)./ ~ ~ #.).).#X-X,.T j y.M.N.t.e w 8.9.p.v.W.&X,XtX,X,X%X).Q Q ).).=.@.@./ )._.).).).).-.#X&X#X' ! f.e.8.q 8.8.5 6 6 8 : : = = & + o o 6 w 9.M.A.A.A.V.a.c.! =.&X&X,.=.-./ R R / ).&X$X#.! a : i r i.N.N.N.i.v.T.)./ ~ $.o.K W / ).#X#X,.@.U j q.t.",
").).E.E.).).` ] ,.4.>.@./ E.#X/ P j q.t.N.N.t.r.r.p.Q.W.,.1.%X#X,.,.5.,./ Q ).).^ ^  . .^ W W W @.@.$.=.] #X5.,./ j u 5 8.9.9.9.8.0 8 & & & & @ 5 q 9.t.M.A.S.S.A.a.c.%.#X].`.).).).)./ ! ! ,.,.#X] @.I : 8 t i.M.N.M.a.v.P.E.U.Q ! $.o.^ P T @./ ).)./ I z q.t.",
"` / Q Q Q W K K $.>.>.@./ E./ Q W j e 9.M.A.N.B.a.b.[.&X-X,.).] @.>.3.,.] Q ` ` W P } X.^ Q R K U  .>.,.#X*X6X4X-.R a y e 9.t.t.t.9.w 6 6 6 6 5 8.r.M.N.N.A.S.A.N.i.B o.).).Q Q U.U.Q ! R ^ >.>.^ R I v i w y.B.M.i.a.b.R.)./ Q ! ! @.@./ ^ U U ^ ).`.).I z 9.t.",
"W K a a a i : > 2 x ^ ] )./ W R Q R i w t.N.M.C.!.[.}.].&X#X)./ ^ ^ o.o.^ Q Q Q W P } o.*X#XQ R R ~ %XyXyX2X5X;X).Q R s y w r.M.M.t.9.q q 0 0 8.r.t.t.M.N.N.N.N.N.y.p 2 P R a a G G s s S ! $.o.K a > i t y.M.M.t.p..X*X,X&X@.T ! E ~ #.#X).W U  .,.;X#XK p 9.t.",
"j s : + + + @ @ + : K Q / / W W Q R p w r.M.y.l.[.rX}.}.].`.U.Q W ^ X.X.^ ^ W W W ^ @.=.=X$X/ R ! / &XuXdX5XdX2X$X/ R s : 5 r.N.M.t.r.q.w.f.w.q.y.i.p.p.y.i.y.t.M.r.0 7 g g 7 7 d p i : a J X.} x : & 9 q.M.M.M.9.d.%.-X,X&X@.} ! ! / E.#X).W K @.,.-X-.J u 9.t.",
"p.w.8 # # @ 5 5 @ & : s R Q ).(.W j e 9.r.r.d.E `.,X].].].).Q E R !  .o.o.@.W W R Q #X#X#X).E ! @.@.#X#X,.4XhXgX&XQ s : & 5 r.M.t.9.s.P.[.[.Y.I.T.T.XX+.N k k d.9.r.9.9.q.9.9.9.0.e 8 & : 2 { { x : & 7 r.N.N.t.f R / #X).).Q ! @.@./ / ] ' W ! #.-.,.@.x u 9.t.",
"B.y.0 7 7 w 8.8.5 8 + : s R Q Q J g 9.t.t.y.j W #X%X`.`.).U.Q R E ~ =.>.3.o.T K R E ).$X)./ ! ! @.@.] #X4.6XhXhX#XR : + @ w r.t.r.w.N ).,XrX].)./ / ,.>.^ P P G f 9.r.t.t.M.M.M.t.9.w 5 9 i x 3 > : 8 w t.N.N.i.k W ` ).Q Q E ! @.@.~ / ' ' Q Q ).#X,. .x 9 9.t.",
"N.N.t.r.r.r.t.t.9.0 @ & : a a a > 7 r.M.M.r.h R ,.,.).U.Q Q W W / #X$X*X>.o.X.I x c / E.E.~ } } T ^ ` %XvXvXcX5.^ S : @ 0 9.t.r.d.E E.#X&X}.].).W W / ] ` ` ` Q j h 0.r.M.N.N.N.N.M.t.r.q.w.i ; & 8 0 9.M.N.M.a.P.` ).).Q R W R R R W Q Q Q Q E.#X#X#X^ a 7 9.t.",
"A.A.N.N.N.N.N.M.t.9.w 6 6 7 7 7 7 e t.N.N.r.d K >.,.-./ ^ ^ W ^ #X=X&X#X@.X.X.{ x x ! / #.%.%.@.^ / ` *XvXvX6X>.K a y w 9.t.t.y.P./ _.#X#X).`.).R K ^ / ` ).).).Q G f 0.y.u.N.A.A.A.N.N.V.y.0 5 5 w 9.M.N.N.i.f.T.).)./ ! R P K s j W Q ).).] #.-.#.Q K : 5 9.M.",
"S.S.A.A.N.N.N.M.t.r.8.8.9.9.9.9.r.t.N.A.N.r.9 a / #X@. .>.>.^ ^ ,.4X#XQ J Z { { { U W ^ ,.5.-X*X,.,.] -.4.5.;X).a 8 0 9.t.t.r.p.Y.].).] =.=.#XE.R K T  .^ / ).).).U.E j j d.i.M.N.N.A.A.A.N.t.r.r.t.M.N.N.u.d.E Q ).)./ T I Y S s G U.`.&X=X,.$.$.} x : & 5 r.M.",
"S.S.A.N.u.i.a.a.p.e.q.9.r.t.t.M.M.N.N.A.N.t.w p Q ]  .X.2.>.] ] ,.,.] Q J Z U  . .@.Q ' 4.7.4X-X6.,.#X] @.=.$XU.a 6 8.t.M.M.9.f.`.].)./ @.@./ Q K K I U P W / ).`.`.` Q W H f.p.y.u.N.A.A.A.N.N.N.A.A.A.N.i.k K ^ ` )./  .| Y F G E ).%X;X=X,.o.{ v ; + @ w t.N.",
"N.N.V.C.d.k I.R.+.~ M h y.t.t.t.M.N.N.N.A.N.y.d.E ^ } ....$.%X&X] ^ / /  . .^ / ] ] Q ] 4.6.4.>.3.,.%X].).] / R : 6 9.t.M.t.d.R ).).)./ ^ ^ E ! L L K K K K R Q ).`.).).Q Q E H k d.i.M.N.N.A.A.S.S.S.S.N.i.g.! @.@.` ] >.>.T W Q ).,.-X=X#X~ ! I 3 ; @ 0 9.M.A.",
"u.a.J.m.! ^ ' -.=.o.P E h.k.p.a.a.a.i.u.N.N.t.p.H W T } } @.;X;X` Q / ^  .@.-.] ] ] Q ' >.>.>.>.>.,.&X}.].E.R a : 6 9.M.M.r.g K ).`.E.Q Q Q R K L D S S S K R W ` ).`.`.` / Q W K E l.k.y.u.N.A.S.S.S.S.N.i.x.@.@.,.-.-.1.,./ Q `.&X,.>.#.Q R c 2 , $ w 9.t.N.A.",
"P.I.[.:X,.>.o. .^ ^ Q U.W./.W.W.~.Y.P.d.y.t.r.q.k W / / ~ #.,.,.` / @.} v I >.,.$.T P L ^ ^ ] -.;.:.&X,X,X).s : & 7 r.N.N.r.7 S `.}.U.Q E./ R S D D S j R R Q / @.@.).).@. .W W R E W.R.k t a.V.A.S.S.S.N.a..X,.*X*X,.5.-X%X` ).].&X] ^ J a i & X # w 9.t.M.N.N.",
").].].&X-X,.@.T W W Q ` _.&X#X#X`.).` G t 8.9.0.k W / ).).XX@.@.#.^  .I > x o.3.o.U P P P ^ ] -.%XqX].].]./ a + @ w t.N.N.t.w p U.`.Q ~ E./ W S A S s j R E E./ @.@./ ` T I K R R Q $X).K j f.a.V.A.S.S.N.i.+.>.*X*X4X4X%X#X/ Q ).` W A > : 8 6 O 5 9.t.M.M.t.t.",
"rXrXrX&X#X] / / W W R W ` _.E.).).).` R u 5 q 0.k K W ` `.$X).#.=.@.^ K > C |  .! W ` `  .X.$.,.&XrX`.).` R : @ 0 9.M.A.A.M.9.0 p K  .@.^ Q W K S s G R K R Q / ! R R P Y J S K U @.).).Q R R d.i.N.A.A.N.y.p I >.4X%X*X=.@.R G K a > : & 8 0 8.9.r.t.M.t.9.0.h ",
"rXrX,X].)./ / / / Q R R W Q ~ / ).).).Q a 8 q q p S K Q ).)./ ^ @. .^ P C C I } ! Q ).).@.o.o.,.&X,X)./ W S : 6 8.t.A.A.S.A.M.9.5 i I  .T W W G j j R R K K W Q E R S S L P S K {  .).).U.Q W G d.i.N.A.N.t.0 p  .>.] / U v a p u 7 9 6 5 w 9.t.M.N.M.t.y.d.k R ",
"` ).`.].).#.@.@.#X).Q R G R T @./ ).`.(.K p q q 9 a K R W W T U U K W P D D P ^ @.@.).).#X*X>.>.#X#X=.@.P A : 6 9.N.S.S.S.S.A.M.9.0 i 3 I T K j j j R W S S G G R R K K W Q W K I } / U.Q Q / E j t t.N.A.N.r.e z x K K > : : 9 e 0.9.9.r.t.t.M.N.M.M.a.h.P.U.).",
"Q / ).#X#X#X .$.*X#X/ R G R U  ./ ).`.).W j q q 5 y s K K K U U K K W P L F W ^ @.,.#X`.`.#X%.@./ / @. .K a y w t.A.S.S.S.S.A.N.t.9.5 i v I K j s c W Q W R K R W W K R ~ / ^ T  .@./ Q E Q E./ x p y.N.A.A.N.r.0 9 g g 9 5 7 w 9.t.M.M.N.N.M.M.u.a.k.b.R.).}.}.",
").-.,.=.#X#X>.3.4.,.^ W Q Q K K / ).;X#XW j q 8.q w y a c ! ! ^ } U W W K S W W / #X].].)./ Q ! E Q ! K > y 0 9.M.A.A.N.N.N.N.N.M.t.9.0 i x R ! x x ^ ).` / @.@.] Q W ^ @.$.X.@.-.#X).Q W Q ).` I z q.M.A.S.A.M.t.r.r.r.r.r.r.t.M.N.N.N.N.M.M.i.v.I./.[.&X,XtXjX",
"#X=.$.=.).).=.$.>.,.^ W Q Q R R / $X2X;X/ j e 8.8.q 5 y M E Q ^  .U P P S K W Q Q E.].}.`.E.Q R R R M s y 5 9.t.M.M.u.i.i.i.y.t.t.M.t.9.5 p R ^ U U / ).).] @.=.] ` ^ ^ @.$. .@.#X`._./ ^ / ).` I z 9.M.A.S.S.A.N.N.N.N.N.N.N.N.A.A.A.N.B.a.k.b.R.`.].,X;X2XtXjX",
" . .^ ` ].].^ ^ -.] W S K R W ^ >.4XhXyX).! j g 8.8.q 0 k ! T } T P K S D L ` / E Q `.}.}.&X@.U x a : 9 0 9.t.M.t.r.s.N ~ ~ g e 9.t.M.t.8.e R Q W / ).).` Q ^ ^ ` ] @.@.#./ ! ! E Q ).] @.=.).).x p q.B.A.S.S.S.A.N.N.N.N.N.N.A.A.A.M.u.l.~.[.[.>X,X}.].$X$X&X,X",
"{ U K Q ).).W R Q ` W K U T ^ =.>.4XhXuX,XE.W j 0 q 8.0.k R T T ^ Q ^ P J P / E.Q Q ).}.rX%X@.v 2 : 8 5 9.t.M.t.9.s.R T o. .J s t 9.t.t.r.0.j K ^ ` ).).Q W W W W ^ @.@./ E.Q Q E Q E.] @.=.).).R j w.y.N.A.S.S.A.N.B.a.i.u.N.A.A.M.r.f.W.&X].}.}.}.`.).).#X#X*X",
"K K K R Q Q K R / ] T X.>.4.4.>.-.#XuXiXkX<XU.s y 5 q 8.g R ^ ] ).).,.@.K G Q / @.%.&X&X-X,.I > : 8 0 9.t.M.t.9.h ! @.>.@.^ W R j h 9.t.t.9.u 2 U @.` ).Q Q G S F P ^ ! W Q ).).E./ E./ ^ ^ E.).`.Q p w t.N.A.A.N.a.m.I.k d.i.M.M.r.s.E #X;X&X).).` Q W W ^ ,.6.",
"S S S K P P S R ` ] T o.6.7.4.=./ ).rXuXtX[.E a & @ q 8.g G Q ).`.&X1.>.K R #.*X,.,.;X;X4.X.x : 8 w 9.t.M.M.r.d.E -.,.,./ Q Q Q K j t 9.r.9.5 i v I ^ Q (.Q R K L P ! E W Q ).)./ Q ~ #.^ / ).`.&X] a 5 r.N.N.N.C.b.XX-.^ H d.y.r.q.j W $X;X).Q Q Q ^ ^ K T ,.5.",
"R R F D D D S W ).).^ =.6X7.@.K W ` ].}.).R a : . o 0 8.g G Q ).`.`.#X#.U  .5.aX5X5XsX6X$.{ < 8 0 9.M.N.N.u.d.E #X%X&X)./ Q E R j s p e 9.9.8.w i 2 J W / ] @.@.^ Q / Q W Q Q Q R ! @.>.4.,.#X).,. .2 5 r.N.N.B.Q.W.,.,.).Q p w 8.0.k Q $X$XQ W Q ] ,.>.o.@.*X&X",
"! ^ P L P P T ^ ).`.).%XaXaX-.W W Q `.).R a : + o 4 8.0.d G ).&X%X).)./ U  .5.sX;X;X4X4.{ 2 8 w 9.M.N.A.N.i.g./ $X;X$X).#.~ ! E R c x p t 9.9.8.5 7 p R Q -.>.>.-./ Q Q W W W W K K @.>.4.-X#X#X>.{ 2 7 r.M.N.a.I.] >.>.-./ a 8 q 0.k / ).).W W Q -.,.4.,.-.).).",
"$.@.^ ` #X*X>.,.&X}.tXuXvXcX-X#X/ / Q ! s : & @ 0 8.r.0.7 c &XyX-X,./ W K T -.$X).).] T 2 8 0 9.M.N.A.A.M.p.H Q ).#X,.>.$.@./ / @. .{ I c h 8.9.9.9.8.h ! @.-.-.>.@.R R R E Q Q W W / ] -.#XE.#.$.X.x 9 9.M.M.i.g.W &.&.o.U x 9 q w.P.).` / / #.@.@.-.$X%X%X` Q ",
">.=.).`.;X;X,.,.&X,XtXuXsXsXyX;XE.E R s : : @ w 9.t.M.r.w s ).;X5.4.^ W K ^ ] ).).Q W A : 6 8.t.N.A.N.M.i.f.E ` `.&X-.>.>.@./ / @.o.X. .P j e 8.r.t.r.0.n ! / ] @. .K G R ! Q ^ Q Q Q E.E./ / -.>.o.x p 9.M.M.r.j K ' '  .I > 9 q w.Y.).Q W / -.@.@.#X$X].].] ^ ",
"#X).].].].).] ^ ).).*X-X;XuXtX,XQ J i : X o 0 9.M.N.N.M.9.t k ~ 4.4.] / @.$.>.,.).Q S > & 6 9.N.A.N.M.r.d.P.#X&X].].).).] / Q Q ^ T X. .^ R y 5 8.t.t.t.q.f R W ^ ^ ! R R W  . .W Q / / E Q -.<.<.&.I z 9.M.M.r.d J ` ).R a : 8 q w.Y.).Q R W / / ] ).`.).).,.4.",
"`.].}.}.].).Q W Q / @.@.).}.}.`.R a : + o 4 9.M.A.S.S.N.t.9.g K @.>.] / @.$.4.,.-.^ a : 8 w t.N.A.M.r.s.E / ;X;X&X].`.).` Q W W W ^ T T ^ W a u 0 9.t.M.t.9.h j S K K R W ^ @. .^ ^ / ~ E Q ] :.:.;.I z q.M.N.t.e j / / R a : 6 q w.P.(.Q E R Q ` ).`.).U.] ,.5.",
").`.].].&X`.Q W W W R ! U.(.Q G a & & @ 0 9.M.A.S.S.S.A.N.p.B I U ^ / / Q ~ -.-.@.U x y e 9.M.A.N.u.d.E U.#XpX6X#X(.Q Q Q W K W (.).^ P R R W R j h 9.t.M.t.9.e y > 2 I / )./ ^ @.o.$.@./ Q ` ).'.` x 9 r.N.N.M.y.d.~ T K a : 6 q 0.j W Q Q E E E.).).(.Q ).#X%X",
"/ / Q / )./ R K J a a s R R j d 7 6 5 w 9.M.N.A.S.S.S.S.A.i.V b x S W Q ! ! Q Q U v < 8 0.t.N.A.N.a.T.).].&X4X5.] Q Q Q Q W W Q ).).Q W K R Q Q W G f 9.t.M.t.9.w $ < x / ).` ] @.$.$.=.] ` ` ` )./ a 5 r.N.A.N.y.z.~ U J a y 5 8.0.j K ^ / ! ! E.).] -.-.#X`.].",
"W K a a a a > : ; ; & : : u e 0.9.9.r.t.M.N.N.N.N.N.N.A.A.M.y.e i : s R U U R j x < ; 8 9.N.A.N.M.n.:XyX&X).] ] / Q Q Q Q ` ).).Q Q W W W W W Q ` Q G h 9.t.M.t.9.0 $ > R / ' ' ^ ^ / / ` ` ' ;.>. .< 5 r.N.N.i.f.E / ^ a 8 0 8.r.9.h K @.$. .@.).#X1.5.5.4X;X;X",
"A a y 6 5 5 5 6 4 4 6 5 5 w 9.t.M.M.N.N.N.M.u.a.F.C.r.t.N.N.t.9.w 9 d g v v a i : : $ 5 r.N.N.N.a.m.3XuX].).^ ^ Q Q (.U.Q U.).).E R R W W W W Q / / Q G s.9.t.M.t.9.w y s K ' ' Q Q ] )./ / ' ;.o.{ : 5 r.N.N.i.k R Q R > 8 8.r.t.r.d c } o.X.@.).&X4X6X6X4X=X$X",
"> i 0 8.9.r.r.r.r.r.r.r.r.t.M.N.A.A.A.N.t.y.d.P.{./.g w y.B.M.t.r.r.9.0 i ; : : & 8 q r.M.N.M.a.h.Y.].].` ^ >.>.^ Q ` E.Q E Q Q W R R R T  .Q ~ @.@.] Q G h 9.t.M.t.9.0 8 a W ` ).] ,.,.Q Q / / ^ J : 5 r.N.N.r.9 : a x 2 z q.M.M.r.9 : c K o.>.).&X;X5X5X=XE./ ",
"p e 9.M.N.N.N.N.N.N.N.N.N.N.N.A.S.S.A.M.9.t E ] &X%XJ u w.i.M.N.N.N.t.9.w 5 5 5 7 w r.M.M.M.y.f.E.-.).).` ] ,.,.=.` ).).Q R R R W W R R } @.@.@. .@.).).^ M f 9.t.M.t.9.5 y S Q ] *X1.,.Q Q Q Q S a y w t.N.N.t.w 8 : > l m i.N.N.t.w 8 p c } @.).`.$X$X$X#XR c ",
"r.t.M.N.A.S.S.S.A.N.N.N.N.N.N.N.N.N.N.t.w p Q ).).` W S j d.i.M.N.A.N.M.t.r.r.r.r.t.M.M.M.y.d.! ,.1.#X).`.#X#X-.,.,.#X).U.Q R R Q Q R R ^ ^ @. .T ^ ` ] @. .M f 9.t.M.t.9.w y x $.4X;X&X).Q Q K a 9 0 9.M.A.A.M.9.0 8 8 w q.M.A.A.M.9.0 u a x K / ).E R W K 2 < ",
"N.A.A.S.S.S.S.S.A.V.Z.F.F.B.a.u.r.t.t.9.7 x ] #X).` ` Q P G f.i.M.N.A.A.N.N.N.N.N.N.N.M.i.f.E ^ ,.1.-.).#X#X).-.4.4.#X).(.Q W R Q Q R R W ^ @.T W W Q / @. .P j f 9.t.M.t.9.5 i } >.).).` W K a & 6 8.t.N.A.A.N.t.9.w w 9.t.N.A.A.N.t.9.w i : a W W s i s g p 8 ",
"S.S.S.S.S.A.S.A.A.G.9X0X{.~.Y.P.g e 9.0.p K ,.-X#X).`.).Q R G h r.t.N.N.A.A.S.S.A.N.M.i.f.P.#X*X*X).` ^ @.@./ ] >.>.] (.U.Q Q Q G G R R R R ^ / Q W Q Q W P W Q j h 9.t.M.t.9.w i x K W W K a & X O 9.N.A.A.N.N.M.t.r.9.r.t.M.N.N.M.t.r.0.5 o ; J J & @ w 9.y.y.",
"bXS.S.S.A.N.M.C.J.9X8XhXrX`.` K > 8 q 0.j ^ ,.-X#X).`.).^ T U M f 9.r.t.N.A.S.S.A.N.i.f.P.).$X;X`.(.Q ^  .@./ / @.@.-.] ).(.Q Q G j R R K R W / ^ ^ Q Q R R Q ` W j t 9.t.M.t.9.w y a a a a 9 6 O 5 r.N.N.V.B.C.a.i.i.t.r.y.u.B.a.i.y.y.9.q 4 6 g g 6 5 9.t.N.A.",
"bXS.S.A.V.a.d.P.>X8XsX6X*X).K > X o 0 0.k Q ).#X).` ` ^  .X.o. .R g u 0 t.A.S.S.A.u.d.E `.,X$X).).).E./ / ] / Q ^ ^ >.,.#X).Q R R R R R R W T  .X. ./ Q K R (.).).W s w 9.t.M.t.9.0 y : : y 0 8.8.9.t.M.M.C.^.@XOX.Xp.y.s.h I.~.I.P.g.d.9.9.9.9.r.r.r.r.M.A.S.S.",
"bXS.A.N.a.h.E ] yXdX4X,.-.^ x : o 4 q 0.k Q ).).` Q ^ ^  .o.$.@.P A : 9 r.N.S.S.N.y.k ` &X,X).Q Q Q E.).).).Q Q Q ^ ,.,.).(.Q R W W R ! ^ ^  . .X. ./ Q W W U.).)./ K s 0 9.t.M.t.9.w 5 5 w 9.t.t.r.9.q.p.m.:X;X5.%.c.d.k R ).).] / ! k 0.9.t.M.M.N.N.N.A.S.S.bX",
"bXS.A.u.d.E `.,X,X&X#X-.,.@.2 @ 0 8.r.q.k K @.=.^ ^ >.>.&.=.#./ W S : 5 r.N.A.A.M.k.I.#X-X,./ Q W Q Q ).`._.Q E Q / #X).` Q Q Q W W T X.o.@.^ ^ ^ ^ ` )./ Q Q Q Q ` / ! s e 9.t.N.M.t.r.r.r.t.t.t.9.0 g T.:X$X&X&X).Q E Q Q ).] =.@.! R j h y.M.M.N.N.A.S.S.S.S.",
"S.S.N.i.k ` }.tX].`.).).>.} i w 9.t.t.y.k K @.=.^ =.>.>.;.' / Q W S : 5 r.N.A.M.y.f.Y.%X1.,./ Q Q Q / ).`.)./ ~ / E.`.).` Q Q Q Q ^  .X.$.@./ Q Q Q ).).#X/ E E Q U.)./ J p w 9.M.A.A.N.N.N.M.u.y.d.p K #X;X%X#X).(.Q ^ / / / / @.@.R R K R z.k.a.B.N.A.S.S.S.S.",
"A.A.M.k.I.).}.}.`.).]._.U z 0 9.M.N.M.y.k W ).*X,.>.@.] -.).Q R R A : 5 r.N.N.t.e j U.].&X#X).` ).] =.=.).#X,.,.#.E.).).).).Q Q Q ^ X.X.@./ E./ Q (.).).,.@./ Q E Q ).).Q S y w t.A.A.S.A.N.t.y.Q.`.#X#X$X%X-X,.` Q Q / @.@.^ W P K j R @.,.E.I.I.l.a.N.A.S.S.S.",
"A.N.y.f.Y.].}.].).).].).s 7 0.t.N.N.M.y.g./ ).*X1.,.^ ^ ] E.~ R J a y w r.N.M.y.N ^ ).&X`.).).).).] =.=.).#X-X,./ / / ).).U.E E Q Q @.@.Q / / / Q Q (.).@.@.#./ Q Q `.).Q S : 5 r.N.S.S.A.M.p.z.`.,X&X;X`.).,.>.^ W / #.%.=.^ W S s s R >.4.-.` ` T.l.a.V.A.S.S.",
"N.t.t j `.}.].`.E.).`.(.a 9 9.M.N.N.t.e.I.#X,.1.*X*X>.@.^ ^ @. .x p 0 9.t.M.M.k.oX;XyX2X#XE.Q Q Q ` ] ] ).).#X#X/ W Q W R G R E E Q Q Q E E Q Q R G W Q ^ ^ @.@./ U.`.).W A : 5 r.N.A.A.M.p. XOX$X].`.).).` ^ ^ W W / E.] ] ` Q G s G ^ $.$.^ Q Q U.P.v.a.N.A.A.",
"N.r.d K ).,X&X#X).E._.Q a 6 9.M.N.M.r.d.Y.&X-X,.#X-.@.@.W W  .{ < 9 0.t.M.M.y.b.:XyXyX;XE./ R R Q Q Q / / ] ).(.Q Q Q W R R E E R R Q Q R E Q Q G G W W Q Q @.@./ (.).).W S : 5 9.M.N.M.y.z.OX1.#X).).] ` Q W W P ^ Q E.` ` Q Q R R W ^ =.@.^ E Q / / P.f.y.N.A.",
"N.y.j W `.rXpX4X#XE.Q R : 6 r.N.N.u.f H `.}.&X#X@.@.^ W R R c < X @ 9.M.N.t.d.E `.&X)./ / E j G W Q Q / @.@.^ Q Q Q / / / / / Q W W W W W W / Q W R W Q (.)./ / W Q ` (.Q R : 6 8.t.t.y.Q.`.$X#X)./ @.=.] Q R K U  ./ Q Q Q Q Q Q Q Q ` ] ] / Q / E.).Q p 0 t.N.",
"N.u.k W %XeX4X5.*X-.! c y w r.N.M.y.P.` ].}.].).$.o.^ Q Q ! a : o 5 r.N.N.i.L.Q ).(.Q W Q Q R G W Q ] =.>.>.^ Q Q E.E.E.E./ ] ] ^ ^ W W Q ` / / W W Q Q ).).E./ Q Q Q Q Q R : 6 q 9.8.d.Y.&X&X)./ ~ @.@.^ ^ W R  .@.` Q W W Q Q ).).Q Q / ).).).E.).#X^ > 7 r.M.",
"N.u.k ^ 5.4X-.-.1.>.} z 0 9.t.M.t.k.:XyXrX].).] 4.4.-.] ,.$.x 8 0 9.M.N.M.k.Y.).` Q / / Q W Q Q Q ] ,.5.3.,.#X).E./ E Q Q / @. .o.@.^ Q ).`.).Q W Q ).).Q Q E.).).).(.Q Q R : 6 q 8.5 p U.&X-X,.^ W ^ ^  .@./ ` ] ] ).).Q E Q ).).Q W R E Q )._.).).,. .x 9 9.t.",
"N.u.h ! 5.4X-.=.4.2.Z l 0.t.M.t.9.h.>XuXrX].).-.,.1.#X#X5.o.2 6 8.t.N.N.y.z.`.%XQ W / E.Q Q Q Q Q ] 4.6.6.,.).)./ ~ E Q Q / T  .$.@.^ ` `.`.` W W Q ).).Q Q E.).).).).Q R s : 6 q q 9 a ).&X,.>.^ W W ^ @.@.] ).).).).).E E E.).Q W K S R Q E.).`.#X=. .x p 9.t.",
"A.M.9.f E.*X4X5.3.{ 2 8 9.t.M.t.f E `.,X].&X,.,.-.).`.#X,.X.< 6 9.M.N.u.e c ,.,.Q E Q ).).(.W W Q ] >.3.-.#X/ ^ @.@./ Q Q W R ! / ] / / ` Q W R W Q ` ).).).).).E.)._.Q s : & 6 q q p K ).&X#X/ ! R Q / ] ] Q Q Q Q U.Q E E Q ` Q W S S R W Q ).).#X] ^ x p 9.t.",
"A.M.8.f T.%X4X5.X.3 : 6 9.t.M.y.k Q (.).).-.,.>./ Q (.).=.} < 6 9.M.M.r.j K >.,.Q Q / ).`.).W R Q ] >.,.#X).Q ^ @.@./ Q W W R E Q Q E.Q W K K K W W Q ).).).).).E.E.E.R : + @ 5 q 0.j W ).`.E.Q E Q / ] ` Q W W R Q U.Q R R Q Q Q W K P Q Q / / E.E.).W a 9 9.t.",
"N.t.w j ).].-.^ J > & 6 9.t.r.q.P.` )./ ^  .^ ^ W R R W / ! > 6 9.t.t.y.P.` ] / / / ,.-X&X).Q W ` ).#X#X`.).(./ ] / Q E W Q Q Q E E E R R K P W R Q Q ).).).).).).).E s : @ 0 8.9.0.j W E.).Q E / / @.@.W K K R Q U._.(.R K W Q Q / @.@.).).=.@.~ / ).Q a 5 9.t.",
"M.r.d K ).).Q S a : @ w 9.r.0.s.T.).] ^ I I P W R K U ^ ` Q a 6 9.t.t.y.Y.).).U.E.#.4.5.#X).Q W ] #X#X).`.).).Q Q Q E Q W Q Q Q Q E E R R K W W E Q ] #X).).).`.].(.G p 9 w 9.r.r.0.j W / ~ Q Q Q / =.@.K S S R Q (._.).W W W Q ~ #.%.=.).).@.@.Q / ] ^ a 7 9.t.",
"t.y.k R Q Q W A : 8 0 8.r.r.t k U.).=.o.Y L P W Q / >.,.#XQ a 6 9.t.t.y.I.).).).E./ >.>.#X).Q ! @.,.#X).).).(.Q G G Q Q ` ` Q Q Q Q Q Q W W R E Q ] ,.1.&X}.].].].(.S u e 9.t.t.r.q.k P  .@./ Q Q / ] / ! R R W W Q E.E./ Q Q /  .@.-.).).E.Q Q E.).=. .x 9 9.t.",
"t.y.x.Q W W W S : 9 8.r.t.r.h R ` *X>.o.Y P ^ ^ / #.4.5.%X/ a 6 8.t.t.y.g./ -.#X` / @.@.] Q Q ! @.@./ E.U.(.).Q R R Q ).#X-./ Q Q Q Q Q W W Q Q Q ] ,.4X;XrX,X].).R > 9 0.t.M.M.9.s.E ^  .} Q Q Q Q ).).Q Q W Q ^ ^ / E.E.E.Q W @.@./ ` / Q R E U.).=. .x p 9.t.",
"t.y.I.).Q Q Q R a 7 9.t.t.r.h K @.>.#.#.o.*.>.>.^ ^ >.3.5.>.2 6 q r.t.r.h ! ,.,.' Q / / Q Q / / ! ! / / Q ).).).^ T / ] ,.,.] Q Q W R R W Q Q / Q / %X;XpXpX&X).S : X @ 9.M.N.t.f H (.).Q ! E Q Q ).].].)./ Q / @.@./ / Q E G R Q / Q Q Q W G j R W / ^ v z q.t.",
"t.u.~.).] / Q R a p 9.t.t.r.h R @.%.#.#.@.>.>.>.^ ^  .>.4.>.x y w 8.r.9.d R ,.,.^ Q Q Q Q Q / / E E U.).).).).] o. ./ ).-X5.-./ Q W R R Q ` )./ E Q `.&XpX4X$XQ i + o 5 r.N.N.i.k / %X&X/ E ! Q / ).&X;X).).` / @.@.~ E ! R j R Q / Q W W W G G R W Q ! v z 9.t.",
"t.y.~.#X=.@.R s : 7 9.t.t.y.k E ).-.@.@.-.] ^ ^ Q ^ }  .-.).W s y 5 8.8.d R / ] / Q Q Q Q / Q E / E.).`.`.).` ^ o.$./ ).&X%X,.@./ Q Q / ).).).Q E Q `.].&X#XE.R : @ 0 9.M.A.N.a.I.#X-X-X] Q @.@.] ).-X-X%X).Q Q / / ! R R R E ~ @.@.^ W Q Q R W Q ` @.I < 9 9.t.",
"t.y.Y.#X,.@.R s * 6 8.t.t.y.k Q `.`.@.@.).).W W / #. .@.#X#X] K a 9 q q g R U.).#X-.` ` ).).Q E E / ).`.).).Q T o.@.^ (.].&X,.@./ / / E.).).(.Q E Q ).`.).Q R s y w 9.M.A.A.N.B.~.&X4X,./ / @.>.-.-.,.,.#X).Q W Q / Q R K K W ~ @.@.^ Q / / Q / ).-. .I > 9 9.t.",
"t.y.I.).).).W S : 6 q r.t.r.h E }.,X)./ E.E.Q / ,.,.#.#.,.4.>. .c u q e j Q ].,XpX4X#X).`.).U.Q R R Q (.` ^ T  .^ W K W ).].#X] ` Q E E Q Q Q Q W Q ).).Q S a 8 0 9.M.A.S.S.N.B.~.].&X).W W / -.,.,.@.Q / / Q W Q Q Q Q K S K W / / / / / / / / =.@.U J s d 9.t.",
"t.y.P.` ).).Q W x i w 8.r.9.h Q }.,X)./ Q Q / ] ,.,.#.#X4X5.>. .c d q 0.E ).}.uXpX4X#X(.).).` Q G R Q / W W  . .W W W W (.).).` Q Q E R W Q / / Q Q Q Q K a y w 9.M.A.S.S.S.N.B.~.`.).Q W W Q ).,.%.Q E / / Q W ^ ^ / ^ R S S R Q E./ / Q Q E./ %.@.^ R S h r.t.",
"M.i.k ^ @.=./ / @.} l 5 8.0.k ).}.&X,.@.K R / / ^ ^ / ).%X*X] K a 9 q 0.E ).}.,X%X] W W W Q Q W Q Q @.@.! ! Q ~ Q Q Q Q Q Q Q W R R R E Q ] @.@.^ W W K a i 0 9.M.A.S.S.bXS.N.B.~.`.Q G Q Q ` / Q Q Q Q ).)./ ~ @.o. .T R R R W ` ).Q Q Q Q Q / XX#X] Q R k y.t.",
"N.u.s.M @.>.-.-.4.X.< @ 0 0.k Q `.#X>.o.U R Q W K T / #X&X).W a : 6 q 0.E ` ).`.).Q W W W Q Q Q Q ] =.@.^ E / / / ] ).).Q W W P K R ! ~ / -.>.@.^ K A a i e 9.t.N.A.S.S.S.S.N.a./.#X^ R Q Q Q Q Q Q Q ).)./ ~ #.%.$. .} ! E Q / ] ] Q W Q Q Q Q E.#X).Q K g 9.t.",
"A.M.9.f E -.,.4.>.{ , o 0 q p K / #. . .^ Q R K  .o.$.,.$X).s : & 6 q 0.E Q W Q ).`.).).).` Q Q ).).] / / Q Q / @.@./ E./ ^ U U W / @.$.$.>.-./ J a : y 0 9.t.M.N.N.N.A.A.A.N.i.~ >.>.@.Q Q Q E.E.).).).Q ^  .@.-.-./ ~ / E.).] ,.,.^ W / / Q Q E.E.).W a 7 9.t.",
"A.M.9.e E ] ,.>. .3 X o 0 q 9 a ! ~ @.@.Q W K U @.>.>.,.#X^ > o @ 5 8.0.j S A K ).`.`.`.).] Q Q ).).).Q Q Q Q / =.%.%.#.E.~ T T / / @.o.o.@.] W a : @ w 9.t.M.V.C.a.a.B.M.N.N.i.V O.%.@.! E Q Q ).).).).` ^ T @.] ).E.E.E./ ] -.,.,.@.^ / E.)./ ~ ~ W K : 6 9.M.",
"N.t.e s Q / ^ T K x X o 0 q 8 a ! / / Q R K U  .%.#X#X-.@.I ; o 5 8.r.9.u : > s Q `.`.).=.@.W W ` ).).Q W W Q / ] -.,.,.#X)./ ^ Q W P T ^ ^ W A ; o w 9.t.M.Z.J.@XOXT.h.y.t.N.M.y.t M R R R W Q ).).`.`._.).! ! / _.).).Q ^ @.,.*X*X=.=.).).(./ @.U x : & 5 r.M.",
"N.r.u a R ! S a a a @ 4 q q 6 : R / / W K K } o.-.#X)./ U 3 X o q r.t.r.w 8 : a R / ).#X,.@.U W ` ).)./ W W / Q Q / ,.1.#X).Q Q Q W S S R K S a @ 4 8.t.M.Z.K.9X5X4X-.E d.y.N.N.t.9.d s R W ^ ^ ` ).`.`.`._.Q Q ).).).` Q ^ @.=._._.=.=.).).Q ^ U 3 ; + @ w t.N.",
"N.r.7 & : i : : : 8 0 8.r.8.6 : J R R K S K  .o.>.@.^ K a ; # 6 9.M.N.M.9.0 8 : a K @.,.-.#. . .).`.).] @.@.] Q W W ] #X).Q Q Q Q Q G s S S > 8 0 8.t.N.Z.K.8XhXyX;X=.^ E h.B.N.t.9.p s W / @.@./ ).`.`.).] ,.,.&X].).Q Q / ] ).`._./ ^ / / W J x ; . o 0 9.M.A.",
"N.r.w 6 6 6 6 6 6 5 9.t.t.r.w y a a a a S K $.3.o. .J a * + @ w t.N.A.A.M.9.w 8 : x  .@.] / @.@.).`.`.#X@.@.] ` Q Q ).).] / ! ! / Q G s a a y w 9.t.M.V.G.9X7XvXyX#X .I T g.i.M.M.9.u a R / =.=.] (.)._.(.] ,.-X;X&X#X] ).).).).).` W W ^ ! J a : + o 4 8.t.N.A.",
"N.t.9.q q 0 q q q 8.r.t.M.t.r.q y : : : a T >.3.T J a : & @ 0 9.M.A.S.S.A.M.9.0 8 > K ^ Q E ! Q ).`.].`.Q ^ / ).`.].].&X=.$. .@./ Q G s : y w 9.M.N.N.B.!.:X6X7.>. .3 1 > d r.N.N.r.7 : s E ).).).Q Q Q E.).&X;X,.,.4.1.#X`.E./ W P U U K J a : & @ 0 8.t.M.N.N.",
"M.t.r.q.f.f.f.w.w.0.q.r.t.M.M.r.w @ + : J T >.@.U a & + @ w 9.M.N.A.S.S.A.N.t.8.5 y s K R R R R Q ).].].U.Q Q ] %X&X&X*X=.X.{ U W R s i 8 w 9.M.A.A.N.u.I.] ,.>.{ v l 8 8 0 t.N.N.t.w 9 i s Q U.).E.Q Q / ).`.#X>.2.4.,.#X).Q R K J v v c g 7 6 6 w 9.t.M.M.t.u.",
"i.y.g.U.>X<X[.W.XX+.N 0.9.t.M.t.9.0 @ : } @.T U I 2 X o 0 9.M.N.A.A.A.N.N.M.t.r.9.w y a S K K R W ` ).).)./ @.@.>.,.,.=.^ K 2 > a a : 8 0 9.M.A.S.S.N.y.j J T K 2 i t e.y.t.N.A.A.N.r.q 9 : : S U.`.)./ Q E Q Q  . .@.Q Q W a a A A > i 0 0.9.9.9.9.r.t.r.9.d.k ",
"k.l.P.'.iXzXyX;X5.>.R j e 9.t.M.t.9.w i I } J a 2 , # 4 9.M.N.A.A.N.B.u.a.a.a.y.r.8.5 8 a a a A S K W Q Q / U { { X.X.} J a & # & : 8 w 9.t.N.A.S.A.N.r.e u p p 9 5 q.M.M.N.A.A.A.A.N.r.w 6 6 u R Q Q W R K c c I I c S K s i 9 g g 9 w 9.t.M.M.t.r.9.9.e.z.! U ",
"Y.Y.`.}.uXuXpX4X-.] Q G u 5 9.t.M.t.9.0 i 2 a > : $ w 9.M.N.A.A.M.i.h.I.I.Y.W.b.y.r.8.w y : : : : : : a j S A > 2 2 x x > & . . . @ 0 9.t.M.N.N.N.N.M.r.8.q q q q 8.r.M.M.N.A.A.S.S.A.M.t.9.8.0 u a a a x x > : : : : : : i 0 8.r.t.r.t.M.N.N.N.t.8.5 g W.=X,.>.",
"#X'.].}.,X%X,.,.#X).#X^ a 8 0 9.t.M.t.8.6 & & : 8 w 9.M.N.A.A.N.r.f.W.'.).).] T.y.t.t.9.w 5 5 5 5 6 6 8 y a - = & + : : 8 @ o o o 4 8.t.M.M.t.i.a.a.p.p.f.e.w.w.w.w.p.y.y.u.N.A.S.S.S.A.A.N.M.9.w 5 6 8 l l 8 6 6 6 6 6 6 5 8.r.M.N.N.A.A.A.N.M.9.t M / ;XdX4X5.",
">.-.].`.=.@.! Q ).&X6X,.U a 8 w r.N.M.9.5 # X o 0 9.M.N.A.A.N.u.s.E 2XyX).Q K g y.N.N.M.t.r.r.r.9.8.q 5 @ # & & . . # 8 0 q q q 0 q 9.r.t.i.d.N XXOXOXXX[.[.Y.Y.W.W.I.P.k d.i.N.A.S.S.S.S.S.A.M.t.r.9.0.q q 0 0 q q q q 0 q 9.t.N.A.S.S.A.N.M.9.d E uXzXkXtX,X&X",
"2.>.#X).@. .R E ).;XaX7.^ S : 5 r.N.N.t.w @ o 4 8.t.N.A.A.N.N.a.E -.eXuX).R a 9 r.N.A.A.N.N.N.M.t.t.r.q 4 o @ @ o o @ 5 8.r.r.y.q.q.0.e.j.b.P.^ >.6.5.4X;X&X).).%X%X).Q Q E f.a.V.A.S.S.bXS.A.A.N.M.M.r.q.w.0.0.0.w.w.w.w.w.q.r.M.A.S.S.A.M.y.d.E '.zXxXuX}.}.}.",
"2.>.#X$X=X#X/ Q Q -.4.5.#XW > 5 r.N.A.M.9.q q q r.t.N.N.V.V.Z.H.=X5.%X).E s : 7 r.N.A.A.A.N.N.M.t.t.t.9.q 0 0 q 0 0 0 8.r.i.B.F.Q.Y.+.+.oX:X}.&X>.>.*X%X,.@.] ).).).Q ` ).).Q g.a.N.A.S.S.S.A.A.N.M.M.a.Q.Y.P.P.P.E.%.OXoXR.E h r.t.N.N.M.i.h.Y.$XrXuXrX&X`.].].",
">.%.%.$X2X2X$X).Q ^ >.,.%X).a 9 r.N.A.M.r.q.f.j.k.a.a.a.n.H.H.m.5X4X*X/ R a : 5 r.N.N.A.N.V.Z.F.k.k.k.k.f.w.w.w.w.w.w.w.k.F.J.^.W.-.,.,.;X,X<X&X@.o.-.-.@.@./ ).).` Q ` ].].] E f.y.N.A.S.S.A.N.u.y.k.b.[.&X)./ -.*X4X4X%X#XQ j 0 8.t.t.r.f.T.%XuXuX,X&X].).#X#X",
"] ^ @.-.kXlXtX`.Q !  .$.*X).K g r.M.N.u.s.E :X3X1X@X.X.XoX/.T.T.#X-X4.>.R a : 6 9.M.N.N.M.F.9X0X3X3X3X1X[.Y.R.T.T.T.P.Y.~.{.>X=X-.,.*X%X,X,X].#X%.o.o.@.^ / E.E.).` Q (.`.].`.Q j e t.N.A.A.V.a.d.k W.:X,X&XQ ^ >.5.;X&X] Q Q R $ 4 8.9.f E $XyXuXuX;X&X,X;X,.>.",
"/ ^ o.,.tXjXrX#X~ ! @.@.*X-.K j q.t.M.y.N ' yXgXdX4X>.>.=X#X/ / #X*X,.@.K a : 6 8.t.t.i.k.^.3XgXgXgXgXuXyX%X$X$X=X$X).'.&X&X;X$X,.,.#X&X].].).-.>.o.X.T / Q / / Q Q Q ).`.].&X] K g y.N.N.N.i.f.E Q ).;X;X#XR K @.1.&X].] ^ ` R & o q 0.j ^ %XdXuX,X$X$X;X;X,.$.",
" .o.3.4.$X&X-X4.$.@.-.#X,.@.J p 9.t.t.p.~ >.&XyX-X>.@.^ / ).).#X,.4.=.P a : & 6 8.9.f N W.:X$X%XdXfXrX;X-X1.#X#X,.1.#X%X-X1.#X).] ] )._.).).`.#X>.o.T W Q Q Q W R W / ).`.&X-X,./ P.p.M.M.r.e j Q _.).).#X/ R s ^ ] ].&X,.,.] R : @ q 0.k ^ >.,.$X`.).] ,.,.-./ ",
"{ X.3.,.] / =.>.>.,._.).,.@.J g 9.t.t.e.B @.%X&X,.@.! Q #.*X%X%X4X1.^ S : # + 6 q 0.j / %X;X#X#X;X2X&X#X,.,.#X#X,.,.#X_.,.,.] ` ] ] )./ / E.).).=.@.W W K K P W R W ).).).*X4.4.-.U.z.p.r.9.p K ).].).)./ Q R G W Q %X%X4.>.^ K : @ 0 0.N ^ @.@./ / ] -.@.@.^ / ",
"..X.^ ^ Q W P ^ *X$X).).&X).Q k y.t.t.q.p U ).$X#X/ W / 4XaXwXqXeX%XQ a # . # 6 q 0.P.`.rX,X-.%.#X$X$X#X#X#X`.#X>.>.] ).#X#X).] =.=.] ).E.E.).).] / R J J J J K W / ).).=.>.o.@./ / ~ n 0.0.g E `.&X).Q W Q U.U.W ^ ,.4.o.} K > # o 0 0.T./ ^ K K ^ >.>.@.T U } ",
"}  .^ ^ ^ T K W ).)./ / ].].` k y.t.t.9.7 a ! E.).` ^ =.aXaXwX%X].(.K > X . @ 5 q w.Y.].,X%X,.@.).).).$X`.`.).#X=.@./ ).).).).] >.>.-.).E.E.).).Q Q W K I I K W ~ E.).#X>.o.X.T / ^ I z q 8.k ! ).#X#X] Q / ).).` ] 4.3.$.U x : o 4 q w.W.).Q K K U $.=.^ P T } ",
"R ^ >.>.>. .} T / / } @.&X`.Q k y.M.M.r.7 : s R W ^ @.>.*X$X] / W K a & . o 5 q 8.w.Y.).=.@.! Q ).`.).).`.).=.>.#.` ).).).(.Q ' >.4.#XE.E.E.)./ W W Q / Q ~ / #.%.%._.#X$.o.T W Q W x 8 q q p S W ] ,.,.).).=.=.).%X6X6X,.^ a @ 5 q 9.j.{.,X).^ T } U K K R / / ",
"R ^ ,.4.3.o.X. .^ ^ T @.#X).K g 9.M.N.t.w 9 i s S K }  .^ R c s a a y 6 O 5 8.9.8.s.T.#X$. .! Q ).).-.).).).=.%.-.-.#X-.` Q W ^ >.>.#.E.#.#.E.Q K P ` ).E.E.).-.>.@./ E.=.=.^ Q Q W i 6 q 8.w p K T o.>.).).@.=.).&X5.4.-.R > 6 q 8.q.v.:X,X#X^ @. .U J K R Q ).",
"}  .#.%.$.o.X.X.&.' ^ / ,.@.J p 9.M.N.N.r.q 9 : : : : 2 > : & # & y w 8.9.r.r.9.e j E.*X4.>./ / @.@.$.=.).)./ %.,.4.4.,.^ W R K X. .! ~ ,.,.~ R S L ' ] ).)./ / / / / ).&X&X).).).W i 6 8.9.8.t b I 3 x W Q P ^ ].`.U v I x : 6 q 8.h E ,.4.@. .^ ^  .U R R E E ",
"X. .~ / =.>.o.o.;.] ` / $.X.J g 9.M.N.A.N.r.w 5 5 5 5 5 5 6 O O 6 w 9.t.N.N.t.y.k Q E.#X,.>./ W U }  .@.#.] E.#X,.5.4.,.@.^ K U  .@.! @.,.,.~ W P P ( =.] / ^ ^ / / Q / `.].)./ / R a 7 8.r.r.q.n x : : x J a J Q W i & , < 8 5 8.0.j T >.>.} T ^ ^  .T ! E ! ! ",
"o.$.#.E.$X#X>.>.-.).(./  .X.K j q.t.N.A.A.M.t.r.r.r.r.r.r.r.9.9.r.t.M.N.A.N.t.p.R.$X$X#X/ ^ W K K K ! !  .@.).`.#X#X#X-.=.o.o.@.-.-.@.@.@./ / / Q ^  . ./ /  . .~ / R W (.).Q ! T U J p 0.r.t.t.q.r 8 & < , ; # ; ; & + & 8 0 9.t.y.j P / #.! ! } } ! ! Q Q } } ",
"$.@.@./ `.&X=.=.#X`.).-.$.o.^ G t 9.M.A.A.A.A.N.N.N.N.N.A.A.N.N.N.A.A.A.A.M.r.d.W.;X=X#X` W K S S R ^ #.@.@.] (.` ` ).] @.$.>.-.).).@.@.W W ` ` Q Q  . .~ ^  . .^ Q K K W Q ! ! U U K j t 9.t.M.t.9.w 9 8 8 O o o O 6 7 5 w 9.t.N.u.d.G E E R K }  .! E Q ^  . .",
"! ! } @.).).).#X#X$X1.5.7.4./ j y w t.A.S.S.S.S.S.S.S.S.S.S.S.S.S.S.S.S.A.u.d.R E.$X,.,.#X` R S R Q ,.4X=X-._ P P W Q / / #.$X#X/ E ! R K K L P W ^ o.o.^ ^ o.o.^ W K S K K T } T W Q R u w r.N.N.M.t.r.q.9.8.8.8.8.9.9.r.t.M.N.A.N.i.d.j x x I X.o.^ W T U T ^ ",
"E R { } / ).).E.#X=X5.7.cX6X#.c : 6 r.N.S.bXbXbXS.S.S.S.bXbXbXbXbXbXbXS.N.y.k P ` #X4.4.%X).W S R #.6XaX;X).P D A R Q / / E.&X`.Q R R R K S D D R ! $.o.^ ^ $.$.^ W K S S K {  .T Q / ! > 6 r.N.A.A.N.M.M.t.t.t.t.t.t.M.M.N.A.A.A.N.M.q.p > 2 [ X.$.^ P I I P W "
};
