/* XPM */
static const char *wall23_1[] = {
/* columns rows colors chars-per-pixel */
"128 128 57 1 ",
"  c #070707",
". c #090707",
"X c #0B0907",
"o c #140606",
"O c #160E07",
"+ c #1A0E07",
"@ c #151007",
"# c #240404",
"$ c #2E0603",
"% c #230B05",
"& c #2A0904",
"* c #340502",
"= c #3B0301",
"- c #320905",
"; c #380A07",
": c #430000",
"> c #4C0101",
", c #470807",
"< c #530404",
"1 c #5B0505",
"2 c #580807",
"3 c #660101",
"4 c #6B0000",
"5 c #740000",
"6 c #7E0000",
"7 c #820000",
"8 c #890000",
"9 c #8A0000",
"0 c #8F0000",
"q c #910000",
"w c #970000",
"e c #9A0000",
"r c #9D0000",
"t c #A10000",
"y c #A50000",
"u c #A80000",
"i c #AE0000",
"p c #B10000",
"a c #B50000",
"s c #BA0000",
"d c #BF0000",
"f c #C00000",
"g c #C60000",
"h c #CA0000",
"j c #CF0000",
"k c #D20000",
"l c #D50000",
"z c #DB0000",
"x c #DE0000",
"c c #E10000",
"v c #E70000",
"b c #E90000",
"n c #EC0000",
"m c #F00000",
"M c #F40000",
"N c #FB0000",
"B c #FC0000",
/* pixels */
"5555353333333335eeeeeee63333133353555677666667ee7533335560eryye77658e75657eeeypddddpuyee87666666666666666678eyupppuyreryre086665",
"656555333333333680eeeee55331133335556666666668ee7533336670eyyiiur7qw0566468888ridddppyre876666666666666666778rrpupyreeryre076668",
"8886643333333356870eeee6643113333345688866668wee86333355678risddprye7554355668eydddssiye0766666666666666666660euppreqetree866667",
"888763333433335688wyttr8663313333334680w8880weee85333465566qpgfdauye0553334668eysdggfsue8666666666666666666678eyiyeeweteeq866666",
"888653344533335668epiipe863333333333668qqqwtrree83333466668qpfdspyye0554433667eypdhhdsyw7666666668766666666667wtteterreerq888887",
"888664455533335667eaaafir744433333334668eruuwwew7433336776qripsppute8555533568eypdhhdpt8666666668qq866666666568eeetrewerte008888",
"886666555535553557edggjduq77653333333568euapq8w86633335888eruaaappree765553570rypdhhdpr0766666670eee87666666667eereww0eeee087868",
"886666555536653557edlllfay08765313313360epday07653333336778epdfdapyre88886358eyupddddpyr077777778eeee0766666660erye778eeee877766",
"777656556556653567edlllldye076531311136eeuddye8633133334q770pdhhdpure87886336eyyuupaapuye088888770eeee87766667eeee7678ee0e778876",
"788766666666666667eafjllhuyew8531111136eeraar0753331333568wepdhhhapye866653347qyyyuuuussiteeeee86780eeew866667ee0866670ee0767766",
"787666776666667667euisglksaptw533111137erruue8643313368666euagkkkdiye8633333357ryyrryudfdpyryytw8667qetewq866qee7666668ee0655668",
"686666666666666668ettyphllkkae633111337e0qyye7533335770007eiahklhsytrw643333356eytrrtuppsputyyye86668eytttw00eeq766668qqe8654568",
"666666666666666668qw0wydzbmnku843333336q78tt05333337e08eewrtahhkhpye00665544568ryrwwetttiiyuiiyeq7667eyuipyttte8666688e0q7643566",
"6666666666666666668860yfcMBBMjt63333346867ee63333337eeqeeryrihjhjaye7776776667qytw88qwwwrttuppyre7667eyupdaiiyeq77670qe086634666",
"6666666666666666666678yfcNBBBba85433356667ee63333336weeeeryergkfdpyr0007776667ete87668888weyiyyye7667wyupddddure0080eee866535666",
"6666666666666655556770rdznBBncdr8633566667ee653333356weeeeeerdhdppuuree0007668eee766666667eryyyre87670yupaddaureeeeeeew765333556",
"666666667666653556788eydlnBnzldut866677656886533333337eeeeeerdfdaadgpyyeee7678ee07666666670errree8767eypadfddpyreryye07653333356",
"666666666444533368weeypdjxvzjgdputww8ww766776653333536875eyrydaapadhdpuyre876780887666666670eeee07668yppadhhhgpyeeyy075533133355",
"76666666633353356wtyyidgfgkjhdiuuiytrttqqq8666654345566630wetapppadhdsuyee07666788866666666weeeew668wysaagkzzkdiytyy065533333555",
"66666676633354460tyiasdhfsghgpttyiiaaaiuttq8666564545665378etpspiadggdiyte06645688w0800000qetttttq0wtiaiakvbbxgsuuyr865434433465",
"5666666664335668ryisddfgspsjdyeqtyisfhdsiytq866666444663378eypditisdgspytq86533468eeqttttrrryuiiitytyppislnMncjsutte654345544466",
"556666666533578eryadddsappskdue8wtyiflkgauyrq76666353443387tiaayrypdsppye076533356qeryyyyreetyipaiaiuaasgzmNnxhpyeew753355555666",
"55666666655570eerudddspypadhdpr00eyudlvzgayre86665353333388pdduyrypsyyiyre077554556wewwwwwwerruadpsppdgkkvBmnlduree0865555656666",
"5566666666570eerypddpuyrpafhdpye0erydlnnlfure077753335443w0padueeeyprryyyee087765568e777778eyupdpuuyudznvnBmnzduee08866566656666",
"556666666668e00eypddpyyrpdhfdayreeerajcnlhdpyeee863358ww4w8pppy000eyeryye00ee8886670eeeeeeterppdpuyrrfcnnmBmncfuee87766665566666",
"56666666678w07wyppaapuirtiffkdpyreerufjzljhgpyyeew5548ee5uudptr7768eqeyr078eeeetwwweeyyyryyretuuuyyyrfcnnmBBnchuee87666665655666",
"5555666768wq87eypippuuureraflhsyreeryafjjghhdiyeee666wee5udhare643600eytwq8qqrtyyyreeryrrrr80errryyyyfbnmNBBnzhpyew7666664666666",
"444446667we888eipuiitttrerpflhdateerypdfgfggdsytte077etewyiayqe7456qwtyyttw88qtyuutteeytrtt8qeeeryyyugnnmBBMckgpyee8666663656666",
"333335657eq68qtipuyteeqqwrpdljhditerypsddssdddpiute88ryyweweeqq6680ttiiiiitq88etttuuttyytuy0ereeryiipknnmBBbkgdsuteq866663533446",
"333333457q880eyyiytewq708wiflxxgaurryipssppddddaautetyupq888qq88qwruiaaapiye08weeryuuyyyyit0wweeruasgznnmBNchfdsuyreq865631><334",
"33313335667ereeyyeww868e80ydkbnldurryyyuppppdddddapppuppi085767eyuupadappuye000eeryupuyyyye880eruafgjvmmmBnzfddpyyeee86543>:3333",
"31113335557eyerye87767eee0rpflcldurryyyyupppppddaaaaappiree7877euppppppuyyyree00eryuppuyye0770eyufllznBBBBnldppyreeee7632>::3313",
"2213333356weyree076667t0yerpflzldyrryyyryuppuuadddddduuree08eeeyppppppuyyrreeeeeeeryuupuyre77erydhlzcnBBBnzfpuyreeeee863<:::111<",
"<233333357eer080766678e8yrydhccxduyyypyyrypuyyuiadfhdppyye87888ypdddpuyrreeeeeeeeryyyuppuye88eyudfjzcnmmmxfitrr0000eew613::2<>::",
":<133333560887778668778qyrudkzczdpiupspyryuyyyrruddhhjhfduw665qypdgdsuyyyteettyyyyyyyussiytwwtyiapfhzvxxlgireq07780eee845<:<::::",
"><13333346765556wq08660tyrtdllxlgssuidautyyyyttrydghjxxkhfuw08uisdhgduyuuyttyyyyuuyyyiddsaauuiiiituphjhfapyee886680qqeq65<:>::::",
"<<13333334553336wqw880eyyetdlxllkgduusiyuiiyytytudhkjccxlhsiyypadghhduyyyyyuiiiuyyyyisdgdfhfdsautewtiaaiyytre7666888qee841>>::::",
"<2133311333333368687wrryytuflczllhsuuiyyuaauyyuuudjljcccxhfasappdhhhduyyyyuipaaauyyuadfhfgzzkfpyew8qqerrytewq7666880eerw841>>:<<",
"211333121333333665878eyyyuajzvzlldpuyyyyupduyuauaglzkcvczkjshapafhjjdauuuupaadddauupdfhhjlccksyee8666688wee866667888weyyw73<1<11",
"1113533113333355356668errudlcnvzlduyreryyypuypdadklccvnvcczjhaafhjllfdaaaaaaddddappadhhjllclduree766666770e0766666667eye7811<><<",
"3333565333333333355337eerudlcnncldureeeerrryyuaadfjccvnncccljhfhjlllhhdddddddddddaadfhfhlllhayee076666678ee0876666667ere76311:13",
"3333566653313333355556eyyuajznnclauyye0ee00rypspaasccvnvccccxjkjlczcxlkkkhfdddaaauuadfdflljfur0076666668eee0865566678ert74311:<3",
"443336776533333336668qeyiupflvncjiyuie8qew8eyidsppdbxvcnMnbxclhlcbcbbbbcxlhfdauuurtuapadjjfarq778666668weeeww655666670qye66311<3",
"66434666653344555667wttypuidkxcxfutypt88etettugjssskghhbMmnzlkgkxMnmNNmbclhfdittteqtytidggdie866888868weettte8656666688rt88334<3",
"76546666654555677667wtyipuuagjjkfutuay07eyiywtglghapiiskbbbzjhhklmbbBBmncljddyewweqeweyddgdt066880088qrryiuyeq76645667qeeq645535",
"665566666556556666778eypiyyyasdhjpuudy87eyit8esjhlprtyidzxllljhkjccvBBMMvzlfdie8qrre0eydfhde7668888qqruiaauyre86535667eeee766576",
"665566666677888888000eypyyeeypshlduady77eyur8epddky8eyyigfphkhhhjcvmBBBBnzljfdr0ruye0eudfjde7668870eryadfdpyew86555557eeee886666",
"66566666670eeeeeeerreeyyye88eyudlfaddy07eypurruaage7eyeeirydhahhjccNBBBnclllhdrrupue0rpfjlde7666660eruddhdpye876633558ee0ee76666",
"6666666668eyyyyyryyyreryye770eydlhdddue700uspppdad080ee777rpdadfhjjvBBvzljllfaupddprerdlllae7666668eyudfhdpye766655568eeeee86678",
"666666667eyssppyypsureqrr06670rajlhhdue8w0yaaaadad080e0667ertuaafhjcmbzjjjllfdggdapyyyhxlfu06666667eypdhhdpye76666656788eee87888",
"666666688eidddsappire888876668eifjjkdatetryuupadpi888e8867eqqrupashhlkjhfhjjhkzjaifapszbldywq866666eyshhhdpye88qq7666666880778w8",
"6666667wrusdffgfspye86556666668epfglhjatiiyyyppapq88qew866888qryiidsffghgghhglxgsalkdjbnlsytrw76660tidghgdsitwrut007666666767wq6",
"7766667rusddsdgfditq653445644468taafglhaspuiipppt6q0eee866667qewttipsfgkhdggdkkhllbbjxMnlsiyte8678tipsdhdddsiyidapr8666464677086",
"6666667qysddadddaye86313344333560rresjkfdpupapitq8erree876667ew0eeypahjkhfdsaghlbnnbzvBnxgsiye877riappdhfggfsashhfrq654343456786",
"55556667epssddpiytw85313333333335887ishddaaadpy8rwweyew006677w08werpdhhhhddppdhhlcccxmBmmxjayw667uffaadhjzzjfddgdpte753333335666",
"65335567eyuudsure8653213333333333557yusppaddduy0777wyr0ee77w78870erpdhhhhapuysdflllznBBBBnlpe6560pllfffjzvclfaddappe753333333356",
"56565567eryruuye7312<<13333333113335eruuupddhpr08778yyee0w8e8888eerpdhhhhauyruudffflvBBBBnju0537eullhhhlnNncjhhhappe765335533335",
"54566567eyrqrrre53<::>1311212111333368rrruaasaitew8wyree000e0w0trrypdhhhsprreryuuidgzmBBBnhr7358yufpshlbNBmnbxlhdape766533655653",
"65666567erq708qe63<>:>21<<<2<33111333508erttttuuiiytreqe880ewewreripshfspteeetyyrriaknBBBvfq6500rrq8qhmNBBNNNvzjdpue766654566666",
"66666668qe8886886421:>>>>><<<33111333687q8qq8qwtyiaiytwew88qetreetippdaiiutrttytqeyidnBBBxsw68t88766wkBBBBBBBvkgdpte766665666667",
"6667666qqe8887666533:::::><>>3313333588886886880qtiddiree088eyretytiappiiptrtetwqwttsnBBBliteyq56687pxBBBBBBmchsspye766666666666",
"6668878ettq787776531:::::<1<<11133336078666666668euhjstrwq0qeteeytrtippapireeew8q8etfnBBBziupy5488yqfvBBBBBBvxhaaspe766666666666",
"6770rqrrppt707887743<2<><233311333355586666666780euhzkduwrtteerryryeeyyppuuree8767eydnBBBvapy857wrsuhvBBBBBNclhfgjae766666666676",
"780eyryrppe7w8888866512<<1335333333656667776770eeruhcncfaaaprryyreeeeerupupyre08670racBBBnspe8668ryrjmBBBBBmzjjzvcae766666767787",
"e0eeyypypue787777763521<<22333353355666588878weeerphkNNjfhdpyerreee0eryupppye088778eajBBBNhp87667tytxBBBBBBBnnvNBcae7666678788ee",
"e00eyppppye87666666331<1<1336665666667868w0888880epsjnvlhhaureeryt080eyppdpyew87678rglbBBBlp766668iscBBBBBBBBBNBBzue766666778eee",
"e0weippppte8668666631<>1>1458q8667665488we8776567tsshnMcjsiteqqeyy878eyppdsiye8667rahkzmBncs755688tdkMBBBBBBBBBBBjte765666668eee",
"ewetipsapre787866665332<<<568ew866666478eeq866660ihjxMBxdueqq88qrrq77qypsggpyrwq0qigljxMBkfdq7668eidgzmBBBBBBBBBnhue76666667wrer",
"wrrttpaaite78677666646313<58qww865666667qrte0w8qydvbMBMkiy888668eee868tpfhhsirrrrydlclnBmstit8wwwisdsfkbnMMBBBBBcjdy0678766600w0",
"8weeriuiyte7668666665534658ee888655566668qeytpwufxBBBNvguuq87668eeeq80epdhhditrrtskvvbBBxpwwr7isaaispisfkxvBBBBBvxjar87807866686",
"68wweyyyeee07665656675680eeew76676535666667wasifbBBBBnlfapr00878reerr0rpfhhauyyusjvmnnBNky0887wapprppuppdhvBBBBNvmzfre78e7e76677",
"78878eeeeere07757765860eeeee8667w763567w7678hzkNBBBBNcjhdpyeee0qurryyrrpghhapuuphvBBncNxpy08767eyyruppuppsnBBBBvcNchue77w7e76688",
"78767e0eeeyryyi0w877eeeeeeee855wew6558ee87eylNnBBBBBcghapureerysguyppsupafhdappajNBmcjzarre077600erypuuutanBBBNkzncspy7808e757w0",
"66568e0e0eyqypdiiewwyyyreee07560ee7667eew8raMBBBBBBldiir8e000euhhspgggppdhhdppahmBBnkjkuyeeeww5weeryuupyrhNBBBbjjncgpy8888076808",
"666678788erwriggfiiipiireeq76678ee8668etuwydmnBBBBBhurr870w88qysshjzzzasgjhhfsdjBBBcjhguyeeeee6eteeryuuwilmBBmkfdvcjayw8w8878787",
"666666667qeweuhzkgadsfpteq866668ee880wtiaiihbhcBBBmjye887887qeyppgkvMmfjhggjjgjzBBbhdhduytttttweirttttrrszbnBMzsakktuye78q8677q6",
"6666666668q8etgcxvjlghpye8666678erqeyyidkkdjmhhclxlhie887668eytpsdjzbmzxkfsgdhxmBBkssgsiyiiiuipuptiittyydjzvBNcddhd8ty078eq877q8",
"665566776608etfccNMvkgpye767667eryyipaskmmlxNchseypdpe08668qypuafdffgzxczjshhjcNBBkadfapuppsdsfgaipiuuursdjlMbckhhi8ey878etwq808",
"7666678887eerpgxlbMxldpye878767weyipaafzBBvBBlhiw0rtpr0777etghjgjfppdhhcvxhbBxbnNNcsahdappahzjjlgapuyyeriajsckgjfgy7ey878rpyeqe0",
"8766778877eeypahhjljhdpy07666678eyryddhzNBbnNhge70ipdar087ydxjcccjaadhscBBvBBmNccncfaddaaafjczlzlsaate0yudfjzi8iddy7wt770ipyreee",
"8w77878877erypdhhhjhhdpr87666667errrpahlvBNvcir080rrpgse0erhcccnvxadfhfzBBBBBnxzjzjhaagadhhjcczccxkhs80ypdkki888ypr77767erreeee0",
"80w8w8888werypdhhhhhhyr076666668eiiiagjlnBxgpq878800thzi0eyfzcvnnbdadhhkBBBBBvzljjhhddhaahxlczlkzzdat7eipajjy7750ye76567eee08eru",
"w880e088wreripghzkzxzie8668888q0eupyyhjcNBjyq768wwwwrszhueugjccvbvhadfhdBBnBBMcjhfhfpskjfhccczljljaptqeustpfr58w8rq76667eee88eru",
"e888q8q0qqtusfkzmnmckiew868880e0etyeuhkvBbse868qqrrrqrfjspdgglcxllhssshhnBmBBBbkhgkgaskxzzcclkldhhiiiurifitu858y77768868ete788qy",
"e0888qw88qysfkbmBBBbxpteq86668e0qq0tahxvmhte878q8qww88ugffhddgzzhhhdpahxvBBBBBnzjjhhfghxxvcclkkdgjiyuitdkgy8668q6566888qrtw7678t",
"w8868q867eusfzNBBBBMBhirre7667w0888yahxxzsre8780888860isdfhffdgzjhhfaajccBBBBBmjfdifshjllzxcvzjjhhiyrtigkha768r086770qrtue86680e",
"886667870rppdlbNBBBBNzfiie86780e08eyahkggpre078e08668qsaphhjjsfgghjjaagzxNBNBNMsuutiufhlhghxxcjkjteyrrpdhhdtwujarr08eruuie767888",
"87666677eyppahlnBBBNcljjhtr888eee8eypddaaarre00ee067eyppydhlljhaahccfaafcnnvnclddpaupuflhaghjxhphq0eerpaddasppdpuieeryppye768888",
"76666678eyppafjcvnnkgjcMcdsee0eryerypdapagpyreerrt680rrrqdhjjclhajNNfaahjzzccsaaaagupuhhfaadhsp8re80eyppapyyrpupyyrerppuye768878",
"66666670ysdpadhkzvcsdjcccxhireeyyeqypduuahdpiiiiiyw0tyiirglljMbxajBBhgdfhjjcgaddppapptasdptidptwe8770ruup888888qyrqerpppr0768788",
"6666678widdapaffjkzghkkjkzhsueriyewypatruhjhgggfprq0ragfagjjlnNMxxMBvlhgsfhkapdggfipurusdpewyutrt7568eiiptrqeqewrewuispue08888w8",
"6666668rpgsippssddhjjkhdhxzgsutuyttuipreigxnzkhhpew8epadssdjlxnBNvbBNxhhpdghasghjhpsirupssywqry08667wtpsaflgdaateetpssptq88ww0q0",
"6666666eshaippipppsgghhdkzzgfdiiiiytyittpgvBvxkhpr07etttpppflzcBBmbBBnzlddsdadggggsdpreeiddtqey84667wtissjzlkkgieeipdaie8qqee088",
"6676668rfhappiuiippssfghjhfdkhsaapyrtyuuagznxczjpe80ree8tipajlvBBBMBBBmcjdppshjhhfgfprwwyshitet846660eupdgdfczhpttppspywqeeee866",
"778778eihhpuyyyyypppppdddgaacjffdpyrruaapisfgkczsttuute88tppdgxNBBBBBBnczfasjbmbclxlsupuuagaptr85567wrpadfgkmchssspppuy0eeeee766",
"00087erdhhuyyyryupppppadpppdxjjhapurradgprrrydkxjfaappreeryypajcBBBBBBvccjfhzBBBbBBNlapupdpppppr87700eudslxxjckjjhppppr0eeeee076",
"eee08rphhduyryryypupppadtrpafhlfdaprydhfpreeruajllhhaapreryruphjvBBBBBvvncljcBBBBBBBjapppdtpuuppyeeeyruhhjjsfNnccfurpue0eeeeee87",
"eqe0eidhhdprryryypppdapaiiuttshdappipaiauye08qusjjjxkgaiyeryrtaskBBBBBvcnNbxzlxbBBBBjaptuurrrruppyfffuxlxxfuhBBNnhurppy0eeeeee0w",
"e8ewusdffaprertryppaaappppiequsdsssssprtyitwqwrtpskMmlspiteretpagvBBBBNMbMmvjpazMMMvhyurrrruyrrttpkxxlNMMMnvmBBBNzsippureeqqqewe",
"q8eusggddpittrytyipipaappppreypdfkjjdittissuutequhnBBxjspyeettryskMBNNNMkzllgiahxljgsrireetiteeetaklxcBBmBBBBBBBBmlffdtyre0q0eee",
"qqepgjhgspytytyiiiiuipppppatuisggclhsttuiafasit8ehMNmbchdittt070pknnxxczaapaaiuyueq0qqurwrttetiyuidgjkmnzbBNNBBBBBmzjhrtre0e0wer",
"eetaghgfapyryuupppyyypppppyyusfhhkfiyewttryisar66tjcvnbxjsuue637szzduyiue8880865311<38tq8weweihpuuadfhzjhkbxcBBBBBNvjhyreqqw0qru",
"rtaddddappyryyyyupyeeppaaiwiagfgdptw8w0ww88wty8336yhxxcczfaae3<7hlr531353312222>::::1ey800w0eifuyudfhhhdjxsrsNBBBBnckjsur8e88rup",
"updddaadpuyrrryupuy07ypddipgdadppt0767876667863<15tdfhcccjfde1>6gi3:=+=:::::=:::::::3eiwe80eretytupdhhhpxlr4ezBBBBmvncjayre08ypp",
"pdaaappappyryyrppui730pahzaapuaur7666676666651::<30safjccclhe<:5i0>++O++++++++::::::18e5w780t76espadffhhchr338cBBBBnnnlduyyyippp",
"dautuuppppyryqqytry4>5pajbzippxu0336666666663>::>17upafjkccke>:3e8:+....OOOO+=::::::27w485355<16puagdfhhjka62<rvBBmnvxjarryusuup",
"attrrruupitq8658765<:<rygNMkglly5>>3457666651::::18rsddhjbMve>:3wq>+   .OOOO+:::::::14033<<1>:<5rtphjfhhklde3:1pbnclhaut88rtaiip",
"ye00etyyye065311<<-&&$6tsvvxajft1::>13566663<:::<5tusfghhvBM0::10r3*o.  XOO+*:::::><135<>::>::>6eqsklfhkxlhp6>$3afdpuq0868erspps",
"qe77qtyyw8431<>::$OO@+<epfafidf8>:::,<356663>::>30ippagkcmBb5::28t6>+    OO+*::::><3331>:*:::><6qedjlhkxcbchw1&*580875566qetdssd",
"0w768ett8612>::::OOOO+:7yeqysss3::::::235663<::<36weetslMnvs<::18t81%X   OOO+::::<2333>::%:::<570yadjklcbBMxa5:+=13333357erudsdd",
"e8636wee651>:::::%++O+=4866rttq1>>::::>136652::>><3558rdgie5:::37yt7:+.   OO+=::><12<>:::::::3568qwusshlnBNnlq>%%:<113368eiisupp",
"e85236we732>::::::::+O%36138885313::::>21553<:=:::><1338833:::<50use2+.   .OO+=::>>::::::::::3<23368eydhbnnncy1:::><<1370thfayyy",
"e632217e832:::::::>:=+=33<16551353>>:><11311>:++=::::<<1<::::>16epdi3:+.   .OO+::::::::::::::::>213550ralzcncs5:>>><2358ydlxgurr",
"05<::>50851::::::>1<:=>53<26833683<31:<212>:::+O+%::::::::::>137ydgsq3=O.  .OO+::>::%::::::::::::><1358upsgkja611<>>236euhlbpre0",
"83>:::17r03>::::::2<>>38513qr78q83331><<<>::::+***:::::::::>1337ijhdp8>+.   XO+::>::+%:::::::%%::::>>1368eyuu0511>::<36eakvjte86",
"71#&::>30q71::::::><3458835riuitq341>>>>>:::::+::::::::::::14658plhghi2+.    X+::>>:+O&::::::+$&&&:::>>134666412<:::230tgxcdte65",
"6=.O$::>6qq4>:::***>36558568ufgyw33>::::::::::+:>>::::>>::>3667efxlkzf3&.     o$:><:&OO$*::::$:&&&$$*::>,><1<><<>:::14rpjxlhi056",
"5O. O::=3qw5<:**O@O*233367750pfe73>****::::::*+:>>::::>>:>23667yjbczch6:X      O*>1<:%OOO****=::::%%%::::::>::><:*::16ydkkkhi636",
"<.  .=:+=585<:+OOO.O=23>35833qu83<=+OO+=:::::++::>:::::::>245660uzvzvl0:+.    .OO=21<:+..OOOO+=====:::::::::::>>=+::38ufhgft03<6",
"O.  .+,++:43>=+OO. O+=<::26325q3:=+OOOO+=::::++=:>>::::::>1333215sNvnke<+.      .+>11:+++..OOO+++++=::::::::::<:++:<5eahgpt62::3",
".    X:,XX:>:+OO.  ..+::::31::2:++O@OOOO+:::=+O+::>>>:::::>2<:::<8bvcft<+.       X:231>:=+OO..OOOOO+:::::::::>2:++:38ydfdr71:::<",
"    O.%8+.+%+OOO.OO*.X:::%><:%:%OO@@OOO+=:::%..O%:>>>>::::::::::5<fccay1+        .o:3432>===OOOO.OOO++++++%:<68<++:6esddu81:::%:",
"    X.o7*..OOOOX.O+%$.%>:+%::+%OX+**+O+*::>:+  XO%::<2>>::::::::48qvbgi3*O.       .%<6654>::*+OO.OOOOOOOOO*:5ye<++>8pgja0<&%%%+%",
"      .13o.XOOO  XXO&.o>:+O&&+OX.+::+O+:::>&X   XO&:<212>:::$:::1w3bNbd0<*.        X-377q7-<:+OX.XXXOOOOO*:1efe>++>0gzlr1&XXXXXX",
"      .$q$. OOO    XX .$>&OXXOO .+$$+O+:::>+     oO$>>33<::$+$*:>53hBBcg7>.         O;348q%<*+X     OO@O&::38y0<+O*7dlh4#X      ",
"       X81XXOO.       .+>>%.    .O@@OO+*::*O    .  O**232>:%O@O*:168NBBma<.          O*>13+*OO  .  .O+%%:::=<341+.+30yy*.       ",
".      .,8&%%+.       .O><:.    .OOO .O+==+. .  ...OO+*,2<::+OO+=:>1nBBBl4X         .OO===+O    .  .O+=::==+==>:+.O=234O.       ",
"O.     .+q1::=.        .:>:.    .OO. .OO++O. O. ..OOOO.+:<>:+OOO+::>hBBBl6X           .O++OO    .  .OO+::++O++=+OO.+:::.        "
};
