/* XPM */
static const char *rrock08[] = {
/* columns rows colors chars-per-pixel */
"128 128 227 2 ",
"   c #0B0A07",
".  c #0D0D0A",
"X  c #160605",
"o  c #190605",
"O  c #150D07",
"+  c #1D0C06",
"@  c #170708",
"#  c #140C09",
"$  c #1B0C09",
"%  c #0F110E",
"&  c #151107",
"*  c #1B1105",
"=  c #151807",
"-  c #1A1A07",
";  c #15120A",
":  c #1B140A",
">  c #171A08",
",  c #1E190D",
"<  c #141411",
"1  c #1A1612",
"2  c #171815",
"3  c #1D1912",
"4  c #1D1C1A",
"5  c #230506",
"6  c #2C0603",
"7  c #220C05",
"8  c #2C0804",
"9  c #220E09",
"0  c #2A0E09",
"q  c #330402",
"w  c #3C0302",
"e  c #330B05",
"r  c #3D0A04",
"t  c #340C09",
"y  c #3C0D0A",
"u  c #221007",
"i  c #2B1107",
"p  c #24130A",
"a  c #2B150A",
"s  c #231B0D",
"d  c #2C1C0D",
"f  c #321207",
"g  c #391107",
"h  c #351409",
"j  c #3C130A",
"k  c #321C0C",
"l  c #3A1B0D",
"z  c #2F0F10",
"x  c #241312",
"c  c #2A1413",
"v  c #231D13",
"b  c #2B1E11",
"n  c #221D1A",
"m  c #2B1C19",
"M  c #341616",
"N  c #331D11",
"B  c #3C1E11",
"V  c #311C1B",
"C  c #3A191A",
"Z  c #1E240D",
"A  c #1D2113",
"S  c #1F201F",
"D  c #25210D",
"F  c #2B230F",
"G  c #25290F",
"H  c #2B290F",
"J  c #33210F",
"K  c #3A200F",
"L  c #262213",
"P  c #2D2413",
"I  c #262A13",
"U  c #2D2A14",
"Y  c #25221C",
"T  c #2B251C",
"R  c #252A19",
"E  c #2D291C",
"W  c #332513",
"Q  c #3A2514",
"!  c #342A14",
"~  c #3B2C16",
"^  c #34261A",
"/  c #3A2619",
"(  c #342C1A",
")  c #3C2D1B",
"_  c #2E331D",
"`  c #2E381F",
"'  c #353017",
"]  c #3D3017",
"[  c #33331C",
"{  c #3D311C",
"}  c #3D1F20",
"|  c #1F2021",
" . c #262523",
".. c #2A2722",
"X. c #262823",
"o. c #2D2A24",
"O. c #262728",
"+. c #272829",
"@. c #2D2C2A",
"#. c #362321",
"$. c #3A2523",
"%. c #332D24",
"&. c #3B2E22",
"*. c #322E29",
"=. c #3C2D29",
"-. c #2E3424",
";. c #2E302A",
":. c #353125",
">. c #3C3223",
",. c #343925",
"<. c #3B3D25",
"1. c #35322C",
"2. c #3B342B",
"3. c #363C29",
"4. c #3F382E",
"5. c #2E2F30",
"6. c #2F3030",
"7. c #353332",
"8. c #393632",
"9. c #3D3933",
"0. c #373838",
"q. c #3C3C3B",
"w. c #430301",
"e. c #4B0100",
"r. c #440A05",
"t. c #4A0B06",
"y. c #470708",
"u. c #440C0A",
"i. c #4B0D09",
"p. c #530101",
"a. c #5A0000",
"s. c #510A06",
"d. c #520D0A",
"f. c #5A0C09",
"g. c #43140B",
"h. c #4C110B",
"j. c #441A0E",
"k. c #4A1B0F",
"l. c #52120C",
"z. c #5B130E",
"x. c #511A0F",
"c. c #441712",
"v. c #4D1212",
"b. c #451911",
"n. c #4B1C13",
"m. c #5B1313",
"M. c #571913",
"N. c #531D14",
"B. c #620607",
"V. c #60120D",
"C. c #611613",
"Z. c #432514",
"A. c #4B2413",
"S. c #412D16",
"D. c #4B2B15",
"F. c #45261A",
"G. c #412E1A",
"H. c #4B2C1B",
"J. c #512312",
"K. c #502E17",
"L. c #52231B",
"P. c #413117",
"I. c #42311A",
"U. c #43331B",
"Y. c #47351B",
"T. c #46311D",
"R. c #49361C",
"E. c #46381E",
"W. c #4C3A1D",
"Q. c #4E3C1D",
"!. c #53331C",
"~. c #5C331C",
"^. c #523C1E",
"/. c #612114",
"(. c #61391F",
"). c #482425",
"_. c #412C23",
"`. c #4A2D24",
"'. c #422E2A",
"]. c #5C2522",
"[. c #5D2D22",
"{. c #433422",
"}. c #413124",
"|. c #4A3522",
" X c #463923",
".X c #4B3A23",
"XX c #43362A",
"oX c #49362A",
"OX c #43392C",
"+X c #4B3C2A",
"@X c #533423",
"#X c #523D22",
"$X c #5A3D23",
"%X c #563528",
"&X c #523D2A",
"*X c #5A3A2A",
"=X c #433C33",
"-X c #4A3D32",
";X c #4B3835",
":X c #413D39",
">X c #563835",
",X c #5B3E32",
"<X c #454126",
"1X c #4E4025",
"2X c #42432E",
"3X c #4E402B",
"4X c #544125",
"5X c #5C4224",
"6X c #54422C",
"7X c #5A442B",
"8X c #5E492C",
"9X c #494135",
"0X c #46423B",
"qX c #4B4239",
"wX c #544333",
"eX c #5B4631",
"rX c #5C4934",
"tX c #564839",
"yX c #634425",
"uX c #61452A",
"iX c #664B2C",
"pX c #624D31",
"aX c #6B5334",
"sX c #454341",
"dX c #4D4640",
"fX c #4B4842",
"gX c #4B4B4A",
/* pixels */
"O.o.{ I.~ ~ I.>.1.*.^ ^ *.@.P s : 7 w e.e.r.J ] Q..X%.%..X5X5X$XT.) ~ K r.w u b ) }.o.O.O. .L F W W ! ! ~ ~ W F ! ! _ ` ` [ ) ) Q W P D s s P ! ) G.G.G.) ) G.~ W L @.1.>.G.G.G.G.I.I.I.I.~ P k r e.p.a.a.a.p.e.e.e.e.e.e.e.e.e.e.p.a.p.e.r m ..( I.Q.Q.Y.~ ~ P.",
"o.%.>.{ ( ! ~ ) %.%.W ^ %.%.E L , 0 w e.e.r.l ~ Y.I.%.%.Y.#X7X&XT.~ P k r w u v &.>.%.X.+.+.T P ^ ^ ( ( ~ / ! W ! ! [ ,.,.,.) / Q W P F s D U ( ) _.T.T.T.G.) ^ P L o.*.&.G.S.S.G.I.I.I.~ ! P a e w e.a.p.p.e.i.i.h.u.u.i.i.r.r.r.e.p.p.e.r c Y ) Y.W.W.I.~ ~ ~ ",
"}.>.2.1.o.T P W ^ W k W ~ &.%...3 i r.e.e.r k ! / / P ! ]  X9X-X}.^ 3 + w w i v o.*.^ ^ @.@.X...o.*.*.%.U W ! ~ ! ~ ] >.1.1.( ! W W P F F U _ ,.1.2.|..XW.Y.! P F L ..o.) S.S.S.S.I.I.] ! P d d * 8 r.e.e.t.j.F.!.@X'.'.H.D.Z.B i 8 w.e.e.w 9 v { .XR.Y.I.~ ! W ",
"T.}.2.7.@.X.T P W W W W ~ ) *.+.v a t.p.e.r.h k W W F ! I. X=X=X}.W ; o q w u 3 ..%.( ( %.@.o.o.*.1.1.%.P W ~ ) ( ( ] }.8.1.%.! / Q W ! ( [ :.,.1.2. X.X.XY.~ P P T ..%.) I.{ { ) ) I.] ! F d s = * w e.w y / |.4X6X=X4. XW.Y.) b p e w e.w 8 a ) Y.Y.I.I.~ ! L ",
"~ ) { >.7.@.+.E ~ ) %.%.) ) o.X.L k i.p.p.e.r.y k L F ! W.#X{ { ] ! , + w w 9 , L ! / ~ ( ( ^ ( ) >.{ ) ! ! ~ ) %.%.) >.1.7.@.%.) G.~ ) 1.1.1.1.>.{.T.}.2.:.{ ) %.o.^ ~ Y. X2.1.o.%.{ I.~ F s : & 7 w w 8 a _..X.X.XXX>.~ ) |. XT.W u 8 w w.w e J ~ I.R.I.{ %.@.",
"( ( ) >.2.2.@.o.( &.%.%.( ( o.T L J g.t.e.e.e.r.h d F ! R.W.{ ( { ( s 9 w w 8 u d ! ) ) ~ ! W Q S.I.{ ) ~ ~ ( %.1.1.) G.=.1.1.:.T.I.) &.2.8.7.1.{ I.G.) %.%.{ T.:.%.^ ~ {.oX2.1.@.@.) ) ( P L , : 7 w w 9 v &..XR.I.I.) ( ( OX+X.X~ s u q w w.r k ! I. X{.>.1.*.",
"*.@.o.%.{.I.( ( %.%.( ( U U U ! ! W J j r.e.e.e.r.y d P ~ { 2.1.1.o.v 0 w w.w e J ( %.%.( ! W Q ~ { %.%.( ! E @.7.2.{ G.}.}.>.{ I.{ %.%.>.>.1.*.{ G.G.) ( ( I.T.{ ) Q ^ %.1.%.:.1.1.( P T E U D : 7 w w 0 s ~ T.I.S.~ ~ %.8.9.=X{.P.! d u 8 w r k ( 2.9.1.:.>.) ",
"@.@.@.%.T.I.~ ( %.%.( U G I U ! ~ ! P a e w e.e.e.r k P U ( 1.2.1.o.v 0 w e.e.r.l ( o.%.%.( ( ^ / ) %.%.( ( o.*.1.2.>.}.{.T.) ~ { >.@.o.>.>.:.%.) ) &.&.( ~ ~ ) ) ) ! ^ %.%.( ( 2.2.( P E o.! H : 7 w w u v ( T.I.~ Q / 1.7.8.2.XX{ ~ F : + w w a L @.*.+.o.) ~ ",
"+.*.>.{.T.G.) ) }.>.( ! H L T o.) ~ W s u 8 w e.e.r k L o.%.>.{ { ^ s 7 w e.e.r k P L E 1.8.*.%.^ / ) &.%.*.>.}.>.>.2.2.|.T.! ! %.1.@.@.*.:.&.) ~ { 2.1.,.[ ! ! %.%.( ! ^ ^ ~ ] T.{ ) ~ ) ( ! D : 7 w w i v *.2.{ S.G.&.1.1.>.>.4.2.( s ; # q w 0 : 3 3 1 v W ~ ",
" .%.{.R.G.) &.>.}.>.) ! ! ! E o.~ / P L , u e w w.r a L o.%.{ ] ] ! v p e w w.w a D F ( 1.8.1.%.%./ G.) :.1.>.}.) { 1.2.}.) W P %.1.@.@.@.%.{ ] ~ ] 2.1.,._ E E @.*.( ! W Q ~ ] I.I.~ ~ I.~ P s : 7 w w i v @.1.) ~ G.) %.%.>.>.8.1.E , . @ q w 8 + O O O : s P ",
"L ! ) G.~ / 2.8.1.*.) ) I.] ( ! ^ ^ E Y L s u 8 w w i v W ( [ [ ] ) o.Y p 8 w w 0 , H ! ( [ ) >.2.2.&.G.{ >.1.%.( ~ ( ( ) ) W P ) >.+.X.E ( [ [ U U ] { [ -.@.@.@.*.( ! W ^ [ [ ] ~ / ~ I.] D - = 7 w w i v X.o.^ Q ) ) ) >.2.8.7.+.v : . X q e.w 8 X     # : : ",
"s F ! / Q / 2.9.7.*.) ) I.P.! W W W ..E P s : 9 w w i s W ! [ [ ) ) :.o.3 7 w w 8 u F ! ! ~ ~ { 2.8.>.&.I.{ :.%.( ! ! ! ~ / P W ] { E T ! ' [ _ I I ! ~ [ [ %.*.@.%.( ~ ! ( [ ,.[ ~ ^ / T.) D = ; + w w i v T o.( ~ ~ ~ ~ ) 2.8.o.Y s : @ 5 w e.e.w 5 X @ $ 7 7 ",
": s F W / G.{.XX1.@.( ~ ~ ~ W F F W ( ! J d : u w w f d ~ ) o.o.^ ~ T.) s 7 q w.w e d ! ~ ~ ~ ~ ( :.2.2.{ ] ) ) ) ) ) / ! ! P W ~ ] ! ~ I.I.' U P H F W ^ ! ^ ^ P ! I.I.' [ ,.,.@.E ! ! %.T , & . # q w a P ( &.1.1.( ! Q / ( ( P v : + 6 w e.p.p.e.w q q q w w ",
"O : s P ! ) P.] %.%.( ! ! ! P P ! ! P.~ W b s i w w h W ) ( ..T W Q I.~ s 9 w e.e.w a P ~ ) ~ ! ! ( 2.2.}.I.I.I.G.G.&.) ( ! P ! { { ~ ~ P.I.~ ! P L L P W W W W W ! I.Y.{ ,.,.,.@.E ! ! E Y : O @ 5 w w a F ! { 2.2.:.( / W W P F s & + w e.p.p.p.e.w w e.e.e.e.",
"O : : s W ! ! W ^ ^ P P ! ! o.%.}.|.R.I.( Y v i w r k P %.%.P b W Q S./ s i r.e.e.w 9 s ! ~ ~ ! F ! >.XX X|.Y.I.Y.{.2.1.,.[ ! ( 2.2.~ W ~ ~ ! ! T o.o.o.( ! ! ! / ~ P.I.] { 1.1.( ! ! ! P v : + 6 w w.w 0 s P ] { >.2.2.{ ~ F s : & . $ w p.p.p.e.w 8 8 y.p.p.p.",
"7 9 p b U ! P F W W W ! ! ( *.2.oX+X|.>.%.Y 3 0 w r k P %.%.W J Q / ~ / P d g.t.e.w 8 u W ~ ~ ~ ! ! ) }.XXoX{.Y.Y.I.2.1.:.[ ( %.2.2.%.^ ! ! ! ( o.+.@.%.( ! ( ( ] I.P.P.P.{ %.o.P F P F s s u 8 w e.e.w.8 u d ! ~ {.2.2.{ W s : & O @ 5 w.p.e.e.r.e a d g.t.p.a.",
"w e k W %.%.W W J W ~ ) %.*.>.}.|.|.2.:.( L , 9 w w h W ) ) ~ / ~ ~ ~ ~ / W J j r.w.w e k ! P.Y.I.] %.*.1.2.}.I.] ~ ( ( ! ( %.%.>.>.%.%.^ W ! U  . .E ( ! ( 1.2.{.Y.P.P.Y.I.( L s : : : ; @ 6 w e.p.p.p.w.q u s ! ) &.&.! F : & O + 6 w e.e.e.r.j Q S.S.Q j t.p.",
"e.r.h P o.%.%.^ P P ~ ) %.=.|.|.{.>.*.@.E s : 7 w w h W ) T.T.G.~ ] I.Y.I.~ ! k e w w.w a P { .XR.T.%.o.@.%.{ ~ ! ! ! ~ W ^ %.:.&.&.*.*.^ Q ! ( o...! ! ~ ( 2.2.I.I.{ { I.~ F s & O + + X 5 w e.e.p.p.p.e.w 8 u s W / / P s : O + 8 w e.e.e.r.j Z.R.^.W.! l r.e.",
"e.r.0 s L E 1.*.P F P W W ) #X#XI.( o. .v : & 7 w w k U [ { Y.I.~ ] ^.^.Y.~ ~ W u 8 w w 0 v *.OX{.I./ ^ ) ) ~ ! P ! P.P.Q Q ) >.:.*.+.o./ ~ ~ ) *.@.( ~ ] ] { { ~ ( %.%.( F s & . @ 6 w q w e.e.e.p.p.p.e.e.w q u s W ! s , & + 6 w e.e.e.r.C _.$XyX^.Y./ l r.e.",
"p.e.8 u s L %.*.E L L P W ) W.W.~ L Y 4 ; O + 8 w r.h F U _ ] P.] I.#X#XY.~ ~ ! , 9 w w 8 x %.2.>.] ! W ( ) ( ( W ! P.S.Q Q P.T.*.+.X.../ ) ) &.%.o.U ! ~ ] I.P.~ ( %.o.L , * O @ 5 w e.e.e.e.p.d.i.u.y.e.e.e.w 8 u d D , : + 8 w e.e.e.w h $.OXeXuX#XI.^ h r.e.",
"a.p.w.6 9 , L E Y Y L L T %.) ~ F s , ; . X 6 w e.e.r.e p s P ~ Y..X<X XI.~ ~ U 4 x w w.w t ^ [ [ [ I I E @.1.1.) ~ ~ Q k W P.I.%.X.T W ~ ) %.%.E L P P P ! P.Y.P.~ ! L - = & + 6 w e.e.e.e.p.d.L.`.^ M r.e.e.e.w e u ; ; @ 6 w e.e.e.w 8 b &.+X9X-X X~ L a w e.",
"a.p.e.w.8 9 s L Y T L L Y Y L D , : + + o 5 w e.e.e.e.w 8 9 s P { XX,.[ ( ! P L 3 x w e.e.r.l ! [ [ _ E o.o.1.2.>.) Q W J Q ) >.@...L P ( =.1.%.! F W P F ! ] T.) ! L s * * + 8 w e.e.e.r.r.h.N.|.XX@.T h r.e.e.e.w 8 7 # 5 w e.e.e.r.y d ! T. XOX2.>.! d i w e.",
"a.a.a.e.w.q u s P W k d , : : : : + q w w w.e.e.e.e.e.e.w q 9 3 o.o.L L Y v , ; % $ w e.e.r.k ! ~ >.9.8.:.( ( %.%.%.( ! ~ ) %.@.@.o.L P %.1.{.T.~ / / / ! ! %.o.Y 4 ; $ 8 w w w e.e.p.t.M ^ H.!.Y.{ o. .b h r.e.e.e.e.w.w w.e.e.e.r.h J P.Y.Y.T.{.{ ) ! d f r.e.",
"a.a.a.p.e.w 8 u d d d p * O O O + 8 w e.p.p.p.p.t.t.r.w e.w 8 p m m s : 2 1 + + $ 8 e.p.e.w a F W ) 2.2.( F J W %.%.( ~ ) ) o.+.@.%.P P o.%.T.Y.T.>.}.}.] ~ T 4 4 < # 5 w e.e.e.w r.i.n.$.2.1X#XI.) o...T b t r e.p.p.p.p.p.p.e.w e N ~ Y.R.~ ) { { ( P d f r.e.",
"a.a.p.p.e.e.w e u : : : & O O + 6 w e.p.p.a.p.d.n.Z.k e w e.w w r t 9 & & + 6 w w e.p.p.p.r.0 : : s W P s : s b W ~ ) ~ / ! ! E ( ( W W P ! ~ T.2.9.:X=X X~ v ; % # 8 w e.e.e.w 8 i Z.R.&XtXrX6X{.~ ( E ..Y n 0 y.p.p.a.a.a.p.w.e d ~ G.) / W ! %.*.o.Y , 0 w e.",
"a.p.t.r.r.t.t.w 8 7 7 7 7 7 7 8 w e.p.p.a.p.t.b.G.%.v u w e.e.e.e.w 8 + + 8 w e.p.p.a.a.p.e.8 + O * p p * & : s d W ! ! W W ! ! ~ ! / Q W ! ~ { 2.8.9.9.{ W : O @ 5 w e.e.e.y.e a F P..X7XeXeX7X{.) ! ! %...4 x r.p.a.a.a.a.p.r.i L ) T./ W L T @.@.+. .1 9 w e.",
"p.t.j l Z.n.i.e.w q w w w w w w e.p.p.p.p.t.j W %...3 0 r.e.e.e.e.w.w q q w e.p.p.a.a.a.a.p.w.6 + & * * O O & : s s D D s d ! ~ ) ) ) ) ~ ~ I.] { ( ( E v : # @ 8 w e.e.p.t.j B ~ I.R.W.R..X.XW.I.~ ! ~ ) ( 3 9 w e.p.a.a.p.e.r a P ) I./ ! T T E ( @.+.3 0 w e.",
"l.g.J U ~ S.g.t.e.e.r.w r.r w w e.p.a.a.p.r.k Y Y n p 8 w.p.p.p.t.i.h.h.t.r.e.p.a.a.a.a.a.p.e.w 8 7 7 7 7 7 7 9 0 p - > : s W ~ ~ ~ ) ] ~ I.I.~ W F F s : O @ 5 w e.e.e.t.k.Z.I.R.W.R.I.~ ) I.Y.) ~ ~ ] { ( s 9 w e.p.a.a.p.w.e k ! I.I.( E o.E ! ! o.o.v i w e.",
"D.S.! ! ! W k j t.t.y h l h 0 8 w e.p.a.e.r.m Y 3 p e w e.e.a.f.J.K.~.~.D.n.d.a.B.B.a.a.e.e.e.w.w w w w w w w w w e * & & : d J l J W ! ~ ] ~ ! s p d d : + 6 w e.e.e.t.g.Z.!.$X^.R.I.] ~ ( 2.2.~ ~ R.Y.%.T v 0 w e.p.a.p.e.6 u W ] Y.T.%.o.E ! ! ! U R L a r.e.",
"Y.I.~ ! ! ! U W g.g.l W Q W v x t w.p.p.e.r c 4 : 8 w e.r.d.z./.!.#XyX5XR.D.x.z.m.m.l.d.i.r.r.r.r.r.r.r.t.r.r.r.e.w 8 7 7 9 p d d d s F ! ! P s & O p p 9 8 w.e.p.p.p.t.B ) $XyX.XI.I.~ ! ( 1.2./ G.W.Y.o.Y 3 u w e.p.p.p.y.i s ! I.Y.>.o.E ~ ~ ~ ! U R P k r.e.",
"R.I./ / S.I.] ~ Q B Q ~ G.{ 1.%.W h w.e.e.r.u : 6 w w.r.k.K.~.(.$X5X^.W.~ ~ D.D._.$.F.Z.D.D.D.D.D.D.Z.D.H.D.l j t.e.w.w w q 9 : : : s s D D , :     & 9 q w e.a.a.a.p.i.V %..X#X2.:.{ ~ ! P ) T.Y.R.T.) L 3 < 9 r.p.p.p.p.i.Q ~ ) ) :.%.E ! ] Y.T.>.%.o.L k r.e.",
"R.I.~ ~ I.R.I.] / / &.T.T.{.OX2.E k r e.e.e.8 8 w e.t.g.G..X#X5X#X#X XT.~ ~ I.I.:.%.%.) I.Y.Y.I.I.I.>.{..X{.[ ^ g.r.w w w.w 8 7 7 9 : : > > & O @ X + 8 w.e.a.a.a.p.i.c.^ %.W..X2.:.{ ) W W ) T..X|.) ^ s : : 0 e.p.p.p.t.b.D.I.) / *.@.E ! ) T.T.}.2.%.T d r e.",
"Y.I.G.G.I.I.] { 2.8.1.:.T.T.}.) U k r e.e.e.w w e.i.A.G.2.4. X{.2.2.9.2.) ~ I.I.( ( o.%.( ! ! ! %.%.*.:.{ {.9.2.) l u 8 w w.w w w q + & & & & + 6 q w w.p.a.a.a.p.t.C $.{.W.R.Y.Y.Y.T.) ^ ^ 2.2.{.{ %.Y : + e w.e.p.p.i.b.Z.S.S./ ^ *.@.( ! E %.) I.Y.) Y c r e.",
"] ) / / / ! P P *.1.1.:.T.G.) / ! k e w e.e.e.e.d.N.R..XOX2.T.{ %.1.7.2.{ ~ ] ] ! U o.+.( ~ W P T o.1.2.{.XX:X=X>.W s u e w e.e.e.w 8 7 7 7 7 8 w e.e.e.p.a.a.p.p.r.V @.I.Y.~ / S.S./ ^ W ( 1.1.( W Y n p 8 w.e.e.e.i.n.D.T.) ~ ^ ^ %.%.) ( T T ( T.R.T.Y x r e.",
"! P s s s p : , 3 L ( { T.) ! W / W p 8 e.p.p.d.L.@X#XQ..XY.I.) ( ( @.@.( ~ ~ ~ ! E ..@.XX{./ W W /  X6X6X&X-X+XI.~ W d u 8 w e.e.e.w w q q q w w.e.e.e.e.e.p.p.e.r p v U W s s J J d d F E *.@.L s , p y t.e.e.e.u.$.XX#X.X%.E ^ Q / &.{.T.! T o.2.+X}.L u w e.",
"l a : O O O + + O : F / ) ~ ! ! ~ W p 8 w.e.t.n.@X6X#X^.W.R.S./ ! ( o.+.E ( ! ! ! ( %.:.XX|.~ W ^ ) .X7XwX-XwX&X|.) W d : 7 w e.e.e.r.r.i.h.r.r.r.r.u.u.r.r.r.w.e.w 8 0 a a 0 0 i a p : s L +.X.v : & 0 r.p.e.e.w j $.OX#X.X%...^ / ) G.{.I.! P %.2.OX>.L i w e.",
"i.y 9 O O + q q + & : s W ~ I.P.! k e w e.w.g Q W.#X^.W.W.Y.~ Q W ^ o.@.@.%.( ! W / }.{.{.T.Q ^ %.%.{.{.2.=XtXrX.X/ s : & 7 w e.e.r.j Z.!.!.D.Z.Z./ =.$.N k k h r.w.w w r w w w w e 9 & : 3  . .v : & 9 w e.e.r.8 d ) {.Y.I./ ^ %.%.) ) { [ ! ^ &.>.2.%.v i w e.",
"p.t.e 9 9 8 w w 8 + O : s W ~ ~ L a w e.e.r.h W Y..XW.R.I.S./ W Q / :.1.7.@.E P W Q T.R.T.) ^ ^ %.%.{ {.8.:XtXtX{.W : O + 8 w e.r.j B G.#X4XQ.Y.) ) 2.1.( ! U J g w e.e.e.e.e.e.e.w 8 7 0 p v 4 , : + 8 w e.e.r.a P ) I.~ / Q ^ %.%./ ) [ ' ! ~ T.}.2.o.v 0 w e.",
"a.p.e.r.w.e.e.e.w q + & : s s s , 0 w e.e.r.k E 2.4.I.S.~ / ! ! G.{.|.XX1.@.+.Y v d ) G.G./ ....E ( ] oXfXgXsX9.( F : + 6 w e.w.j Q G.{.W.^.W.I.! ! ) { ] ] ] / J h r.e.e.e.e.e.e.e.w.r.y.y p ; & + e w e.e.p.i.Z.) I.I./ W ! W W W ! ~ ~ ~ ~ G.{.{.>.( s 9 w e.",
"a.a.p.p.p.p.e.e.e.w 8 7 7 9 9 u 0 8 w.e.e.r.a L 1.2.>.) ( ( ! ( }.XX.X{.%.+.+. .v v ^ ) &.=.*.%.( ) ] XXfXgX:X1.L s u 8 w e.e.r.Z.G.T.{.{.Y.R.I.W P ( ) ] I.T.I.~ J j r r w.e.p.p.p.p.p.p.t.e 7 7 8 w.e.e.e.t.g.D.I.Y.) ^ W U P d k ! ~ I.T.{ >.>.&.~ P : 7 w e.",
"a.a.a.p.p.e.e.e.e.w.w w q w w w r.e.p.p.p.r.0 s ) {.%.o.1.1.( ( 2.=X{.~ L A  .X. .T ! ( 2.9.OXXX2.2.{ >.8.9.+XI.s 9 q w e.e.e.r.D.W.I.{ :.:.}.G.W P E o.( ) T.Y.I.~ Q l k j t.p.p.p.p.a.a.p.e.r.w.e.p.p.p.w.e k / I.I.) E Y R H d J S.R..X|.2.*.*...v : & 7 w.e.",
"a.a.a.a.t.r.r.t.y r r r.e.e.e.e.e.p.p.p.p.e.8 a ~ { o.+.5.1.{ { 2.2.{ ~ L A T o.o.%.~ [ 8.q.=XOX0.2.{.{ %.:.|.S.s 7 w e.e.e.r.g.Y.W.I.) %.%.) / P P Y T U ! ) T.R.Y.] ! ! J g.i.r.t.p.a.a.a.p.p.p.p.a.a.p.r.a b ( { I.) o.X.R H J Q T. X+XXX2.@.X.n ; O + 8 e.p.",
"p.a.B.f.j l Z.F.#.^ N j t.e.e.e.e.e.p.p.p.e.y.g.Q ( ..O.O.*. X.X{ ( ) ) o.o.( ) { { ~ { 8.0.8.1.7.2. XW.I.{ ) W p 7 w e.e.r.h W I.Y.I.) ( ( Q ^ I I P L P P W / Y.R.I.) ~ / Q K l j t.p.p.p.a.a.a.a.a.p.e.r.l W %.:.] { 1.1.E ! ~ T.2.OXXX{./ E Y 4 ; + 6 w.p.a.",
"h.l.z.M./ ( { >.:.@.U Q k.l.i.t.r.r.r.t.e.e.p.i.K ! E ....%.+X+X] ~ ) ( o.%.>.{ { { ~ ' 1.1.1.1.1.2..X^.W.G.W s : 9 w e.e.w a P I.R.G.~ ~ ! W P I G H F F P W ! ] T.T.I.) ) ~ ! P W k.h.r.t.p.a.a.a.a.p.e.r.B %.:.2.>.>.2.2.) ] R..X2.1.&.~ W b 3 < + 8 w e.p.a.",
"Z.D.K.|.2.1.@.o.( ( ~ S.H.H.D.D.D.Z.Q j r.e.e.r.l ! ) ) / &.2.2.] ) %...n Y 1.2.*.E U I ( ( { >.,.<..X#X#XI.d : & 7 w e.e.w 0 F R.^.S./ G.) W H G G F k W W ~ ) %.%.T.T.%.%.) ~ W Q H.F.k e t.a.a.a.a.p.e.u.$.2.{.XX2.9.OX{.I.I.W..X{ ( L s p : ; # 6 w e.e.p.p.",
"Y.W..X+XOX8.@.E ! ! ~ ] Y..X{.{.R.Y.] W e w w.r l ! ~ I.T._.%.%.&.( o.Y , v @.7.@.T U U U ( { >. X<XW.W.W.) s O + 8 e.p.p.e.6 a S.R.~ / G.) ! H D H d k W Q G.{ %.%.) ] E E ! / ^ ~ |.Y.P d j t.a.a.a.p.e.r.#.1.XXXX=X=XoX{.) ~ I.] ! D , : + + $ 5 w e.e.e.t.w.",
"4X4X4X.X{.{ ) ( ! ! W ! ] T.G.G.T.Y.I.! p 8 w r k P ! ] R.|.{ &.:.%.( P , A X.o.^ ! ] ] o.+.*.2..X4XR.I.] W : + 6 w.p.a.a.p.w.e a L o.%.( ~ ! P F d J W P W ~ ) ^ W W U R L F W E %.Y.R.~ W J j t.a.a.a.p.r.p Y 1.=XoXXX:.%.W J P s s : : + q w w w e.e.e.r.y h ",
"4X4X#XW.I.) ) ) ) ~ W W ! / / ) T.I.Y.~ s 0 w w a F P ~ T.T.) ( %.o.( U Z Z Y ..^ ~ I.T.%.@.@.2..X#XT.) ! F : 7 w e.p.a.a.a.e.w 8 p Y o.E ! ! J k k W W P P ! / W W F H I I F P  .o.T.I.S./ ! J g.t.p.a.p.e.6 s o.1.T.) T n s p u 0 9 7 7 8 w e.e.e.e.e.r.g l W ",
"] I.R.W.Y.&.%.%.{.T./ W J W E %.) I.R.I.P a w w 0 s P W ! ! T T T P ! U G G U ( %.%.T.T.{.XX1.1.{.{.:.%.U D : 7 w e.p.a.a.a.a.e.w 6 p 4 Y E P k k k W ! F F J J W ! P P ! / ! P Y ..) S.~ / ) Q d e t.p.a.p.w.e s v P P 3 : : 9 e w w w w e.e.e.e.e.p.i.j.Z.S.I.",
"~ ) T.{.{.}.@.*.XX{.) W J W T o.) Y.W.T.! k r w 8 9 d b P P T T L P ! U I H U ( %.=.}.R.W.{.=.%.) ) %.o.L s u 8 w e.p.a.a.a.a.p.e.w 8 u n Y P k d b ! ~ ! W P W ! ~ P W / ) ( E o.%.) ~ Q / G.) v u r.p.a.a.e.w.6 0 a a 0 7 7 8 w.e.e.e.e.e.p.e.r.i.l.n.F.Y.^.^.",
"T.>.2.:.{.{.*.6.8.2.( ! ~ / P W I.W..X{.! k r w.w q 9 s b ^ / ( ..T ! ! P H ! ! ) }.W.W.Y.) ~ ^ Q / ^ P s u q w e.e.p.p.e.e.p.p.e.e.w 6 p v W ^ v n ( I.] ) %.%.{ ~ ! ( %.*.+.%.>.{.I.~ ! ~ I.] Y x r e.p.a.a.p.e.r.w w w w w e.p.p.a.p.e.e.p.t.b.Z.H.!..X#X5XyX",
"}.:.*.:.Y.Y.%.*.1.2.( ! ~ ~ W ! T. X&X+X( k y r.w.w 8 u N Q ~ ( o.E U U H P ! ~ ~ G.W.W.R.G.~ W W W N d u 8 w e.e.e.t.r.r.r.r.w.e.e.e.w 8 a W ( T T ) Y.I.{ %.:.{ ] ( ( %.*.o.%.}.R.I.) ( ) Y.I.Y x r p.a.a.a.a.p.p.e.e.e.e.p.p.a.a.a.p.t.i.l.N.D.R.Q.#X.X&X5XyX",
"o.o.( ] W.W.( ( >.{ ! F P W ! ( 2.=XtX6XT.^ k h r.w.w e l ^ E T E U P H G I ] ) Q ~ R.^.^..X%.T v s : u q w e.e.e.r.g N ^ ^ a e w e.e.e.w e W ~ ! ) Y.Y.] ~ ( ( ] { %.%.=.) ^ ^ / ~ I.{ %.:.Y.I.b p r.p.a.a.a.a.a.p.p.e.e.p.p.a.a.a.e.t.k.D.!.!.@X#X^.W.|.|..X#X",
" .T U ~ Y.Y.! W ~ ] ! L E E ( :.1.=XtX7X#XG.! k e w w.r.l W E E ( ~ ( L L U ] G.~ ~ Y.^.4X X%.n , : + 8 w e.e.e.r.j W E @.o.L d e r.e.e.e.r k P ( ] Y.I.~ ! ! ! ! ( %.%.) G.~ ~ Q / G.{ %.:.Y.I.W k y t.p.a.a.a.a.a.s.t.r.t.p.a.a.p.r.g.H..XQ.^.^.^.R.I.T.}.}.XX",
"L P P ! ~ ~ P W ~ { E +.1.8.8.1.>.{.7X8XuX$XS.d u 8 w w h W ~ { I.I.2.%.P J ~ ) %.=..X.XOX2.Y , : + 6 w e.e.e.r.l ^ %.1.%.( ! W k h r.e.e.w u v T %.] P.~ ~ J F H U ^ ^ ! ~ Y.T.G.) G.) ( ( G.I.R.~ a e e.p.a.a.p.d.n.Z.l j t.p.p.w.h W {..X.XY.I.] ~ ~ ! ( 1.0.",
"F F H H U U H W I.{ E @.0.q.8.:.) I.4X7X5X!.Q s : 7 w w h J ~ Y.R..X4.1.T W &.XX2.2.+X+X8.@.v : + 8 w e.e.e.w.j Q >.2.2.( / ~ / P a e w w.w 8 p n Y ( ~ P.~ W P I U ^ Q ! ~ Y.Y.) ~ / ) ( ) I.R..X{ s 7 w p.p.a.d.n.`.>.( J g.y.e.r k ! |. XT.~ ~ ~ ( ( P E 1.9.",
"W W H G G G H W I.I.~ :.q.q.%.P ! ] Q.^.I.W s : & 7 w w h J ~ Y.R.R.{.&.T o.9.0X-X-XqX:X@. .1 + q w e.e.e.t.j Q {. X.X{.) ~ Q W J a a 8 w w.w e p 3 L ! ) { %.%.( ~ ) / ! ~ ~ ~ W ^ %.1.8.2.{.Y.2.o.3 7 w e.p.s.A.G.2.2.I.~ a 8 w r.l / |.|.~ ! ~ { 2.1.@.%.XX X",
"^ ( U I U U E ( Y.W.Y. X0X0X>.! ! ~ R.I.W s : O + 8 w w i J I..X.XY.I.) T o.9.qX+X+X=X8.X.3 : 8 w.e.p.p.p.t.l ~ |..X|.T.&./ / Q W b v p e r.e.w 8 9 a W ~ >.1.1.>.) ~ / ! ! ! ! P P %.1.8.OX{.}.1.X.3 9 w e.e.i.Z.{ 1.1.>.) s 9 w r.l ) Y.I.! ! ~ >.2.8.2.>.I.Y.",
"*.%.( ] {.XX1.2..X^.5X7XdXsXOX}.) ) ~ W d : & + 6 w w.w 0 b .X6XOX2.) ! P E >.|.Y.T.{ E 3 + 6 w.e.p.a.a.p.i.K ~ Y.{.:.1.*.%.) ) %.o. .Y b h r.w.w w w j ^ %.>.>.1.%.! W W Q ~ ~ ! ! ) { >.}.G.&.*.+.v 0 w e.e.r.l ! -.-.%.T v 0 w r.Z.I.] ) ) &.%.%.>.|. X X] ~ ",
"1.:.T.R..X+X2.2..X#X5X7XqXqX6X.XG.^ W d , : + 8 w.e.e.w.8 a T.+X9.8.( ! P ( { T.I.~ ! D : 7 w e.p.a.a.p.t.k.Q ] R.Y.:.1.1.%.) ) %.@.+.o.U k e w w.e.e.r.M ^ ~ { :.o.P J W ^ ~ ( ~ ~ ~ G.G.) ) >.1.@.v i w e.e.w a P [ [ o.Y , 0 w r.D.Y.~ ! ) >.%.%.}.|.W.W.{ ( ",
"{.Y.W.W.W.Y.{ ( I.T.XXOX+X7X5X#X~ L p : # # 6 w.e.p.p.e.w e l / 8.8.{ ) %.*.1.2.I.~ F , & 7 w e.p.a.e.w.g.Z.{..XQ.Q.E.I.{ ) ~ ~ ( E +.o.( W u 8 w e.e.e.r.j W ! ( ( ^ W W ! o.E ! ~ ) ) Q ~ >.3.3.-.Y x r e.e.w i L ] I.W s : 9 w r.D.Y./ W ! ) ) { Y.R.Y.I.2.8.",
"R.W.^.^.W.Y.~ ! ~ ) %.%.Y.^.^.Y.W s : O @ 5 w p.a.a.a.p.e.r.k T %.1.{ ) %.*.8.2.>.( s : 9 8 w.p.p.p.w.j Q G.+X+X.XW.R.P.] ~ ! ! ! ( E E ( W s u e r.e.e.e.r.h d F P P W ! ( %.o.( ( ) / Q / { <.<.,.Y x r e.e.w.e d ) ) W s : 7 w r.Z.I.~ Q ! ! ] I.R.I.P.{ 2.9.",
"Y.R.W.W..XR.~ ! ! ! W ^ G.P.~ J s : & + 6 w e.a.a.a.a.a.p.r.V T E ( ) ) ~ / >.>.%.T v u e w.p.p.p.t.j Q S.{.:X:X{.P.~ ~ ~ ! P ! P.I.( U P W W W k h r.e.e.e.r.e u , 3 Y ) Y.) ( %.*.*.%.) ~ ] I.E.] v 9 w e.e.e.w.y ^ o.P s : 7 w r.l ! ~ ~ Q Q G.I.I.P.S.I.{. X",
") ) ~ ) I.) W P L F d d W W k i 0 7 7 8 w e.p.a.p.p.a.a.p.y.M m v F ! / ^ ^ ~ ~ T n 1 9 w e.p.a.p.i.S.I.W..X=X9.{ ~ ~ ~ ~ ! ! / P.I.~ ! P W ~ ~ ! J y r.e.e.e.w 8 + 1 v ) I.] { %.*.*.:.{ ] ] ] I.) s 7 w e.e.e.t.j ^ E L s u 8 w r k P ( ) ^ / G.T.{ >.>.}.R.W.",
"! P s s s s : : ; ; : : : u e w w w w e.e.e.p.p.e.e.p.p.p.e.r.t u : d W T T W k v 1 ; # w e.p.p.p.l.%X6X.XY.{ { ) ~ ~ ~ ~ ] I.P.~ / ! ! ! ! ! ~ ] / J h r.e.e.e.w 6 + , W ) [ [ ( ( ) ) ] ] [ ,.1.o.1 7 w e.e.t.g.Q ) ( s 9 q w w.w h P %.*.o.( T.{.2.9.8.=X+X.X",
"D s u 7 7 7 7 + $ # 7 7 7 8 w.e.e.e.p.p.e.e.t.i.h.i.r.e.e.e.e.w 8 0 i a n n s p : : @ 5 w e.e.t.t.N.*X6XW.] ( ( ~ ~ ] ~ ~ S.I.I./ W ! ! ! ! ! ~ ) ) ~ J g r.e.e.e.w 8 9 d W [ [ ~ ~ { T.) ) ' ,.@. .: 7 w e.e.y.h W / W , 9 w e.e.w i b ..@.+.%.Y..X=X:X:X=XXX|.",
"s p e w w w w w w w w w w e.p.p.a.a.a.p.e.r.l Z.!.H.a 8 y.p.e.e.e.r.w e u : : : : + 6 w e.p.p.t.j.S.W.W.] ( 1.1.( ~ ] G./ Q ~ / ! ! W W E o.~ / %.%.{ ~ J h r.e.e.e.w q 9 s ! ] ] { 2.2.~ / ) ) ( L : 7 w e.p.r.0 p s v 3 x w e.e.r.0 : b T @.1.Y.W.+X-X-XXXG.) ",
"i e r.e.e.e.e.e.e.e.e.e.e.p.p.a.a.a.a.e.w e W I..X XL u y t.t.p.p.e.e.w.8 7 7 7 9 8 w e.e.t.t.g./ { Y.Y.] { 2.2.:.] I.I.~ W W W ! ! W W T o.%.%.o.%.T.I.( b h r.e.e.e.w 8 u F / { XX4.2.~ / ~ ! F s u 8 e.p.p.e.8 + : , x z r.e.p.e.8 9 a b ..%.I.R.|.|.|.}.W b ",
"r.t.p.p.p.p.p.p.p.p.p.e.e.e.e.e.p.p.e.w.8 a ~ Y.Y.] ! F k j t.p.p.p.p.p.e.w w w r.e.e.e.p.t.j W 1.4.{.Y.R.{.{.>.2.2.{.Y.S./ W W ~ ~ W P U E o.o.E ( ] { %.o.b f r.e.e.e.w q u v 1.OX+X.XI.~ ~ W s 9 q w.p.a.a.p.w.6 + + e r.p.a.a.p.w.e u s v P ) I.Q W ! P v 1 ",
"p.p.a.a.a.a.a.a.a.a.d.l.h.i.r.r.w.w.e.w 0 v { {.I.] ] ~ U J g.t.e.e.p.a.p.p.e.e.p.p.p.p.t.g.Q ( 2.4.>.I.{.{.I.>.8.8.{.Y.P.~ ! W ~ ~ W F ! ! E o.! ! ~ ) %.o.U k g r.e.e.e.w 8 p ..1.Y.Y.] ! P s : 7 w e.p.a.a.p.e.w 8 8 w e.p.p.p.p.e.w 8 u : s ! / d d a a p $ ",
"a.a.a.a.a.a.a.a.B.C.[.*X!.D.Z.Q a e w w a L 2.OX{.I.R.Y.~ W J j r.e.p.p.a.a.a.a.a.a.p.t.g.Q {.|. XY.] ( %.%.) { 1.1.{ P.S.~ ~ ~ J J W W P W ( ) ~ ! ~ ~ ! U ! ~ k h r.e.e.e.w e s v W ! ! L s : & 7 w e.p.a.p.p.e.e.w w e.e.e.e.e.e.e.e.w 6 # ; L L s 9 e r w w ",
"a.a.a.a.a.a.s.l.C./.,XwX4XW.] P , 9 w r k ( 2.OX{.Y.R.I.( E E b j w r.e.p.a.a.a.a.p.t.g.Z.T.|..XR.P.~ ( o.%.) ) %.%.>.{ I.P.~ / J k W W P W ( ( ( ( ~ ~ W W ~ ] ! k e w e.e.e.w 8 u s s s s u 7 7 8 w e.p.a.d.i.u.u.e.e.r.r.r.r.r.r.r.y.e.w 5 + a a 9 8 w.e.e.e.",
"a.a.a.a.a.t.j Z.%X,XqX:XXXI.P , ; # q r.l / I.{.I.] ~ ( o.+.@.o.N a 0 8 e.p.a.a.p.t.j Q R.^..XY.I.I.G.) ) { ) ~ ( ( 1.2.{.I.~ W W W W W W ! E o.+.o.) ~ P W P.Y.I.! d 8 w e.e.e.w q u : : u q w w w e.e.p.d.L.`.=.} r.w.y l Z.D.Z.Q l j r.w.w w w r.r.e.p.p.p.p.",
"a.a.a.p.t.g.Q ] 6XwX=X2.>.( v : @ 5 w r.l / T.I.] ~ ( ( o.@.*.%.U D : 7 w p.a.a.p.t.l ] .X#XY.~ ~ ~ G.I.I.I.~ / / ( 2.2.I.P.~ W ! ! W ^ ( ( o.o.+.o.) ~ ! ! S.I.I.) P d e w e.e.e.w 8 7 7 8 w e.e.e.w r.i.N.@X+X=X=.j r k Q I.Y.{ ) ^ l r r.e.e.e.e.p.p.a.a.a.a.",
"a.a.p.t.j Q R.#X#X.X{.>.2.%.3 + 6 w w.r k P %.:.( ( 1.1.-.:.&.) ! H : 7 w e.a.a.p.h.Z.{.OX2.) ! ! ~ ~ I.R.I.~ Q / ) {.I.] ~ ~ ~ ! ! E +.@.%.( ( ( ( ] I.) ~ ~ ~ S.I.) ^ d 8 w e.e.e.e.w.w.w.e.e.e.w 8 a F.@X|..X.XT.Q Q ~ ~ I.{ :.%.^ W k j t.e.e.e.p.a.a.a.a.a.",
"a.a.p.t.l ] ^.5XW.Y.I.T.1.o.p 8 w e.e.r k P %.:.( %.1.1.,.[ ) / ! H : 7 w e.p.p.t.g.D. X4.2.) ~ ~ ~ ) T.R.Y./ / ) G.R.Y.] ~ ~ ~ ~ ( o.+.*.%.) ~ ~ ~ I.T.}.) Q Q ~ S.I.) L p e w e.p.p.p.p.p.e.e.t.j a P }..X X{.Y.P.~ ( ) ) ) ) %.o.W W P ^ b.h.r.t.p.a.a.a.a.a.",
"a.a.p.h.Z.Y.^.^.R.Y.W.Y.E c e w e.e.e.r.l ! I.XX2.1.%.{ >.T.~ W W D : 7 w e.e.w.e k S.W..X{.I.] ] { :.:.Y.{.2.2.&.G.I.Y.Y.I.~ / ~ ( +.+.%.) G.) ~ P.Y.Y.2.%.) ~ Q ~ I.Y.! s + 5 w.p.a.a.a.p.e.i.A.R.{.{.|. XOX2.] ~ ) ) %.%.( ! U P k W %.2.G.Z.Z.j.d.a.a.a.a.a.",
"a.p.t.g.D.W.^.W.Y.Y.Q.Y.d 0 w e.e.e.e.r.l ) Y.XX4.2.( ( { G./ W L s u 8 e.e.e.r.N ( Y..XR.I.I.I.I.{ :.:.Y.Y.OX2.) ) ] I.I.S.Q Q ~ ~ %.%.~ ) ) ) ~ ~ P.T.%.%.&.) / ~ Y.Y.~ L ; # w p.p.a.p.e.u.b.R.#X.X.XR.Y.2.1.( ! ) &.%.:.( ! F d d W 1.8.>.] ] S.k.d.p.a.a.a.",
"p.e.8 d I.^.^.R.G.I.R.P.s 9 w e.e.e.e.r.Z.{.2.4.XXXX1.%.( ( %.o.v p e w e.p.p.h.`.+X6X&XT.G.~ ~ ~ ] { { I.I.{.{.) ~ ~ ! W J W W Q / ~ ~ Q Q ~ ~ W J ! ~ ( ( %.%.) S.R.I.! s ; + w e.p.p.e.u.} =.|.W.R.Y.I.] ( ( ! ! ) ) { { ] ~ J d J ( *.*.( / ~ S.Z.b.d.a.a.a.",
"e.r.0 s Y.#X.X{.T.G.I./ s 7 w e.e.e.r.g.D..XOX2.{.>.%.%.! ! o. .3 9 w e.e.t.t.n.@X6X6X+XT.) W W / ~ ~ ) ) { I.P.~ ~ ~ ! W W Q Q W W ~ ~ W Q ~ ~ J J ! ! ~ ~ %.%.) ] Y.I.! F : 7 w e.e.e.t.b.=.4.{.T.T.{ ] ~ ! ! U ( ~ ) ] ] ] / W W ! ( :.%.( Q ~ ) G.Z.g.t.p.a.",
"e.w a W W.4X9X=X{.G.~ W : 7 w e.e.r.f J R.^..X{.%.o.( ! W W b 3 ; # w e.p.t.j Q R..XI.) ) Q J J ! ~ ~ ) %.%.( ~ ~ ~ ) ) ) ) ) ~ ! ! ! ! ! ! ) ~ ! W ! ~ P.I.) ) ~ ~ ] P.~ W : 7 w e.e.t.A.R.|.{.T.) %.:.{ ~ W L T o.) ~ ~ ~ ~ ~ ~ ~ ~ ] { { ) ~ ) G.I./ a e e.p.",
"e.r.k !  X3X=X9.XX{ ^ c u 8 e.e.e.r.Q ] Q.^.W.T.*.@.( ~ ~ ^ s : @ 5 w e.p.i.Q ~ P.I.~ ! ~ / W J ! ~ { :.1.1.( ~ ~ G.G.G.G.) { { ( ( ! ! ~ ~ ) ) ! ! ~ ~ I.I.G.) ~ ~ ~ ~ ~ W : 7 w w.w j D..X.XI.) ) %.%.( ( ! W o.%.] ~ ! ! ~ ~ I.I.~ ~ ) I.I.I.G.G.T.( , 0 w e.",
"e.r.k ( 9.=X>.>.4.1...x e w e.e.e.h.|.6X4XQ.Y.{ 8.8.>.{ 2.*.v + 6 w e.e.e.i.D.Y.] ~ ) ) ~ ! / ~ ~ { 2.9.7.2.{.I.G.) Q ~ ~ ) %.@.@.%.( ~ Y.W.I.~ ~ ~ I.I.~ ~ G.I.Y.I.P.~ ~ W : 7 w w 8 a S..XOX2.( ! ( ( o.%.) ] { T.Y.I./ / ~ I.I.~ ! W ^ ~ I.Y.Y.I.2.o.v 0 w e.",
"p.t.j ^ 9.9.>.:.8.6.S x w e.e.e.r.j.%X7X4XW.I.>.2.4.{.{.9.@.3 7 w e.e.e.w.g.T. X~ ! ) G.~ ~ ~ ~ ~ { 8.0.0.2.I.I.) / Q Q ~ ) E o.*.%.( ] Y.W.] ~ ! ~ I.I.~ / ) I.Y.Y.I.~ W d : 7 w w 0 s I..X2.1.( ! ! ( %.%.{ I.I.I.Y.I.Q Q G.I.~ ! P F W / ) Y.R.{.:.o.v i w e.",
"e.e.r.j G.XX=X9.7.X.3 9 w e.e.r.h W R.#X^..X2.2.>.T.R.{.2.+.1 7 w e.e.w.8 b 2.2.( Q ~ I.I.P.! ! ~ { 1.7.2.}.) ( %.%.) ~ ~ ! W ^ ) { ) ) ] ~ ! W ! ~ ] I.I.G.I.I.G.I.I./ d : & 7 w w a P Y..X{.) ^ W ~ ) { { ~ ~ / ~ S.~ Q Q ~ ] ~ ! F F W ! ~ I.Y.{.{ ( v i w e.",
"e.e.w j D. X=X9.+.n : 7 w e.e.r.l ! P.Y.T.>.2.1.) ~ P.T.:...1 7 w e.e.w k E 1.2.~ / ) I.R.I.! W ~ { :.2.}.T.~ ( %.%.) ~ ! ! W Q ~ ~ G.~ ! U F P ! ! ~ I.I.I.I.G.G.G.G.W : O + 8 w r k ! Y.R.G.~ Q / ) { ] ~ ! ! W / S.~ W W ~ ~ ~ ! P U ~ ~ ) ) G.G.I.! s 0 w e.",
"p.e.e k I.W.>.( L , & 7 w e.e.r.Q ] P.) ( o.( ( ! J W ! ) ^ , 7 w e.e.r.Z.] { ) ) ) 2.OX.XY.~ ! ] T.}.}.R.Y.P.) { ) / Q ! ~ ~ ~ Q Q Q W P P U ! W / ~ I.I.I.I.I.Y.I.Q d : + 6 w w.r k ! G.G.~ Q ) ) %.%.! P F W / S.I.P.W P ! ~ ~ ) %.%.T.T.:.%./ ) I./ s 7 w e.",
"e.r.a P I.Y.~ F s : + 8 w e.w.j D.Y.{ ( Y Y U ! W P E ( ] ~ s 7 w e.e.i.D.Y.I.S.G.&.8.9.{.I.~ ! { }.{.T.R.Y.I.~ ~ ~ Q / ! ~ ~ ~ / Q Q W P P ! ! Q ~ { {.I.Y.Y.R.W.P.J p 9 8 w e.e.r k U ( / / / ) ) :.%.P F F W ~ P.I.I.! ! ! ~ / &.*.:.Y.T.%.%.~ ) { ( s 7 w e.",
"e.r.h W ~ ~ ! D : + q w e.r.e l S.Y.:.@.R I U ! / ) 1.2.Y.~ s 7 w e.e.r.Z.I.I.I.G.) 1.1.{.I./ ^ %.2.}.I.I.I.P.~ J J / ~ ] ] ~ ~ ~ ~ ~ ~ ! ! W Q ~ { 2.4..X^.Q.Q.W.P.F u e w e.e.e.r l U o.%.) ~ ~ ) { ) ^ W W ! ! ~ G.G.) ~ ~ ) %.%.>.T.T.G.~ ~ G.T.:.o.v 0 w e.",
"e.r.B / ! ! ! F : 9 w e.e.r.h W ] {.1.@.E U ( ( ) &.8.9.oX) s 7 w e.e.r.l ) >.{.] ) %.:.{ ~ ~ / %.%.) G.~ P.I.~ W W / I.{.>.~ ! ~ ~ ~ ~ ! ! / / ~ T.2.=X+X4X#XW.I.W s 9 w e.e.e.r.g Q ( E E ~ ~ ~ ~ I.I.~ / ! ~ ( ( ) G.G.G.~ ! %.%.) ] ) / W Q S.T.:.o.v i r e.",
"e.r.Z.I.] ~ ~ W s 0 w e.e.r.h P %.1.&.&.@.;.1.1.( ( 1.7.9.1.3 7 w e.e.r.h ^ 2.2.[ ~ ) ) ~ ~ ) ) / ( ) ~ ~ I.Y.T.( E ) { 2.2.{ ~ ~ ! ! W ! ~ ~ ) / )  X+X9X9X.XI.F : ; # w e.e.r.h J I.Y.~ W ^ / ~ I.W.W.I.) ~ ) %.%.) ) ~ Q J W ~ ) ~ ~ ~ ! J k W ! ) ( n x r e.",
"e.i.D.Y.{ ) ~ W s 9 w e.e.r.h W %.*.&.&.*.1.1.:.( ( @.1.8.1.v u e w w.w h W 2.2.[ ~ ~ ~ ~ ~ ) ~ Q / S.I.I.I.Y.{ @.o.) T.OX9.>.) ~ ! W W ~ ] I.) Q ~ R..X9X=X|./ p O @ 5 w e.e.r.l )  X.X) Q ^ ( ) Y..X.XY.I.] ) %.%./ Q ^ W k W ~ ) ~ ! ! ! J F W ! ~ ^ n x r e.",
"e.i.D.{.:.%.W d : 9 w e.e.r.l Q T.>.%.%.>.{ ( ( ~ ( ..o.>.I.! d p 8 w w k W { >.] ~ ~ ~ ] ) / Q ) G.I.R.R.I.] ( @.*.) I..XoX2.%.) ~ ~ ) I.Y.I.~ Q ~ R.W..X{.G.W : + 6 w e.p.e.r.Z.{.OXOX{ ~ %.%.{ I.OXOX XY.~ ~ ) ) / W W W Q / %.%.( ! / / W ! ~ ] %.Y 1 9 w e.",
"e.i.D.{.2.%.W d * 7 w e.e.r.l ~ R.R.%.%.T.I.! ! ) &.o.%.}.{.{ U s i w r k ! I.R.{.>.] ] I.I.~ Q Q ) I.R.Y.I.~ E @.%.( P.W..X2.*.) ) ) G.I.Y.P.~ Q / I.R.I.~ W d u 8 w.p.a.p.e.i.D..X=X2.) ) %.1.>.>.2.2.{.I.~ ~ ~ ) / W P P ! / %.%.( / ) ) ~ ~ T.>.o.Y , 0 w e.",
"e.r.Z.T.Y.T.! F : 7 w e.e.w h Q ^.^.T.) G.G.~ ) 2.2.&.&.2.8.1.o.L f w r l ] W.4X-X=X{.Y.R.Y.S./ W W ~ P.~ ( E o.E ! P ! Y.W.{.{ ] ~ Q Q ~ ~ ~ ~ ! ~ I.I./ F s 9 e w.e.a.a.p.e.i.D.W..XI.! ! ) >.2.2.%.~ ) ) ~ ! ~ ~ ~ / P F P ! ) ) ) ) ) ) ) { :.%.T L d f r.e.",
"e.r.Q ] I.I.~ ! v p e w w.w h ~ ^.#XY.) ~ / ) { 2.2.&.}.=X9.1.o.b f w r J ] ^.7X9X=X{.I.I.I.] / J W ~ ) ! ! o.o.! ! ! ! P.Y.I.] ~ / W W ! ~ ) ) ~ ~ ~ ~ P s u 8 w e.a.a.a.p.e.i.D.W.I.~ ! ! ~ T.2.*.( Q ) ) ~ ! ( ( ) ( W F F ! ~ S.) ) ~ ~ G.) *.%.( F F h r.e.",
"e.r.l ( %.:.) ) %...x 8 w r.K I.^..X2.%.P W ) ) ( ( ) Y. XXX{ P s 0 w r J ] Q.#X X{ ! ! ~ ~ ~ ! ~ ~ %.%.^ ^ ~ / ~ ~ ~ ~ ~ ~ ~ ! ! W W Q ~ { %.%.( ! ! P s p e w e.a.a.a.a.p.e.i.K.W.~ J ~ ~ ] ) ~ ~ / ~ I.I.) / %.@.o.E W W W ! ] I.~ ~ ~ ~ / ) _.}.{ ~ W k r.e.",
"p.t.g N %.1.>.>.8.+.1 + q r.l ~ R.{.1.@.E W / ! P E ) {..XY.! s : 7 w r.J ] Y.R.I.~ ! ! ! ~ ! ~ ~ { :.%.( Q ) ) ) { T.I.~ ! ! U P W ^ / ) >.1.%.( P D s p 8 w e.p.a.a.a.a.p.e.i.H.I.( W / ~ ~ ~ / ~ ~ I.I.) / &.*.*.o.%.^ Q / ) { { ~ ~ ~ ~ / / G.{.T.~ P a w e.",
"p.e.r.j Q >.2.8.1. .< o q w a P ) &.o.o.( / W P o.@.*.2.|.P.d : & 7 w r.K ! ! ~ P.Y.I.I.I.] ~ ~ I.I.{ ) ) ~ ~ ) %.%.) G.) ( T T ! ) %.*.*.1.>.) L s : u e w e.e.p.p.p.p.a.a.p.u.^ 1.1.%.~ / ~ S.G.I.I.I.~ ( o.%.>.>.) / ) G.I.{ 2.1.( ! ) ) ~ ~ G.G.I./ s 0 w e.",
"e.e.w y Z.{ 2.1.o.4 . X q w 0 s ^ / %.%.~ ! P E %.1.1.2.}.( , O + 8 w r k P D W I.R.W.R.I.{ ~ ~ I.I.I.~ ~ ~ ~ ) :.*.=.&.G./ E E ) ) %.@.@.%.{ ! s : + 8 w e.p.p.i.i.i.t.p.p.p.y.M ..*.%.^ Q / ] I.Y.Y.I.] ( E %.{ I.G.G.G.) { >.2.2.%.( ) G.G.) ) ~ ! F : 7 w e.",
"p.e.e d / ) ( E P v % X q w 9 s ^ ) ) ~ W P T o.=.}.}.>.%.Y < @ 6 w e.w u : , L ~ Y.R.Y.:.%.! ! ] I.I.~ ! ! ~ ) { >.2.2.}.I.) ) ~ ! U E ( ( ! D ; @ 6 w e.p.a.m.).=.F.j.r.e.e.e.r.y N W W W ! ~ I.Y.R.R.Y.I.^ ^ ) I.I.I.~ ( %.2.XXXX:.%.T.I.P.) %.T v : & 7 w.e.",
"p.r.u s W W F s s s $ 5 w w 7 : W ) ) ! P L ..@.>.}.I.) T 4 < $ w e.e.w.8 + : s W ) T.{.2.%.T ! ] I.I.) ! ! ) ~ ~ ) 2.4.{.I.~ ~ ~ ! F F W P F s @ 5 w e.p.f.C.].;X=X>.Q j r.e.e.e.w f d W / ( ( ] I.R.R.R.I.~ ~ T.Y.Y.] ~ ( %.:.Y.Y.:.:.T.I.~ ( T 4 ; O + 8 e.p.",
"p.r.0 : : : : : : u 6 w w.w 7 : L W W P F L o.@.1.%.( P s ; ; 7 w p.p.e.w.6 + : s L %.2.>.&.o.o.T.R.Y.{ %.%.{ ~ ! ! { {.I.~ / / ~ ~ J d F F , 9 6 w e.p.B.C.>X>X6X+X:.( Q j.t.e.e.w i d ! ) %.%.{ I.R.R.I.{ 2.2..XW.I.~ ~ ) { I.R.Y.) ( ) ) ! L s ; . @ 6 w.p.a.",
"p.e.8 7 + + 7 7 7 8 w e.e.w.8 u s s s s F E *.7.@.o.L s * O + 8 e.p.a.p.e.w 8 + : v o.%.{ ) %.%.T.R.R.{.%.%.{ ] ~ ~ I.Y.{ ) ^ ^ ) ~ J d d s u 8 w.e.e.p.V.].;XfX6X{.o.Y E l t.e.e.w 9 s W ) :.:.{ P.I.I.P.{ 2.OX+X.X{.{ I.I.I.I.I.] ~ ! ~ ^ L s : O @ 5 w e.p.a.",
"p.e.w q q q w w w w w.e.e.e.w e u : : : s E 1.1.E L s : & + 6 w.p.a.a.a.p.e.w 6 + , L ( / Q ^ ( I.R.W.R.~ ( ) I.R.W.^..X:.*.o.%.) ~ J d : u e w.e.p.p.s.J.|.:Xq.2.o.4 2 , i r.p.e.w 9 : d Q T.Y.I.~ ~ ~ G.Y..X+X2.2.8.4.{.Y.G.) ! P T T P L s : & + 6 w e.e.p.p.",
"p.e.w.r.h.h.h.t.u.r.r.w.e.e.e.w 8 + O : L E 1.%.T s & O + 8 w.e.a.a.a.p.p.e.e.w 8 u d P W W W W ~ Y.W.W.S./ ~ {  X.X.XXX:.+. .T ! W d p 9 8 w.p.a.a.p.t.Z.{ 2.1.X.n x 9 9 8 e.p.p.e.8 9 p d ~ S.I.S.~ / ) I.R.{.1.5.8.2.{.I./ W P L n n b a 0 7 7 8 w e.e.e.w.r.",
"p.t.j S.@X$X!.H.=.#.N y r.e.e.e.w 6 + : ..@.E T Y 3 ; @ 6 w.e.a.a.a.p.p.e.e.e.w.w e u s F P P W ! ] Y.Y.I.) %.@.1.2.2.:.E L 3 , s s : 9 q w e.a.a.a.p.r.k L U L 3 p y r.r w.p.a.a.p.w.q 9 : p F S.R.I.) ~ ~ ~ ~ o.o.%.~ ~ ! s s D D , u e w w w w w e.e.e.r.j k ",
"l.k.~ E.8XpX6X+X9.1.W k e w e.e.e.w 8 p Y ..L s 3 2 # 5 w p.a.a.a.p.t.i.r.t.t.r.e.w 8 9 s s s D F P ! / ~ ) T  .X.+.+...L s & O & : + 8 w e.p.a.p.p.e.r.8 i a a 0 8 y.p.e.e.p.a.a.p.e.w.8 7 + u W ~ ~ ! W P b b Y Y b F P d u 0 a a 0 8 w.e.e.e.e.w.w w t.c.W E ",
"D.D.R.^.7X7X9X=XXX{ ~ J u 8 w e.e.e.w e p 3 s , : + 6 w e.a.a.p.e.t.j.Z.Z.Z.F.n.r.w.w q u : : : : : : s k F D , 3 3 v v , : # . . # 6 w e.e.p.p.e.e.e.w.w w w w w w w.e.e.p.a.a.a.a.a.p.e.w w e a s s v v 3 , : : : : : : u e w w r.r.e.p.p.p.e.e.w 8 a F.oX2.1.",
"{. XQ.^.#X X2.2.{.Y.{.( s 9 q w e.e.e.w 7 & & : + 8 w e.a.a.a.p.r.j G..XY.T.{ Z.r.e.e.w.8 7 7 7 7 7 7 9 u p - = & O : : 9 7 # @ @ 5 w e.e.e.t.r.u.u.u.u.h.i.r.t.t.t.r.r.r.t.p.a.a.a.a.a.p.p.e.w.8 7 7 9 x x 9 7 7 7 7 7 7 8 w e.e.e.p.p.a.a.p.e.r.e N ) &XwX=X9.",
"1.>.W.R.:.%.^ ~ T.+X:X2.E s 9 8 e.e.e.w 7 # . # 6 w e.p.a.a.p.t.f Q +X6XY.~ P a r e.p.p.e.w w w w w w 6 $ # & &     O 9 q w q q q w w.e.p.t.j N $.=.=._.!.!.D.F.H.H.Z.Q l j t.a.a.a.a.a.a.a.a.p.w.w w w w w w w w w w q q w w.e.p.a.a.a.a.p.e.w f Q 7XpXuX5X#X.X",
"5.1.{.Y.%...W Q I.oX0X9.( F : 7 w e.e.w.8 + $ 5 w e.e.p.p.a.p.t.W >.3X6XI.W s 0 w e.a.a.p.p.e.e.e.e.e.w o X + + o X + 8 w e.e.e.t.t.r u.h.n.Q ( 1.0.9.=X+X.XY.Y. X XI.~ ~ Q g.i.a.a.a.a.a.a.a.a.e.e.e.t.t.r.r.r.r.u.u.u.t.t.r.w.p.p.a.a.p.p.y.j W E.pXaX7X^.^.^.",
"5.1.}.|.XX}.) / ~ >.8.9.{.~ s 7 w e.e.e.w q q w w.e.e.e.p.p.p.v.'.=X+XT.Q d : 9 w e.p.a.a.p.p.e.e.e.e.w q q q q q q q w e.p.a.z.J.F.#.$.`.@X^..X1.*.>.XX2.%.] I.Y.I.~ ] Y.Y.~ j.t.a.a.a.a.a.a.a.p.e.e.d.J.D.Z.Z.Z.F.=.'.`.F.Q h w.e.p.p.e.y.g.F.|.4X7X7X.XR.W.W.",
"1.*.=.|.&X&X|.G.! ( 1.2. XI.s 0 w e.e.e.r.r.i.h.h.u.u.u.h.l.i.n.oX:XXX) W s : 7 w e.p.p.a.a.d.l.h.h.h.h.h.i.t.t.t.t.r.t.h.z.C.M.H.XX2.2.+X#X$X.X%.@.=.=.%.%.) I.I.] ~ ] W.W.] Q g.t.p.a.a.a.a.p.t.t.h.N.!..XT.) >.XX=X=XoX{.~ k e w e.e.r.j F. X6X7X#X.XW.Y.{.{.",
"{ ( %.>.uXiX$XR./ ^ +.*.XXY.W a w e.e.t.g Q @X*X%X`.$.$.`.H.Z.Q }.OX9.1.W s : 7 w e.e.e.p.l.[.*X*X*X*X%X!.D.D.F.F.F.Z.D.K.!.@X|.>.2.XX X#X#XW.}.*.@.@.%.( ) G.G.I.] ~ I.R.W.I./ d e t.p.a.a.a.t.j l D.@X#X.X( ( 1.9.+X.X{ ~ ~ W : 5 w r.h W |.6X7X7X.X.X#X+X2.1.",
") ( @.2.5XyX4X X/ ^ %.%.XX>.P a r e.e.r.N [ 6XrXwX=X1.1.XX{.) ) }.XX2.%.L s : 7 w w.r.r.h.L.*XrXrXrXrX7X6X+X{.|.XX|.Y.E..X.X XXX2.2.{..XW.W.I.>.1.@.+.E ) ~ ) ) ~ ~ ~ I.R.R.{.{ L a r.p.p.p.t.g.J ~ Y..X.X{.W P %.4..XQ.{ ( ] ! : $ q r k ( oXwX7X#X|.|.+X+X2.*.",
"o.@.7.9.|..XOX8.*.%.>.}.2.%.L i w e.e.r.^ 2..X6XOX1.%.~ ) T.I.{.OX8.:.U s : & 7 w w h B H.|.|..XwXeX4X+XOX4.{.{.2.2.{. XOX4.{.T.{ { I.I.I.I.Y.{.1.@.E ! ~ ~ ~ ! W ! ) Y.R..XOX2.) Q i.p.e.r.e k ~ Y.Y.Y.{.) W d ( { Q..X2.2.{ ! , + q r.l ( 1.2.|.R.I.{ 2.2.>.) ",
"X.+.7.2.] ) :.1.1.2.Y.Y.2.%.L a w e.e.r V %. X.X2.%.^ / &.XX X X=X4.( F : O O 7 w r.l ) .X+X}.}.+X&X.X{.2.2.{.{.8.2.{.Y.2.2.{ ] { { ] ) ) G.Y.Y.:.%.! ! P P U ! P ! I.Y.Y.XX8.8.>.S.b.t.e.w i P I.W.Y.I.) / W J ! ~  XoX8.1.( P : + q r.B ( o.%.) ) { >.%.%.( ) ",
"O.+.( ( ~ ! U ( XX|.T.T..XI.~ k r.e.e.r a E T.|.{.) ! ) =X0X2X<X1X X~ s & . # 7 w r.Z.R.4X#X>.1.{.|.|.{.{.{.R.{.1.1.{ I.{.{.Y.{ :.:.{ I.G.G.I.I.{ ) W L L L L P ! ) I.Y.:.1.@.%.) ) ^ M r w l ! R.W.I.~ ! / S.S.! ( 2.8.@.X.L s ; $ q r.F.) ( L P ( 1.1.%.E T ..",
"..o.( ( ( E L ! Y.Y.) ) W.Q.] l r.e.e.w 0 s / G.I.] ( :.0X0X2X XW.P.P , . . $ 8 w r.D.W.#X X2.%.T.Y.T.{.Y.Y.Y.{.:.%.) I.Y.Y.I.{ 1.1.>.I.G.G.I.I.~ ~ ! P Y Y P ! / G.T.{.1.@.+.E ) ( Y c w w l ^ T.{.T.{ ~ ) I.I.~ { 8.7.*.T v : # 5 w i.H.Y./ P P T *.:.( U E ..",
"W ( 1.1.1.@...E ) ) ..%..XW.~ k r.e.e.w 0 : d W ~ ( %.1.XX|.{ ~ ! P s &   X 8 w w.r.D.Y.:.%.^ ~ I.R.Y.Y.R.Y.:.:.) ] I.I.I.P.~ ( 1.8.}.G.G.G.I.) ! ! ~ ) ~ / ) &.*.%.T.}.*.@.E ! ~ ! v 9 w w a L ! { 2.2.I.T.:.:.T. X:X:X2.( s + 6 w w.i.!.#XY.( E ..E P P W ) ) ",
"W ( 2.8.7.@.+.+.( ( E %.{.I.! a w e.p.e.8 9 p d F L ..o.( ^ b b s s u + X 5 w e.w.g.D.{.*.o.^ ~ I.T.>.T.Y.I.:.*.>.>.{.>.] ~ ! ( 1.1.&.G.&.&.G./ P U ] T.G.G.T.>.1.%.) G.:.:.) ~ ] ! p 7 w w 8 a P E @.1.T.T.%.:.Y..X9.8.>.W , 7 w e.r.g.@X#X{.( %...T L P W ~ I.",
"..%.&.=.*.@.+.+.[ [ ( ) 2.%.L i w e.p.p.w.q 9 : : : , 1 s : ; ; : u q w q w w.r.e l G.XX8.1.) ) %.%.*.:.{ I.) =.2.9.8.2.( ! P P +.o.^ / 2.2./ W H I [ { T.I.) ) ) ) ) T..X.XI.I.I.! p 7 q w.w t m Y 4 v ! ~ U ( W.R.E v Y v : 7 w r.f W >.9.%.o.( ( o.T W W Q Q ",
"+.o./ ) :.1.@.@.,.{ ] ) *.+.L a w e.p.a.e.w.8 7 7 7 7 7 7 + $ $ 7 8 w.e.e.e.e.r.l Q G.}.2.1.) ! T X.o.%.&.) G.}.2.9.8.2.%.( P E o.%.^ %.2.2./ ! U U _ :.{ ) ( ( ) ) ) G.R.W.I.) ) W s 0 w e.e.r.M v : : L L s L ~ ! p & < 1 + 8 w r k E 1.1.X.E ( ( o.E ^ Q ^ ^ ",
"@.*.&.G.|. X1.*.>.Y.P.) o.+.P k r e.p.a.a.p.e.w w w w w w w w w w e.p.p.a.p.e.t.F.|.|.}.) ( ! P L L ^ ^ %.:.T.R.{.{.{.>.:.@.@.%.>.>.%.%.%.) ) ) ~ ( o.o.) ) o.o./ ) W ! P.I.~ ^ E T L a w e.e.e.r.t + & 1 < ; # ; ; & O & + 6 w w.r k U ) &.^ ^ ....^ ^ ~ ~ ....",
"*.%.%.) R..X:.:.{.R.T.:.*.@.( J e w p.a.a.a.p.p.e.e.e.e.e.e.e.e.p.p.a.a.a.p.r.g.H.+XXX}.] ! P F F W ( &.1.2.{ P.] ] I.{ %.*.1.>.T.T.%.%.! ! ] ] ~ ~ o.o./ ( o.o./ / P P ! / ^ ^ T T P k e w e.e.e.w.8 9 9 $ @ X X o + 9 7 8 w.e.e.w.j l Q Q W T X.o.^ Q ~ ( o.o.",
"^ ^ ..%.T.Y.T.}.{.|.4.9.q.8.) k u 8 e.p.a.a.a.a.p.p.p.p.a.a.a.a.a.a.a.a.p.t.j W G.|.2.2.{.] W F W ~ 2.=XoX{.' U U ! ~ ) ) &.|.{.G.Q ^ W P P I U ! ( @.@.( ( @.@.( ! P F P P E ..E ! ( W u 8 e.p.p.p.w.w w w w q q w w w w.e.p.p.p.p.t.g.k v v Y +.@.( ! E T E ( ",
"Q W Y ..) I.I.G.{.XX9.q.sX:X&.d : 7 r.p.a.a.a.a.a.a.a.a.a.a.a.a.a.a.a.a.p.r.k U ] {.8.9. XI.! F W &.:X0X+XY.U G D P ~ ) G.G..XR.~ W W W P H G G W ^ *.@.( ( *.*.( ! F F F L  .o.E ~ ) ^ , 7 w.p.a.p.e.e.e.e.e.e.e.e.e.e.e.p.a.a.a.a.p.r.i , 3 | +.*.( U Y Y U ! "
};
