/* XPM */
static const char *wall23_2[] = {
/* columns rows colors chars-per-pixel */
"128 128 55 1 ",
"  c #070707",
". c #0C0907",
"X c #140606",
"o c #160E07",
"O c #1A0E07",
"+ c #151007",
"@ c #240404",
"# c #2E0603",
"$ c #230B05",
"% c #2A0904",
"& c #340502",
"* c #3B0301",
"= c #320905",
"- c #380A07",
"; c #430000",
": c #4C0101",
"> c #470807",
", c #530505",
"< c #5B0505",
"1 c #580807",
"2 c #660101",
"3 c #6B0000",
"4 c #740000",
"5 c #7E0000",
"6 c #820000",
"7 c #8A0000",
"8 c #8D0000",
"9 c #920000",
"0 c #970000",
"q c #980000",
"w c #9E0000",
"e c #A30000",
"r c #A70000",
"t c #A90000",
"y c #AF0000",
"u c #B00000",
"i c #B50000",
"p c #BA0000",
"a c #BF0000",
"s c #C00000",
"d c #C60000",
"f c #C90000",
"g c #CE0000",
"h c #D20000",
"j c #D60000",
"k c #D80000",
"l c #DD0000",
"z c #E10000",
"x c #E50000",
"c c #EB0000",
"v c #EE0000",
"b c #F20000",
"n c #F50000",
"m c #FA0000",
"M c #FC0000",
/* pixels */
"74566qrrwq7544222246qq65655566544424222<2<247qqwrwrq2222222222424444455678qwrwqwrtutrrq7655555555555555555458qwruafffauuwq64546q",
"q96wtyutrq7655222246qq7565556555444422<<<2224qwwwq964222222222444545665568qwrqqqwrttrw865555555555555555555608qruipspu7768535548",
"wewuaapyw76444222257qq06555567644442222<<2444q7666666422222222355666655557qqwqqqqwrrw96555555555555555555566q0qruupaut9554523446",
"wrtuasdu955444322248qwq0866608743322222<22566q00q6675322223222246767555557qqqqwwqqeeq755555555555665555555569wtissddie0663422438",
"wrrupasu964445422226qqwwe9990865222222<<22567ryyp0665322224332245767666669qqqq0wwqqqq665555566556996655555556qysfggftq6663333437",
"wetuupuyw956642222360q00tewq865422222222<260qpyup0654422224443355687766670qqqq890qqqq655555556669qq86555555560rpfffdrw6544234345",
"qwuuiiitw077742222457089uitq754222222244348upgriu6744234225444565677655568qqqq7670qqq76555556688qwq86565556568qugffaut664223334q",
"qwuiasauq76652222224568riauq6522<22<245766wifldfu6524254424444576555555567qqq866667qq865566688qqqqq8667666766qwihffaiuwq5247677q",
"wruaffau866032222<2257qtaatq75<<<22<25670quafgljuq524254524544445555555566qqq7556668qq76678qqqqq888777qq778qqwrassaiuure6220q86q",
"wuifffauq0744222<222468waiwq052<<<<<245669afhgkgt86442555455455567765554568qq7556667qqq00qqqqqq866660qrrqqqrryuiytttutw93226666q",
"rtihhhdiyq5457432222246witwwq62<<<<<2499eeihljgpr65554555565445566655543456qq0655557qerreerereq86556qwrrrwrypaptwrwrur742244335q",
"teiflhfiyq6888674222236wtr88q52<1<<225qeiedllfaur665665566654455555555424569qq086667qrtyyiyytrq66556qerytetuppprqeqeyr422233248q",
"qeyfkffiee0wq88q62222248ee66q62222<226takazlduttr0656555555556555555554234660qww9999qryupapurrq65567qrryrrtyytyrwqqqrr4422223488",
"8eyhdgfywrwqqww062222225qq66942222<24qfxMvchy090w06555555555555555555442244570qwwqqwwtiiaaautrq65557qrrrrrree0we0090rr6543344455",
"7qudihfwwrwqqqq642222225qq65542222236dcMMMcgt867776545555555556655665422444557qwrwwwtisdssauutw65557qrrrrrq007707757rr8666676666",
"9wuiafdwqwqqqq7422222246qq65565222469cMMMMmju8667655555555555667666654246654458qrrrtifkkkjatuur86567qqqqqq7655555556rr86556666e8",
"dauidsawwqq688522222245787545765450qrjvbMMxgtq656545456666555677755654450q64446qrrrtajcvvkstuurq7667qqqqqq7655556656qrq7546078rq",
"ffiuiiarwwq46652422425566655707790rrpghlMbkfr855532424666645577776777546qr05446qwwwtajvvvcfutuurq00qqqqqq865555566556wq8537qqery",
"ffiiuuirw9624554344445566999wewwrrytasfkbzjfur99964422443445677777000546qrw74469qqqrajvbmvjaiputrrrerreeq065555555667q767877etyu",
"ffiyipurq6523443234545560eetiiiiyyyeuudhzfffpueeq06422432256700878qqq866qwq08667qqeyajxbMnlggdpttrrrtrtreq086666666767446578rtus",
"fdueyppyw662233232454568qrypffdsyyr0eraffppfdpyyee74225223579q08780qww080qqwq999qeypdlcvMMxlzhatrryyyytrrwww999999974443449wrepg",
"dpywruait68222223245559qwridllgatre7qragauidfsiutr0843422469qq877670000870qqqwwwwtishxnnMMxxvkarrryuiutrrwqwwwwwww0643422699eepa",
"aurwrtaau6q24442226666qwtyskvcfurr06qtajsiipaaaiitrq6642367qwq8775577777770qqwrtyiafjznMMMbxvzawwrrruurrrwqqqqqqqq7522224566wiuq",
"aurqqruuu9e378622278qwwtiafzvzstqq88wushsiutuaaaauwq8764578qqq87655555566777qqruaaasjjjvMMMbvzarwrrrturrrwqqq8qqqq6534244678rpu8",
"ur886qtuarr40q0445qqwrtaffgzzgar8qqqriasfiurttiaauwqq87567qqqq7654455545556668ruiaaassszMMbbvvstrrrrrttrwqqqqqq8qq65555508qqyty6",
"tw446qwtaur6qrq557qwrtpsfsfkgsiw8qwruaasfatwrruaaurq808778qqq87644444423345567wtttyiaiskMMbvbvfurrrwwrrwqqwrqqqqqq676777qq86wwy7",
"96424qwrytw0ere760erryaasasgsitq0qqtpsgssurwrtuiaiye770088qq97642222222<<23468qrrwrtaiskMMmmbvjaiyrewwwqqqwrweeewq909ww6qq667et5",
"q644499w00qwrrrq9etyipdaapaspurwqqeyadjdieewrtyupyuy067908qq87632222222,,<2458qeeweruypfvMMMmvlgdpirwqqqqqwrerrrwweeetr999678yw7",
"r988767967qeyyryryypasdapippyurqqwrpfhjfuwqweeryytuuq667q8qq8642222222<,:,<357qqqq0eeetihbMMMnckhfayeqqqwwwrrrrreerrree0666erurw",
"teeew66767qryytiiiiaaappuuuyryrwqwtdkkjdyw0q0qerrtuyw78909qq8522222222<,;:,259qqq070000epkbmmMvkjjsirwq000wrrrrrrrreeqq767qppuir",
"utttr66767qrrttaaaaaputuuuurwrrrwwijzzjatq8q70qrrrurrq9q8qqq752<<2<1<<<,,,<250qq0767778qrphxcmvkjjfatwq877qrrrrtrrrqqqq76quiaiaa",
"iiiir87768wttiiasaautrrrturwwtrwwwijzzfarq8q667qqqrwrwqq8qq8752<1,,,,,,,,,2257077657667qwtaajzcjffaaurw868qrrrturrrq8q876qruuuui",
"uuiatq666qraaffsfsatrrrrrtrwrpuwrwujkzsawqqq066768wrwqq8qqq874<,,,,,,,,,,122566676565668qrttssjsaiiiutrq8qwrrtutrrwq8q88qqwrtuuu",
"aaaauq670rpfhjjfffatwrwrrrrwuapwyrtjzzfarwe6q65656qw8qq8qe87742,,,,,,,,,1122344666555568qwrtyyyytettutrrqqrruuutrrwqqqqqqeqwwetu",
"adaaue0wrudhkllghfaterrrtiurtiawpppjkkhatwr7q65555680q90ew60742<1,,,,,1111<22223445555679qwww0ww09wwtyyiytyupaptrrrewqqqqwweweru",
"dfdauyriypfjlzzhjhdytutrtaytryiwusghjjjatwr0955666699q0qr96q76322,,,,11111122222334555567qqq9677669qeypassppaaayrrtreeeeeqqrwetu",
"fffsiuyapfhjzczkkkfpyptrtptreerwrajhjkjsrqee9669899q9qeee66q7445421,,<<<222222222234555570qq7555556qqrpshhfdadaptrrrtyyrreeeeeeu",
"fgffpipsdjkkxvzlzhdaiitrrtrrqqqqtahkkxkgywqre99q9qwqwwrr869q746763<,,<<<222222222<24455678qq86555560qrysjkjgdfsatrrrtuutttrwerwi",
"gjgfsasggkzxvvxzzsauupurq0qeq0wwragzlbzjatwrrwqqqwwwwrr046qq6456752,,<<2234442222<<4456788qqq6555557qwrahzkjfffsitrtuiiiuutrwrep",
"gjjgfssjjzxvvvzkcsiiiirr868q06rrwufzxMxjatwrrwqqqwwrrrr668qq6244542,<<<22566642222<24568q88qq76555568qwusjzjgfffauttuaaaiuutttui",
"jkzjgffjkvvvvkjgjaiahawre8eq66rrwtszxMvjatwwwqqqwrrrrrq67qqq642222<<1<<2460q754222<24567qqqqq865665678qtagjjjssfautuiasfiiauaiaa",
"ckckjgjjkvvvkdspsidsjdw9yyyq60rywrikvbxgatrrqqqqrrrrrrq7qqq86442<<<<<22257qq064222224568erqqqq767777668wysgggaisautaaaasaaaafdhh",
"vzvkjggjkxxxgiytyyhsjs96eut949ypreujllksityreewerrrwwwq0qqq744422<<<222457qqq64432224560ryrqwq8777775569rafffayiiteyyyiasdfhkllx",
"vxvkjggjjjjkayreqtjsdu76wuy847uatepjhffaytutrrwryyewwq9qqqq644433222344460qqq6544323456qrurwqq0877776556eafddatrtewwweupafglxcbm",
"vxchhgfjgsadterq6efpat09uue849uaytdjdppieryrrrwruuq0009qqqq65444433457878qqq96544434456qriywqqq877677656qpfaaar9e00qq9ruafhzzvMM",
"vzlfddagaywt0qe060aiaiyypy776qusiufjauye0errrrwruuw877qqqq06566544469weewqq075555444568qtauewqq9876666560ygsaar6088q05wuafkzvnMM",
"vkjfsauppr707qq878piaiuuur686wudssghirr07qrrrrqruurw86wqqq7666565556qrtrwwq876666666557wuaurwqqq875555567tjgsar67www74ypsgjxMMMM",
"cjjfaatrrq666qq876yuaiuturwq6riassjfurq66qrtrq8ruutrwwrqqq8666565556qruttrwq88888866668ruatrwqqq865555568thjgar86rur96sfgjgzvMMM",
"kgsaiurwqq6568qq66wuauuttrrrqtashfjftw867qrur66ruuutrruwqq86655555568ruuutrwqqqqqqqqqqqruitwqqqqq65555568rfjjftq8raus6ealjgjzxMM",
"gsaittw8686560qq776tiuutrtuurpffjggfurq0errt966wuiauutuwqq06665555556wtuapurrrrrrrrrrwrtuutwqqqrq7555570qwsjcjurqyiihyyrljgghkcb",
"saytewq656556qqq007wetuiytuppafgjgfsaiyrrrrw6459tiaappp9qqq65555555569rtiaapuyyyuiiuyrrtuurwqwere065560weeyjvxatratygjlahgfsfghj",
"purw9qq655556qqeww8q9ryapyiassddgddssspytte74256ryasdda8qqe65555655568erypsspppppsaputrryyreqqryye6556qwryyjvnhuaxiruczgfffdfddd",
"ureq8qq665569qwrw8698rtaapipppasdppiiiiueq842256etasffp8qwr98655555556qeeypaaaaaaaaaurrrrrrreerppu9656qwyppjvMcslmjgaljsdfsgjdsp",
"urqq70q68669qwer05579ryaaaiyyuippuyrewww96422<46qriadsu8qqer0765665556000eypaaaaaassittrrrrrrrtassw6550wusdlvMvfcnbnlghiadpfkgfp",
"uwqq6706q68qqwrr8668qruaaaurrrrree09666544422,2400rypuy8qqqq65554555557770erpaasssffspiyttttttuafft8447qtflbbMbgzzvzgfdiuaaffffs",
"uwqq8888q8q8qqwrq8qqwrruuurwqqq07754222222222,,2450qrur8qqqq654424555567667qruaffffgjfsssiiiiiiafftq525qtfvMMMMmzjzlfaautuiffffs",
"urwqq8q8q888qqwrrrrrrrwwwwwq8q64442222<,<<222,:,<236qrw8qqwq6544545566676568wtisffgjjjjjjffffaatiatr6246rfvMMMMbkgggaitwrtiffffs",
"urwwrqqqq88qqwrrrrrrww888888685222<<<2<,,,,<2<;;:,24qrq8qqq865455434556765568wtiffggjzcccczllhawweww7445wsxMMMMxgspiytwqwwupfffs",
"ureqwwewq77qqqriitrw9666666656642222<22:,,,:<,;;,,25q978qwq055455444556765557qwyshhgjlvmMMmnvxdw767989457ikMMMMlaieerreqqqeupsfp",
"ytreqwrwq00qeeiddte96555555555642222<22:,,:;::;;<,4696579qqq864555455556655569qepjkhhjcnMMMMmvhe66566q058yjMMMMdytq9ereeqetyyiau",
"rerrqqrwqqqqrufhftq965555555555432222<<,,<:;;;::2<4565678qeeq6556555555555555690yhjjhjlvMMMMMvju006537r0etjMMMmpee090eweweuyyuui",
"ewerwweqwwewyfljftwq96655555565442222<<<<<,;;:,,224566677wttq7667655556555555567rdkljjkcMMMMMbkaet9644wuyykMMMmseq7970qqqwyuuuuy",
"qrwrrrwwtyiysxvkftwqq876666665665222222222,:,,,<236677686ruuww9w8665568655555556rszvljjzmMMMMMxsryw0668ruixMMMvar06567qqwttuurrw",
"qqqwrrwruaaagvvjsuwq777767q86666542242242<,:,,,4557777706quuwrwrq87668q655555556wazbvkkxbMMMMMvferq7667qupvMMMziq86678qwrututwwq",
"8qwwwwwrtiasjvvgsar8666668qq6755655545552<,,,,,4256666676qtuturrwq8qqqq655555556qizMMvvbMMMMMMMjtrq66666ufmMMMgiw755778qruuutrwq",
"78rrwqqwwtasjvvjsar7655560qq66456655577542<,<,<2255555567qruuuurq88qqq8655555556qykMMMMMMMMMMMMkpr655656ujMMMcjdw755670qruauurq8",
"67rrq77qwwyskmmlhgy065667qqq65456665600643,,<,<<255556656qeuuuuyw08qqq6555555456qegMMMMMMMMMMMnhaw665446pzvMbkgfiw6557qrypaiurq6",
"59ee955799ruhnMbxzstq9q00qq9654546456qw064,<,<32455556666qwuipuyew0qq96555555456qtfvMMMMMMMMMbldayq65469ashMnlgjdy9880wruddpur96",
"6qqq755579rtdcmMnnkdueurw00655653445689q9624<243555566666qeyuiueeww0065555566658rahzMMMMMnnvchspapy0007eyepbMvjzjarwwqwypffsue75",
"9qqq75569qtyalvMMMnlfudiq76565542456556qq9664244555556656qrrytywq00765555668767wiglxMMMMMxkgspyupyuiiy6w00ulMMcxxhpewwwyaffauw87",
"wqqw7668qwuisjzmMMMbcfksw656865425686560qwq86446554545568qqqrrrw077656556q6q76qwskbxmMMMMxfaiutuywyui06778thmMvvbchptrrtiffsuq9w",
"rwwt98qqqrtpafjvMMMMMxvjw868q864258q8557qqwqq84745664668qwqqqqqq766566656q6066qtfzmzzMMMMviuutuurwrrq65678rilmzvMMxfuttuiffduwwt",
"urtdprqqqwrttapgvMMMMbmctq6qqq6556qq0446qwqqqqqq667q8yrrwrqqqq88655567746q7876rupzvkhMMMMviwtrturqq885668qwwikgzbMmgiuuiafsiutpu",
"duafftq888q7wttyhMMMMMnmar0rrq6556qq85458qqqqrrr00qyyaur9rqqq86655557775687777rudzvggcMMMmdwrurtrqqq0400qqqrtjghvMMbfiuiaffauufd",
"kgfppr9760867wwtfbMMMnzbstrire9657qq765569qqwyyyyyysddyw0wqq965555556766677060rigzxashbMMnjy0trrwqweq4qwqqqrtdfgzMMMgapsdffdpikk",
"xhduutq9676667qtfznbnkfcdipdireq88qq6555569qeuspaudhkftq0qq965555555696657976qrtehjipknMbckpwweeeewyq0eeeeertafafcMMkgdgfddfgsbn",
"kgapuerq655676qydghdkfhbhfkkdyyye9wq7555566qrifdjgxlzdeq698655554456696669q668re6afaazmMxkgarreeyyeutuyyyyyrypdpphMMblfadpdhlkbc",
"sdasitur965568quiuwwifzMxlnbhpuutrrwq656666qrudhxnmzzsrq78556655445678690eq766rq7yffhzcnjgppwtttuuyidsaapiuyuispihMMmzgffpgkzlkd",
"uusgdgfdrw6668wuew80rfjMMxMMksiiuyrw0656767qruajlncjlduwwq66775556568q9qrue767rq6rdsgfhzpgiywqrrtuusjggkfiuuuadipzmmvclMcflxzffs",
"iigzzzhlsr678wiauy86qpfmvcMmkfaarwrq75556568ruafgjgffiurwq6677665667qqqwruy866eq6raay6ykgsatr8qwiipjkjkzfsiiiaaiszvzxmbMMxMMzpfs",
"ailxvxzzfwq8qaduww878wyzxmMxjfiuwwwq65555567wuaffgfffaurwq66776766088qqqwwwq66666wur676yhhaur86pfhlzzkzzgffaifiifgkgklvMMMMMksfs",
"iacvvxzksrq8ykfe8877669udlMvkgdiyyyq755555568wrffffffaurwq0777707088twq68qqq65456qr9466rfgiuuq6eipkkhjkzjlfiifaaffggjkxMMMMMhffs",
"ifxcxzzhdrqtgkpw00006569rgMmzgfrrutq897777557qyklkhkfduyqqw0878q8780twq76qqq654569w6064wsurptw9euigjgjkzzzfdghpysfsfhznMMvMmafss",
"pfjjkzjddpuahsw9wwq90666qpxMxhftqreq8q8666560qyhxbvbkhspte998979768wr9766qeq65664666r847teysywtyyyffajhjzzkklhpidhdghcMMMnMvffpp",
"sfffkkdaafssdt7600979766qegbxlfie8008q655579qeulcMMMbchspr966097678qe76560ew9777454597447rdhaeytrygdahhjzxxllfdsffggkvMMMMMxlfiu",
"sffgkdassfsapy7566778768qwpkllfur777906556qwwyfMnMMMMmksptq667975680087667qtww9866568e746ifhdyeqryfgggkxzlljjgfpsyasgbMMMMMzzfiu",
"hgfddspggffuup965678q768qwuddhfurq78q87656qyyskmMMMMMcjauuw866656677777656qyttwq68wwiht0eaffauwqeqefhgzllgdgjfstyetypnmMmMmlkdii",
"xxfiifgjjfaruurq658qq88qwwiiiaaurq6qqq876wefggjzmMMMvkfiuurq66555567777756qruutwqwutuauupuaaiuwqq89fuflgffifjstutiiaajzvxvvzsiia",
"Mmgifjzggfa9www874ewwqqwrudiuiaurqqrwq8qqpaznzgshvbxzgsiuutq75555556767766qrtuuwqqrtutuwrruiuurq88qw7upfsiisfdtutdiiiipzzkkgfiia",
"MMgilcngjjdqyyre80ryyyyyuafittaur9qrrqqwyflzlzfapzxkhfaiuapr755555567767668wyuuwq9wr9676667uttw8666q0eusyeuapieuuiuuaaidzggfsadf",
"Mnllnmvjhgsiddpe89wusdddfgfyweiur0qrywqyafkhghhfdkjgssiuiaay076555567077778wtupyt0qw0q9q9eeuyyq7546ewetr0quaptwtutsddaiihfsadfjz",
"McxmMvljgappapuq60qufghkvldyqwuyreertetpdklfafhggfaappuuypduq665555679890889euppuewqeiiadjsipue064578rw90tpputwypyfgfdpifdaifflm",
"McbMMzjjsuuieeeq68qufhlxMxdueeyretyyyyadfkkhafgddpuuuyuuyifiq5555556668qq998qyuaiyqqydhhjkgppye066536rq9eaayqqwuapddddaiapaajlbM",
"MnMMMxjgiuue7qqw87qugkllvkduttrewruiipfhasfhffdapuuuytyuuifsw7555655557qqwq90rypuueeifkzsadautq865436eweyfpr00wusdsffgfpuuahxbMM",
"MMMMmldauue66qetteepkzhdspyuiitwwruassgzpidaaaiuuuutrrrttuffyq656766556qqqqq8rtuuipppfzbhdsaiuw065446weuidittutpjljzcbcgpiskxvMM",
"MMMmzgiurrwqqwuuiisgljatwwwufauwqtuiffglauuuaiuuuuutrwrrrtffawq67888668qqqqq8wuuuufgggzglljpatq88666wuuuuuautuijmMMcMMMkfsgzxxMM",
"MMMxgfutwrqqwuiiffjjgitwqqwusfarwuuasjfsiuweaiuuututrwrwrtaffuw78qqq67qqqqwq8qtuwtszzvmspggfftwrqqqruuttueauuuigMMMMMMMzgjzvxxMM",
"MMMhpiewrwqryidhlgggpt968qrtiyiuyuuiafieetyyiuiauuutrwrwwuaffayq8q9q08qqqwwq8ruuwtfvmMMftslljltsssruutwwwwtteuigMMMMcljklcmbxxMM",
"MMxdiurqwwryiajbnhpuew090eyrewupppppapt9qyiiuuuiuuurwewqwuissapy0q6qq0q999qwwtuuypkmMMMbxvnmnmjllhueewwetwwwwtrgxnnnkiugxbncnnMM",
"MnhprweeqqrupglMMvft9qettapyeeyagghsaurqwuuuuuuuyuyrerweeyuaaddptq69qwq898qwreassjbMMMMMMMMbMMzljhieqqqeyeqqwywpdgjlfiudjjkhnmmm",
"bvhu869eeeyafzcbmnfq7eypisiyteepfjzdspyteuuuuuuyryyyyrererupdfgduq99wq08q8qqewfgkbMMMMMmmMckvbhgdaytryeqeew0wt9889qtrttiiuiikzll",
"akkp624qtypgkcvzzge44wupyrwee0qryshffsptrruuuiurrruuyttrwruusdfdiewwtw98099qwrfgxmMMMMMzlchfgkfsaittufyq0q089r62,<<24468677qtyrt",
"4wjf6,2qiiskzzlkfr5226re077008070euadsdiy0yiiiuqqrytrrrrwruuiaaaaiewutw77q6wtpghzbMMMMnpwplhafffsatrtsyq80886rq<;;;;,,,,,22242<2",
";2ys5:<qasgzzlfsae4<,2576556676568euuaiaduyaair67rtutrwwwrtuaiiaaaituur68qwrifzvxbMMMmkq3wjlufffautwreqwq87q0yq2;;;;;;***;;;;*O*",
"O:8y4;,qfjzzzgsip82,;;<455555655556wtituiikfiu836ytuuwrrwruuiuuiiiauuuuyrrrtajvvvMMMMl722wfzffssaiupq46e87604q7<;;;;;;OOOOOOOOoO",
"O;7q2;:qhzzhgsiut6<:;;:2555555555228tluuykcgiy4:3rwet99rwtuuuuttetiauttptrwwiglxvbMMxw,,4ihhgfsaditu5<,44247206,;;;;;;*Ooooo....",
"O:9q2;:qxncgfappw6<;;;;<456555432::4rjjdhnmdrw,;,46674479wyuttwwwweiuyyiew77etifjzvcu<;2qajhffsgfuew4,;:<,,2283<;;;;;;;Ooooo    ",
"&2w9<;;8nMxffdspte4<;;;,2565542<:;;<esgulxxpe4#%%=,,<<2458qrrreq88qrpuuiwq65779tuasp2#:5ufjlhfsjhp9q4:;;::;:,42<,:;;;;;&Ooo.   .",
":4e7,;;4cMbzhdiuuy82:;;,255542,:;;;:6saysisuq,Oooo#;;:,<2460rre066q0appaeq9544467874&%<0fzczlhfjgaq95,:;;;&;:<222,:;;;;&Ooo    o",
"26e6<;;,pxvnjpeqq042:;;,25542,;;;;;;2pppr9qr6;Ooooo;;;;:,<47eeq74609papatwq6422222<*O;4ilnMcljhgair853,;;;$;;:222,,;;;;Oooo   .$",
"6er62;;;4qydaw6442,::;;,4552<:;;;;::<9eee5463*OoOO$;;;;;:<45qq04257quutpyyq7522<<,;$$:9jvMMvjfapt096442;;;;;;;:,,<,:;;*Ooo   .O;",
"wpt84,;;;226622<,:;;;*;,244<,:;;;;2<247772<42$OO*;;;;;;;:,26q052,47qrrtisfe862<,::;;;<rzvvvvfarq7522,,2;;;;;;;;;;::;;*Ooo.   .O,",
"uauq5<:;;;;,<,,;;;;;OO;:<<2<<::;::242<445<,22*O*;:;;;;;;;,27q6<,,26qwwtdljar742,::::;4pzvzkjiw8442<,:;;;;;;;;;;;;;;;;Ooo.    O;2",
"afar62<:;;;;;;;;;;$OoO;;;:,<,,;<2,2642265,,24:*;,<:;;;;;;<4784:;;,488qwucjft052,,,,<<5ighdput642<,:;;;;;;;;;;;;$;;:;;Ooo    o*28",
"sfgy622<:;;;;;;;;;&&&O;;;;:,,,:<2227976w92<462::,,:;;;;;:38w6<;;;:2757qegxhiq52,:;:<<48ttr0642<::;;;;$$;;;;;;;$O;;:;;Oo.   .O:7u",
"dfju6443<;;;;;;;;;;;;O;;;;;:::::<329rutyw4266432,:;;;;;;<6982:;;%@<644qeazlde82,;;;,,<355532<::;;;%%%#O;;;;;;%oO;::;;O.    .O<yf",
"hjzsq6642::;::;;;;::;O;;;;;;;;;;:220rdst75474442:&&&;;;:3994:;;#o *4449yfjlhuw3<;;;:,,,,<,:::;;&##%%%;#;;;;&#oo%;,:;#o      %2sk",
"kxcgr6652,:;::;;;;::;O&;;;;;;&&&&:26qsi84665222,&ooo&&;,4092*;;o  o4524yfjhhar4<;;&;,:;;:;;;;;;$$$;;;;*&&&&ooo$;,<:&o      .;5fz",
"kxkt84443,:;;;;;;;:;;OO;;;;;*OooO*,26t922642:2,*O.oooO;,464*O;*    ,4,28esdfst62;;O*::;;;;;;;;;;;*****Ooooo..O;,<,*oo      O;8jx",
"xmp4<,222<:;;;;;;::;*OO;;;;*OooooO*;294,24,;;,*Oo  ooO*:23;OO:O    O2;;,5euffiq4,;OO;,;;;;;;;;;;*OOOOOooo..OOO;<<:O.       O,qhv",
"xc6,;;;,,,;;;;;:::;*OoO;;;;OooooooOO;,;;<2;;;;O.   .oOO;:;X.:;.    .:;;;<6wasar72;OO;,:;;;;;;;;;Oooooo..ooO*;:<2,;.        O,esz",
"zs,4;;;;;;;;;;::::;$o..$;;;*Oooooo+o$;$;,:$;;;. &oo.oOoO$O.O7$ o    ;$;;;<6taapq4;OO,75,;$OOOOOOooo.oooo***:,232;X         O<riz",
"x963;;;;;;;;::,,:;$o.  O;:;;&OoO&&O.o$O;;$O;:$ #$Oo .oooo. &6o .    $O$$$%,8igdu6:OO,qr4;&o+ooooOOo.ooO&;;:3444,$         o&3ydc",
"c20<;;;#;;;:,<,,;%o.   .%:;;;OoO;;O..oO%%oO;:o %o..  ooo. o2<       ......%<wjkd8:OO:qsq<;&ooooo... .oO;,=69662=.         &,8acm",
"d24:;&#O#;;,22::&o.     O:;;;OoO##O. .o..o%:#  ..    ooo  #9#             o@3fja6&oO,8r72;;%o+oo     oO&,$9632-o          :6dzMM",
"65<;&ooO$;:,2,&&o       o&;;&Ooo++o.     $::O.        oo..<6.               *rr82O.O<32,*;;;$$Oo.     oo&O2<:&o           ,ibMMM",
",:;*OooO;;,,>&O+o.    .  o**Oo  ooo.     ;,:o         OO$%6>       .       .O32,*o.O;:**O**;;*Oo.       oO***oo          .3jMMMn",
";;;OoooO;:,;O.oooo    o  oOOoo  .oo      ;:;          *;;<9O.      o         ;;;O.ooO*OOoOO;;Ooo.       ooOOo.           .5jMMMh"
};
