/* XPM */
static const char *aqdirt02[] = {
/* columns rows colors chars-per-pixel */
"128 128 43 1 ",
"  c #2B220F",
". c #2E2410",
"X c #332512",
"o c #392615",
"O c #352915",
"+ c #3A2A17",
"@ c #3C2718",
"# c #372C18",
"$ c #3D2C19",
"% c #3F311C",
"& c #422F1B",
"* c #41301C",
"= c #43311E",
"- c #44301C",
"; c #45331F",
": c #47331F",
"> c #48341F",
", c #47381F",
"< c #453320",
"1 c #473522",
"2 c #483320",
"3 c #4A3623",
"4 c #4C3723",
"5 c #4B3724",
"6 c #4C3724",
"7 c #4A3923",
"8 c #4C3821",
"9 c #4D3C23",
"0 c #4B3824",
"q c #4D3925",
"w c #4F3D24",
"e c #4F3B28",
"r c #503B27",
"t c #503D25",
"y c #513D27",
"u c #533F27",
"i c #503B28",
"p c #523D28",
"a c #543F29",
"s c #544027",
"d c #57432A",
"f c #59452A",
"g c #5C482B",
/* pixels */
"-$X  X$&&-qq-&&$X.$-qq--qpffpqeq-&&&&$X   XooX O1afs>&&&&&&-qq--qpp1OX$$X X@33@XX@3ppq--qq-@.X$--&&&oXXX O1pp1O  X$--&&&&-qppq-&",
"&+X.X+=---333--&OO$-333-3yddqqq33->>-$X.XOXXXX X-ryy3--&&&&-qq3-333=XX$$X X@36&@o@3q63--qq3=+O+$$$-&oXXX O1ip3#X..+$&&&--38qq33-",
"oX.X%3qqq3--3qq3&$&&->3313yy3--33ysy>@XX%=oXXX.X$->333-&&&&-qqq3&+OOXo$$X X@3qq<&-q5&@&-qqq33=OXX+11OXXX O1ipq3%X .O$&&>yy3--33q",
"XX.O=313qq33qppq3-----33--333-$$=7yy8=XO36&oXX X$--3q0=$&&&-qqq2@X..Xo&=+Oo@=11-&-q3+O&3qyqqq1O..+31O XXO$3rqqr3#OO#==$=yy-$&-3q",
"XXXXo+O#3pddyqqqqqqqq3--&&-341OXXO@-y8++3q-+X  O-qqqq1+O$-&-qq3&oXXXX@<03-&@OOOOo&31OO-qqywq3-$$$=q1O  O,yyq33qq37wwq<O+77#X$---",
"@@ooo+O#1yddpqqqqwpqq3------1=#OOOo&yy&+=1-=+OO#=3qqq1OX+$&-qq3&oXXXo@3qrq3&O. .X@33##7pqqqq3--&&-31OXO%ydy3$&3pppdfp3##33#O=--&",
"3-@@-311-3yppqqqpppq3-33--31##=11136yq&+O#10311=#+=3q3+XXO$-qqq-O  X@&-3qqq3&+XXX@3q30ds33qysy>&&--=$=7ypr3$OO1ppppppq33qq33q3-&",
"q<o+7pq<$&3qqqqqqqq3-3q0&&31OO<qqppq3-&+XO1qqqr1O.@-33@oOO$-qpp0#XXX+$-3qrpq-&@oo@3pipdy>-qpds>&-----3ddpq3&OO-qqqqqqqppqqyq7-$$",
"-&X+wy-oXO&----3qq3-3qp3OO&-&$&<qpp5&ooo+&0q33q1O.@---&&-1=-qpdd7=$+XO-qqryq-&&&&-5rpppq--qppq--3qqqqqppyqq3&$=3qprqqqppqqp3#OXX",
"&$O%yy@X X$&&&&-qq3-303=OX+$$@@&5qq3&oo@&3qq--q3#O$----3qq33qpdfdy3&O#3prqqq3--&&-qqpqq3&&3qqq333qqpqpeqqqq33---3qqqqqqqqee1OXOO",
"&=10y4@XXO$&&&&-qqq33=OO++XXXXO@3q3-3<&&3qqq--qq3-=-3qqqrrqqqppdfdy313qqqqqysy>&&-qrpq3&OO&3qqq313qpqqpq3--343-----3qq33qpe3&$=1",
"&-36q3@oo@$$&&&-qqq3-$OO==+OOXXo<3--3333qrrq33qppq33qeiq31331117ysyppppppqqpdy>&-3qqq3>=OO+&3qq3-3qqqqpq-&&-1-$$&&&-33--3qqq33qp",
"&&@&53@o--OO$-&-qq3-&=-300111%XX$<33223qqqqqqqqpyqqqqwy3#O++OOO+=3qpdffdpqqppq--3qqq3-303=OO&-->3qqqqrrq-&&$OOXO$&&--333-3qqqqqp",
"-&o@35&&<=OX+$$=0q3--3qpepppp3#O+&5q--qeqqqqqqqqqqqpqyy3%OoOX..X$-qpdfffyqqqqq33qppq3<3qi3OX+$&-qeyqqqqq-&$+X  X$-&&&-qq--3qqqqq",
"q2@@3q5<&oXXXXX+3qqqqqqqqpddpq3=+@3q--qqqqpq3----3qprqryy7=@@$@$&-qypdfd8--3qqqqqqqqq3-3q0=+XX$-qwqqqqqq-$OXXX X$&&&&-qq-&-3qq3-",
"1=o@3pp6&@oX. .O-qppppqqqysy713<@&3333qppqq3-&&&&-3qqqqyff8>------qyppdy=$-8yyqqqqqq53--333=OO&3qqqqqppy8=OXXXXO$-----33-&&-33>-",
"OOX@3ppq52&+..+$=3sdpqqqqq3=+O+&<3--3qddpq3-=&&&&------3dgfsqqq3--qpds8=O#8ffs33qpq3&&33--30333qqq33qpdffy=+oo@$&-33-=---&&--33q",
"XX+&3qq331-$O+=--3dfpqqypq-@XXo&qy33qpddy3&$&&$$&&$@@$-8ysssq73-$&3ydy=O.X,ssy33qpp8@@3q3-3qqqqqq3--3qwysy3&@@&--3qq-&---&$$&-3q",
"$&13---&OO$-130qqyffprwppq-@Xo=qddyqqppy3&OO$$OO$$O..#8y8>>>-=+XXO&3y7#. .O#-38qqpdy-&5qq33--3qq3333-=##-3q3&&&-3qqq--33-$OO$---",
"$&-1---&OO&3qqqqqyy9713311-&o@qsyw73111-$+XO&=#O$&OOO%ys>&&--&OXO#=3q1+XOOXX$-qqqydy>-qppq-&--33&=0q3&OO&3qq3--3qpyq--qq-$..+$$$",
"XXX#1qq3313qqq33q7$OOO@+O#1<@&ys%O++OOOOXX+&3q31-=179yyq-&&-33&=7wqqq0=$--$$&-qq33yq--qppq--333&OO3rq3113qqqqqqqqpwq--qq-@. .XXX",
"XXX#3pppqqyyq3->4-X  .XXX#33+@87O XX.  .XO$-3qq3>-3yffpq3=$=0q33ddpqq3--11<---qq--33<3qppq--qq-$XO=3qppypqqqqppqqqqq--343=#OX.  ",
"$$=3qpdd33ss3-333$X XX.X=3q1OX+@XXXXXX X%1------3338dfpqq-OO3rqqyppq3--$O#13--qq-&--3qqqqq->ss>&$+O#3pppqqqqqepq33qq---33qw7=+. ",
"-33qqpdd88ss33q0=+XXXX O1pp7+XXXXooooX O-43----3q7&=ydpqq1##1qqqqqqq-&&$.X-3&=7q3--3qpeqqq->dd8->=OO=30qqqqqqqqq3-33-&$&-qdd8=X ",
"q333qpppsspyqqq3+XXXXX O1pdy-+XXXo@@oX X$33qqq0qq1O+7ppq3-11---3qqqq-&&$.X$&OO1qqqqqqwqqwq->dfyqsy=+O+&3qq3--3qqq3---$OX+&qdd8@X",
"p0=$=13qddpqqqq1O XXXXX+3pds>&@@@@@ooXO#-3qppyqpp1OO-qqq33qq-&&-qppq3--$OO$$O#3qqqqqqqypp0==9dyyyy8=XX+&-1-&&-qepq-&&$OXXo-qy4@X",
"p3O.XO&3yppq33q1O    X+=0ppq--<33-OXXo=7ydppyyyqr3&$=3qqqqqq-&&>sdpqq3-&$$&=-3qq33qq33sdp3+O=3q3&-y8@XXXOO$&&-qppq-&&&$+XXo@&@oo",
"q1#XXO&3qqqq--q3#OOOXO$-3qq3-3qqq-O X+3pdd01133qqq3-&-qwpqq33=$=ydpqpq-->>-3yppq--qq->sdq%X.+-q8@@88@XX  .+$&-qpqq-&$$&$X XXXXXo",
"--1-$&3qqqeq--qq311-$$&-----3qqq3&oX.O3pp7#OO+=3qrq3--qppq3341O+7ppypq->ysqqddp5->ys>-q0#X X@>sy&@@@oXXX  .O$-qppq-$XO$$X  .XXoo",
"&-qq--qpqqp0=&3qqqq3-&$$$$&-qppq-&oX O-qq1O. X$-1303--qqq3--q3OO1qqqq3->sdppddpq33dy=&31O.XO=8fd8&oXXXXXX. .+&3qqq3&OO$$X   XXoX",
"&-qq--qpqqp3OO&3qq3--$OXXO$-qppq-&oX X$3q0=O.O-1#O=-&-qq3-&-q0&&0q3---&-qpyyppyqqqp7+O&-$@@=9dfff8@XXXXX++. .O&3qqq311-$X   XoXX",
"&-33--qwppp1O.O=5q-&$+. .O$-qypq3&oXXO&3qq-$XO13#O&--3qq-&&-33>>33&$=--3qqqqqqqqqqq3#O&----8dffff8@XXX X$&OX.O$-qppppq3=###OXXXo",
"&---&-qyepp1O .+3q-$O. .+$&-qeeqq-OX+&3qqq-$XO1q337qqqqq-&&-->343&OO1qqqqqpq3----3qq313qqqqyffdy8=X    X$&$$$$&-qpddpqqqwyy>O.XX",
"-----3qq311=#OO#13-$X .O$&&-qeepp3+O$-3qqq-$XO-qrqqqqqq3-&$$=3qq-$XO1qqqqqq3-&&&&-3qqpppyqqpddp3&+XXXXO#=-----&-qpddqqqpddfy%OXX",
"qqqqqqq3#OO#=111---$X.+$&&&-qqepp0=$&--3qq-&$$=3qq33qq3--$OO-qrq-&$$-3qq3----&&&&--3qpddpqqyppp1+X+$$$-303--33--3ypq33qq38yp0=oX",
"qqqqqqq-O  O1ppq3--$OO&----3qqeq3-$$&&&-qq3----3qq31qq-&&$XO3rq33---&-33-&&&&&&&$$--3qddqqqqqqq=XX=333qqq3&=0q33qppq<3wq=$<33=oX",
"-3qq3--&X  O1ppqq3-&$&33--3qqqp3#XXO$&&-qqqqqqqqqqqqqq-&&&$=0q3>3qq3-=---&&&&&&$OO13-3qq33qq3--$XO7ddy3--&OO3qqqddpqqwdw#X++OOXX",
"-3qq3--$X .+3iqqyq3--33333qpqwp1O  X=>>33qqqqqqqqypppy3>---3q3&&3qq33-$$-----&&$O#1833qq33qq-&&@.O7dd9=@$+X+3pepddpqqpdwO XXXO+@",
"qqqpsy-@..O=5rrqqqqqq33>3qqrqyp1O X@8ddy3------3qpdfffdyqqqqq1OO&--381OO1qq3-&&-11->3qqqqqqq-&&$.X=>>=O..X+=3rwpppyqqpp3O  X=333",
"qqqyfd>$O+=3qirqqqqep3&$=33qqqq1#O+-yffs>&$$-=$$3qdfdsssyiepy3#O$&&-3-XX%3qq3-&-qq-=-3qqppyq-&&&OO=--&OOO+=3qqqqqqqqqqq3#XX+3ppp",
"pq37dd3-<30qqpprqqppp3+XXO&3qq3-113qyppq-$XO11OO&3yy3>>3qpprqq3--&&--$X X#3pq3--qq-$O#3pwyyq-&&-133qq311130qqqpq3----3qq0-$=0ppq",
"qq->sy=&3q333333qqppp1O XO&3q0&&3qqqqqq33=O#33+O&3yy3---113qqppq-&&--=#OO#=3qq3-33-$XO3prqqq3=$=0ppqqqqqqqqqqqq3-&&&&-3q31--qwqq",
"qq--q7#O$&@@@@@&3pppp1O.%33qq1OO&-------3733q0=&3qddqqq1#O=3qppq-&&-3qyw7=O#3rq3---&$=0peqqqq1OO3ppq33qq3--3qq3-=&&&&--=+O$-qwqq",
"pq--q3#O+oXXXXX@3qqqq-OO3pppq=O.+$&&---3qqqqq3&=3ydsqqq3OX+$-3qq-&&-3yddy1OO1ppq3--&$$=3qqqep3OO-qq3--33-&&-qq-&&&$$--&+.X$3qqqq",
"fs>-qq3=O...XXX@3q3--=$&3pdd4$X .O$-3qqqqq3--&O+1q3--3q0=+XXX#3q-&&--3yy3-$=3yqqq3-$OXX#3peee5&$=--3333-&&&-qq-&&$OO11+. X=qqipq",
"fs>-qpp7+XOO@@o@30=$=--3qpdy>$OXXO&3qweqq3---$XO1q3-&-qq-$OXXO1q-&&&&=1=$$$=3qqqpq-$X  O-qqeeq3----3qq-&---333&$$+XO1-O .+3ipipq",
"pq--qpdy-$-13<&&q3OO-qqqqq3--&$$$&3qqqqq3-3qq-XO1rq3--qq--1-$&3q-&&&&$OXXXX+3rqqpq-$X Xo&3qpqqqqqqqqqq--3qq31&OXXO+$-$X.O=0pppqq",
"q3--0pdy>-qiq3&&-=OO3ppqq3-&&&&&&-qyqypq--qpp1OX=qqq--33-33333qq-&&&&$O.   O1pppp3=+XXXo+&3qqqqqqewq31->3qqq-$X  X$--$OO$-qpppqq",
"--&-qppq--qq3&@OOO+=0peq3-&&&&&&&-qeqpdy>-qpp1OX$3qq---333--3qqq-&&&&&$+. X+3pddp1+XXXXXXO&3qpyqqri3##1333qq-@X  O<3-&$$&-qwwqqq",
"---3qqq3--333&oXXO$-qppq3--------3qqqpdy>-qqq1#+&3qq---33833qpyq3------=+OX@<yddp3#XXXXXXX+&3qqqqyp7##3q33qq3&OXX#3q-&&&&-qpeqqq",
"qqqqqq3-33333-OX+$&-qpddqqqqqqqqqqqqqppq--qq3-137qqq--3333yspqqqqqqqqqq03=oo&3yppq3=X.Xo@+XO&3qqqpdd73qqqqqqq3&$-3qq-&&&&-qpeqqq",
"pqqqq3--33--q3+O$&&-qpddpqqqqwwqqqqwyq3-=-33&$-30qq3--33->sdpqqyppeqqpppp3@o+&3313q3+XXO@+XX$-3qqpddpiqqqqqqqq33qpwq3----3qqqqqq",
"pq3---&---&-q0=$&&&-qppppq33qpqq33qpp3#O$--&OXO+=-------&-qppqqpppqqqpddp6-+XO&=O#3q=+XXXX.X$--3qppppiqq3--3qqqqrpqqqqqqqqqq33qq",
"pq-&&&----->333----3qrpqq3--3qqq--qqq1#O$--$X  .+$&&&&&&&-qqeqq313qqqpddpq3&OX$$O#0y3=+O++.X$&&-qqqqqpeq-&&-3qq037wppqqqqqqq33qq",
"wq-&&-3qqqq3--3qqqqqqqpq3-33-3qq--qq3-11--3-X   .O$&&&&&&-qppq3&O#3pipppyqq3&$&=-7ddw7113=XX$&&-qqqqqppq-&&----=O%ydpq3--3qqqqqq",
"pq-&&-130qqq3-3qqppppw71-3qq33qq33qq334q3381#X.  .+$&---$&3qq33&O#3qqqqqqqq33--3qpddpqqq3%XX$---3qyyqqqq3--&&&$O.O7sq3----3qqqqq",
"pq-&&$OO=3qqq3-3qpdffw$#1qqqqqqqqqqqq333q33-1=+X  .O$-31OO&--33013qq33qq3--<3qqqqppppq3=+X.X$-33-3ss31qqq3-&&$O. X=>->3qq33-----",
"q33--$OO@&3qqq33qpfff8#O-qqqqqq71113q0=$=1=-33@XX. .+&31OX$&&-qppprq--qq3--3qppqqqqqqq-$OXXO&3qq33yy31qqq3---&OXXO$&&-3qq3-&&&&&",
"--33--1=@@&3qqqqqpff8-$$-3qq3--=+OO#03+XXO$--&oXXX  .O=-&$&&&-qpppqq--qqqqqqqwpq3--3qq-&$$$&3qqqq3338qqq3-&-33&$$$&&&------&&&&&",
"-3q0==q3@X+=7yyqqydy-&&&&-qq-&&$O. X==OXO+=--$OXXX .XO+$------qqqqqq--3qqqqqqqqq-&&-33&$$$&-qewqq3&&3qqq3--3qq3----&&&&=--------",
"qqq3+#33@XX+1yrqqq3--&&&&-qq-&&&$+. XO+$-303-$X    O==OO1qq3--qqqqyq-----3qpqqqq-&&--&OXXO$-qppq3&OO&3qqqqqqqqqqq3-&&&&-3qqqqqqq",
"qqq1OX%-@oO#3yqqwq-&---&$$-1-&&&&&+X.X+&13qq3=+OOX.O11#O=303--qppqq3-&&&&-qeqypq3-&&&$OXXO$-3qq3-$OO&3qq3370310qqq3----3qppqiqqq",
"-3q1O.XO@&<3qpqqwq--33-$OXOO&&&&&-1=oXXXO#3qq3111%XX$-1=#+=-&>sdpq3--&&&&-qqqpddr3-&&&$$$$&-----&=-33qq3#+==+O=3qqqqqqqqqqqppq3-",
"-3q1O .X+&15qqqeyq--33-$OOXX+$&&&-33@X.  O1ppqqqi3#O$-31OO&--3ddy3&$$$&&-3qqqpddpq3-=&&&&--------3qqqqq=X.++XX+=0qqqqppppppy7-&&",
"qqp1O.++OX+&&3qqqq-&----1-$+XO$&&--&oXXX O1ppq33qq01----$&3qqqpy3&O..O$-3qqqqppppqq3-&&&&-3qqqqqqqqq3--&X .XXXX+3q33qpddppdy%Ooo",
"333=XX$$X Xo+=3qqq3-&&&-qq3=+O+$$$-&oXXX X-qqq3-1111-&&->3803303-$X.X#-3qqqqqqqqqqqq3----3qpeqpppppq-&$+OX.XXX O1q--6pddqqw,O.Xo",
"@+OXXo&$X XXX+1rpqq3@o&-qqq03=O..O11OXXX X$3qqq1#OOO$&&>yy3=OO=--$XX%7sdpq3------3qqqqqqqqqqqqppppds>$XO==+XXX O1q--7ppr3=#OXXo@",
"XXXXXo&=#XXX O1qqqq3+O&3qppqq1O..#31O XXO#&-3qw3#OO#==$-ys-+XO$&$+.X%7wwwq3>---=$&0qqqqqpqqppw310qsy8=XO36&oXX O7r33qqq3&+OXXo&-",
"XoooO@<q3=X  O1q33q1OO-qqyyq3-$$$=q1O  O79-&-3qq339wq-O+77#X+$&$O. .XOO$3pdyqqq-OO3q33qwwqqpdy$O&->8s8@+3q-+X  Owdyqqq3&OO==o@<q",
"XXo@@&3qr3#OO#--&&q3##7pqqqq3--&&-31OXO=ss-@@=0pppddp3##33#O=--$OOXXOOO$3pddpqp1OO=-$&7qqqqwy-XX$--397+o=1-&O.X#7yqqqq3&O+33@@-3",
" XX@<3-3qq311-$@o@3q37ds33qysy>&&--=$=7sp7+..+3ppppppq33qq33q3--1-$$=39wyppppqp0=+OXX+3q33q7%X.O-qq1$O..X#13&$$###=3qqq3&=q3@o@@",
"OOo@-1-3qpprq<oXX@3pppdy>-qpds>&-----3dfp3#XXO1qqeqqqqppqrpq3-=-1-$=qdfd713qqeyq3&O..O13&&31#X.O-qr3#XXX.O3q-&&$..@-3qq323q3@XXX",
"1-&@O#1qqrpq3$XX+-qwyppq--qppq--3qqqqqpppq3-$$=3qeqqqqypqpp3#O$$OX.#wfd0#O&3qppqq3&$$$-&OO&-1%XX$3qq3=$@@=0q-&&$..@-----3qq3@XXX",
"ay3&O#3ppqqq3=OO$-qqpqq3&&3qqq3-3qqpqqqqqqq3-&&-3qqqqqqqqpp1OO&=+OO%ydp3#O+&3qqqqq-&&&&$OX+$-=XX&3qppy3--3qq---=+O$&&&-3qpp3+XXX",
"fdr311qqqqqysy=$&-qqpq3&OO&3qqq3-3qeqqqq3----&&----3qq33qpp3&&303113wpyq3=OO&--3qq-&&&&&$+XXOXX+<qqpddyqqqqq--3031-&&-3qqpp3O  .",
"ssyppppppqqpds>&-3qqq3>=OO+&3qq3-3qqqqqq-&&&$$&&&&&-33--3qqq33qqqqqpppyrp3#O$&&-33-------=+OOXXo-333wwqqqqqq33qppq-&-3qq313=X .X",
">3qpdffdpqqppq--3qqq3-303=OO&--33qqqqwwq-&&$OO$&&&&--333-3qqqqqq33qpddpqiq31-&&---=-3qqqq3111%XXo@@+O#=3qyqqqqqppq--3qq3#O+o..+$",
"&-qpdfffyqqqqq33qpeq3-3qp3+X+$&-qppqqwwq-&$+XO$&-&&&&-qq--3qqqq3--3wddqqqq7-$$&&&--3qpppqpppp7#OXoo+XO&33qqyeeqqq3-3qpp7$OoOXO=-",
"&-qypdfd8--3qqqqqqqqq3-3qq=+XX$-qiieqqqq-$XX+$&&-&&&&-qq-&-3qq3-33-3yy33q3#OXO$&&-3qqeqqqpddpq0=oo--$$3333qpqqqq333qqppyw7=@@&3q",
"&-qpppd9=&-8ypqqqqqq33--333=OO&3qqqqqppy8-++=--&$$----33-&&-33-333--33--1%X  X$-$=0ppqqqqydy713<@&33>3q0=$=3qqy3&$-1113yff8>-33q",
"&-qpdd8=O#8ffs33qpp3&&33->30313qqq13qpdfdy7103-$OO13-----&&--3373--&-<31#X.  O-1OO3pirrriq3-#O+&<3--3qq3+XX#3pp1OXOOOO&4dfdyq33-",
"@&3ydy-O.X,ssy33qpp8@@3q3-3qqqqqq3--3qwssspqq3-$O#3q-----&&&$&33&$----3=X  .X#03+O3qqqqqq3&+XXo&qy33qpp3+..O-qr3+.  .O&3sffdr3&@",
".O&3y7#. .X#-33qqpdy-&3qq33--3qq3>33-=##-3qq3-&=13qq--33-&&$OO==OO1qq3&O.  X%0q7&=0q3----&@XXo=qddrqqpp0=$@$=3q0=+..O&3qyppy3&OX",
"O#=3q3+XXX.X$-qqqyds>-qppq-&--33&&0q3&OO&3qq3--3qppq--qq-&$+XX++.X%3q5&+OOO#0yq33-1-&&&$$@@oo@8syw331303-&&--3qq-$OO$-qeqqq0=+X ",
"wwqqq0=$$$$$&-qq33yq--qppq--333&OO3rq3113qqqqqqqqppq--qq-$XX++O. .X#3q531113qq3-41#OoooOXO=-o&ys%+++O+=--&&-3qqq-&$$&-qqqrp3+XXX",
"fdpqq3-&$&----qq--33-3qywq--qq-$XO=3qpyyyqwqppeqqqqq--383=##&$X .XX#0pppwepqq3-38-X XoXXX#03++88O XX.X+$--->3qqq-&&&&-qeyq3%X Xo",
"pppq3--$OO13--qq-&--3qqywq->ss>&$+O#3ppyqqqwpppq33qq---34qw8-@..O$-0ddpeqeeq3-333$X.o+XX=3q1OX&&oXXXXXXO1qq3-3qq-&&&&-qpp3#X..XX",
"qqwq-&&$.O-3&=0q3--3qpqqwq->dd8->=OO=37qqqqqqqqq3-33-&$$-qff8-##=34yddpqqqqq33q0=+XX++X+3pp7+Xo@oo@@oX O1yq3-3qq3---=-3qp7O  Xo@",
"qqeq-&&$.X&&OO1qqqqqqwqqpq->dfyqsy=+O+=3qq3--3qqq3---$OXX%sgfsswq333yppqqryqqqq3+XXXoo@=0pdy-+ooo&<-@X O1q3-3qqqqqq3-&-3dwO X+-3",
"pppq3--$OO$$O#3qqqqqqqypp0&=9dpyyy8=XX+&-1-&&-qweq-&&$O. X,sssddp0&$=10qqqqqqqq1O XXXO&-qpdy>&@@&-1=+XX+3q33qpewqypq3--3dw+.X@2q",
"fdpqq3-&$$&=-3qq33qq13sdp3OO=3q5&-y8@XXXO+&&&-qqqq-&&&$+..O#->>3q3OXXO=------3q1O    X$-qq3---3361#OOo+&0qqqqpewryyqqqqqp7@XXo&-",
"fdpepq-----3yppq--qq->sdq%X.+-q8@@88&XX  .+$&-qpqq-&$$&$X  X$-&-31#XXO$&&&&&&-q3#OOOXX+&373--3qpq-O Xo&3qqq5137qqpppyqpq3=oXXo&&",
"pppppq--3qqqddp3->ss>-yq#X .@>sy&@@&@+OX  .O$-qpqq-$XO$$X  O-3-&--1-$$&&&&&&&-qq311-$+XO&3yyqqqq3&oX.O1qqq3=OO&3qpppppp3#X.XXo&&",
"qqqqq3--qeepddpq33dy-&31O.XO=8fd8&@o@@@oX. .+&3qqq3&OO&$X  O1q-&&-qq-------&$&3qqppq3=OO&3ddpqwq-&oX O-qqq-@.X$-11113qq1O   Xo&-",
"pq3---&-qqqyppyqqqy7#O&-$o@=yfffdy-@&&&&$+. .O&3qqq331-$X  O1q-&&-qq--3qq3-$OO&3qpeqq3333qppppqq-&oX X$3qq-@.O-1#OOO&3q1O    O-q",
"q3&$=--3qwwqqqqqqqq3#O&----8dgffdy=@@@@$&$OXXO$-qppppq3=#OO#3q3-=-33--qqq43$X.O=5qqqwq330qqqqqq33&oXXO&3qq-$.X==X .O&3q3#OOOO#3p",
"-&OO1qqqqqpq3----3qq313qqqqyffdy8=O...XO$&$$$$&-qpddpqqqw933qqq3----&-qq338-X .O1qqqr3#O=------33-OX+&3qqq-$X.XX..+&3qqq311113qe",
"&@XO-qrqqqq3-&&&&-3qqppppqqpddp5&+XXXXO#=-------qpddqqqyddpreqq33--&-3q0=$-=#OO#7pqqq3#O+$$$&&-3q3+O&33qqq-$+X. .O&3qq33qpppppqq",
"&$OO&3qq3----&&&&--3qpddpqqyppp3OX+@$$-303--33--qppq3<qq33qppq3>33--3qq3+XO#=110ds33qq3=O..X$-3qq0=&3333qq--1%X.+&3qq3##3ppppprq",
"--&@&-11=&&&&&&&$$--3qddqqqqqqq-XX=3>38qq3&=0q33qpyq<3qq=&3qq3--38333qq-O  O1pppds33qpp3#OO+=3qq3-$=33--33-371OO&3qpe1OO=30qqqqy",
"qq33-$OO$&&&&--$XO13-3qq33qq3--$XO7ddy3--&O+3qqqddpqqqdw#O3q3-33-3yy3--&X  O1ppppyqqqwpq31113qq3#OXO&-=&-3331=$&3qqqq3&+OO=--3qp",
"q03<&+.X$----&&$O#1333qq33qq-&&@.O7ddy=@@+X+3pqpddpqqpd9OX-3-3qq38fd3=$+. .+3wqqqqqqqqqqypppepp1O  X&----3qq3-&-qppppq-$OO$&&-3q",
"-=+OoX.O-qq3-&&--1-33qqqqqqq-&&$.X=>>=O..X+=7wqypppqqpp3OX$33qqysfffy-O. .+=0eqqqq3----3qppqqpp1O X+<qqqqqqqq3--qpdffy>=--=&&---",
"&$OXXX X=qqq3-&-qq-=13qqqpqq-&&$OO=--=+OO+=3qqqqqqqqqqq3#O$-qpqydsssd7#OO+=3qeeqq3-&&&$$=3qqqqq1#O+&3qqqpqqqqq3-3qsdfs33qq3--&&&",
"&&$+X  .o&6rq3--qq-$O#3ppqrq-&&-133qq731110qqwpq3----3qq31=-qppq3>>8dd01130qqppq3-&&&$OXX#3ppq3-1133-3qppq33qqq33->8yyqqqpsy>&&&",
"&&&$OXOOXo=3qq3-33-$X+3ppqqq3=$=0ppqqqqqqqqqqqq3-&&&&-3q31=-qppq-&&>sd0355333333-&---$X.X#3qq3&&3qyq33qypq--3qq3&@@&3wewqpdy-$$$",
"&&&&$&1-@XO#3qq3---&$=qppqqqq-OO3ppq33qq3--3qq3-=&&&&--=+O$-qepq-&&-q0#O$&@@@@@@&-33-$XX%3qq3&OO&3qqqqqqqq-&---&O..O1pppqpp7+XXX",
"&&&&$&3-+XX+3ppq3--&$&-3qqqpp3OO-qq3--33-&&-qq-&&&$$--&+.X$3qqpq3---q3OXOoXXXXXo&-11-$O+3ppq-@XX+&-3qpqqqq-&&&$+X..O3qqqq03=O.. ",
"&&&$OX+oXX+=0ppqq3-$OXO#3piep0=$=---333-=&&-qq-&&$OO11+. O-qqqqqq3--qq=+X...XXX@31#O$&$=0ppq-$OXooO#3pqqqq-&&$OX+$@&0q3--=OO++XX",
"&&&$OXOOXO@-qqqqwq-$X  O<qqepq3----3qq-=---333&$$+XO1<O .+3ypqqpp0=$-1-$OXXO+@o@3-O.$&&-qeeq3&oXXXXO-qyppq---&OO&--333&@$+OO@@oo",
"&&&&$$$$$@o@3eqqqq-$X Xo&3qewqqqqqqqrq--3qq33&OXXX+$-$X.O=0wqqqip3+XXO$&$$-33<&&-&XX$&&-qqwqq-O  X+$=3ddpq--33&&3qq33&O..O=-@ooX",
"&&&&&&&--&o@3pppp3=+XXXo+&3qqwwqpeeq31--3qqq-@X  X$--$OO$-qwqqqqq1O..O&--3rpq3&@@+XO$--3qqqqq-O .O&-&>sdy3&=0q33qppq3&OOO#13@XXo",
"&&&&&&&&&&o@3pddp1OXO+oXXO&3qwqqqpi3##13-3qq-@X  X-3-&$$&-qqqqeq3-$$$&3qqydd3&@OXX+$&-3qqqqq3$X.O&33--qy3&OO3qqqqweqq31111-&oXXo",
"---------&o@<yddp3#O@@@OXX+&3qqqqpp7##3q33qq3&OXX#3q-&&&&-qewwi3=$&&&-qpepds>@XXXO&---qwepq3=+O+=3qq3-33-$O#1qrpqqqqippqq3-&@oXX",
"qqqqqqqqq<oo&3yppq3-=&&&$+XO&3qqqpdd73qqqqqqq3&$=3qq-&&&&-qwppp1OX$&&-qyeppq-@XX+&33--qyqpp1OO=30qqqq33-&=-1-3qppqeeeppq3-33&@X.",
"ppyripppp3@o+&3313qq-&$$&+..@-3qqpddpiqqqqqqqq33qpwq3----3qqqqq1OX$--3qqqqeq3&OO=3qq33qqqrp1OO3ppqqqqq-&-3q0=$-30qqqqqqq<3qq-$OX",
"ppqqqpddp5-+XO&&O#3q-$XXOX.X$--3qpppprqq3--3qqqqrpqqqqqqqqqq33q0=$&-3qqqqqqqq0113qqqqqqqqqp3&&3ppq33qq--3qq3+XO+=----3qqqqqq-&$$",
"13qqepddpq3&OX$$O#7y3&OO+o.X$&&-qeqqqweq-&&-3qq337wppq333qq3-3qq3--33qyppqqqqppppqqqqqqqqqq333qwqq--<3--3qq1O  .+$&&&-qepppq----",
"O#3ipppppqq3&$&=-7ddy3133=XX$&&-qpqqqeeq-&&----=O%wdp3#O&--33qqqqqq3-3sdpq33qpddpq3----3qq3<3qqqqq-&@&33-3q1O   .O$&&-qepppq--3q",
"O#3qqqqqqqq33--3qpddpqqq3%XX$--13qppqqqq3--&&&&$.O9dp3#O&-$&0qq31303->ydy3-3qpddpq-&&&$=0q--3qqqyq3-@&6q33w0#X.  .+&-3qqqqq3--qp",
"13qq33qq3--33qqqqppppq3=+X.X$-33-3dd31qqq3-&&&&$.O3ppq3101OO1q3&OO=---qy3-3qqppppq-&&$X+3q-=-3qyqqq535qqqrddq=+X  .+1qqq3-----qp",
"ppqq--qq3--3qpyqqqqqqq-$OXXO&3qq33yy33qqq3&$&&&+XO1q33qrq1##3q3&OO&--3q5=&3qqqqqq3-&$+XO13-=-3qqqqqq33111qdfy2@XOOXO=303----&-3q",
"qeq0--qqqqqqqpqq3--3qq-&$$$&3qqqq3338qqq3&OO$&@oX+33##3q3-13qqq3&&3qqqq3@@&3qqqq3-&$XX+$----3qqq3---&+OOO%sd8&oo=1&+OO=33qq3----",
"qqqq--3qqqqqyypq3--333-&&--3qpeqq3&&3qqq-$OX@&@@@&q7+O17=$-113033-1113q3@X+=qppq3->=+O=----33qqq3=$@@+OX.#ys-@o@33=+OO+&0ppq3---",
"qqpq-----3qpppddqqq3---&&-3qqeqq3&OO&3qq-&$@o@-33qdy=&33+XOOO+=3q1#OO#73@XX#wdpqqqyy7303--3333qqq-OO=33=O@ys&o@&-&OO==OO3ppqqqqq",
"qqq3-&&&&--13qysyqq3-----3qqeppq-$OO$-q3=$&@o@3qpdfd43q1O    X$-31O. O-3&+O%sfpqqpddpqq3&$-1=-3qq1##-33-o@yy-@@&&+.O13##1qqqqqqq",
"eq3-=&&&&$O+=->3qq3-3qqqqqqqqpds>&$$&-q3+XOo@@&3sfffyqq1O XX X@---$+Xo&-3318dfpqqppppq3&OXO+$=----1-&@@@o@7yq-@ooX.O1q31-3qq3---",
"pq-&&&&&&$X.$&&-qq--qpppqqqqqpfd>&&&&-q1O Xo@&&>sggfprr1O.XX.X$&&&-&oo@-qpppffpqqqqqeq-$X  X$&&&&-q3@XXXX@3pp3@XXX O1ppq--qq-&&&"
};
