/* XPM */
static const char *aqrust08[] = {
/* columns rows colors chars-per-pixel */
"128 128 55 1 ",
"  c #0B0B0B",
". c #170F07",
"X c #1F170B",
"o c #131313",
"O c #1B1B1B",
"+ c #2F1B0B",
"@ c #2B230F",
"# c #372313",
"$ c #332B13",
"% c #3F2B1B",
"& c #2F371F",
"* c #232323",
"= c #272727",
"- c #2F2F2F",
"; c #373F27",
": c #373737",
"> c gray23",
", c #432F1B",
"< c #43331B",
"1 c #4B371B",
"2 c #533F1F",
"3 c #473323",
"4 c #4F3B23",
"5 c #4F3B27",
"6 c #4F3B2B",
"7 c #533F2F",
"8 c #3F472B",
"9 c #5F4323",
"0 c #5B472B",
"q c #474F33",
"w c #574333",
"e c #5F4B37",
"r c #53573B",
"t c #6B4727",
"y c #675333",
"u c #67533F",
"i c #434343",
"p c gray28",
"a c #4B4B4B",
"s c gray31",
"d c gray34",
"f c #5B5B5B",
"g c #6F5743",
"h c #775F4B",
"j c #5B6347",
"k c #676B4F",
"l c gray39",
"z c gray42",
"x c #6F6F6F",
"c c #777777",
"v c gray50",
"b c #838383",
"n c #8B8B8B",
"m c #939393",
"M c #979797",
/* pixels */
"bcvnMbnccmnvxfxcvnmncncvcvbxzcccccvnncncccvvbvvcccccvlvclcvczccbbcvnMbnccmnvxfxcvnmncncvcvbxzcccccvnncncccvvbvvcccccvlvclcvczccb",
"falfzzldazlpaisssfzldlapaaliaaaadasfldadaalffdsdsssdd>sdaapadialfalfzzldazlpaisssfzldlapaaliaaaadasfldadaalffdsdsssdd>sdaapadial",
"lfzxcxzffczfzdfddzczlzdsfzzadfdldaslzfffffzlzladsdffdsdllfddfiaxlfzxcxzffczfzdfddzczlzdsfzzadfdldaslzfffffzlzladsdffdsdllfddfiax",
"zzxcvcldllcxxfllxclclxflxvzffllzzlxxllzdldxzcladffflfdfzllfllddvzzxcvcldllcxxfllxclclxflxvzffllzzlxxllzdldxzcladffflfdfzllfllddv",
"xfxzbxzafxxllllzvzxxfxllxvvllflllzczzlzafffxxlslllfllslzllllldflxfxzbxzafxxllllzvzxxfxllxvvllflllzczzlzafffxxlslllfllslzllllldfl",
"ldxfzcldfzxfllflvvzxdlflxvcllfllxzvvclzdfddzxzflllffldzffldllfdxldxfzcldfzxfllflvvzxdlflxvcllfllxzvvclzdfddzxzflllffldzffldllfdx",
"xlxlxxllllxfllflvclxfxfzxvclllflccvcczfllfzlxlflzlfllslzfffdlflzxlxlxxllllxfllflvclxfxfzxvclllflccvcczfllfzlxlflzlfllslzfffdlflz",
"cxlfzxllllldflllvcllfllcxccllldfxcvczllllzxllsflfffllpdlldlaffxlcxlfzxllllldflllvcllfllcxccllldfxcvczllllzxllsflfffllpdlldlaffxl",
"cxldlxfffllflllfbcllfzlccxcdlfflxzbxzdlffzllldlfdldfdpadllxsffxlcxldlxfffllflllfbcllfzlccxcdlfflxzbxzdlffzllldlfdldfdpadllxsffxl",
"xzlalfafflzfflflxclzdzzcczzfffffxfxclaffflllzllflzaddasfllxlllxzxzlalfafflzfflflxclzdzzcczzfffffxfxclaffflllzllflzaddasfllxlllxz",
"llxdfdfzflllllfzzldlfzcczxzfflflxlzclsfxlflflxzzzxdfldfllfxllzxxllxdfdfzflllllfzzldlfzcczxzfflflxlzclsfxlflflxzzzxdfldfllfxllzxx",
"fxxlflzxflllllllxddfzxvclzllllzxzlxxzflxxflflzxxllfllffllzcfflxxfxxlflzxflllllllxddfzxvclzllllzxzlxxzflxxflflzxxllfllffllzcfflxx",
"lxxllllldfllflflxdflcxccllflffzzlflxllllxfllzzzzllfllfflzvxfffxxlxxllllldfllflflxdflcxccllflffzzlflxllllxfllzzzzllfllfflzvxfffxx",
"dlxffllldlllfdflcsdlccxxflsfffllzdlzdflllllzzxzzllllldlfzvclfdzxdlxffllldlllfdflcsdlccxxflsfffllzdlzdflllllzzxzzllllldlfzvclfdzx",
"sllsfflzflflllzcxdlzcczxflaflfflzsllslflfffxxxlllllllflflvvlldzxsllsfflzflflllzcxdlzcczxflaflfflzsllslflfffxxxlllllllflflvvlldzx",
"alfslffzsdslllxvxlxxxxzlfzdlllfllslzllffzsdcxxllfllzlflllvcllfzlalfslffzsdslllxvxlxxxxzlfzdlllfllslzllffzsdcxxllfllzlflllvcllfzl",
"dfzlllfzadafllzvvlxzxxlfflllllflfffzzllfladvczflfflllfllfvclfflldfzlllfzadafllzvvlxzxxlfflllllflfffzzllfladvczflfflllfllfvclffll",
"dflllllxsdflflxvclzxzzlllffllfllldlzllllldfcczdffffllllffccdfdzldflllllxsdflflxvclzxzzlllffllfllldlzllllldfcczdffffllllffccdfdzl",
"sllflflxffllfxxcclzxlllllslldffflszlflflldflclfllfflffldzlcfldzlsllflflxffllfxxcclzxlllllslldffflszlflflldflclfllfflffldzlcfldzl",
"dllfdflcsdfllcxcxfzxllllllldflsfldzffldllfdczlllllfffsdfxczlxfxldllfdflcsdfllcxcxfzxllllllldflsfldzffldllfdczlllllfffsdfxczlxfxl",
"alzlflccdfflzcczxdlzflfllzllzxadlafzldldlfzlxlfllldfldfzclxlxfzlalzlflccdfflzcczxdlzflfllzllzxadlafzldldlfzlxlfllldfldfzclxlxfzl",
"afzzxcnclcllcccxxlxxfllllxzlzclllaflllxsllcxcfllzlllzzxcvzclclcxafzzxcnclcllcccxxlxxfllllxzlzclllaflllxsllcxcfllzlllzzxcvzclclcx",
"dfzccvmmxnxccvvcxxcxzxxxzxcxzbzxzffzxcbzxxbcclxzxxzxcxcvbxlbbxnvdfzccvmmxnxccvvcxxcxzxxxzxcxzbzxzffzxcbzxxbcclxzxxzxcxcvbxlbbxnv",
":>piidlfafsssaappppappppiip>ddi>i->pppspasdssaaippppi>idfpsfapdi:>piidlfafsssaappppappppiip>ddi>i->pppspasdssaaippppi>idfpsfapdi",
"@@==@***@===#**XoOOOOO*OO**==*========*=*==*=**O%*=$*@@*@##@#@@@@@==@***@===#**X-#$@#@*@@#*=@*@$$#@#$@*$$#===@*O%*=$*@@*@##@#@@@",
"%%%%%-=&$---%$$+oO****==*=---------------------*6#%%=$%-&%%%,$$$%%%%%-=-$---%$$+3%%%%%%,$%-%%-%%=$$-3%--%&-:-%*O6#%%=$%-&%%%,$$$",
"3>333:&%33:33&:@O*-===-----:-::::::>:>:>:>:>::-=w3,3:%::33333,333>313:&33%:33&:@w3333331%43:::33:36633;>>%:;>3&*w3,3:%::33333,33",
"7pp7>>3>336i56>$*-----:>:::::>>::>iiiiiiiiiii>>-e434>3>64366i3367pp7>>3>336756>$u4466537376i>66767i69>>ii56i726=e434>3>64336i336",
"asawp77p7wwp77q&=:>>::>ii>>>>i>>ppippppappaaapi-g729i6iw97wee677asawp77p7wwa77i&u9w9w6ee6ew8ip0aawssei7sr677pw7-j729i6iw97wee677",
"ssrwirwpaewi60w%=:i>>>::>>iii>>ipasspiiiapiiaai-h79wi47w0wtseweessrwirwpaewi60w%g9w07wse7ewp6wwassssepwsrwrwa79%h79wi47w0wtsewre",
"wsrt6w97t0wpw97%O=-:>::--:::>>iippaaapiipap>ii>=gw977567wwtsswaswsr06w97t0wpw97%h77070ssww7w677eassew6wqsaew769%gw977567wwtsswas",
"gwsw67999twww99%O***-=======-=-:ipappppipppipp>-%%$$-$=-%%-::--:gwsw67999twww99%,$$%%,:-%,--=-%%lwsrt67ae90wpw9%%%$$-$=-%%-::--:",
"gwsw7iwr997www0hhuuggkzlfklgkfg-:ippippiiiiiiii>:-------=====-=Ogwsw7iwr997www0hhuuggkzlfklgkfg-l0ae96pae7907wrllhgkfjjfgglgfll-",
"gaetwpwa79ii7w7wt977eesrqwiw7qa%->ppapppiiipppi>>>>>>i>:>>>i>>>=gaetwpwa79iiww7wt977eesrqwiw7pa%f0wr07pwr990wwrrpw7ww77pwee97ia-",
"gwrw7qwi99p79677r57wrear706w979%->iippipiiiiiiiiiiiiiiiiipipiii-gwrw7qwi99p79677r57wrear706w979%f9wa77qwa9wwweppww7ww90wpr0997p-",
"gwa697wp9wiw97wee67wrrpa6w66999%=:>iiiiiiiiiiiipi>iiippppiipp>:-gwa697wp9wiw97wee67wrrpa6w66999%f5wi60ww897wwepqww77w995wss995p-",
"uw83997w566w9wtr07wwrrpw796i997%->iiiiipiiiiipiiipipipppiiipp>i-uw83997w566w9wtr07wwrrpw796i997%f2wi795wp67eeeiw7wwww799wsaw09p&",
"u7iw99706637w7tsswpwrpi7707i709%->iipiiiiiiiipppppppiiiii>iii>>-u7iw99706637w7tsswpwwpi7707i709%g67ww997w66rrwiw777ww9099srw79w%",
"u7ww79wt566i77wsawpwpp77777iw79%=>iiiiii>iiiiippppiiipppiiipi>>-u7ww79wt566i77wsawpwpp77777iw79%f67pw09ii66sr0677777w9776sr669w%",
"uii7w679567i7wwaeiiwii777677669%=>iiiipiiiiiiiiippiappiiiiipii>=uii7w679567i7wwaeiiwii777677669%f6ii777i7577a7677799777697a674w%",
"ui79666p567i7ewaw7iwii777795676$->iiiipiiiiiiiipiipppiiiiiiiii>=ui79666p567i7ewaw7iwii777795676$f6p7976iw66aw977777976679aw7t9w%",
"ui7967ee66677rwpp5qwi7777w997t3$->iiiipiiiiiiiiiippiiiiiiii>ii>-ui7967ee66677rwpp5qwi7777w997t3$f3ii96767677q76777597660t7q796w$",
"e6777tr06w56wppiw67087777779795$->iiiiiiiiiiiiiiipiipiiiiiiiii>-e6777tr06w56wppiw67087777779795$d387960367wwi666779779wte7p6w7w=",
"e36779aa7p77wqpi7677677727776w4$->ppi>iiii>>iiiiiiiiiiiippiipi>-e36779aa7p77wqpi7677677727776w4%d33677t6i6pwi62666567579w78ww7p-",
"u6i66waaqp77wqi7767967776976ww5$->iaiippiiiiiiiiiiiiiiiiiippp>i-u6i66waaqp77wqi7767967776976ww5$d36i7797i7pwi7w67767766pw7ir07p=",
"d6i6wwawipwwwii7777767765566a06%->iippipiiiiiiii>iiii>iipiiiii>-d6i6wwawipwwwii7777767765566a06%d66i66p6iipwq7i76777q7ww767aa6w*",
"u6i7pwaw8iwwwi76777656765567aa6&->iiiii>>>>>i>>>>:>>>>iiiiiiii>-u6i7pwaw8iwwwi76777656765567aa6&d66i7ww56>pwq7;75677w0a09iiap96@",
"##$=--=-#=--%==$u77645664679pp6-*--:::----------::ipii>>ipippii-##$=--=-#=--%==$u77645664679pp6-=##=--%%#$---$@$g457pwaawi6aw66=",
"uguulffgudlfgsd$u56776666769aw7fuuguullggudfggs=->>ppiiiiippppi::-----:::---::-*u56776676769aw7fuuguullggudfggs=g969paapw>7aw6wu",
"5995aw6q476p666$u497>i66656iawii75927ap655i7w76=->iippiiiiiippp>ii>>>iiipii>ppi-u497>i66656iawii75927ap655i7w76=u549ipaw6367pi75",
"4655aw6i27iw968$u527;65667ww>p>i64555aw76466i65=-iiiipppiipppipipiiiipaaaaiiaap:u527;65667ww>p>i74555aw76466i65=u646i7aw936iw955",
"4665>p6:476i666$u44633245ip7iw6i64655aw66476iw6=-iipiiaappiiippppppipppaaaiaaap:u44633245ip7iw6i64655aw66476iw6=s66ii48p63>77494",
"3367i76i476i656$u4593>2256pp774>646326i6637ww66=:ippiipaapapppppippiiippa>iaaaa:u4593>4456pp674>646326p6637ww66=r337i5i796>6i522",
"36696q66666>345$u4666>6546pi6i4i>3369i76947p79>=-ippiipiaaiapiiippii>iip>>ppaap:u4666>6546pi6i4i>3369i76947p79>=s>56646q65>6>445",
"469w6i>>667>665$u5665>6644pw6>46636596i6966pp7>=-ipiiipiaapppipiiiiiiipi>ppaaap:j5665>6644pw6>46636596i6966pp7>=u>35>16i3466>466",
"46976>>64i7i6>6$d663563645p76>46646976i3767pi7>=-iipiappaaai>iiiiiiiii>>iiiaaai-d663563643p76>46646976i3767pi7>=u>67>36;34456336",
"337w6>>66i7i6;6#u5654335348i5636646976:774ip763=->iipaapppaiiiiiiiii>iiiiippapi-u5654335348i5636646976:774ip763=u6i7>36>64435333",
"67765636367i633#u456446932i76>47>33iw6>i66ip793$->iipaapippiip>>ii>>>ippippipi>-u456446939i76>47>33iw6>i66ip723$u325635>66469333",
"7i596>3343i743>#u5464459396>>>35667763>pp376i63=->ippppppppipp>ii>i>ipppppaii>>-u5464459396i>>35867763>pi376i63=u444>3>>66359335",
"6pi7>>3>336656>$u4456537376i>35667i59>>ii43i726=->ipipppppiiaiiiiiiipiiiiapipii-u4456537376i>35667i59>>ii43i726=u434>3>64333i335",
"iii7>36>566i33>$u4646377376;>>4ii6pi7>6p7336>53=-iipiiiiiiipppppppippiiiipiiii>-u4646377376;>>4ii6pi7>6p7336>53=u434>3>643577333",
"ii76:>3>>66:346@u43433i5375>;66iiiii7>6i7676>34@->iii>>iiiiiiippppipppiiiiiippi-u43433i5375>;66iiiii7>6i7676>34@u346:%36452i5367",
"6i74;643446>343@u33435ii563>3336iii76;6>i>66;%4#=:>>>>>>>>>::>>>iiiippipiiiippi:u33435ii563>3336iii76;6>i>66;%4#u333;%%3552ii6ii",
"u>i63343443>644##@@###-=@#*=*=#*d6i84%3>6443>64#O=-==-----------:iiiiip>>iiaapi:#@@###-=@#*=*=#*d6i84%3>6443>64#@#@@*@**#@=-===-",
"u>643>i6343>644ugeeuugfddjdsrde@d1;i33:68143>65uugeessuduuufddd-:>iippppi>>ii>>:>:--------=--==Od1;i33:68143>65uugeessuduuufddd-",
"u6843:3>34>:333363333>i8>6:63>3=d4>643>6>31::3633433:33>6i5i8;>-->ipppppaaaaaappiiiiiiii>>>i>>>=d4>643>6>31::3633433:33:6i5i8;>-",
"e6>33:3>16>31336633666:i:3;:33>$s33>53:6:31>31333>333133:ii;i3:-->ipppaaaaaaaaaipppppiipiiiiii>=s33>53:6:31>31333>333133:ii;i3:-",
"e6:%333-33:>333i533>i5>634%3131#d13>3336:33::133663333133i>>63:*=>ipppappaaaapappaapapppppiiii>=d13>3336:33::133663333133i>>63:*",
"e3:3133:33;3334ii363ii6>,33:111#s%3-%133>333:334i43633113i63>3;==:iaaaappaaaaaaaaaaapppppiiiii>=s%3-%133>33;:334i43633113i63>3;=",
"e3>6113:%3%3332i>3>3i>3>343:343#s,3:31134%3%3334ii3>33333i63>13@=-iapi>aaapppaaaaaappppppiiiii:-s,3:31134%3%3334ii3>33333i83>13@",
"r3>333::333:334i8;>3i63:333:33,#s33:;3332%33:336i>:>33333:>3-,3@-:>aaaaaaaaapppappppppppiiiiii>-s33:;3332%33:336i>:>33333:>3-,3@",
"e::333:3,33:33>i6:>3i63:1333333@s%::33334333:366>6::3,334>63:,6@->ipapapaa>>>iappappppppiiiii>>-s%::33334333:366>6::3,334>63:,6@",
"e>3133:;333:366:>:>3;>3:,&3333,@s%:31333>%33:366>63:;33343>3:33@-ipaaaaaa>>aippapppppppppiiii>i-s%:31333>%33:366>63:;33343>3:33@",
"w::333&:3333:>4>63:4>63:1%3%33%@s%:;33366%3333>6:>,;333463>::33@->paaaaa>>aaaappppiiiiiiiippi>>-s%:;3336633333>6:>,;333463>::33@",
"w&3333&33;1,3>>3:,:43:::3%:334%@a%&:334>43;33;>>:33;333463-:33>*-ippaapa>aaaapappppiipipiippii>-a%&:334>43;333>>:33;333463-:33>*",
"w%%334%:3>113>>3:3:63::333:%34,@a%%3331>>3>333:::3333%3>63::;3>*->iaaap>iaaaaappppppppipippipi>-a%%3331>>3>333:::3333%3>63::;3>*",
"w%:3313:;:333>83-,363-::3<:33>%@a%%:3%:>>:>333::;;33:36633:&;%;*->pppap>aaaapappappppippppppii>-a%%:3%:>>:>333:::;33:36633:&;%;*",
"e33,333>633,33:3<:33333&;33:66%@s-3:366>6::333::3333:3>313:%33%O->iipp>>ppapapaapppppipipppppi>-s-3:366>6::333::3333:3>313:%33%O",
"e33333,>:%3,33-%33%3,33%33%1>33*a33:;>3>:;:333:;3333>3>>6::%-%%O*--:::-iiiiiiiiiipiiipipippppp>-a3,:;>3>:;:333:;3333>3>>6::%-%%O",
"@@*@@@#*=@@@@@*@e%%3%%3%-33,>>3**+@@*==*=@*=*@**e333:>>>3:33:3;OO=---------:---:>ipiipppipppiii:*+@@*==*=@*=*@**e333:>>>3:33:3;O",
"rrawweusueueues@e,34%%13:33%>>:seeeerdssuesdsep*e3,3:>>;3-:,::3rrrawweusueueues@->iipppippppppi>:--------------*e3,3:>>:3-:,::3r",
"3,-%%343:31%33:*e331%%3,-3,,>:::3,,,3>:3:%;->3&*e,,3:3>:3&3,%33,3,-%%343:31%33:*->iippaapppppppiiiiii:::>>iiii>-e,,3:3>:3&3,%33,",
"333,3133:%:3;--@r,%:%,%,%3%,>;-:3,33%>;3:,3:31&*r,,,:,;:3%%,,,1,333,3133:%:3;--@->ipppppiiipiipppppi>>>pp>ppipi-r,,,:,;:3%%,,,1,",
":33,3133&33,::%+r%33%%%,,%%%;:%:-,3%,-:3&%33;3%*e,,,:,:33&-:3%,,:33,3133&33,::%+->ipppppiiippppaapaapiapaiaaaai-e,,,:,:31&-:3%,,",
":%-%%:3,-:33:-;@w%:3%33,,%3$:33--%%%3:3,-%33:%%Oe%,,-,3;3%-<;,,,:%-%%:3,-:33:-;@-ipapiippiipppppppppipaaaaaaapi-e%,,-,3;3%-3;,,,",
";%;3333%->>%3&%@w3>>%;3%,31%&%%;-%%,13;%-%,3-%,@w%%%-%3:%%-3:,33;%;3333%->>%3&%@-ipappppii>iipppappiippaaapaapi-w%%%-%3:%%-3:,33",
":,33:31--::,%$%@e1::%:%3%,3%&-%-3%,333:--%;3-33@r%%%-%3-$,33&,%3:,33:31--::,%$%@-iaaapppiippppippiippapppappaai-r%%%-%3-$,33&,%3",
":%:3>:3-&>;%%&-@e3>;-:,%%%:%%-%%3,,133--%%:;;3-*w-,,-%3-%,%%-%%3:%:3>>3-&>;%%&-@-iaaaap>>>>aappppipapaapppppaai:w-,<-%3-%,%%-%%3",
"3,::::3--:;%;&-@w:>;-:,%%33%%-%3-%%:3%---%:;;3&Ow%,,%%%-3,,%-$%:3,::::3--:;%3&-@-iaaaai>aaaaaaaapiippappiiipaai:w%,,%%%-3,,%-$%:",
"-3:::;%=--::3%-@e3-:-:%,3:3%%-%3-%33%%-=-%;;:%$Oe%%,-%%-%,,--%%:-3:::;%=--::3%-@-iaaaiiaaaasppaaaipaaapppiippp>-e%%,-%%-%,,--%%:",
":%:%:;,$%:3,%%%*s3:3%-%%1::%%%%%-3:,,%-$%,%:3,=Oe,%,-%--%%%-&%%-:%:%:;,$%:3,%%%*-ipiiiaaaassiiapapaaaapaapiiiii-e,%,-%--%%%-&%%-",
"-%:%-:%&-%-%,,%@s:&-%-%%;::-,%%,:3::3--&-%%&-,&Ow%%,-%-%%%%--%%:-%:%&:%&-&-%,,%@-iapaaassssapapiaaaaaaaappppap>-w%%,-%-%%%%--%%:",
":%-%:3,&-%-%%,%@s:%-%-%33:;-%%%%-:::3-%&-%;%-%%Op%%%-$--%%%=-%%%:%-%:3,&-%-%%,%@-iaaassssssppaipaaappaappipipi>-p%%%-$--%%%=-%%%",
"3;-%%-%%-%-%%%%+s;%-%%%;3:;%%%%%-::;%--%--3%-$%Ow%%%-#=%%%%$%%-%3;-%%-%%-%-%%%%+=>paaaasssapapaaaaipaappapippi>-w%%%-#=%%%%$%%-%",
"-%-%%-$%%%-%%%%@s;%-%%&;;--%%$%%-%:;,=%%%,%%-%%Xw%%%=#$$%%,$-%-%-%-%%-$%%%-%%%%@-i>>iipaaaaiiiippaaaappaaapiaii-w%%%=#$$%%,$-%-%",
"a,-#%=$%%%-%$%$+O*@OX@O**O@@X@XXa%-:%$$%%%,%-%%+@@XXOXOO@@+OOO*Oa,-#%=$%%%-%$%$@*--:--------::>>iapaaaapaaapppi:@@XXOXOO@@+OOO*O",
"w-3,=--%%%%-&%%wewwwwesaprppppwXa%&-&$-&-%%%-&%wwe7wppppweesapa*w-3,=--%%%%-&%%wewwwwesaprppppwX>issssapppaappi>--===-----------",
"w&-%&-%-%%--%&%%-%%%%-:--3-&%-%*a%-%,&-%-$%--%%%%,%%-%%--:%:-&-*w&-%&-%-%%--%&%%-%%%%-:--3-&%-%*-isddssaapaaapi>:iii>>>ii>iiii>i",
"w%-%%-%-%%-%%%$%3%$%33--=%=-%%-@p%%-%%-%=%%-&%$$%-#$%#%$&::&-#-*w%-%%-%-%%-%%%$%3%$%33&-=%$-%%-@-paasssaaaaaaaiiiiaaiiiippppaa>i",
"7%=$%%%=%%=-%$%;%$%-:%-%$,@$%#%@p#%-=%$%-%%-&%$%3%$%%%%%%:--%%-O7%=$%%%=%%=-%$%-%$%-:%-%%,@$%#%@:passdssaaaaapiiiipaaiiiiiippaip",
"7%-%%#%-#$=&%$%::%&%::&-#&$=%%%+p#%=@%%%-#$=&%%,-%%-%%%%%:-$-#&*7%-%%#%-#$=&%$%::%&%::&-#&$=%%%+:issdddsssapppaaapiiapppppaappip",
"w%-%%%$-@$$$%%,--%-%--%-%%&-%%$+p#%-%%%$%$$@$%%,:-%-%%%%%:-%-#%Xw%-%%%$-@$$$%%,--%-%--%-%%&-%%$+:aaasssdsappsssssaaipaaaapppapaa",
"i$-&%%==##$=%%%--&-%--%=#%%=$%#+i$$&&%%%,#$$=$$&----=%&$%=-%=#%Xi$-&%%==##$-%%%--&-%--%=#%%=$%#+:asddssdssasssddssapiassaaaaapap",
"7==%$%-=##==#$-----#--%=#=%$%$%Oi#==$%$%%##$=#%%--=-=$$$%-%%-#%X7==%$%-=##==%$-----#--%=#=%$%$%O>psddddddaassdddssappaassasaaaaa",
"7-$%%$==#$$=%%%=-=-%=-%&#*=%$$#Xp#==#$$$-#$$=%-%--$-=$$%,&-$=$%X7-$%%$==#$$=%%%=-=-%=-%&#*=%$$#X>pdfdsddasdsadddssappaasssaaaapa",
">==%$$*=$%#$--%-%$-%-%$-#@$$$%@Xi@==%$%%%$$#==----#=%#%%%%-==$&X>==%$$*=$%#$--%-%$-%-%$-#@$$$%@X>adfffsaaddsdddssaaasasddsaaaaaa",
"6*=%$%@$$&%#$--&&#=%$&==$*=%%%@Xi@*=%%%-%#&#$&--=%#&%#%%%%===#-O6*=%$%@$$&%#$--&&#=%$&==$*=%%%@X:sdffssddddsdddsaaasddsssdaapiaa",
"6@$#%%$=#-%#%--%-#-%%--$$$=$#%#Xi@@$%#%--$-#$%&-==$$=#$-%%===$-O6@$#%%$=#-%#%--%-#-%%--$$$=$#%#X:sdfssfdddddddsassasdddsddaaaiia",
">*=$#%$==-%##-&%=#$%$*==#$=$$-#Xi@$=$$---=-%$%====$$=$%%$#=*=$&O>*=$#%$==-%%#-&%=#$%$*==#$=$$-#X>sdddffddffddsssssssdsddddsaaiai",
"w%$####-&$$#$%-$$=$$#$$*=#$-%%@Xi=$=#%%-&=-%%%==$$$$=%-%%$=@$#$Xw%$####-&$$#$%-$$=$$#$$*=#$-%%@X>sddddddfdddasddsddsssddsaasasaa",
"w%=#$##-&@$#%#=@#$@$#$%@$###-%#Oi##==-%-&==%&%==$$$$-%--&==*=@$Xw%=#$##-&@$#%#=@#$@$#$%@$###-%#O:psssssssspiaaaadddddssapsssssss",
"XOOXXXXOOXXXXXOXXOOXXXXOOXXXXXOXXXXXOOOOOXOOOXOOXOOXXXXOOXXXXXOXXOOXXXXOOXXXXXOXXOOXXXXOOXXXXXOX=:>>>>>>>:::>:>>:>>>>>>>:::>:>>:",
"oooooooooooooooooooooooooooooooooooooooooooooooooooooooooooooooooooooooooooooooooooooooooooooooooooooooooooooooooooooooooooooooo",
"@#$=#=--==$@@@$@#$#####$@@@*=*@####$=$=-===$@#@@@######$@@@*=*@##@####$$$#$==$$####=@*===**@@@@@@######$$$#$==$$###@*@====@@@@@@",
"457w6pppppw66666w776666666366666556776ipppp766666777666666366666>66666777677777655663>>iii>886666666666777677777555668i>ii>88668",
"eeuyeuuffffffudffuddddressueeeeeeeeuyeuufffdffudfjudddsesdreeeeededddduufuguuuueeeeeeeudddsdddudddudddduufuguuuueeeyeeusdddddjdd",
"                                                                                                                                ",
"   ...o...o. o. ...                 ...... o..o.  .                   ...o..                           . ....                   ",
"OOOOOOOOOOOOOOOOOOOOOOOOOOoOOoOOOOOOOOOOOOOOOOOOOOOOOOOOOoOooooOOOOOOOOOOOOOOOOOOOOOOOOOOOOOOOOOOOOOOOOOOOOOOOOOOOOOOOOOOOOOOOOO",
"sdeddddffuueuyeeeuuyeersrwrsssreddsudddddfuueyeeeeueyuesrwasssesereeeuudeeddssudddussddddsueeyeeeeueyeuudeeddssudddrdddddsueeeee",
"%,,333>>333%33%%,,,3,,3-%%%%%%%%%%,,333:>333%,,%%,,,,,3-%%%%%%%%,,,%,3:3%3%3,3%,%,,,,%-:;,,%,,,%%,,,%,3:3%3%3,3%%%,,,%-:;,,%%,%%",
",,%:%>>>>>3%%%%%3%,,,,%%%$$-:-%%,,,3:%>>:>>3%%%%%3,,,,%%%$$---%,%3,,,,33%%%::333,,%-&-::::;3%%%%%33,,,333%%%::33,,,--&::::;%%%%%",
"-:3::>>:>33%33%%%%,,,,%--$----3%:::3::>>:>33%33%%%,,,%%--$----%-$%,,,%3:%%>:::3:::3::::::;33%,%%%%%,,,%3:%%::::3:::;:::::;3%%,%%",
"$::,:33::33>313%%,,,%---:%%3%-::-&::3:33::33>333%%,,%&---33%%---$,,,%::::3:33:::%-:33;3;:3,;3,,,%%,,,%::::3:33:::&:33-3;:33;3,,%",
"$$,,%3%333%33333,%%,%-%%%%,,,%%%%$%,,%3%333%33333,%,3-3%%%,,,%%%,$,33:,,3,3,,33,%%,,%%%%3,%33333,%%,33:,,3,3,,33%%%,%%%%3,%%333,",
"==@==--=-$$$##$@@@####@**@*====#===*===-=-$$$##$@@@###@**@*===#=@@###$$=@$-===#===$=======$@###@@@@###$$=@$====#==========$@##@@",
"     .ooo.o. .o..                     .o.o o. .o.                       .o.                 o ..         ...               . .  ",
"OOOOOOOOOOOOOOOOOOOOOOOOoOOOOoOOOOOOOOOOOOOOOOOOOOOOOOOOOoOOoOoOoOOOOOOOOOOOOOOOOOOOOOOOOOOOOOOOOOOOOOOOOOOOOOOOOOOOOOOOOOOOOOOO"
};
