/* XPM */
static const char *aqrust05[] = {
/* columns rows colors chars-per-pixel */
"128 128 46 1 ",
"  c #1F170B",
". c #1B1B1B",
"X c #2F1B0B",
"o c #2B230F",
"O c #372313",
"+ c #332B13",
"@ c #3F2B1B",
"# c #2F371F",
"$ c #232323",
"% c #272727",
"& c #2F2F2F",
"* c #373F27",
"= c #373737",
"- c gray23",
"; c #432F1B",
": c #43331B",
"> c #4B371B",
", c #533F1F",
"< c #473323",
"1 c #4F3B23",
"2 c #4F3B27",
"3 c #4F3B2B",
"4 c #533F2F",
"5 c #3F472B",
"6 c #5F4323",
"7 c #5B472B",
"8 c #474F33",
"9 c #574333",
"0 c #5F4B37",
"q c #53573B",
"w c #6B4727",
"e c #434343",
"r c gray28",
"t c #4B4B4B",
"y c gray31",
"u c gray34",
"i c #5B5B5B",
"p c gray39",
"a c gray42",
"s c #6F6F6F",
"d c #777777",
"f c gray50",
"g c #838383",
"h c #8B8B8B",
"j c #939393",
"k c #979797",
/* pixels */
"gdfhkghddjhfsisdfhjhdhdfdfgsadddddfhhdhdddffgffdddddfpfdpdfdaddggdfhkghddjhfsisdfhjhdhdfdfgsadddddfhhdhdddffgffdddddfpfdpdfdaddg",
"itpiaaputaprteyyyiapuptrttpettttutyipututtpiiuyuyyyuu-yuttrtuetpitpiaaputaprteyyyiapuptrttpettttutyipututtpiiuyuyyyuu-yuttrtuetp",
"piasdsaiidaiauiuuadapauyiaatuiuputypaiiiiiapaptuyuiiuyuppiuuietspiasdsaiidaiauiuuadapauyiaatuiuputypaiiiiiapaptuyuiiuyuppiuuiets",
"aasdfdpuppdssippsdpdpsipsfaiippaapssppaupusadptuiiipiuiappippuufaasdfdpuppdssippsdpdpsipsfaiippaapssppaupusadptuiiipiuiappippuuf",
"sisagsatissppppafassisppsffppipppadaapatiiisspypppippypapppppuipsisagsatissppppafassisppsffppipppadaapatiiisspypppippypapppppuip",
"pusiadpuiasippipffasupipsfdppippsaffdpauiuuasaipppiipuaiipuppiuspusiadpuiasippipffasupipsfdppippsaffdpauiuuasaipppiipuaiipuppius",
"spspssppppsippipfdpsisiasfdpppipddfddaippiapspipapippypaiiiupipaspspssppppsippipfdpsisiasfdpppipddfddaippiapspipapippypaiiiupipa",
"dspiaspppppuipppfdppippdsddpppuisdfdappppasppyipiiippruppuptiispdspiaspppppuipppfdppippdsddpppuisdfdappppasppyipiiippruppuptiisp",
"dspupsiiippipppigdppiapddsdupiipsagsaupiiapppupiupuiurtuppsyiispdspupsiiippipppigdppiapddsdupiipsagsaupiiapppupiupuiurtuppsyiisp",
"saptpitiipaiipipsdpauaaddaaiiiiisisdptiiipppappipatuutyippspppsasaptpitiipaiipipsdpauaaddaaiiiiisisdptiiipppappipatuutyippspppsa",
"ppsuiuiaipppppiaapupiaddasaiipipspadpyispipipsaaasuipuippisppassppsuiuiaipppppiaapupiaddasaiipipspadpyispipipsaaasuipuippisppass",
"isspipasipppppppsuuiasfdpappppasapssaipssipipassppippiippadiipssisspipasipppppppsuuiasfdpappppasapssaipssipipassppippiippadiipss",
"psspppppuippipipsuipdsddppipiiaapipsppppsippaaaappippiipafsiiisspsspppppuippipipsuipdsddppipiiaapipsppppsippaaaappippiipafsiiiss",
"upsiipppupppiuipdyupddssipyiiippaupauipppppaasaapppppupiafdpiuasupsiipppupppiuipdyupddssipyiiippaupauipppppaasaapppppupiafdpiuas",
"yppyiipaipipppadsupaddasiptipiipayppypipiiissspppppppipipffppuasyppyiipaipipppadsupaddasiptipiipayppypipiiissspppppppipipffppuas",
"tpiypiiayuypppsfspssssapiaupppippypappiiayudssppippapipppfdppiaptpiypiiayuypppsfspssssapiaupppippypappiiayudssppippapipppfdppiap",
"uiapppiatutippaffpsasspiipppppipiiiaappiptufdaipiipppippifdpiippuiapppiatutippaffpsasspiipppppipiiiaappiptufdaipiipppippifdpiipp",
"uipppppsyuipipsfdpasaapppiippipppupapppppuiddauiiiippppiidduiuapuipppppsyuipipsfdpasaapppiippipppupapppppuiddauiiiippppiidduiuap",
"yppipipsiippissddpaspppppyppuiiipyapipippuipdpippiipiipuapdipuapyppipipsiippissddpaspppppyppuiiipyapipippuipdpippiipiipuapdipuap",
"uppiuipdyuippdsdsiaspppppppuipyipuaiipuppiudapppppiiiyuisdapsispuppiuipdyuippdsdsiaspppppppuipyipuaiipuppiudapppppiiiyuisdapsisp",
"tpapipdduiipaddasupaipippappastuptiapupupiapspipppuipuiadpspsiaptpapipdduiipaddasupaipippappastuptiapupupiapspipppuipuiadpspsiap",
"tiaasdhdpdppdddsspssippppsapadppptipppsyppdsdippapppaasdfadpdpdstiaasdhdpdppdddsspssippppsapadppptipppsyppdsdippapppaasdfadpdpds",
"uiaddfjjshsddffdssdsasssasdsagasaiiasdgassgddpsassasdsdfgspggshfuiaddfjjshsddffdssdsasssasdsagasaiiasdgassgddpsassasdsdfgspggshf",
"=-reeupitiyyyttrrrrtrrrreer-uue-e&-rrryrtyuyytterrrre-euiryitrue=-reeupitiyyyttrrrrtrrrreer-uue-e&-rrryrtyuyytterrrre-euiryitrue",
"oo%%o$$$o%%%O$$o$OooOo$OoO$%o%o+OooO+O$++O%%%o$$O$%+$oo$oOOoOooooo%%o$$$o%%%O$$o$O+oOo$ooO$%o$o++OoO+o$++O%%%o$$O$%+$oo$oOOoOooo",
"@@@@@&%#+&&&@++@@@@@@@@;+@&@@&@@%++&<@&&@#&=&@$+@O@@%+@&#@@@;+++@@@@@&%&+&&&@++@@@@@@@@;+@&@@&@@%++&<@&&@#&=&@$@@O@@%+@&#@@@;+++",
"<-<<<=#@<<=<<#=<<<<<<<<>@1<===<<=<33<<=--@<*-*#&<<;<=@==<<<<<;<<<-<><=#<<@=<<#=<<<<<<<<>@1<===<<=<33<<*--@=*-<#&<<;<=@==<<<<<;<<",
"4rr4--<-<<3e23-3211232<4<43e-33444e36--ee13e4,3-21<1-<-31<33e<<34rr4--<-<<3423-3111332<4<43e-33434e36--ee23e4,3-21<1-<-31<<3e<<3",
"tyt9r44r499r4489469693003095er7tt9yy0r4yq334r94e94,6e3e964900344tyt9r44r499t44e9469693003095er7tt9yy0e4yq344r94e44,6e3e964900344",
"yyq9eq9rt09e3794469749y0409r399tyyyy0r9yq9q9t4649469e14979wy0900yyq9eq9rt09e3794469749y0409r399tyyyy0r9yq9q9t4649469e14979wy09q0",
"9yqw3964w79r9644744747yy99493440tyy09399yt0943664964423499wyy9ty9yq73964w79r9644744747yy99493440tyy09398yt0943664964423499wyy9ty",
"69y934666w999669w3397wyy9wrr3r74t9yqw34t0679r9664733e34e940yyrty69y934666w999669w3397wyy9wrr3r74t9yqw34t0679r9664733e34e940yyrty",
"69y94e9q66499977w23440yyr0r49r9qt7t063rt046749qqr949r49r44q4rrt069y94e9q66499977w23440yyr0r49r9qt7t063rt046749qqr949r49r44q4rrt0",
"7t0w9r9t46ee4949w64400yq89e948t0r79q74r9q66799qqr949944r90064et07t0w9r9t46ee9949w64400yq89e94rt0979q74r9q66799qqr949944r90064et0",
"69q9489e66r46344q249q0tq47396467r69t4489t69990rr99499679rq7664r969q9489e66r46344q249q0tq47396467r69t4489t69990rr99499679rq7664r9",
"69t3649r69e964900349qqrt39336666r29e3799564990r8994496629yy662rt69t3649r69e964900349qqrt39336666r29e3799564990r8994496629yy662rt",
"195<6649233969wq7499qqr9463e6646r,9e4629r34000e9499994669yt976r9195<6649233969wq7499qqr9463e6646r,9e4629r34000e9499994669yt976r9",
"14e9664733<494wyy9r9qre4474e476693499664933qq9e9444996766yq9469914e9664733<494wyy9r99re4474e476643499664933qq9e9444996766yq94699",
"3499469w233e449yt9r9rr44444e9469e34r976ee33yq734444496443yq336993499469w233e449yt9r9rr44444e9469e34r976ee33yq734444496443yq33699",
"3ee49346234e499t0ee9ee4443443364e3ee444e4244t4344466444364t341993ee49346234e499t0ee9ee4443443364e3ee444e4244t4344466444364t34199",
"3e46333r234e409t94e9ee4444623433e3r4643e933t9644444643347t94w6943e46333r234e409t94e9ee4444623433e3r4643e933t9644444643346t94w694",
"<e46340033344q9rr289e44449664w<3e<ee63434344843444264337w4846394<e46340033344q9rr289e44449664w<3e<ee63434344843444264337w4846394",
"<3444wq739239rre9347544444464623-<54637<3499e3334464469w04r3949e<3444wq739239rre9347544444464623-<54637<3499e3334464469w04r3949e",
"<<3446tt4r4498re43443444,44439133<<334w3e3r9e3,333234246945994re<<3446tt4r4498re43443444,44439133<<344w3e3r9e3,333234246945994re",
"<3e339tt8r4498e44346344436439923-<3e4464e4r9e4934434433r94eq74re<3e339tt8r4498e44346344436439923-<3e4464e4r9e4934434433r94eq74re",
"53e399t9er999ee4444434432233t734e33e33r3eer984e434448499434tt39*53e399t9er999ee4444434432233t734e33e33r3eer984e434448499434tt39*",
"33e4r9t95e999e43444323432234tt39433e49923-r984*4234497t76eetr63<33e4r9t95e999e43444323432234tt39433e49923-r984*4234497t76eetr63<",
"1134tt3r1er94-43344312331346rr3e3124et7613e9r4<36124r9tt9e3t93331134tt3r1er94-43344312331346rr3e3124et7613e9r4<36124r9tt9e3t9333",
"2614rrr91et97-33323443333436t94e31613tt661er963e6636rttr9-4t93932613rrr91et97-33323443343436t94e31613tt661ee963e6636rttr9-4t9393",
"2662t938143r33332164-e33323et9ee426,4tr322e4943-3216ert93<34re422662t938143r33332164-e33323et9ee426,4tr322e4943-3216ert93<34re42",
"1322t93e,4e9635322,4*3233499-r-e31222t943133e32-3313e4t96<3e96221322t93e,4e9635322,4*3233499-r-e41222t943133e32-4313e4t96<3e9622",
"1332-r3=143e33332113<<,12er4e93e31322t933143e93e<33ee15r3<-441611332-r3=143e33332113<<,12er4e93e31322t933143e93e<33ee15r3<-44161",
"<<34e43e143e32333126<-,,23rr441-313<,3e33<499333<<<4e2e463-3e2,,<334e43e143e32333126<-1123rr341-313<,3r33<499333<<<4e2e463-3e2,,",
"<3363833333-<12331333-3213re3e1e-<<36e43614r46--<-23313832-3-112<3363833333-<12331333-3213re3e1e-<<36e43614r46--<-23313832-3-112",
"13693e--334-332332332-3311r93-133<3263e3633rr4-33-<2e>3e<133-13313693e--334e332332332-3311r93-133<3263e3633rr4-33-<2->3e<133-133",
"13643--31e4e3-33533<23<312r43-13313643e<434re4-32-34-<3*<1123<<313643--31e4e3-33533<23<31<r43-13313643e<434re4-32-34-<3*<1123<<3",
"<<493--33e4e3*3132321<<2<15e23<3313643=441er43<313e4-<3-311<2<<<<<493--33e483*3132321<<2<15e23<3313643=441er43<313e4-<3-311<2<<<",
"344323<3<34e3<<111231136<,e43-14-<<e93-e33er46<<1<,23<2-33136<<<344323<3<44e3<<111231136<6e43-14-<<e93-e33er4,<<1<,23<2-33136<<<",
"4e263-<<1<e41<-112131126<63---<233443<-rr<43e3<-1111-<--33<26<<23e263-<<1<e41<-112131126<63e--<253443<-re<43e3<-1111-<--33<26<<2",
"3re4--<-<<3323-3111232<4<43e-<2334e26--ee1<e4,3-11<1-<-31<<<e<<23re4--<-<<3323-3111232<4<43e-<2334e26--ee1<e4,3-11<1-<-31<<<e<<2",
"eee4-<3-233e<<-3<1313<44<43*--1ee3re4-3r4<<3-2<-31<1-<-31<244<<<eee4-<3-233e<<-3<1313<44<43*--1ee3re4-3r4<<3-2<-31<1-<-31<244<<<",
"ee43=-<--33=<13<<1<1<<e2<42-*33eeeee4-3e4343-<1<3<13=@<3126e2<34ee43=-<--33=<13<<1<1<<e2<42-*33eeeee4-3e4343-<1<3<13=@<312,e2<34",
"3e41*31<113-<1<<2<<1<2ee23<-<<<3eee43*3-e-33*@11<<<<*@@<22,ee3ee3e41*31<113-<1<<2<<1<2ee23<-<<<3eee43*3-e-33*@11<<<<*@@<22,ee3ee",
"<-e3<<1<11<-3112,<<<26ee<,=-<-1<-3e51@<-311<-311<2@<=<<=<<3ee-ee<-e3<<1<11<-3112,<<<26ee<,=-<-1<-3e51@<-311<-311<2@<=<<=<<3ee-ee",
"1-31<-e3<1<-311<,<<3<,e553-<<-<<->*e<<=35>1<-32126;<-*<-<33e4--e1-31<-e3<1<-311<,<<3<,e553-<<-<<->*e<<=35>1<-32126;<-*<-<33e4--e",
"<351<=<-<1-=<<<<3<<<<-e5-3=3<-<3-1-31<-3-<>==<3<<1<<=<<-3e2e5*-e<351<=<-<1--<<<<3<<<<-e5-3=5<-<3-1-31<-3-<>==<3<<1<<=<<=3e2e5*-e",
">3-<<=<->3-<><<33<<333=e=<*=<<-3=<<-2<=3=<>-<><<<-<<<><<=ee*e<=e>3-<<=<->3-<><<33<<333=e=<*=<<-3=<<-2<=3=<>-<><<<-<<<><<=ee*e<=e",
";3=@<<<&<<=-<<<e2<<-e2-3<1@<><><-><-<<<3=<<==><<33<<<<><<e--3<=*;3=@<<<&<<=-<<<e2<<-e2-3<1@<><><-><-<<<3=<<==><<33<<<<><<e--3<=*",
";<=<><<=<<*<<<1ee<3<ee3-;<<=>>>1-@<&@><<-<<<=<<1e1<3<<>><e3<-<*-;<=<><<=<<*<<<1ee<3<ee3-;<<=>>>1-@<&@><<-<<*=<<1e1<3<<>><e3<-<*-",
"<<-3>><=@<@<<<,e-<-<e-<-<1<=<1<>=;<=<>><1@<@<<<1ee<-<<<<<e3<-><<<<-3>><=@<@<<<,e-<-<e-<-<1<=<1<>=;<=<>><1@<@<<<1ee<-<<<<<e5<-><<",
"<<-<<<==<<<=<<1e5*-<e3<=<<<=<<;><<<=*<<<,@<<=<<3e-=-<<<<<=-<&;<<<<-<<<==<<<=<<1e5=-<e3<=<<<=<<;<<<<=*<<<,@<<=<<3e-=-<<<<<=-<&;<<",
";==<<<=<;<<=<<-e3=-<e3<=><<<<<<<=@==<<<<1<<<=<33-3==<;<<1-3<=;3<;==<<<=<;<<=<<-e3=-<e3<=><<<<<<<=@==<<<<1<<<=<33-3==<;<<1-3<=;3<",
"<-<><<=*<<<=<33=-=-<*-<=;#<<<<;<=@=<><<<-@<<=<33-3<=*<<<1<-<=<<<<-<><<=*<<<=<33=-=-<*-<=;#<<<<;<=@=<><<<-@<<=<33-3<=*<<<1<-<=<<<",
"@==<<<#=<<<<=-1-3<=1-3<=>@<@<<@@=@=*<<<33@<<<<-3=-;*<<<13<-==<<<@==<<<#=<<<<=-1-3<=1-3<=>@@@<<@@=@=*<<<33<<<<<-3=-;*<<<13<-==<<<",
"@#<<<<#<<*>;<--<=;=1<===<@=<<1@@&@#=<<1-1<*<<*--=<<*<<<13<&=<<-=@#<<<<#<<*>;<--<=;=1<===<@=<<1@@&@#=<<1-1<*<<<--=<<*<<<13<&=<<-=",
"@@@<<1@=<->><--<=<=3<==<<<=@<1;<&@@<<<>--<-<<<===<<<<@<-3<==*<-=@@@<<1@=<->><--<=<=3<==<<<=@<1;<&@@<<<>--<-<<<===<<<<@<-3<==*<-=",
"@@=<<><=*=<<<-5<&;<3<&==<:=<<-@@&@@=<@=--=-<<<==**<<=<33<<=#*@*=@#=<<><=*-<<<-5<&;<3<&==<:=<<-@;&@@=<@=--=-<<<===*<<=<33<<=#*@*=",
"<<<;<<<-3<<;<<=<:=<<<<<#*<<=33@<=&<=<33-3==<<<==<<<<=<-<><=@<<@#<<<;<<<-3<<;<<=<:=<<<<<#*<<=33@<=&<=<33-3==<<<==<<<<=<-<><=@<<@#",
"><<<<<;-=@<;<<&@<<@<;<<@<<@>-<<*&<<=*-<-=*=<<<=*<<<<-<--3==@&@@@><<<<<;-=@<;<<&@<<@<;<<@<<@>-<<*&<;=*-<-=*=<<<=*<<<<-<--3==@&@@@",
"<<<;<@<*-@<@<<=<<@@<@@<@&<<;--<=<;;@*--*-@=-=<&*<<<<=---<=<<=<*#<<<;<@<*-@<@<<=<<@@<@@<#&<<;--<=<;;@*--*-@=-=<&*<<<<=---<=<<=<*#",
"<<&@@<<=<<1;<<=<<;<1@@><=<<@--==<;;;<-==<;=-*<&<<<;<=--*<&=;==<<<<&@@<<=<<1;<<=<>;<1@@><=<<@--==<;<;<-==<;=-=<&<<<;<=--=<&=;==<<",
"<;&@@<1<=<>@<<=*<<<>@@<;&<;;-===<;;;<-=<=@*&-<#&<;;<=<-=<#<;@<<;<;&@@<1<=<>@<<=*<<<>@@<;&<;;-===<;;;<-=<=@*&-<#&<;;<=<-=<#<;@<<;",
"<<<;<><<=@=<*&&;<;@=@;@;@<@;-*&=<;<<@-*<=;<=<>#&<;;;=;*=<@@;;;>;<<<;<><<=@=<*&&;<;@=@;@;@<@;-*&=<;<<@-*<=;<=<>#&<;;;=;*=<@@;;;>;",
"=<<;<><<#<<;==@;<@<<@@@;;@@@*=@=&;<@;&=<#@<<*<@&<;;;=;=<<#&=<@;;=<<;<><<#<<;==@;<@<<@@@;;@@@*=@=&;<@;&=<#@<<=<@&<;;;=;=<>#&=<@;;",
"=@&@@=<;&=<<=&*;@@=<@<<;;@<+=<<&&@@@<=<;&@<<=@@@<@;;&;<*<@&:*;;;=@&@@=<;&=<<=&*;@@=<@<<;;@<+=<<&&@@@<=<;&@<<=@@@<@;;&;<*<@&<*;;;",
"*@*<<<<@&--@<#@;@<--@*<@;<>@#@@*&@@;><*@&@;<&@;@@@@@&@<=@@&<=;<<*@*<<<<@&--@<#@;@<--@**<;<>@#@@*&@@;><*@&@;<&@;@@@@@&@<=@@&<=;<<",
"=;<<=<>&&==;@+@@<>==@=@<@;<@#&@&<@;<<<=&&@*<&<<@@@@@&@<&+;<<#;@<=;<<=<>&&==;@+@@<>==@=@<@;<@#&@&<@;<<<=&&@*<&<<@@@@@&@<&+;<<#;@<",
"=@=<-=<&#-*@@#&<;<-*&=;@@@=@@&@@<;;><<&&@@=**<&&@&;;&@<&@;@@&@@<=@=<--<&#-*@@#&<;<-*&=;@@@=@#&@@<@;><<&&#@=**@&&@&;:&@<&@;@@&@@<",
"<;====<&&=*@*#&@@=-*&=;@@<<@@&@<&@@=<@&&&@=**<#&@@;;@@@&<;;@&+@=<;====<&&=*@<#&@@==*&=;@;<<@@&@<&@@=<@&&&@=**<#@@@;;@@@&<;;@&+@=",
"&<===*@%&&==<@&@<<&=&=@;<=<@@&@<&@<<@@&%&@**=@+@;@@;&@@&@;;&&@@=&<===*@%&&==<@&@<<&=&=@;<=<@@&@<&@<<@@&%&@**=@+@;@@;&@@&@;;&&@@=",
"=@=@=*;+@=<;@@@&=<=<@&@@>==@@@@@&<=;;@&+@;@=<;%&;;@;&@&&@@@&#@@&=@=@=*;+@=<;@@@&=<=<@&@@>==@@@@@&<=;;@&+@;@=<;%&;;@;&@&&@@@&#@@&",
"&@=@&=@#&@&@;;@@==#&@&@@*==&;@@;=<==<&&#&@@#&;#&@@@;&@&@@@@&&@@=&@=@#=@#&#&@;;@@==#&@&@@*==&;@@;=<==<&&#&@@@&;#&@@@;&@&@@@@&&@@=",
"=@&@=<;#&@&@@;@@==@&@&@<<=*&@@@@&===<&@#&@*@&@@&@@@@&+&&@@@%&@@@=@&@=<;#&@&@@;@@==@&@&@<<=*&@@@@&===<&@#&@*@&@@&@@@@&+&&@@@%&@@@",
"<*&@@&@@&@&@@@@@=*@&@@@*<=*@@@@@&==*@&&@&&<@&+@@@@@@&O%@@@@+@@&@<*&@@&@@&@&@@@@@=*@&@@@*<=*@@@@@&==*@&&@&&<@&+@@@@@@&O%@@@@+@@&@",
"&@&@@&+@@@&@@@@@=*@&@@#**&&@@+@@&@=*;%@@@;@@&@@@@@@@%O++@@;+&@&@&@&@@&+@@@&@@@@@=*@&@@#**&&@@+@@&@=*;%@@@;@@&@@@@@@@%O++@@;+&@&@",
"&;&O@%+@@@&@+@+;#&@&O@#&&&@@@@@+&@&=@++@@@;@&@@@@;++&+%&@@;#&&&@&;&O@%+@@@&@+@+@#=@&O@#&&&@@@@@+&@&=@++@@@;@&@@@@;++&+%&@@;#&&&@",
"@&<;%&&@@@@&#@@@;@@@@;=&&<&##&+@&@#&#+&#&@@@&#@@@;++&##&@<<=&&&=@&<;%&&@@@@&#@@@;@@@@;=&&<&##&+@&@#&#+&#&@@@&#@@@;++&##&@<<=&&&=",
"@#&@#&@&@@&&@#@@&@@@@&=&&<&#@&@&&@&@;#&@&+@&&@@@@;@@&@@&&=@=&#&=@#&@#&@&@@&&@#@@&@@@@&=&&<&#@&@&&@&@;#&@&+@&&@@@@;@@&@@&&=@=&#&=",
"O@&@@&@&@@&@@@+@<@+@<<&&%@%&@@&@&@@&@@&@%@@&#@++@&O+@O@+#==#&O&=O@&@@&@&@@&@@@+@<@+@<<#&%@+&@@&@&@@&@@&@%@@&#@+@@&O+@O@+#==#&O&=",
"O@%+@@@%@@%&@+@*@+@&=@&@+;o+@O@@&O@&%@+@&@@&#@+@<@+@@@@@@=&&@@&#O@%+@@@%@@%&@+@&@+@&=@&@@;o+@O@@&O@&%@+@&@@&#@+@<@+@@@@@@=&&@@&#",
"O@&@@O@&O+%#@+@==@#@==#&O#+%@@@@&O@%o@@@&O+%#@@;&@@&@@@@@=&+&O#&O@&@@O@&O+%#@+@==@#@==#&O#+%@@@@&O@%o@@@&O+%#@@;&@@&@@@@@=&+&O#&",
"+@&@@@+&o+++@@;&&@&@&&@&@@#&@@+@&O@&@@@+@++o+@@;=&@&@@@@@=&@&O@++@&@@@+&o+++@@;&&@&@&&@&@@#&@@+@&O@&@@@+@++o+@@;=&@&@@@@@=&@&O@+",
"++&#@@%%OO+%@@@&&#&@&&@%O@@%+@O@%++##@@@;O++%++#&&&&%@#+@%&@%O@@++&#@@%%OO+&@@@&&#&@&&@%O@@%+@O@%++##@@@;O++%++&&&&&%@#+@%&@%O@@",
"O%%@+@&%OO%%O+&&&&&O&&@%O%@+@+@+%O%%+@+@@OO+%O@@&&%&%+++@&@@&O@@O%%@+@&%OO%%@+&&&&&O&&@%O%@+@+@+%O%%+@+@@OO+&O@@&&%&%+++@&@@&O@@",
"+&+@@+%%O++%@@@%&%&@%&@#O$%@++O+%O%%O+++&O++%@&@&&+&%++@;#&+%+@@+&+@@+%%O++%@@@%&%&@%&@#O$%@++O+%O%%O+++&O++%@&@&&+&%++@;#&+%+@@",
"o%%@++$%+@O+&&@&@+&@&@+&Oo+++@o+%o%%@+@@@++O%%&&&&O%@O@@@@&%%+#+o%%@++$%+@O+&&@&@+&@&@+&Oo+++@o+%o%%@+@@@++O%%&&&&O%@O@@@@&%%+#+",
"o$%@+@o++#@O+&&##O%@+#%%+$%@@@oO%o$%@@@&@O#O+#&&%@O#@O@@@@%%%O&%o$%@+@o++#@O+&&##O%@+#%%+$%@@@o+%o$%@@@&@O#O+#&&%@O#@O@@@@%%%O&%",
"oo+O@@+%O&@O@&&@&O&@@&&+++%+O@OO$oo+@O@&&+&O+@#&%%++%O+&@@%%%+&%oo+O@@+%O&@O@&&@&O&@@&&+++%+O@OO$oo+@O@&&+&O+@#&%%++%O+&@@%%%+&%",
"o$%+O@+%%&@OO&#@%O+@+$%%O+%++&OO%o+%++&&&%&@+@%%%%++%+@@+O%$%+#%o$%+O@+%%&@@O&#@%O+@+$%%O+%++&OO%o+%++&&&%&@+@%%%%++%+@@+O%$%+%%",
"O@+OOOO&#++O+@&++%++O++$%O+&@@o+%%+%O@@&#%&@@@%%++++%@&@@+%o+O+$O@+OOOO&#++O+@&++%++O++$%O+&@@o+%%+%O@@&#%&@@@%%++++%@&@@+%o+O+$",
"@@%O+OO&#o+O@O%oO+o+O+@o+OOO&@O#%OO%%&@&#%%@#@%%++++&@&&#%%$%o+o@@%O+OO&#o+O@O%oO+o+O+@o+OOO&@O#%OO%%&@&#%%@#@%%++++&@&&#%%$%o+o",
"@@%O+oO%&OOO@O%OOOOOo++$%OOO&&+&+OOO%&&%&O%&#+%%OOO+&&&&#%++%+%$@@%O+oO%&OOO@O%OOOOOo++$%OOO&&+&+OOO%&&%&O%&#+%%OOO+&&&&#%++%+%$",
"%+%ooO@&@O@O@O%+OOO@ooO+%OOO&&%&OOOO+&&&@O%&#@$%OOOO%&&#+%%O%%++%+%ooO@&@O@O@O%+OOO@ooO+%OOO&&%&OOOO+&&&@O%&#@$%OOOO%&&#+%%O%%++",
"+O%ooO@+%O@+O+%%OOO@OOOO%+OO&#%%+OOOO&#+%O%%&+o%+OOO%%&#@$+OoOOOOO%ooO@+%O@+O+%%OOO@OOOO%+OO&#%%+OOOO&#+%O%%&+o%+OOO%%&#@$%OoOOO",
"+OOOO@@O%o%+%%%O+Oo%OO$Oo+oO&%%%+O+OO&%O%O+%@O$$+OOO%O%&+ooOOOOO+OOOO@@O%o%+%%%O+Oo%OO$Oo+oO&%%%+O+OO&%O%O+%@O$$+OOO%O%&+ooOOOOO",
"%+OOOO@O$++O%%oO+o++OooOOoOO%%o%$O+oO%%O$OO+%OO$OOOO%O%+O$%%@OOO%+OOOO@O$++O%%oO+o++OooOOoOO%%o%$O+oO%%O$OO+%OO$OOOO%O%+O$%%@OOO",
"%+$oo%@O%#O+%$%OoO#Oo+OOOoOo%+O%$oooO%+O%O++%oOoOOOO%O+%Oo%+%OOO%+$oo%@O%#O+%$%OoO#Oo+OOOoOo%+O%$oooO%+O%O++%oOoOOOO%O+%Oo%+%OOO",
"%O%+@++O%&&o%$$OoO&&O%$OOO@o$oo%$ooO@%%o%oOO%oOOoOOO%OO%oo%O%OOO%O%+@++O%&&o%$$OoO&&O%$OOO@o$oo%$ooO@%%o%oOO%oOOoOOO%OO%oo$O%O+O",
"%O%O%OO$$%%OoooOOO%%o%o+oOOOo$O$OOOO@O%$$o%%%$%oooOO%oO$oO$O$Oo+%O%O%OO$$%%OoooOOO%%o%o+oOOOo$O$OOOO@O%$$o%%%$%oooOO%oO$oO$O$Oo+",
"%o%+&%+%$&%ooo$OOO&%$%Oooo%oo$ooOOOO+O$%$O%%%+$$o$OO%XO%OOoO%oo%%o%+&%+$$&%ooo$OOO&%$%Oooo%o$$ooOOOO+O$$$O%%%+$$o$OO%XO%OOoO%oo%",
"+O%%%%+$$&%o%$$Oo%&%%%OoO++oo$o+$oo%+O$$$o%%%Oo$OoOO$oO$+OOo$oo%+O%%%%+$$&%o%$$Oo%&%%%OoO++oo$o+$oo%+O$$$o%%%Oo$OoOO$oO$+OOo$oo%",
"%O%%%%o.$$%%+o$+++$%$%OOO%OoO$++$+++oo$.$o%%%oooOOOO$oo%$OO$$oo%$O%%%%o.$$%%+o$o++$%$%OOO%OoO$o+$+++oo$.$o%%%oooOOOO$oo$$OO$$oo&",
"%o%$%%Ooo%+OOO$$%O%+o$OOO%%oOoOO$O%OOo$ooOo%+O.$OOoO$o$$OoO$$Xo$%o%$%%Ooo%+OOO$$%O%+o$OOO%%oOoOO$O%OOo$ooOo%+O.$OOoO$o$$OoO$$Xo$",
"$o%O$%oo$o%OOOoo%%o%X$oo%%%$OOOO%+%%+$$o$ooo%Oo$oOOO$o$oOoo$$oo%$o%X$%oo$o%OOOoo%%o%X$oo%%%$OOOO%+%%+$$o$ooo%Oo$oOOO$o$oOoo$$oo%",
"%O$O%OOo$o%oOOOO%%o%o$o++%%$OOoO%%%%+$oo$o$o%oo$ooOo$o$$Ooo.$ooo%O%O%OOo$o%oOOOO%%o%o$o++%%$OOoO%%%%+$oo$o$o%oo$ooOo$o$$Ooo.$ooo",
"+%$Xo$Oo$o$XOOOO%%o$Xoo%+%%oooXO%%%%o$$o$$+o$ooooooo$ .oOoO.oo$o+%$Xo$Oo$o$XOOOO%%o$Xoo%+%%oooXO%%%%o$$o$$+o$oo$oooo$ .oOoO.oo$o",
"%o$Xo$.Xoo$Xoooo%$o$Xo$%%$$oooXo$$%$O.oXoOOo$oOooooo. oooOOo$o$o%o$Xo$.Xoo$Xoooo%$o$Xo$%%$$oooXo$$%$O.oXoOOo$oOooooo. oooOOo$o$o",
"$O$ o. OXo$XoooO$%o$Xo$%%$ooooXo$X$%oooOXXOo$oOOoO o$ .$ooOo$$$$$O$ o. OXo$XoooO$%o$Xo$%%$ooooXo$X$%oooOXXOo$oOOoO o$ .$ooOo$$$$"
};
