/* XPM */
static const char *flat1_2[] = {
/* columns rows colors chars-per-pixel */
"128 128 110 2 ",
"   c #07080A",
".  c #0C0C0D",
"X  c #130F0B",
"o  c #15110E",
"O  c #1C150E",
"+  c #1D180F",
"@  c #0E0F10",
"#  c #0F1011",
"$  c #141414",
"%  c #1A1612",
"&  c #1E1A15",
"*  c #161718",
"=  c #171819",
"-  c #1B1B1C",
";  c #23170B",
":  c #28170A",
">  c #24190C",
",  c #2C1B0C",
"<  c #321D0D",
"1  c #231C14",
"2  c #2C1D11",
"3  c #221E1A",
"4  c #281F18",
"5  c #311F11",
"6  c #2E210F",
"7  c #34200E",
"8  c #2C2115",
"9  c #25211C",
"0  c #2A241C",
"q  c #362313",
"w  c #392614",
"e  c #352A13",
"r  c #3D2D16",
"t  c #32261A",
"y  c #3B2718",
"u  c #35291B",
"i  c #372B1B",
"p  c #3D2A18",
"a  c #3E2A18",
"s  c #3F2F19",
"d  c #3F2C1A",
"f  c #3F3017",
"g  c #3F301B",
"h  c #1F1F20",
"j  c #1F2021",
"k  c #202122",
"l  c #262320",
"z  c #222324",
"x  c #242425",
"c  c #242525",
"v  c #262627",
"b  c #262727",
"n  c #282420",
"m  c #2A2521",
"M  c #2D2923",
"N  c #262728",
"B  c #272828",
"V  c #2B2B2B",
"C  c #312C25",
"Z  c #3A2E23",
"A  c #322E2A",
"S  c #3C3122",
"D  c #34312C",
"F  c #2F2F30",
"G  c #2F3030",
"H  c #333333",
"J  c #383430",
"K  c #3F3A36",
"L  c #3B3B3B",
"P  c #402F17",
"I  c #402C19",
"U  c #402D1A",
"Y  c #422E1B",
"T  c #432F1B",
"R  c #403018",
"E  c #423119",
"W  c #46331B",
"Q  c #47331B",
"!  c #47341B",
"~  c #41321C",
"^  c #44351E",
"/  c #48331B",
"(  c #4A351B",
")  c #4B361B",
"_  c #4C371B",
"`  c #48371F",
"'  c #4E391C",
"]  c #4F3A1C",
"[  c #513B1D",
"{  c #513D1D",
"}  c #553F1F",
"|  c #443420",
" . c #4B3721",
".. c #473820",
"X. c #4C3921",
"o. c #4D3921",
"O. c #503720",
"+. c #543C21",
"@. c #593F21",
"#. c #423F3D",
"$. c #56401F",
"%. c #574020",
"&. c #5C4121",
"*. c #5C4222",
"=. c #634424",
"-. c #694626",
";. c #3F4041",
":. c #424343",
">. c #484442",
",. c #4B4B4A",
/* pixels */
"q q q q e e q q q w r r r r r r w q < 2 n c c k - - - 1 , < < , , < q w r r w w r R U U U U R r r r f r w q q q q q q q < , & 0 X.&.[ ! U a w q q q q q q q q q e e q q q q e e q w r r w q < , % $ = 9 g _ ) ) Q U U U w q q q q w r U U U Q Q Q R R r e e e e ",
"q q q q e e q q q w a U U U R r w q , 2 n c c k - - - - 1 , , , , < < q w w q q a r U U R U R R U U f r a w w w q q q q , > & 0 X.&.[ ! U a w q q q q q q q q q e e q q q q e e q w r r w q < , % $ = 9 g ' ) ) Q U U U a w w q q w r R U U R U U U P r r e e e ",
"q q q q q q q q q w a U U R R r w 5 > 1 l c c k - - - - - 1 & 1 , < < < < < < < q a s R R U P R R R U r r r r a w q q q , ; % 0 ) } ' ) R a w q q q q q q q q q q q q q q q q q q q e e w q < , % $ = 9 g _ ' ) U U U U U a w q q w r R U U U r w a r r r r e e ",
"q q q q q q w w q w y a U U r a w q > 1 9 c k - - - - - = - - - 1 , 2 2 2 , , < < q w a r r r r s s r R R R R r w q q q > O % 0 ^ { ' ) R r a w q q q q q q q q q q q q q q q q q q e e q q < , % $ = 9 ~ ' ' ) U a U U U U a w w a r R U U U r w a r r f r e e ",
"q q q q q w a a w q w w r r a w q q , 2 9 k - - - - * $ $ * - - - 3 9 9 9 4 , < < < < 7 q a e e e r r U R R R U w q q q > O - 9 ~ ' ' ) Q U r a w q q q q q q q q q q q q q q q q q q q q q < , % $ = 0 ^ { ' ) U s U R U U U U U U U U R R R r r r r R R r e e ",
"q q w w q w r r a w w a r r a w w q , 2 9 k - & 9 9 1 1 1 1 9 9 - - h k z 9 4 2 2 2 , 2 q q e e e e r r U U R U a w w q , ; - 9 g _ ) ! Q U U r a w q q q q q q q q q q q q q q q q q q q q < , % $ = 0 ^ { ' Q U s r r r r U U U U U U R R R r U U U U R r e e ",
"e e r a w w r r r r r r r r r a w q , 1 9 k - 9 i g s s s s R i 9 - - - k l 9 9 9 3 3 1 q w q q e e e r r R R s r a w q , > - 9 g ) Q Q R R U U r a e q q q q q q q q q q q q q q q q q q q < , % $ = 9 ~ ' Q R U r r e e r r R U U U U R R U P U U U U R s e e ",
"e e r a w w a r r f f r r r r a w q > % 9 k - 9 R ' [ [ ' ' ) R 0 3 4 9 k k k z z k - 3 8 q q q e e e e r r r r r a w q < , & 9 g ) Q U r r U U U r r e q q q q q q q q q q q q q q q q q q < , % * - 0 R ) Q R R r e e e e a r U R R R R R U U U U U U Q U r e ",
"q q w w w q w a r r f r r e a w w 5 > % 9 k - 9 g [ @.@.[ ) Q R i i i t 3 - k z z k k k 3 1 q q q q e e r r a w w w w q < , & 9 g ) R r a a r U R U U s e e q q q q e e q q q q q q q q q q < , % * - n ~ ) ) ) R r e e q q w a r R R R R U U U U U U U Q U r r ",
"q q q q q q q w r P R r e e q q q q , 1 9 k - 9 R { @.@.' ! R r r R Q s 0 9 9 l l z c k - 3 8 q w w e e r r a w q q q 7 < , 3 0 ~ _ Q r w w a r U U U s e e q q q q e e q q q q q q q q q q < , % % k M ~ _ ' ) R r e e q q q w a r r r s s r U U U U U R R R r ",
"q q q q q q q w r R U s e e q q q q , 2 9 k - 0 ^ { { ' ) R R r r U U R R s w 8 l z c k k 3 3 0 e a w w a U r a w q < < < 2 3 M ^ ' Q s w q w w w w w w q q e e e e e e q q q q q q q q q q q 5 , 1 l M ~ _ ' ) R r e e q q q q w w w w e r r U U U R R R R r r ",
"q q q q q q q w a r s s e e q q q q < 2 9 k - 0 ^ { ' ) Q U U r r U U Q ) Q a q 0 l k j k h - 3 w w q q w a a w q < , , , 1 3 M ^ ' U y q q q q q q q q q q q e e q q q q q q q q q q q q q q < < 2 n M ~ ) ) Q r r e e w w w w w w q q e e r U U U R R R R r r ",
"q q q q q q q q e e e e e e q q q q < 2 9 k k n ~ ' ' ) R s r r r r U R R P w q q 8 & = - - - 3 2 7 < < < < 7 < < , : ; O % - 0 ~ ) w < < < < < < < < < < < < < < < < < < < < < < < q q q q , > , 2 n A ^ ) P w w w q w a r r r r r e e e e r U U Q R R U U s r ",
"w w w q q w w w e e e e e e q q q < < 2 0 c z M ~ ' ' ) R r s s r r r r a w q q q 2 1 % - - - - 1 , , , , , , , , , ; O $ * - 9 i s q 2 2 2 2 2 2 2 2 2 , , , , , , , , , , , , , , < q q , ; ; 2 8 n M S s w q q q q q w a a a r r e q q e a r U R Q Q U U U f ",
"r a w q q w a a r r w q q q q q < < < 2 M V c M ~ ' ' ) R s U a a w w w 7 < < < < , , 1 & - - - - & & 1 , , , , , , O $ * - - - n M n n n n n n M M n 9 3 1 ; : , , , , < , : > ; > > > > > O 1 C A V c n 0 5 < < < < < 7 7 7 7 q q 7 < < 7 q a r R Q Q R R U r ",
"a a w q q w a a r a q q q q q , , , , 4 M V c n i R Q Q r a w w q q q , , , , , , , , 1 & - - - - - - & 1 , 2 2 2 2 & - - - - - j z c c c c c c V V V c k & & 1 2 2 2 2 , , 1 % 1 1 1 1 1 1 1 9 D H V c k 9 4 2 2 , , , , , , < 7 7 < , , < < q w a a a a a a a ",
"7 7 q q q w w w w w < < < , > > > ; 1 3 c V c k 9 8 w w 7 < , > > > > > > : , < < , O % - - - - - - j 3 & 3 9 9 n n l k - - * - h z z k h - - j c c N c c c l l 9 9 9 3 3 3 3 9 9 l l c c c c c V H V c - - 9 9 9 0 , , : : , < < < < , , < < < < 7 7 7 7 7 7 7 ",
", , 5 q q q q q q < < , , 2 1 1 1 1 - k c c k j - - 4 2 , > 1 % % % % O O ; > , , 1 1 1 0 0 0 0 0 9 n n 9 9 k k z c c k - - * % 0 C C M 0 9 9 0 n M M M M n c c k k k h - 3 M C C C A A A A V V V V V k - - k k k 3 1 > + + > , , , , , , , , , , , 2 2 2 2 , , ",
"& 1 , < < < < , , : , , 4 n V A V M c c c c - - - - % % & - 3 9 9 - - % % % & & & 4 i R ) X.O...~ s s i i t 9 - - - - - - - $ 1 ~ +.+.X.Q g g R ~ ~ ~ g i 0 n k - - - - - 0  .@.+.X.^ ~ S Z M B V V c k - - - - - = & & % & & & - & & & & & & & & 3 3 9 n 9 3 & ",
"- - 1 2 2 2 2 2 1 1 2 8 n V H H V V B c c k - - - * $ * 9 0 M M M M 0 0 0 0 0 9 9 t ^ } &.=.&.&.[ ) Q Q Q s 0 3 3 3 - - - - & t O.=.&.@.' ) ) ) ) ) ) Q y q 9 - - - - - 0 Z @.-.=.&.[ ) Q s C n c k k - - - * * $ % 0 0 0 9 9 9 9 9 9 9 9 9 9 9 9 0 n n c k - - ",
"- - 3 9 9 l M M c c M V V V V V N c c k - - - - * $ $ 1 ~ X.^ ~ ~ ^ X.X.` ^ ^ ^ ~ ^ ' %.&.&.&.} ' ) ) ) Q U a i q 4 & - * & t ^ @.&.} ' / Q R R R Q Q U y 8 & * - - * 4 | @.=.=.&.} ' ) Q U y 8 3 - - & - $ @ . @ 1 | +.^ g g R g g g g g g g g g ~ ~ i 9 - - - ",
"0 0 M M M M D D A A A A V V c c n n M 0 - - - * $ $ & i O.&.[ ) ' [ &.&.{ { { ' _ ) ' { } @.{ ' ) ) ) ! Q U U U a w 4 & * 1 s [ @.} ' Q R U r r r r U s w 2 % * - - & t @.-.&.@.{ ' ) Q U a w q 3 - - * $ $ o % 1 i @.-.} ' ) ) ) ) ) ) ) ' ' ' ' ' _ R 0 9 9 9 ",
"^ ^ ^ ~ ~ ^ ..X.....| Z M z h 9 i s ~ i 9 - * $ . % s +.&.&.[ ) ) ' [ ' ) Q / Q Q Q Q Q ! ! Q Q Q Q U R R U U r r a w 4 % 1 s ' [ ' Q R U r a w w a r a 7 , % * = 3 i ) &.=.} ' ! Q Q U a q < 2 9 - - $ . o 8 R O.@.-.=.&.' ) Q Q Q Q Q ) ' ' ' ' ) / R s i s R ",
"{ ' _ ) ) ' { { { ' / s 0 9 - 9 i / [ ^ 0 & * $ . 1 ) &.&.} ' ! Q Q ) Q R U U U U U s r r r U U U U r r r r r f R r w 2 % % t R ! ) Q U U r w q w a r a < > % $ = 9 g ' } } _ Q R s U a w < , 1 3 - * $ % 8 Q @.=.-.=.&.{ ` Q U U U U R ! ) ) ) ) Q U U U U ! ) ",
"/ Q Q Q ) ' ' ' ' ' Q s w 8 3 9 i ) @.{ R 8 % $ # 1 ^ %.{ ' Q P a a U U U U U U U R r r r U U U U r a w w a r R R U w 2 o X % 8 s Q Q U U r w w a r s w < , % * = 9 s / ! Q Q R U s U a q , O % - - $ & s ' @.&.=.&.O.) Q R R r a a r U R R R R U U a w w a P R ",
"U U U R ! ) ) ) Q Q R U w 2 & 3 i _ @.} ) e 1 $ $ 1 ^ { ' ! P a w w w a a r r r r r f r r r U R U r a w q w a r s a y 5 O X $ & i Q Q U U r a a r s U a q , % * - 9 t i a r U U U s a w < , % * * - 1 i @.=.&.&.@.[ Q U r r f r w w r r r r r a a a w w w w a r ",
"U U U U R R R P a a r r w 2 o % i ' [ ' Q a 2 ; $ 1 ^ { ' Q a w q q w w w w w a r f f r a a r R r r r a w q w w w w a w , ; $ & s ) Q U U U r r r U U a w 2 % * - k 9 0 w a r R R r a q < , & * $ 1 s @.=.=.@.' ) Q R s r r r r w w r r f r a w w w a r a a w w ",
"r r r r r f f r w a r r w 2 O % i ~ ) ) Q a 7 , % 1 ^ { ' Q w q q q q q q q q w r f f r a a r f r r r r a w w w w w a w < > o % t R Q Q Q Q U U U U U U a q 1 % 9 k - & 8 w a r r a w 5 , 1 - - & t O.=.=.=.[ ) Q U s r r r r r a a r r r a w q q w r U U a a w ",
"r r f f f r r r r r r r w q 2 2 9 t U ) Q a 7 , & 9 R ' ) U w q q q q q q q q w r r r r r r r r r r r r U U U U U a w q < : o o % 8 ^ ' _ ) Q U U U U U a w 2 1 9 k - - 9 0 w w w w < , % % - 3 i Q @.&.&.@.' ) R s r r r R f r r r r r a w q q q w r U U U r r ",
"r r R R U U r r r r r r w q w 8 & 9 ~ ' ) P 7 , & 9 s ) Q U w q q q q q q q q w r f r r f r r r r r r U U U U Q U U a q < > X . @ 1 ~ { ' ) Q U U U U U a w q 2 0 9 - - j 9 8 q q 2 , > % $ = 9 ~ { &.&.{ ' ) ! R r r r R r r r r r U r w q q q q w a r U U R R ",
"r R R R U U U r a a r r w q q 2 % 3 ) @.' P 7 , & 9 i Q Q U w q q q e e q q q e r R R f f f f f f f f R U U U Q U U r a w 2 o . @ 1 g ' ' ) R U R r a w w w q q q 8 3 - - - 9 9 3 1 ; O $ $ = 0 ^ %.&.&._ Q R R R r r r R r a a r R R s w q q q q q e r r R U R ",
"R R Q Q R U U r w a r r w w w q 1 8 O.&.[ P 7 , & 9 i Q Q U w q q q e e q q e r r r r r r r U R R R R R U U U U U U U a w 2 o . . % s ' ' ) R r f r w q q q q q q q 1 - - - h j - & & % $ * * 0 ^ &.&.@.) U s r r r r f R r a a r R R s w q q q q q e e r R U R ",
"U Q ) ! R U r r r r r s a a r a i U @.&._ a 7 , & 9 s ) ) Q w q q q q q e e r r r r a w w a U U U U U U R r a w w a a a q , X . . % s ' ' ) R r r r w q q q q q q q , 1 - - - - j k 9 3 - = * 9 ) &.=.@.) U s r r r f f r r r r r r U r w q e e e e e e r U U U ",
"U Q ) ! P r r r R U r s s s r r U ) +.O./ a 7 , & 9 s ) ' Q a w q q q q e r r R U r a w w a U U U U U R R r a w q w a y < : X . . O r ' ' ) R r r a w q q q q q q q < , 1 3 4 9 n n l k - - $ 1 ' =.&.@./ U U r r r r r r r r s P U f r a w e e e e e e r U U U ",
"U Q Q U a a r U R R U r s r a a r R / Q R a 7 , & 9 i Q ) ) P a w q q w r r U R U U U s r r r r a a r R R U U a w w a y < : X . . O r ' ' ) R r a w q q q q q q q q q q q q i s ~ i 9 - - - $ 1 ' &.&.{ Q U U r r r a a r f r U U U s r r r r r e e q a r R R U ",
"U U U U a w a r U U r r r r w w a r U U U a 7 , 3 9 i Q ) Q Q r a q q w r U U U U U R R R f f r w w a r U U Q U a w a a < : X . o 1 s ) ) Q P a w q q q q q q q q q q q q a U Q ) R 0 - - * $ 1 ) &.$.' Q U r r r r a a r R U U U R U r f r r r e e q w a r U R ",
"U U U U r a w w w a r R f r w q w a r U R a < 2 9 M s Q Q Q ) R r e e e r r a a r R R R U r f r w q w a U U U U U U U a 7 : X o 4 i Q ) Q U a w q q e e e e q q q q q q e a U Q ) Q w 4 % $ $ 1 ^ %.{ ) Q U a a r r U U U R R U R U U f f r a w e e e e w a r R ",
"r U U U r a w q q w a r r r w q q w r r r w < 2 9 n t a Q ) ) ) r e e r r r w w r r U R U r r a w q q w a U U U U U U a 7 : X % a _ [ _ Q U w q q q e e e e q q q q q q e e s U ! Q a 2 % # $ 1 R { ' ) Q U a a r U R Q Q Q Q U U U R f f r w q e e e e w a r f ",
"f U U U a w q q q q w a r r w q q w r r a q < 2 3 - & 8 ) @.' ) R s s s r r w q e r r U P r a w w q q q e r U U U U U a < > o 1 ) &.&.@./ a w q q q q q q q e q q q q q q w e r f P w 2 o . # 1 g ' ' ) Q U r r r U R Q Q Q U U U R R R f r e e r r r r r r r r ",
"R R R U a w q q w w w a r r w q q w a a w q , 1 - - & 0 ' &.[ ) Q U U U U r w q e e r r r r w q q q q q e e s U U U U a < > % 1 ) &.&.@./ s w q w w w q q q e e w w w w q q e e r r w 2 o . $ 1 s ' ' ) Q U U r r U U U R R U U R r r r r r e r r P U U R R U U ",
"R R U P r a w w a r U U U r w q q q w w w q 1 % - 3 i Q { } ' ) Q U U U U r e e e e r R R r w q q q q q e e r U U U U a 7 > % 1 R [ [ _ Q r w w a a w q e e e e r r r a e e e e r r w 2 o . * 9 g ' _ ) R s r r f R R R R R U U R r a w w w a s s U U U R R U U ",
"U U U f R r a a r r U U r a w q q q q q w 2 % $ = 9 R ' { ' ) ! Q U U U U r r e e r r R R r w q q q q q e r r R R R r w < , % 3 s ' ) ! P a w w a a w q e e e r r R U r r e e r r r w 2 O o % 9 g ' ' ) P r r r f r f f f f r r f r a w w w a a r U R U R R U U ",
"U U U r r r U U r r a w w w w q q q q q q 2 % $ = 9 U ' ' ) Q Q R U U U U U U s r r r f R r w q q q e e r r U Q ) Q a q < 2 3 0 ~ ' ) Q a w q q w w q q e e s U U U U U r r s U U U w q , ; & 9 g ' _ Q a w r r r r r r f r r r r r r r r a w w r r R U R R U U ",
"U U U r r P R U r a w q q q q q q q q q q 2 % $ = 0 ~ [ ' ) Q U r r r U R R R R U r r f R r a w w a e r r P U U ) Q a q , > 3 0 ~ ' ' Q a w q q q q q q e e s U R U U U U U U Q Q U w q , , 3 0 g ' ' Q a a r r r r U U R U r r r r U R R r a a r r r f r R R R ",
"U U r r r r U r a w q q q q q q e e e q 7 , % $ = 0  .@.[ ) R r a a U U U U R R r f f f f r r r s U U U r r a a ) Q a q , O * 3 s ' ' ) U y w q q q q q e e r U R R U U U U Q Q Q U w q , 1 3 n ~ _ _ ) P r r f f R U U U U U r r R R R U r r r r f f f r r U U ",
"r r r r r r f r a w q q q q q q e e e q < , % $ = 0 X.&.[ ! r a w a U U R U P r R U R R U U U R R U U s r a w w Q Q a q > O % 8 R ) ) Q U y w q q q q q q e r r r r U R U U Q Q U U w q > % - n ~ _ _ ) R r s s s U U U U R R R R R R R U r r r R R r f r r r r ",
"f f f r f R f r r a w q q q q q q q e q < , % $ * 0 X.&.[ Q a w a r r U U R R R U R R R U U U U U r r e e e q w U U y q > > e R ) ) Q P a w q q q q q q q a r r a a r R U U U Q U U w q > + - 9 ~ ' ' ) R s s s s U U U U R ! ) ) ! Q U U r r r f R r r r r a w ",
"r r r R U s s U r r a w q q q q q q e q < , & - 3 i O.&.' Q a w r R f r r r r R U R U R U U R U r a e e e q q w s s w , ; 1 R ' ' ) R a w q q w w w q q q w r r a a a r U U U R U s w , > O - 0 ~ ' ) ! R r s s U s s r r R ) ) ) ) Q R P r r r f f r r r r w q ",
"w a r U s s s s s r r a e e q q q q q q < 2 9 n i ^ { { ) U a a U R R f r r r U U U U U U U U r a w q q q q q w r a 7 , O 1 s ' _ ) R a w q q w a a w q q w r r r a w a r U U U R a q , > % - M ~ ) / Q R r s s s r r P U Q ) ) Q Q R U r r f f f r r r r r w q ",
"q w a r s s s s r r r r e e q q q q w q < 2 l M ~ ' { ' Q U U U U R R f r r r r U U U U U s r a w q q q q q q w a w < , & 3 s ' [ ' Q r w q q w a a w q q w r R R r a a r r r r r w < , ; & 9 n i s a a a r r r r r U U R Q ) ) Q U U r r r f R R U U U U r w q ",
"q q w a r s s r w w r r e e e e e e r w < 2 9 M s ) ' ) Q U U U U U R R f f r r P U U r a w w w q q q q q q q q 7 < < 2 9 n ~ [ @.} ' Q w q q w w w w q q w r U R U r r r f R r a q < , % & k c 9 8 q 7 w w w a r R R R U Q Q Q Q R U r r f f R U U U U U s w q ",
"q q q w r f f r w w a a e e e e e r r w < 2 9 n i s Q ) Q U r r r r r r r r r r f r r a w q q q q q q q q q q q < , , 1 l M ~ [ @.@.' Q w q q q q q q q q w r U R U r r a a a w q < < 2 9 c c c h & 2 2 5 q q q w a s U U U U U R R R r r r r r U R U Q U U w q ",
"q q q w r R r r r a a w q w r r s s a q < 2 n c 9 0 s Q R r a a r r a w w a r f R r a w q q q q e e e e q q q q < , O % k M ~ ' [ ' Q a w q q q q q q q q w r R R r a q 7 7 7 < < < , q A H V c k k 9 4 1 , , < < q w w w a r U U R R r a w w a r R R Q Q U w q ",
"q q q w a r r r r a w q q w r R R U w q < 2 n z - 9 i Q R a w w a a w q q w a r a w q q q q q q q e e q q q q < , > % - - 0 i R Q U a w q q q q q q q q q w a r a w q < < , , 2 q q q t D H V c k k k 3 % ; > , , < < q q q w a w w a w q q q q w r s U U a w q ",
"q q q w w a r r a w q q e e r R R r w q < 2 9 k - 9 s ) U a w q w w w q q w w w 7 < < < < < < < < < < < < < < , % % - h - & & 1 w w q < < < < < q q q q q w w w 7 < < < , , 1 9 A D A V V V c k - - - - - & & 1 , < < < < < < 7 < < 7 < < < < < 7 7 w w w w w q ",
"q q q q q w r r a w q q e e r s r a q < < 2 9 k - 9 i U s w q q q q q q q q q , , , , , , , , , , , , , , , , ; % - j k - * $ % 4 q 2 2 , , , , < q q q q q q < < , , , 2 4 3 c H H G V c k k - - - - - - - - - 1 , 2 2 , , 2 2 , , 2 2 2 2 , , , < < q q q q q ",
"q q q q q w r r a i e e e e s a a q < < < 2 9 k k k 9 8 w q < < < < < , , > > > > ; ; > > : , , < , < < , , O % - h - - * * $ % 9 n n 9 1 ; ; : , < < < < < < < < , O & n M c c V V V c k - - * * $ $ * - - - - - 3 3 3 3 3 3 9 3 3 3 9 9 9 3 1 , < < < < < < < ",
"q q q q q w r U s s r e e e i y q < , , , 1 3 k k - - - 4 2 2 , 2 2 , > 1 % + + % 1 % % % 1 2 2 2 2 2 2 2 1 % * - - - * $ $ $ * k N N l 1 % % 1 2 2 2 2 , , 2 2 , 1 % - c V c c c k k - - * $ $ % 1 1 0 0 9 9 9 4 9 k h - - h h - - h k k k - - 1 , 2 2 2 , , , ",
"< < < < q w r r s r r r w w w q < , : ; O % - - - - * * - 3 & 3 3 3 3 - 3 - - - 9 k 9 3 9 9 9 9 9 9 9 9 9 3 - - * * * $ $ # . $ j N c k 9 9 9 9 9 9 9 3 3 3 9 9 3 & - - z c h - - - - - * $ . o t Q ] ] Q s i i i t 3 - - - - - - - - - k k - - - 3 9 9 9 0 , , ",
", , , , 5 q a r r r a w q q q , , , ; O $ * - & 9 0 1 1 9 9 9 9 n n 0 9 n M 0 0 M M M M M M M M M n k h k h - - & 1 1 1 1 % % 1 0 M M n k k k k k k k h - - - 9 0 0 0 0 M M 0 9 9 3 - * $ $ o 1 U @.=.=.[ ! R R Q s 0 9 9 9 0 0 9 9 9 9 0 0 0 9 & - h k k 3 4 , ",
"1 1 & 1 , < w w w w q < < , , > > O O $ * - - 9 | X.^ ~ R g g g ~ ~ ~ ~ ~ ^ ^ ^ ^ ~ ~ ~ ~ ~ ~ ~ ~ i 3 * - - * & t R ) ) R s R R ~ ~ ~ i 9 - - - - - - - - - * 3 ~ O.O.X...^ ~ R R i & $ . o 4 s [ &.=.&._ R R R ) ) R g g ~ ^ ^ ~ s i i i i g i 9 - - - - - & 1 ",
"- - = & 1 2 2 q q < < , , , ; % + % $ * * - 9 i @.&.%.{ ' ' ) ) ) ) ) ) _ ' { { ' ) ) ) ) ) ) ) ) s 1 % * * $ 1 R } &.&.[ ' ' ' ' ' ' R t 9 9 9 4 3 4 9 0 9 4 t O.=.=.&.} ' ) ) ) s 1 o . O e _ @.&.&.[ Q U r R ! ) ) ) ) ' { { ' ) Q R U R ) R 0 9 0 0 0 3 - = ",
"$ $ $ * & - 3 1 , < , , , , 4 3 - % - * * 3 ~ @.&.&.{ ' ' _ ' ) Q Q Q Q ) ' ' ' ' ) Q Q Q Q Q Q Q U w 1 $ . . % ) &.&.} ' ) ! ! ) ' ' ) U s i i i i i s ^ ^ ) O.&.&.&.} _ Q a a R r 2 O . O a ' } @._ Q U r r U Q Q Q Q Q / ' ' ) Q U U U R Q Q R ~ ^ ^ ~ i & $ ",
"1 1 1 1 9 9 9 0 q 7 7 7 7 8 9 k - - - - * 0 X.=.&.@.' ) ) ) ) Q Q U U R ! ) ) ) ) Q U U U U U U U a w 2 O . . 1 ) @.{ ' ) ! R R ! ) ) ) ) ) Q Q R Q Q _ } &.&.&.&.@.{ ` R a w w a a < : o ; r ' { ' Q U s r r U U U U U U R ! ! Q U U U U U U Q ! ) ' ' ' s 8 % ",
"s s R ~ R s i i U R R r P i n z k j - - - M O.&.} ' Q Q Q Q Q R U s U R R R Q Q R r a w w w w w w w w 5 ; O - 0 U ) Q U U U P R R R U U R Q ) ) ) ) ' { &.&.&.@._ / Q R a w q q w q < , : , P ' ' ) U s s r r r U U s U U R R R R s r U U U U R R Q ! ! Q g a e ",
"' ' { { ' ) Q Q ) ) _ ) / s t n n 9 - - k A X.&.[ ) Q U U U Q Q U r r r r U U R R r w q q q q q q q q q , 1 9 c C s a U U s r r r a a a r R ) ) ) _ ' } &.&.} ' Q s r a w q q q q q < , , 7 R ' ) ) U s r r r r r r U U r r r r r r r R U U U U R r r r f R R R ",
"' ' ' ' ' ) Q U Q Q ) ' ) Q s i w 8 3 - k C ..} ' ) Q U U Q ) ) R U s r r r R R r r w q q q q q q q q q , 2 l c n C s U U U U r a w w w r R ) ) Q Q ) ' [ [ ' ) R r a q q q q q q q < , , 7 R ' ' ) R r a w w a r R U U U r r e e r U R R R U U r r r r f R R R ",
") ) ) ) ) ) Q U U Q ) ) ) ! R r w q 1 & - M ^ [ ' ) Q U U Q ) ) Q Q U U r f f r r a w q q q q q q q q q < 2 9 k k n s Q Q Q R r a w w a r R ! ) Q Q ! ) ) ! ) Q R r a q q w w w w q < , , 7 R _ ) Q r a w q q w r r s s r r e e e e s s R f f r r r r r r r U R ",
"R R R R Q Q U U U R Q Q Q Q Q U w q , 1 & 9 s ) ) ) Q U U U Q Q ) ) Q U U r r r a w q q q q q q q q q q < , > 1 9 M ~ ) ) ! R r r r r r r U R Q R R R R R f r r s U r a w w a r r w < , : , P ) Q U a w q q q q e e e e e e q q q q e r r R R f r r r r a a r R ",
"r r r r U U U r r U R R U R R U a q < , 1 3 t s ! ) Q U U U U Q ) ) Q U U r r a w q q q q q q q q q q q < , : 1 9 n i R ) ) R r r f f f r r U U U U r r r r e e R Q R r a a r R R a 7 , 1 8 R ) Q U a w w w q q e e e e e q q q q q e e r R f r r r r r a w a r ",
"w w w a r s r U U U U U U U U U r a w 2 ; % 3 0 R ) Q U U U U U Q Q R P r r a w q q e e e e e e e e q q q < , 2 9 k 9 t R ) Q U U r R f f R U U R r a w w q e r Q ) R r r r U R R a 7 2 9 t ~ ) Q U r r r a w q q q q q q q q q q q e e r f f s s s s r r a w w ",
"q q q w r r U U U U U U U r f r r a w 5 , ; % 9 g ) Q Q R U U U R U P r r r a w w w e e e e e e e e q q q q < 2 0 3 - 9 s ) Q U U r r r r r r r r r w q q q e r R R f r r R U U r w < 2 l M ^ ) Q U U R R r q q q q q q w w w q q q e e r r r U s s r r r r a w ",
"q q q w r P U U U U U U r r r r a q < < , > & 9 g _ ) ! R U U U U U r r r r U U r a w q q q e e e e q q q q q q 2 1 - 9 i Q Q U R r a w w a r r r e e q q q e e e r e r s U U r a q < 2 9 M ~ ) Q U U R R a 7 < < < q w a a w q e e q q w a U U U r w a r r r r ",
"q q w a a r U U P U U U U r R r w 5 , , , 1 - 9 g ) ) ! R U U U r r r r r U R R R r a w q q e e e e q q q q q q < , 3 9 i U U U r a w q q w a r e e e q q q e e e e e a U U U r w q < 2 9 n i ~ Q Q Q U U a 7 , , 2 q a P P a w e e q q w a U R R r w w r R f f ",
"q w a a w a r R R R U U U U R a q , : > 4 3 - 9 g ) Q R R r U r a a r f r f R R U U r a w w r r e e e e e e e q < 2 3 0 i U U a w w q q q w w w e e q q q q q q q q q a U R U r w q < 2 9 c n i ~ ) Q U R a 7 , 4 0 i U Q Q P r r r e e s U U R R r w w r R R f ",
"q w r r a w a r r R R U U U r w , : ; 1 9 k - 9 ~ ' ) R R r r a w w r r r r r r U U R r a a r r r e e e e e e q < 2 9 c t i s U w w q q q q q q e e q w q q q q q q q w a U U r a q < 2 n c c M ~ ) Q U r w < 2 9 n s ) ' ) R U U r e e s s r r r r a a r f f f ",
"q w r r r a w a r R U R R U a q , ; O 1 l z - 0 ) } ' Q R r a w q w r r a w w a r R R U r r r r r r r r r r s a < 2 9 k 9 0 s Q U w w q q q q q e e r a w q q q q q q q w a r r r w < 2 M V N M ~ ) R r a q < 2 9 M ..{ { ' Q U U s e e e e e e e r s U s r r f ",
"w a r U R r a a r f r U R U w q > + ; 1 l k - 0 X.&.[ ) R r w q w a r r w q q w a r U R R f f f r r R r r r a w < 2 9 k - 9 ~ ' Q s a w q q q q e e r r a w w w w w q q q w a r r w < 2 M V B M ~ ) R a q < < 2 9 M ..$.$.' Q U U s e e e e e e e r s U U r U U ",
"r r U U U U r r r R f r R r w q > % 9 k 9 - * 4 X.&.[ ) R r w w a r r r w q q q w a r R R f r r r R U U a w w q < 2 9 k - 0 ^ { ) Q P a w q q q e e r r r r r r r a w q q w w w w q < 2 n B c M ~ ) U a q < < 2 9 M ..$.$.' Q U a w q q q q e e a s s r r U U U ",
"r r s U U U R f R R r r f r w q > 1 c c - - 1 t [ &.' ! R r a a r r r r a q q q q w a r r r r r U R Q U a w w q < 2 9 h - 0 ^ { ' ) R r w q q q e e r U R R R R R r w q q q q q q q < 2 0 c z M ~ ) U w < , , 2 9 M ..{ { ' Q s w q q q q q e e s s r r r U U U ",
"w w w a r R R r f r r r r r w q , 2 n k = 1 s O.@.{ ) Q U U r r r r r r e e e e e e w w w a r U U Q ) Q P r r w < , 3 - - 9 R ' ' ) R r e e e e e e s R R U R R U r w q q q q q q q < 2 9 c z M ~ ) Q a < , , 2 9 M ^ [ ' ) Q r w q q q q q e e r U P r r P R R ",
"q q q w a r r r r r r r f r q < < 2 n k * 4 X.&.%.' Q U U U U U s U U r r e e e e e q q q w r U U Q ! ! R f R a 7 , 1 - - 9 ~ ' ) ! R r r e e e e e s U s U U U U r a w q q w w w q < 2 9 z k M ^ ' ) P 7 , , 2 9 n i R ) ) P a w q q q q q e r r R R r r r r f ",
"q q q q w w w a r f r r R a 7 < < 2 9 k - 0 X.&.{ ) Q U U U U U U U U U r r s i e e q q q w r f U R R R R R R a 7 , ; % - 9 ^ ' ) R R r r r s r e e e e e r r R r r r a w w a r r w < 2 0 c - 0 ^ { ' P 7 , , 2 9 k 9 t R Q a w q q q q e e r U U f r r f r f f ",
"w w w w q q w a r R P r r w < , , 2 3 k 0 i @.&.' Q U U U U U Q Q Q Q Q R U U s e e q q q a r r r r r r r r r w < , ; ; 9 t ` ' Q U U r r U R s e e e e e e r r r r f r a a r U r w < 2 n c - 0 ^ { ' P 7 , , 2 9 k - 9 g / a w q q q q e r U R R r s s r P R R ",
"r r r a w w a r U R R r a q < , : ; - 0 | @.&.@._ R U U R R U Q ) ) ) ) Q U U r e e e e e e r r a w w w w w w q < , ; 1 s ` ' ) R U f f r r U r a q q q e e e r r r f r U U U U a q < 2 n c - 0 ^ { ! r 7 , , 2 9 k - 9 g ) U w w q q w a U U U R s s s r P U U ",
"r r f r w w a r U R U r w q , , 1 1 & 0 X.&.&.@./ U r r r r U Q ! ) ) ) Q Q R r r e e e e r r r a w w w w w q q < , : 6 ! { _ Q P r r r r r f r w q q q e e e e r r r r U R R U w q < 2 n c j 0 ^ ' R w , , 2 8 l k - 9 ~ ) R a w q w a U U U U r r s s r P U U ",
"f f r r w q w a r U U a w q > 1 n c k M ..%.{ ' Q r a w w a U Q R R Q Q ) ! R r r r r r r r f r r r r r a i w q < , , 7 R ' / U a w w a r f R r w q q q q q e e e e a a r R R r w q < 2 M V c M g Q a q , 1 0 M c k - 0 ^ ' Q a w w a r U U U r a a r s r r P U ",
"s U U r w q q w a r a a w , > 1 V V c M ^ { _ Q P a w q q w U U r r s U ! Q P r r R f r r r r r r r r r a a q < < , , q Q ' ) U w q q w a r a w q q q q 5 q q e e q q q a r r a w q < q A F V M s U w , > 1 M V c k - 0 ^ ' ! r a a r R U U r a w w r R U U r r ",
"U U U r w q q w w w w q < , ; 1 A H N M ^ _ ! P a w q q q w a a a w w a P P a a r R R r a w w w w w w w w q < < < , 4 t ^ { ' Q w q q w w q 7 < < , , > > , q q 7 < < < q w w w q q < q A H V M i a q , ; 1 M V c k - 9 ~ ' Q U r r r P U r a w q w r U U s s f ",
"w a a w q q q q q q q < , , 4 n D F N n s Q P a w q q q q q w w q 5 5 q w w q q w a a w q q q q q q q q q < , , 2 4 l M ..{ ' Q w q q q q < < , , , 1 1 % 1 5 < < , , , < q q q q q , 8 A H V M C i < , ; 1 M V c k - 9 s Q U s r r r r r a w w q w a a a a a a ",
"< < 7 < < < < < < < < , : 1 D J V V c 0 w y w w w q < < < , , > > > > , , < < < < 7 7 < < < < < < , , > > : , , 0 n c C ^ ' ! r q < < < < < , , , 2 9 l 9 4 2 < < , : : , < q q q q > 1 V F V V A C q , ; 1 c V c k - 3 w y w w w w w w w a a a w q 7 7 < < < 7 ",
", , , , , , , , , , , , 8 M L L V c z l 8 q q q q < , , , , 1 1 1 1 1 1 2 2 2 2 , , , , , , , , , , ; O % 1 2 4 l c c M i s r w < , q q 2 2 2 2 2 4 c c c 9 4 2 , > 1 1 2 5 q q q , > 1 c V V V V V 8 2 1 1 c c c k - 3 4 q q q q q q q q q w w q < < , , , , , ",
", , , , , , : : , , , q J $.L L V c c l l 0 q q < , : : , 2 M M c l l c n n 9 9 3 1 , , , , , < < , > 1 9 l 9 9 3 h k c 9 0 q < < q C A n 9 9 9 9 9 k c z k 9 4 3 3 9 c n 0 w q < , > 1 c V V V V V c n l c c c c k - - & 4 q q < < < < < < < < < < < , , , , , ",
", 2 2 2 2 2 1 1 8 t w Z >.,.:.H V c c k z c t q 2 > 1 1 2 8 M V V c c c c k k - - - 1 , , , , , 2 2 1 1 k c k h - - - - - % > , 2 t D G c k j l M C C M M n n 9 - - k c c l 8 q 8 2 1 3 c V V V V V V V V c c c k 9 - - - - 4 2 2 , , , 2 2 2 2 , , 2 2 2 2 2 2 ",
"& 3 9 n n l l M J K K #.,.,.L H H V c k k c n n 3 3 3 9 9 l c c c k h - - - = * - - - & & & & 3 3 9 9 3 - - - - - - * * * $ $ & n V V V k - - 0 ..+...^ s i i t 3 - - - - - 3 3 n M c c V V V V V V V V V c c k - - - - * * % & & 1 1 3 9 9 9 4 3 3 3 9 l n n n ",
"9 0 M C C C C D L ;.:.:.>.:.L H V V c k k k c k - - k k k k 9 - - 9 0 0 0 9 1 1 9 9 9 9 9 9 9 0 n M M n 0 9 9 9 9 3 & % & % $ - N V V k - & 9 i @.&.%.' ) Q Q s 0 9 9 9 9 9 9 0 A D A M V V B c c c V V V c k - - - - * * $ $ $ * = - - - k k k 0 0 M M M M C C ",
"g ~ ~ ~ ~ ~ ^ S J H L L L H V V V V c k k k k - k k - - - - - * * 3 ~ _ Q g s s g g g g g g g ~ ~ ~ ~ ~ R g R s i i e e i 8 % = z V c k - 9 ~ @.&.&.{ ' ) ) ) ! R g g g g g g ~ ^ ^ g i n c c c c c c c c k - - - - * * $ $ $ $ $ $ $ * - - - 0 | X.....^ ~ ~ ^ ",
") ) ) ) ) ) R s C A H H H V V c c c c k k k - - - - - - - * $ $ & t [ &.[ ' ' ' ) ) Q Q Q ! ) ) ) ) ) ) ) ) ) ) Q R R R Q i 1 - l c k - - 0 O.=.&.@.' ) ) ) ) ) ) ' ' _ ) ) _ _ ) ) R i 0 9 9 9 l c k k k - - - - * $ $ @ $ 1 1 1 1 1 1 9 9 9 t X.&.} { ' ) ) ) ",
"U U U U R P w 7 5 8 A H F V V c c c c z k k - - - * * * * $ . % i ` { } ' ' ' ) Q P a a a a r Q Q Q Q Q R R Q Q Q U U R R r q 8 n c h - $ 0 +.=.@._ Q Q Q Q Q Q ) ' ' ) Q Q ) ) Q Q R r w q 2 4 c c c k - - * * * $ . . . % s ) R s s s g g g ~ ' [ ' ' ' ) Q R ",
"w w w a a w < , 5 t A F V V V c c k k k k - - * $ $ # $ 1 1 % 8 ! $.{ ' ) ) ) Q R a w q q w a r s U U U U U U U U U U U r a w q n z - - 1 i @.=.[ Q Q U U U U R ) ) ) Q U U Q Q R s r a w < , 2 9 c c k - - * $ $ $ . . O q [ &.[ ) ) ) _ _ ) ) ) ) ) ) ) Q P r ",
"< < < < < < < q C D D V V V c k k k - - - - * $ . . . % s ) ^ ^ { { ) Q Q Q U R U a w q q q w w w a r U U U U U U U R r a q < 2 9 k - 9 ~ +.&.&._ Q R U U U U U Q Q R P a a r r e e a q < , : 1 9 c c k - - * $ $ $ . O i [ &.&.) R Q Q ) ) Q Q R R R R Q U a w ",
", , , , 2 2 q t A H G V V c k k k - - - - * $ . . X O t [ &.%.{ ' ` Q U U s r r s a w q q q q q q w r U U Q Q Q U r r r a q < 2 9 k - 0 O.=.&.@./ U U Q U U U U U U U r w q q e e q q q < , : 1 9 k k k - - * $ $ $ o 8 ) &.@.' R r U Q ! ! Q U r r a a a a q q ",
", , < 5 t C C V V V V V c c k k - - & - * $ . . . O U @.&.&.{ _ ! R U a w w e r r a w q q q q q q w r U U Q ) ! R r r s a w < 2 9 k - 0 O.&.} _ Q U U Q U U U U U U s r w q q q q q q q q < , 2 9 z k k - - * $ . O t R ! Q U a w w a U R R R r a q 7 < 7 < < < ",
"2 2 2 8 M V V V c c c c k k k - - - - % * $ . . . 1 [ -.=.} _ Q r a a y w q q e r r w q q q q q q w a r s U Q ! R U P s a w < 2 9 k - 0 X.&.[ ) Q U U R R U U U U U R r w q q q q q q q q q < 2 0 9 l k - - * $ . O t U r w q 5 q q w a a a a w q < , , , , 2 8 ",
"n n n n V V N c c c c k - - - - - - * * $ $ . .   % _ =.} ' Q U a w w w q q q q e e q q q q q q q q w w w a U Q R U P r w q < 2 9 k - 0 X.&.[ ) Q U U U U U U U U U R r w q q q q q q q q q q q 2 4 9 k - - * $ $ $ & 1 , , > > , < < < 7 7 7 , , > , < , 2 M M ",
"c c c c c k k k k k k 3 - - - - - - * $ $ $ . . O 8 ' &.' Q R s w q q q q q q q q e q q q q q q q q q q q w s R Q Q R r a q < 2 9 j - 0 X.&.[ ) Q U U r r U R R U U r r q q q q q q q q q q q q < 2 9 k - - * $ $ $ $ $ ; > ; ; > , 2 , , , , , > ; 2 2 2 8 M V ",
"c k k - - - - - - - - - - - - - - - * $ $ $ . O i ' @.{ ) R U r w q q q q q q q q q e e q q q q e e q q q w r R ) ) Q U r w < 2 9 j - 0 X.&.[ ) R U r r f R R R U s r e e e q q q q q q < < q q < 2 9 k - - * $ $ $ $ $ % % % & & 3 3 4 , < < , > 1 9 n 9 9 c c ",
"- - - = = - 9 9 - - - - - - - - - * * $ $ . . % ) &.} ) Q U r r a w w q q q q q q q e e q q q q e e q q q w r R ! ! Q U r w < 2 9 c 0 i O.&.' Q f r r r r r f P U s r e e e q q q q q q < < q < < 2 4 j - - $ $ 1 1 & % $ $ * - - - h 3 1 , , > ; & k z k k k k ",
"* * * $ $ & i i & $ $ $ * * * * * * $ $ . . . % ! @._ U a a r r r a w q q q q q q q e e e e e e e e e e q w r R R R R r a q < 2 l C ..+.@.{ ! f r e e e e r r r a a r r e e q q q q q q q q < < < , 3 - - * . % s ) s 8 % $ $ * - - - - - & & & & - - - - - - - ",
"1 1 1 1 1 t ) ) 8 1 1 1 1 1 & % $ $ $ $ . . . % Q { ) U w w a r r r w q q q w w w a e e e e e e e e e e q w r f s U r r w < < 2 c C +.&.$.' R a e e e e e e r r a a r r e e q q q q q q q q < , , > & - - % $ 8 [ &._ r 8 1 & 1 9 9 9 9 9 9 9 0 9 9 0 0 9 9 9 9 ",
"s s s R ) X.{ ' ^ R s s s i e 8 % $ $ $ $ . . % ) @.) a w q w a r r w q q w a r r r r r r r r r e e q q q w r R U U U a 7 < < 2 n A X.$.{ ) a q q q q q e e r r r r r r e e e e e e e e q q < , : ; & - * & t Q @.&.' ! R s s s g R g g g ~ ^ ^ ~ ~ ^ ^ ~ g g g ",
") ) ) ' @.@.{ ' { ' ' ' ' ) Q e 1 % $ * * $ . 1 ) &._ U a w w a r r a w q w r f f r r r r R R r r e w w q w r R R U U a 7 , , 2 n A ..{ ' Q w q q q q q e e r r r f r r r e e e e e e e q q < , ; + - - * 1 R } &.@.' ) ) ) ) ) ' ' ' ' ' ' { { ' ' { { ' _ ) ) ",
"U U Q Q ) ) ) ^ ) ) ) ' ' ) Q a 2 > & = * $ $ 1 ^ } ' Q r a r r r r r a w w r f f r a a r R r r r r r a w w r R U U U a 7 , , 2 n A ^ _ / U w q q q q q q q e r r R f r r r r r r r e q q q < , ; % 3 - - 0 _ &.} ' Q R Q Q Q Q ) ' ) ) _ ' ' ' ' ' ' ' ' ) Q R ",
"a s U U U U U s a U Q ) ) ! Q a q 2 3 - * $ $ 1 R { ' ) Q R R r r r r r a a r r f r a a r r r r r r f r a a r R U U r w < , , 8 c A ^ ) Q U w q q q q q q q e e r r r r f R R R R r a w w q < , : 1 9 k - 0 X.&.' Q r r U U U U Q ) ) ) ) ! Q Q Q Q Q Q ) ! R r ",
"s s s U U r a w w a P R R R R r w 8 3 - - * $ 1 g ' ' ) ) ) R r a a r r r r r r r r r r r r a q e r r r r r U U U r a q < , 0 c V D ..' Q U w q q q q q q q e e r r r r r R R R U r r r a w < , , 2 9 h = 9 ^ @.) U a a r r a a U Q ) ) Q P a w w w y a r R r r ",
"U U U U r r a w q w r r r r r r w q 1 - & - * 1 s ' ' ) ) ) R r w a r r r r r r f r r r r r w q e e r R R R Q Q R r w q < 2 0 B V D ..{ / U w q q q q q q q e e r U P r f R R R U U R U U a < , , 2 9 - * 1 R ' Q a w w r r a w U Q ) ! R r a w w w w a r r P U ",
"R R U U U r r a w w r r r r r r w q 2 2 3 - - 9 g ' ' ) Q R R r r r r r r f f f r r a a r r w q e e s Q ! ) ) ! R r w q < 2 9 c c A ..{ / U w q q q q q q q e e s U R f r U U U U U U U U y < , < 2 9 - * 1 g ) f e e e r r r r U Q Q Q U r r r r r r r r R R R ",
"U R U U U r P r a a r f r r r a w q < 2 9 k - 0 Q [ ' ) R r r f R R U U U U R R r r w w a a w q e e s Q ) ) ) ! R r w q , 2 9 z k M ..{ / U w q q q q q q q e e s U R f r U U U U s r a a w < , , 2 9 j * 1 s Q r e e e r R R U U U R R r r r r f R R R f R R R ",
"U U U P f R U U r r r f r r a w w q < 2 9 z k M X.@.[ ) R r r r R R U U U U R f r r w q w w q q e e s Q Q Q Q Q R r w q > 1 9 z k M ..{ / U w q q q q q q q e e r U R f f R U s r e w w w q < , , 2 n k * & i U a q e e s U P s U U U R f r r r f R U U R f U R ",
"R U P r f U U U r r r r r a w q q q < 2 9 k k M X.&.[ ) R U r r r r s U U R R f r r w q q q q q e e s U U U U U U r w < > 1 3 k k M ^ ' ) U w q q q q q q q q e r r r r r f R r e e q q q q < , , 2 n k = & i U w q e r U U R r a a r r r r r r r r U U U f f r ",
"R R R R r r R r a w w w w w w q q q < 2 9 k - 0 ..} ' ) Q U U r a a e r r U r r f r w q q q e e e e r U U U U U U a 7 , , 2 3 - k M ^ ' ) Q w q q q q q q q q w r r a a r f f r e e q q q q < , , 2 9 k - 3 i U w w a s U U R r w w w a r R R r a a r R r r f r ",
"r r r R r f f r w q q q w w w w w q , 2 9 k - 0 ^ ' _ Q Q U U r w q e e r r r r f r w q q q e e e e r r U U Q Q R a 7 , < , 1 - j M ^ ' ' Q a q q q q q q q w a r r w w r f f r e e q q q q < , < 2 9 k - 9 i U a a r U U U r a w w w a r R R r a a r r f r r r ",
"e r r P r f f r w q q w a r r a w 5 > 1 9 k k n s / Q Q U U r r w q e e r r P R R r w q q w r r w w r U U Q ) ) Q a 7 , , , & - j M ^ { ' Q a q q q q q q w a r U U a a s f R r e e q q q q < , < 2 9 k - 9 s ! P r r P U r a w a r r r r f f r r r r r r r r e ",
"e e r r R R R r a w w a r U R r a q > % 9 c c n t s R Q R r r a w q e e r U r r r a w q w a r r w w r U U Q ! ) Q a 7 , , , & - n S X.{ ' Q w q q q q q q w r s U U s s r r r r r e q q q q < , , 2 9 k - 9 ~ _ Q P r r r r a a r f R f r r U R r r P r r r e e ",
"e e e r ! ! R r r r r r s U U U r q > % 9 c c k 9 0 ~ ) R r a w q q e e s U a w w w q w a r r r w w s U U R R R R a 7 , , , & 9 | +.@.{ ) U w q q q q q q q e r U U r e w a e r s s e e q q < , : 1 9 k - 9 ^ ' Q U r r r r r r r r f f r U U U r r U U r e q q ",
"e e e e R ! R f r r f s U U U R R w , 1 n V c k - 9 s Q r a w q q q e e s U a w w w w a r R R r a a U U U U r r r w 7 < < , & 0 O.&.%.' Q s w q q q q q q q e e r a e e q q q e s s e e q q < , > 1 9 k - 0 ) { ) U U r r r r r r r r r r U U R R R R s e e q q ",
"e e e e e r r f r r r r U U U R R w < 2 M V V c k 9 w a w w q q q q e e s U r r r r r r U U U U r r r U R r a w w w q 7 < , & 0 X.&.{ ) R r w q q q q q q q e e w w q q q q q q e e e e q q < , > 1 9 k - 0 X.@.) U U r f r a w w w w a r U U Q ! ) Q s e e q q ",
"e e e e e e r f r r r r f R U R U w 7 8 M V V c c n q q q q q q q q e e s U R R f f r U U U U U R f r r f r w q q q q q < , & 0 X.&.[ ) R r w q q q q q q q e e q q q q q q q q e e e e q q < , > 1 9 k - 0 X.@.) U U f R r w q q q q w r U U Q ) ) Q s e e q q "
};
