/* XPM */
static const char *wall40_2[] = {
/* columns rows colors chars-per-pixel */
"128 128 35 1 ",
"  c black",
". c #070707",
"X c #170F07",
"o c #171F07",
"O c #1F170B",
"+ c #131313",
"@ c #1B1B1B",
"# c #2F1B0B",
"$ c #2B230F",
"% c #232B0F",
"& c #372313",
"* c #3F2F17",
"= c #3F2B1B",
"- c #2F371F",
"; c #272727",
": c #2F2F2F",
"> c #373F27",
", c #373737",
"< c gray23",
"1 c #4B371B",
"2 c #533F1F",
"3 c #473323",
"4 c #4F3B27",
"5 c #4F3B2B",
"6 c #3F472B",
"7 c #5B472B",
"8 c #474F33",
"9 c #5F4B37",
"0 c #67533F",
"q c #434343",
"w c gray28",
"e c #4B4B4B",
"r c gray31",
"t c #775F4B",
"y c #836B57",
/* pixels */
"q573<4<24,<,<5<<4<24,<,<5<<<4<<<:,,:-=,,4,<,5<2254143-445<24<,4141<57531,352544<3,145q253,234141411144*==1=1*===31=1==1=1=11=1=*",
"797e777ew990900777ew99090079980000909079990009000099999997997e989w7e7w997w7e009099e790099799797797779779775555755777797977777799",
",33,,3=41742744,3=417427444<774774444443==337474774747443413433333443433446343446q3=3344344444443434=3333,=======3==**4434333414",
";=:*1&&&&:=;=111&&&&:=;=11111141111:1,11;&==&&===:11&&&&&&&&&@*&1==&====:=;@==;&;;&&==&&11&&&&=&====&=&&&=@@*&&&=&&&%@&&&&#&&#&#",
"==3,,====;,=;=;,====;,=;=;1==,=,=334,;=,===*33=-=;13=====&3,=;===-=;==&;=-=======&=&=&======&&&=====33==&&*=*======&=&**&&&&===&",
"4113=42=:1*=,&&=42=:1*=,&&&%====4433:=,3,3-:1=3333=:==,333<3<443,<3313=133=111==11=======1=:=-=;3==*11333113=*=111*=*=*&=*31=*==",
",**==1=31=======1=31================*=****=*=-=;=:=*33:,3,::11=1-=::&==:**&&;=::**;:&&**=:1*=3&&=%==*=::*=***=&&**;-&*****==-===",
"#@&&&&&&#&@==&&&&&&#&@==&&&&#&##&###OOOXOOOX+O@#@&#&&&#&@&&#&#&&#&&&&#&&&@&#&##Oo#OOOO#@&&==&&#&#&&&==&&&&#&#&##&###&###OOo####o",
"X+@@&.XOXXO.X.+ .  @@@.X+XXX X..XX.  +@@OX+@.+..OXO@OO+ +XXXXXX.X.+OO=$$OX$OOOX$OO$OOO$$&$+ .XX..X XXX+X.@@@  . +.X.OXXOX.$@@+. ",
"OX@@&.O+XXOXOXXX. X@@O.@OXXX X.XOOXX @O@;+.$X+XX$O&$$@@ OO+XXOOXX.@$@&$&&X$OO$O@$$$$$&&;;&#XXOOX.X XXXO@.O@@X .XXXOXOXX+O.&@@XX ",
"+O@3=XO@#X#O#XX X .;@@XO@XXX.X+ @XX  @@;:@@OXO.X&&=&&&@ XO@XXOOXXX@=&3=;&@&@##O$&@;;=3=33;@ XX@ +X.XXX@OX@@;. X XX#O#X#@OX=3@X+ ",
"O@;5;@;$O&&X&XO.O .:::O$=OOX.OX.@#$X @;:3@=;X@XO=&3==&; $@OXX$=.$+;==533&O3=&&$;=;=:35345,;X$#@.XO.XOO=$O:::. O.OX&X&&O$;@;5;@O ",
"$3,9=@3&&O&OOOO+O .q5,O5,&+O.+OO#OO. &=<5=:5O&.+3&75,3; O&@OOO&.@+:,,777&O5&&&O&&:55575775:.OO#OO+.O+&,5O,5q. O+OOOO&O&&3@=7,3O ",
"O::9:3<&&$3OO.O.O .<w:@<::$$ .O.$OO  :<9::&<$:O$3=5=3:; $&$O$O@+@+3<:995&;5===;$315555q99q: OO$.O. $$::<@:w<. O.O.OO3$&&<3:9::O ",
"$,:0;,w$4;=OO.O + .,,<@:,*$$OO++$OO. 1*0,,19$*+O=:4=:=: OO$O.OO+@;:<,w97;$7$==*=4,779970e7:.OO$++OO$$*,:@<,,. + O.OO=;4$w,;0:,$ ",
"@<:0::0$*4&$O O O  e;<;<,,:$O$@OOOO. 7*0<<=7=4O$7=4:*=: OO$O.$+O;+:7<077$;4&====4,7979900w:.OOOO@$O$:,,<;<;e  O O O$&4*$0::0:<@ ",
"@<<0,4<$;***O.$.O .<:<;7,$;@+$++$$@. w10<7*4==+$4=,4:,: $O;O$;$+@;=<<9<<;$7$==,4744977000<;.@$$++$+@;$,7;<:<. O.$.O***;$<4,0<<@ ",
";<<0<,9;:*$=@ ;+. @<,<;4::$;O;$+$$OO 9,9<7:7*:O@7=7,=:; &$;$$,$+;;*<,9<7$$4**==4747w77909<;OO$$+$;O;$::4;<,<@ .+; @=$*:;9,<0<<; ",
"@,<0<,0,,;*=$.$O  @<<<@:$:;$$$+.$O.  <,0<w$9,<OO7=4,::; O$=$O*:O,;:7,e77*$=&*=*:<,<0<7909<$ .O$.+$$$;:$:@<<<@  O$.$=*;,,0,<0<,@ ",
"$::0410;;$*,$O$.  +<;:+;O$;@O:@+;OO  9;94<$4;=@$7=94;;; O$7$+1=$;$:<:7=<$@&$***,7,4047797w; OO;+@:O@;$O;+:;<+  .$O$,*$;;0140::$ ",
"$::0744$:$14$.;.  .<;;.$O$$.+:;+:&   w;w:4$,$4O@7=77::: O=7OO4:+$;*7=7,,@$&&*==,7*,7,=709w*  &:+;:+.$$O$.;;<.  .;.$41$:$4470::$ ",
"$:<0w70*4;==$O=O  @w;;+.;;;++*;.;$O  9<047$4*7.;<=74::* O*4O$=*O4;&9:w=4$@&$***,4*77=4900<, O$;.;*++;;;.+;;w@  O=O$==;4*07w0<:$ ",
"O<$0417;9$*4*O&+O .,:..O;:<;O**+:O+  9;0<7$4=<@@7474:4: $*4.;44$,$*<*<,;$$:$:*==7447=7t097: +O:+**O;<:;O..:,. O+&O*4*$9;7140$<O ",
"+<:0,:<;=;*=$O$@O +<;;+;$:,$+;$+*$O  ,*9,<;7:4OO7=77,4; ;$=+$1=$*;=7:w,=$$:*:**47=:9499000* O$*+$;+$,:$;+;;<+ O@$O$=*;=;<:,0:<+ ",
"@<:0w40;,$$=&O;$O @<<;O=<1;;+*$+@;;. ,;ww:$4=<+O4*7<,7; ;:,$O=$;*:,9=<4,:;7;=:=44:49,09009*.;;@+$*+;;1<=O;<<@ O$;O&=$$,;04w0:<@ ",
"+<:0<,0,4;&1*O$O+ @w,:;,4<;@O;*@;O&  ;@<w<:<;,++::77:7* $=,$$=;$;@,7:9<7,@4*=*:=4749499097* &O;@*;O@;<4,;:,w@ +O$O*1&;4,0,<0:<+ ",
"O<*w7;9*,@:$=$;+$ .<<,$*;,,$O;O;,$;  +@<<:$7$7@$4*97=<* ,=*@O*=$*;,w,7<4$;7*4=,*44=747007<* ;$,;O;O$,,;*$,<<. $+;$=$:@,*9;7w*<O ",
"+,*0w$0;,O1*:$,+O .<<<*1*;,$O;;O;@*  :.9,<$7*7$$=,77,4: ,;*@O*1O*,47,77<,;4*,,=,7=:7=70997= *@;O;;O$,;*1*<<<. O+,$:*1O,;0$w0*,+ ",
"+7,<7;<;<+;*4$*@O .<<,,,$:$$@@@$:*=  +;<<:$=$7@$4,97=4: *;=$@*1O*;,7=479*;4:,444=4=7*79979: =*:$@@@$$:$,,,<<. O@*$4*;+<;<;7<,7+ ",
"@,:w4@<;<$4*4$;$$  w<,O,;;;@+:@@::*O :$w<:*4O7$;w777,=* ;*7$$44$,;,7*7w4,;4*:,:47<47=77079*O*::@@:+@;;;,O,<w  $$;$4*4$<;<@4w:,@ ",
"O<:9<O:@<$4*,@;$O .<w<@4;;,O@;;@,**  :;77;$7$7$$4477=:; $:4O;71****7,<77,;4*4=4<4,=<4497ew: **,@;;@O,;;4@<w<. O$;@,*4$<@:O<9:<O ",
".<,,<@;:,O4*;$,O$ .<<4@*;;;+@@@@<**. <,74;$<$7O;4:<w44; $*7@$<$$,;*4:4<7:;4*4*=474*74470w7*.**<@@@@+;;;*@4<<. $O,$;*4O,:;@<,,<. ",
"+:<9<;:;,.<*4$:$O .<<7@$;<:+@;@+<*1+ <<07,$w$7+;<:77,4;.;;*O;,*$,:49*479=;4*,*,<4,*97479w7*+1*<+@;@+:<;$@7<<. O$:$4*<.,;:;<9<:+ ",
".,=77*,:<+=$7*;@O .<,7;$::;O@$$O4;=O 0<<7*$4$9O$4,7747* ;*4;$;*$,$47*,77:$7*::=47:=74779w7,O=;4O$$@O;::$;7,<. O@;*7$=+<:,*77=,. ",
"+:*7<;,:<$7$7*,;$ +<<,;;:;@$@$;@41*O e<77*;7$7$$<:9747:.;:,$*=4$<;,4;=77:;4==**44=49,777w94O*14@;$@$@;:;;,<<+ $;,*7$7$<:,;<7*:+ ",
"+<*7<;;@,+:;4$*@O .<<;O@4:;@@;@@7,1O 9779:;4$7O@,:7777* $$*$$=$$,$:7**74*$7==:*4==,7449994*O1,7@@;@@;:4@O;<<. O@*$4;:+,@;;<7*<+ ",
"+<*97$:@,O:$7$*;+  <<,@+;;@O$;@@=:*. ew9014w$0O@,*4<,=; $$;O$=*$1$=7,=74*;4:1**44,47<797w<=.*:=@@;$O@;;+@,<<  +;*$7$:O,@:$79*<+ ",
"+<;97;*;9+4@=$;@@  <,;@@;@$.;@@O,4=O 0790;*4$9;;,:<44:; *;=$$*1$:;:4=*7,*$4**$*1444<,77w991O=4,O@@;.$@;@@;,<  @@;$=@4+9;*;79;<+ ",
"O7;<0,:=0$4$,$*;+  <,:$$;$@$O;;+4**$ 099t=<4$7$$4:w,=4;.$==$$41$,;*4=:7,*$4*:=*44=47,77009*$**4+;;O$@$;$$:,<  +;*$,$4$0=:,0<;7O ",
"@7$4w;**9$4$4*=$.  :<@@$;@ $+@:+<:*O 0990*77*0$;4*74:=; $,4*&7*$4;:4<:7**$=*;,*=744,77700w=O*:<+:@+$ @;$@@<:  .$=*4$4$9**;w4$7@ ",
"@7::;@@@**9;4**@+ .<,;.@*$.@@$;O7=$+ e090;4719$;4:77:<; @*$=$4***:44=4<*$$:**=*44==<w9w904:+$=7O;$@@.$*@.;,<. +@**4;9**@@@;::7@ ",
"$=$*1.;$$+=O4$:OO .:<;.+;@+O@;O+4*@. <700*44$0$;4=74;4; $$O$O,*$*$,=:&7=$$**;:&=4==474<<07*.@*4+O;@O+@;+.;<:. OO:$4O=+$$;.1*$=$ ",
"@<:,4O.$;@:$4$*+. .,w:;@:@$@@;@+7=$+ 0040494$0$;7=77;*;..$@+O7*$4;,,**9,*O***=&=4==774700w4+$=7+@;@@$@:@;:w,. .+*$4$:@;$.O4,:<@ ",
"O:,,+..@;$*$4$7@.  :<:@:;;$;O:$@74$. 7970*77$0$$7=97,=* .$$+@*=$4$*,*47=*@,=***=1444477009=.$47@$:O;$;;:@:<:  .@7$4$*$;@..+,,:O ",
"$;<*$.@.@$,$7*4+@ .:<< ::*;;O;@@,4;$ w740*47$9$;7=74=4* $.$$$==O4;=**444*$44*,*4=447777797;$;4,@@;O;;*:: <<:. @+4*7$,$@.@.$*<;$ ",
"$;47,@@;$*4$7*4$+ O:<,+::**$O;;@<4*$ 0770*40*7$$744==7; ;$$$*==O7;==447<=$74*4==,4=7479707=$*4<@;;O$**::+,<:O +$4*7$4*$;@@,74;$ ",
"$;<4<$;;$O4*7*=@O +,<,O,,;;*O;;@<:$O 0990110$7$$7474:4* $$*=*1*$=;=4*44=,$4=*4:==*44477707*O$:<@;;O*;;,,O,<,+ O@=*7*4O$;;$<4<;$ ",
"O*=44@,44*4*7*4O@  <<:$,,;*4;@;+<*$O 9490179$0*;74744=* $;,&&=4&4;,=*47,*$4***$,==44794797*O$*<+;@;4*;,,$:<<  @O4*7*4*44,@44=*O ",
"$*,7,47,744*4*=O+ .<<4+4,=*4$;*O:*$. 4790=90*0*;447===$ *;4$**9;7:=4*774*O4=&=:=7=74774707*.$*:O*;$4*=,4+4<<. +O=*4*447,74,7,*$ ",
"O=4<;=94747*4&*@@  <<:@=w=;,:;$O:;;+ ;909770;0=:447444$ *=4&=19&4;,=*774&$7===**7=44774794*+;;:O$;:,;=w=@:<<  @@*&4*74749=;<4=O ",
".*;<;=0*7*7*4$4@@ .,<,O44:;,;:;@7**  49040=0*0*:447444; 474*:47*7:***44=$$9==*==7474444707= **7@;:;,;:44O,<,. @@4$4*7*7*0=;<;*. ",
"O7;7*4w$7=7*4**O+  <<4@*::;$;;;@7*1O 4404747*0*$4=44*4; 1,=$*44**$*=*474$$7=,:=47=44474794$O1*7@;;;$;::*@4<<  +O**4*7=7$w4*7;7O ",
"$7;7140$===4*$*O+ .,:;$,:;;:;;;@:*:. 0=0494749$:4*4=*=$ =*=$$4:$,;*=*4=,$O7=1*=4===74<7774&.:*:@;;;:;;:,$;:,. +O*$*4===$0417;7$ ",
"O4;7440$1447*$*@O .,;:O:,:;;@:$+*$;O 0:9=74747*:4*44==$ *$1$$74**,;<*7==$O4****47==<,44747$O;$*+$:@;;:,:O:;,. O@*$*7441$0447;4O ",
"@4*7179*==*7*O:.+ .:::O,;:;;;;;+;+$+ 94047*744@;4*74=4$ *$4$$77*,$$7&7=4$$4**==*4*47=44744$+$+;+;;;;;:;,O:::. +.:O*7*==*9717*4@ ",
"$::944w*,*,7*O*++ +<:,O;@::@$:$O;@O. 0:049*7;$@$4*74*4; ;;1$$77$<:&4=7=4$O4&$=*=71=7*4=944&.O@;O$:$@::@;O,:<+ ++*O*7,*,*w449::$ ",
"@*19447;***4*$*++ +<,,@,;**;;:$+$$$+ 0*049$4.:O;4=74=4$ *;*$$4=&7$*7=4=4$$4=&*4*7==7447747&+$$$+$:;;**;,@,,<+ ++*$*4***;74491*@ ",
"@:17470;4;17*O*.O .<::O<;4:+@;$+&$$. 94010*7;4+$==74=4$ 1$=OO44$=:*7*7=4$$4&&:**4==74=7774&.$$&+$;@+:4;<O::<. O.*O*71;4;07471:@ ",
"$=$997014&=4$O=++ .<7*$;,<,+@;;O*O&O 01049104=O$4&44&=$ ***$$=1$7,&7*444$O4*****4==<**7794&O&O*O;;@+,<,;$*7<. ++=O$4=&410799$=$ ",
"O<*07774,$*4*O=++ .9<,@:;,,@+;@+*@$. 0<070*444@$4*44==$ &=*O*4=*7**9=7=4$$4$=*$=4*47*70974&.$@*+@;+@,,;:@,<9. ++=O*4*$,47770*<O ",
"+<$7419*,$=4*O*@. .w<4@,;;4;+@@+;@O  0=04714=4$$4=74=4$ &=;O*44*=$*7&744$$=$***====4=77777$ O@;+@@+;4;;,@4<w. .@*O*4=$,*9147$<+ ",
"O4*7749&*$44*$*O. O<7:+:,*;;$;@+$$$  9,w44*444$;4=7=&=$ =1:$$41**$&7*44,$$4$4**44=*4=77777$ $$$+@;$;;*,:+:7<O .O*$*44$*&9477*4O ",
"O7*04=04=$144$$++ +<<4O;*::;+;;*$O;+ 0;e07*4*4$@,=74&4$ 14=;$44$*$&7*447$$4&:*=*44*4=77774*+;O$*;;+;::*;O4<<+ ++$$441$=40=40*7O ",
".<*09*9*4&414*=.+ .<,:;;;:*;O$@;&O:  9;079=7*4$$4=94&4$ 1==$&4=$*@*4=44=&O4$=====4*4*79074$ :O&;@$O;*:;;;:,<. +.=*414&4*9*90*<. ",
"O4*00$0*4$4=4*:.O .,<7$,$*7*@*@;$O;. 0*097$7$9&$<=7=*=$ 4*=$$=4$=;144744$$4$===*,:*7=77777=.;O$;@*@*7*$,$7<,. O.:*4=4$4*0$00*4O ",
"O7197:7*9O4=4$=O+ .<,7$*;*1$@*@O*$;. 07074*4*9$;<,74*=$ *$4$$44O=:*4==77*O=*==4=:;*4=47477*.;$*O@*@$1*;*$7,<. +O=$4=4O9*7:7917O ",
"O=*44$717*4$=$*$+ .<4=O,;**$$*$O;@$. 9*971*4$4$$<,77&=$ $*4O$44*1;*=&444&$=$:=*,:;*4=44777&.$@;O$*$$**;,O=4<. +$*$=$4*717$44*=O ",
"+<477$9=4$4**$;+O .<w4O<**4$$$$+:$$. 0*9,,*7$7$$<477=*$ $44O=4==1;$7*774*O,$,=::*;:==77777*.$$:+$$$$4**<O4w<. O+;$**4$4=9$774<+ ",
"+7400:074$4*=@;+. O<<4$<:<4;;$OO*$*  047<4*0*9O$4,47*=$ ==4$$4*$*;$744=7*$**4*:::::,:47977: *$*OO$;;4<:<$4<<O .+;@=*4$470:0047+ ",
" *4904<<0$4=4O$OO  4<7;;:,4$;*OO=$;  04747*9*0@$<1744*$ ==4$=44;4;&<4447*O*$***,=**7447777& ;$=OO*;$4,:;;7<4  OO$O4=4$0<<4094*  ",
"O**904940$7*;OO++ .*74*;$,4:;*O+:&@. 947<717*0$$<474=*$ *4=$=4$$:O*4=447*$:&1=,,,;=4=4777=*.@&:+O*;:4,$;*47*. ++OO;*7$049409**O ",
"+4*791970$7$.+$O. .<<<*$,***;:@O**$. 04,4=*7$9$;7,444=$.*4=$$=.@:;*=*477*O=*=*=4,;*<:4=777*.$**O@:;***,$*<<<. .O$+.$7$079197*4+ ",
".==97*,47$0*$+;++ .,4:$O:4,$*;@+=*$O 94,<**4*0O;w=44*=$ $4=$*9;+:$*:==4,&@,$,:4,,:*4=44794&O$*=+@;*$,4:O$:4,. ++;+$*0$74,*79==. ",
"+7*70:940*0$4$*OO  ,<*$@:*,;,:@@4=$. 914<117$0$;74744=$ 441$*41$4;:,==74*O:*4*:<,:*744447=$.$=4@@:,;,*:@$*<,  OO*$4$0*049:07*7+ ",
"+=$00:7<7O0*4==$O  :,4$;,@*$@<@+::*  07,<1*4$7;;w,74=*&.44=O*44*4;=4=*7,=$4*4=:<<*=7==4477* *::+@<@$*@,;$4,:  O$==4*0O7<7:00$=+ ",
"$4;40:749$7*4*=@O  :::$*:;;$+;;+=**O 07:<*=4$7$$7,974*$ 4*=$*74*7;,,**,=*@:$4,*,,:4417=797*O**=+;;+$;;:*$:::  O@=*4*7$947:04;4$ ",
"O4*90*7491914*4$+  ,:*;;:*@:@$,O7*;O 07<w*44*0$;w47744$ :74*104=7;***=<=*$=*=,:,<,4,=4=704$O;*7O,$@:@*:;;*:,  +$4*4191947*09*4O ",
"$7:40:4494044*4@O .:<,$;<**:;@;+<*@+ 77,9*47=0*$747774$.49=*=9147$,4,,<**$4*44*44,4,<44707*+@*<+;@;:**<;$,<:. O@4*4404944:04:7$ ",
"$4:40:079$9$4*4O.  <<,*;:;;;;@@+:;O. 9979*<7*0*;<477=4; =4=$*4=*4:4=,=9,*$:*,=*===*4744707*.O;:+@@;;;;:;*,<<  .O4*4$9$970:04:4$ ",
"$7:491797*4*4*4O. .,<,:*<,$;@;++=*$  7<:0*77*0$$w474==$.=7*$$4=*7;44,,<4=$1*=,:=,*:7,,47074 $*=++;@;$,<*:,<,. .O4*4*4*797194:7$ ",
"O44<0=494=4*7*7@.  ,<:$,4**;.,@$=:+. 0:;<*47$7$$74774=$.44=$*4*$7$=,*,w,=@4414:7==47=74799=.+:=$@,.;**4,$:<,  .@7*7*4=494=0<44O ",
"$:0704471*4*9*7O@ .:,,O<,*,*+;;@,=*. ,;*,*49$7O$w49744$ 441*44*O7;:,:<,4,@44*4=====4477707$.*=,@;;+*,*,<O,,:. @O7*9*4*1744070:$ ",
"$*<<04491=9*7==$O .::4O,4;4;O;@@***$ ;;;1$47$7$$7,9444* 744**44$7;=,*4,4=O4,=4*44=4,=77707*$***@@;O;4;4,O4::. O$==7*9=19440<<*$ ",
"$;799*444*4$4*4$$ +,,:O1,$**+;@O,;O+ +;.;;*7$7$;7,7<47$ 444=$=4$=;:**,,,*O7=*4*4414,=77407;+O;,O@;+**$,1O:,,+ $$4*4$4*444*997;$ ",
"$;799$974*4*4*=@$ +<7<O7<:1<;;@.7*+. +.;,$***7$;<4744=; 447$$=7$4;:<*474=@,=*4*=7:44474<07$.+*7.@;;<1:<7O<7<+ $@=*4*4*479$997;$ ",
"$4497;94444$4**O@ .ww4@4<**=@;;+4;@+ ;+;:$47$9;;4,744=$ 444$*17$4$:4*7w41@4**4*44:44,<<774*+@;4+;;@=**<4@4ww. @O**4$44449;7944$ ",
"$4794*777=4*=*4@$ .<<,$<7,@:@:;@4;$. .$;@:44$7@;7,744:$ =44$*47$4;:4:w74;O7==4$44*4,,<,474$.$;4@;:@:@,7<$,<<. $@4*=*4=777*4974$ ",
"+74t170=7;9*4*1$$ O<7,$<44$:;;;@<$@  $:;;017$9$:44744=$ =07*=47*,:*,:<47$+7*4=*47:,,444*74; @$<@;;;:$44<$,7<O $$1*4*9;7=071t47+ ",
"@7:0<79*914*4*7OO .w<4$,,=<*$;;@,:;. :;w<044*7$$<474**$ =44$$=4$=:;:=777$O7*=4:47*74=7<:74$.;:,@;;$*<=,,$4<w. OO7*4*419*97<0:7@ ",
"@7*0440*7444:$*$@ .<,<$7=44=;:;@*:;. 7;047=7,7O:7=74==$ 4=4$$=4*,;;<17,4@O7*4=447=4<444474;.;:*@;:;=44=7$<,<. @$*$:4447*0440*7@ ",
"$7*0*40:4=$7=;,$$ .w**$w74::;:;@;:<. <:<,7*4:,@;7494==; 444$$44*,:;,$<=<$O7==4444:44=4:<77*.<:;@;:;::47w$**w. $$,;=7$=4:04*0*7$ ",
"$7*0440*,:;7*$:@O O<,,+714:;$*;@$;=O ,$:;<$4**O@749744$ 4=7**4=$*$$<;<,<$O7=44444:=<,44477$O=;$@;*$;:417+,,<O O@:$*7;:,*0440*7$ ",
"@<*9:,0:4=*71O4$@ @<<,@=$,,;@$@@;@;O <@;*4$4=7O;749744; 749=$44$<;$,$<,4*O7,=7*=4:1<==4<47*O;@;@@$@;,,$=@,<<@ @$4O17*=4:0,:9*<@ ",
"$7174=0:4$*=*$*@O +<,4O4;:,@$,;;:;;+ 7@<;,$444$;7,97=7$ 440*$14O<;;4;<*7$@44=4=47:=7:1=4<7*+;;:;;,$@,:;4O4,<+ O@*$*=*$4:0=4717$ ",
"$,49449*4$14*$:OO .<:<O,:,;O$,@+;;$O w;<*<;441@;7<94=4* ;*9@$=4$,;:,*<,7$@4**744<;=w,:,7<9*O$;;+@,$O;,:,O<:<. OO:$*41$4*94494,$ ",
"$447:=0*4O1=$+:OO +<<:+*:,<+O,;+*@*O 7:<*4$<,4O*7=07*4$.*47O$<:+,:;4;<47$@7==41=4:,<**4<94*O*@*+;,O+<,:*+:<<+ OO:+$=1O4*0=:744$ ",
"@9$9=*<;,@*7=$,@O .<<,$$;44;@;;+,+@  w;9,,$=*7O;777714; $:4@;4:$1;$4*<=7*$4$44447*=4$=<774* @+,+;;@;44;$$,<<. O@,$=7*@,;<*=9$9@ ",
"O0:0,$,;7$;4*$;$O .w9,O,$:<:O:;O:$@. <;w<<$=14$*940744$ *=4@*4**:;*<:w97*$4*4444<,=<:4<779*.@$:O;:O:<:$,O,9w. O$;$*4;$7;,$,0:0O ",
"@9*7;$:$*$*=*$*$+ .w<,@,,*4:@:;+;;;  7,<44*=44O$74774=$ $,*$$1;;:@:7=7<4$@4*74447=,<=<4w97$ ;;;+;:@:4*,,@,<w. +$*$*=*$*$:$;7*9@ ",
"$0:7$.*$,@$**$$+. +<w,$**4*;+@@;;@*. 0*97<;4*7O@7,74=4* @::$O:$$;@*w,747&$4*44=:44=<*w9777$.*@;;@@+;*4**$,w<+ .+$$**$@,$*.$7:0$ ",
"$7$:+@+;1$;**$;++ .<w7$:;<4;$;O@;@*. 9*w77;7*7O$<:<7*4$ .**$O:=@;@:7:<<4$O4&4=4*74:7,<7977*.*@;@O;$;4<;:$7w<. ++;$**;$1;+@+:$7$ ",
"O<$*;.:*4O*@*$$++ .<e7;**,7:O&$@;@*  0,0<4;7&7$$4177*=$ @;*OO$,$$::<:<44$+=*4=*==4:4:4w747* *@;@$&O:7,**;7e<. ++$$*@*O4*:.;*$<O ",
"$e,<:$**7O*;:O*.O +<<0:,;*=$@;@@;$*. 0<0we;7$7@$4*44==$ $$;OO**+,$:<:470;@=&4===44:w,479794.*$;@@;@$=*;,:0<<+ O.*O:;*O7**$:<,e$ ",
"$7:<;+:;7$*$;$@O@ .<<<;,$,=;O;$O;O*O 0:07=;9$7O@<144**; O$4OO;;@:;=7;794;O,*====44=7=,4979*O*O;O$;O;=,$,;<<<. @O@$;$*$7;:+;<:7$ ",
"+<*7:+4,4$7*$O$OO  <<,$**7,$;*$+&$$  0;e<=$<$4$;<,44**$ $=*.$<**;;;,;<4<*@:*=&=471:7==<77<* $$&+$*;$,7**$,<<  OO$O$*7$4,4+:7*<+ ",
"@<,74O,=4$4*=O=O  @w<<@;;,,*;;$O=$$  0,w01$9;7@@<444*;; $=4O;:@;*$:4:44<:$&=4*444==<41779<; $$=O$;;*,,;;@<<w@  O=O=*4$4=,O47,<@ ",
"$,47<;4=4O11=O@O  .,,<$$@*:$;*$O=$$  0<799$=$7O@<:74;;$ O==O@4;$$@$,;::7*O$$=*444,*74,4747* $$=O$*;$:*@$$<,,.  O@O=11O4=4;<74,$ ",
"+4;74$::7+7**O;.  .;::$O;;*;;1O+=$O  0:974$4O7+@<:74*$; $&4O&*;+:+$<$:,,;O*&=*447*=4,=44,,; O$=+O1;;*;;O$::;.  .;O**7+7::$47;4+ ",
"$,,w7*7<9O4$*O;   +;;::$;,*;;:O.*OO  9<9w<;e@9+@<*4=&;$ $*=O$4;$:;:4:*:,;@@$==*44*,7,,<774* OO*.O:;;*,;$::;;+   ;O*$4O9<7*7w,,$ ",
"@<:99:7<9O4$*.*O   ::;@@,,,;@*O+=$$  0w7w,:<$<OO<*44==; O=&+$4$@,@:,;::*$O=$:*=44,=7,77794* $$=+O*@;,,,@@;::   O*.*$4O9<7:99:<@ ",
"@7,7w;744O4+*O$+.  ::;@O;:4@$*@O**$. w77w4;7O,+O4;44**; &*$+O*@O:@;,::=:;O$*4==4,4*74,7774*.$**O@*$@4:;O@;::  .+$O*+4O447;w7,7@ ",
"@<;99=4,4O4$=O$.O  ;:;;;;;*;@*$O*O$. 0,7w,*,+:.O,*4***$ &$O $**;,;::@*::;O*$&==44=474,<7w7,.$O*O$*@;*;;;;;:;  O.$O=$4O4,4=99;<@ ",
"@:;w7*4<7O*O$O$ .  :;;@;,*$@O&$O$OOO <<<w,,$+;..4=7=*=; $O$OO*$@:@::*:,*$@*@*=*=4144,44907*OOO$O$&O@$*,;@;;:  . $O$O*O7<4*7w;:@ ",
"@,@491,44O*O&OO..  ,:@$;,$O;+$$O=OOO <<,0;<:O;.+4*7===; O&$OO=$O;$:4::4*;$=$*===444*=<,797*OOO=O$$+;O$,;$@:,  ..OO&O*O44,194@,@ ",
"@<;4<*=4=+=$*O$O. .<<;;;,;;*O@OO&$$O <,w<;<,@$..=*44=4; $*$OO;.$;$:,,47:*O*&:=*==4$=:*4e07:O$$&OO@O*;;,;;;<<. .O$O*$=+=4=*<4;<@ ",
"@=:<7*=4=O=O&O$+O .<::$;:@$++$OO=$&O <,7w;4=+$++,=4744; **&OO*+.$$=:4,<,*$=*=4*4=*:,=*,70<:O&$=OO$++$@:;$::<. O+$O&O=O=4=*7<:=@ ",
"@:;<<$$,=O*O$O$O. .<:::$:;$$$$O.=$O. <*,w;4=O4.O4*74=1;.*4O.O;O.$O::,=<,:$=*$*==4*===449071.O$=.O$$$$;:$:::<. .O$O$O*O=,$$<<;:@ ",
"@;47,$*=$$$+=.&+.  :::;,:$OO.*OO**O. 7;<e*77O:.O<:74==$ &1$+O;+.;@*,,<4,:@==:*=4===4=44999:.O**OO*.OO$:,;:::  .+&.=+$$$=*$,74;@ ",
"@;=;:O$*$$*O*O$OO  ,,*O,$$$$.*$+**OO 4,:4$**.:.O4;94,,; &*$OO*$.$O:::44=,O1*$==4==444=7709$OO**+$*.$$$$,O*,,  OO$O*O*$$*$O:;=;@ ",
"+;<;:O;4$**O*O$+. .:,*.*$O$$O$$O*$$O <,,4*4<O1OO4*77=4; ;*$OO*$.;O***<4,:@4****4=444*,7707;O$$*O$$O$$O$*.*,:. .+$O*O**$4;O:;<;+ ",
";$:*:O&7&O*O&.;O+ O,,;O:$$$$.$OO=*OO 7,=7$&7O*++4*74=<; $=$OO*O+;$$::=,,*@=:;*$1==44444407;OO*=OO$.$$$$:O;,,O +O;.&O*O&7&O:*:$; ",
"+$:,:+;,*$*$*O$+@ +,:*O;*$$*@$$.=$OO <:<w$;,$=O$447=,4$ $$*+O&*O$$:,&<<::O4$$:*=4=44477407*OO$=.$$@*$$*;O*:,+ @+$O*$*$*,;+:,:$+ ",
"@::4*O**$**$*+$.@ .:<:+;*@@;O$$+=O$O ,:74*,=+4O$4=714=; $$=OO&1.$$:=*=<,:O4$&=*=4*444947e7$O$O=+$$O;@@*;+:<:. @.$+*$**$**O*4::@ ",
"@,*<$$$&**=$;.$.@ .::;O*;@.@;;$O$O$O ;,w7;4:.;@$414===; $&&O$*,O$O*=$4<<=$=:**;=7=44474707;O$O$O$;;@.@;*O;::. @.$.;$=**&$$$<*,@ ",
"+:,<$*:;1$=$;+@O+ +;4;+;$;@$$$;O*O$  ,,7:=;4+;O;7,4444* @*=@$;;+$@:,$=44$$7:****7=4447=70<* $O*O;$$$@;$;+;4;+ +O@+;$=$1;:*$<,:+ ",
"=33@&,*,&;:4145475122119*,*,901,*e9000009999995t05ww8009tty117r;,**950ww53==*>*&,7@**qw199qwq<q>*,109,*,$:;:,,,,,,q,*,;-43433344",
".++X$*;*O@@;;5:;,-;:>:,,$;;*:4;*;<,,,599444744=7<,45<774557$**<$:O$7=041$@@$$$@$;;+;$;:*7*%$$;,:;*;4:*;;O@@@@@@@@;;7;@@@;;::;;;;",
" +.  ... .+XO@++@X.OO.OO.. ++$OOOO$;;:::=:*$,****&$*=3* @O,@@O$OO .***:$;$.X.X  OO.O+;*$,;*$X$OOOOO$++ ..X++O@.+@++@O.+. ...  .+"
};
