/* XPM */
static const char *drtopsid[] = {
/* columns rows colors chars-per-pixel */
"128 128 52 1 ",
"  c #5E4323",
". c #634524",
"X c #6A4727",
"o c #6C4827",
"O c #6E4928",
"+ c #754D2A",
"@ c #784F2C",
"# c #75502C",
"$ c #7B512D",
"% c #7C522E",
"& c #7E542F",
"* c #7F5330",
"= c #7E5530",
"- c #80532F",
"; c #80542F",
": c #805330",
"> c #815430",
", c #855732",
"< c #885733",
"1 c #865832",
"2 c #885933",
"3 c #895934",
"4 c #8C5B35",
"5 c #8B5C35",
"6 c #8F5F37",
"7 c #905F37",
"8 c #935F38",
"9 c #906037",
"0 c #916038",
"q c #966139",
"w c #97643B",
"e c #98623A",
"r c #9B663B",
"t c #9C643B",
"y c #9D663C",
"u c #9F683D",
"i c #A0673E",
"p c #A0693E",
"a c #A2693E",
"s c #A46B3F",
"d c #A66C40",
"f c #AA6E42",
"g c #AE7044",
"h c #B37347",
"j c #B67548",
"k c #B97749",
"l c #BD7A4A",
"z c #C27C4D",
"x c #C87F4F",
"c c #C77F50",
"v c #C8804F",
"b c #CA8151",
/* pixels */
"@@@@@@@@@@@$%%%-%%%%%%>>,,>%@OO+@%%%%%>>,,,>%$@@@@@+OOO+@%%@+OXXXXXXXXo+@@@OX..XO+@##@@@@@@@@@$&16600763,>>>,,,,>:%$$@@$%%%%---%",
"$$$$@@@@@@@@$$%%$$$$%%%>>>%@+oXO+@$$$$$%%*%$@+++++OooXXO@@@@OXXXXXXXXXXoOOOoX.XXo++@@@@@++@@@@$%>1353321>>%%::*%%$@@$$$$$%%%%%--",
"%%%$$@@++OO+@@@@++++@@$$%$@+oX.XXOO++++++++OXXXXXX.....XoOOoX..       ....XXXXXXooOOOoOOoOO++@@$$%%%%%%%%%%$@+++OO+@@%%%$$$$%%--",
"$$$$@@@+OoXO+++OoXXXoO+@@@@OX...XXXXXXXXXXXX....       .XXXX.            ..XXoOooXXoOOOOOOO++@@@@@@@++@@$%$@++OOoOO+@@@@@@@$%%%-",
"OO++@@@+OoXXOOoXX.....Xo+@+OX...XXXXX... ..XXXXX.       ....   ..XX......XXO++++OoO+@@$@@@@@@@@@@@@++OO+@@@@@@@@@@++++++@@@$%%%-",
"XXoO+@@+OoXXXXX..    .XXO++oX. ..XXXX..    .XXXX.   ....      ..XXXX...XXoO+++OoXXo+@%%%$$#$$$$$$@@+OXXoO+@@@$$$#@@@+++@@$%%%%%%",
"XXOO+@@+OoXXX..    .XXXXOoXX..   ...XXXX.   ....  ..XXXX..    ..XXXX...Xo++OoX....XO@$%%$$$%%>>%%$@+OXXXXOO+@$%$$@@@$$%%>>>>>-%%",
"XXoO+@@@@+OoX....XXooOOO++OOoXXXXXXoOOOoX..........XXXXXX.....XXXoOoooO+@@@+oX...XoO@$$$$@$%%>>%$$@@@+++OOO+@$$$@@@$&>,,,,,>>>>>",
"XXoO+@@$$$@@OXXoO+++@@@@$$$@@@+++++@$$@@+oXXXXXXXXXXXXXXXXXXXXXO+@@@@$$%%%$@+oXoO++@@@$#@@@$$$$$$@$$%>:%$@@@@$$@@@$&1353,>>>,,,,",
"OOO+++@@%%%$@+++@@@@@@#$%%%%$$@$$$$%%%%$@+OOOOOOOOOOOO++++++++++@$$%%%-%%%$@@@+@@@$%%&%%$@@@+++@@$$%>,,>%$$$$$$$$%%>1331>>>>,233",
"@@@+OOO+@%%%$@@@@@@@@@@$%%%%$$$$$%%%%%%$@@@@@@@@@@@@@@@$%::%$@@@$%%%%%%%$$$$$$%%%%&>1331&$@+OOO+@%%->>;%%%%%%%%->,,,>>>>%%>,3666",
"+++OOXO+@$$$@@+@@@@@@@@@@@@@$$$$$$%%%%%%%%%$$$#$$$$$$$%%>>>>%$$$%%%-%%%%$$$$%%>>>>1366651>%$+++@@%%-%%;>>>,,,,,,,,,>>%%%%%;160qr",
"ooooXXo++@@@+OOO+@@@#@@++O+@@%%%$$$@@#$%:>>>%$$$$%%%%%%%->>:%%%%%%%%%%%%%%%%%%>,15666666653>%$@@$%%%%%>,25666653,>>--%%%$$%19rup",
"XXXXXXoO+@@@+OO++@@++OOoOO+@$%%%$@@@@@#%->>>%%$%%%%%%%%%%%%%%%%%%%%%%%%%%%%%%%>,133533356631>%$$$%%%%%%>36666531>>%%%%%%$$;20ypp",
"XXXXXXoO+@@@@@@@@@+OoXXXO+@$%%%%$$@@@@@$%%%-%%%%%%%%$$$$%%---%%%$$$@@@$$$$$$%%%>>>>>>>>,,1,,>-%%$$@@@$$>16651>>;>;-%%%%%%%>37ety",
"++++OO++@@$$#@@$$%$#@++@$&>>>>>>%%%$$$$$%%%%----%%%%&;>>>,,,>>%%%$$$$$$$@@@$$$%%%%%%%%%%>>>>>>%$@@+@@$$;,121>;%%%%%%>>>>%%%>,,23",
"%%%$@@@$$%%$$@$$%>,1333556533,,,,,,>>%%%%%%-%%%%%->,15666652,>%%%%%%%%%%$$@@@@$$%%%%$$$$%%>>>-%@+OO+@%%>>>>>>%%%$$$%>,,>%$@@++++",
":-%%$$@@@@@@@@@$%%>,135669663,,,2333211111,>&%%%%%>136666331>>%%%%%%%%%%%%%$$$$%>>>&$$@$$%%->%%$@@@@%:>>%%$$%%$$$$$%%--%$@@@++++",
"%%%%$@@++OO++@@@@$$%%>>156631>>,366666666651&$$$%%>136651>>%;%%%$$$$%%>>>,,>>%>,3531&$$$%%%---%%%%%:>,,>%$@@@@$$%%%%$$$@@@@$$$%%",
"%%%%%$$@@++++++@@@$%%>>,11211113666651256661;$$$;,256663>%$$$$$$$@$$%>,,3333,,,266651>>>;;---%%%%%->>>>>:%%%$$$%->>>%$$$@@@$$$%%",
"%%%%%%%%%%$@+OO+@%%>,,,,>>>135666661>%%>1651&$$&15666661>$$@@$$@@@$%>,,366633,1366666651,>%%%%%%%%%%%:>>,,,>>-->>,,>>%%$$@@@@$$$",
">>>-%%%%%$$@++++@$%%%>>>>,112333331>%$$%>,>>%$$%>133331>;%$$$$$$$$%%->,366663,,,1233331,>%%%>>>>%%%%%%:>>,,,,,>>>>-%%%$$$$$%%%%%",
",,,>%$@@@@@@@@@@@@@@@$%>15631>>;>>>%%%%%$$$$@@$$%;>>>>>;%%%%%%%%%%%%%->136631>-%->>>>>;%$$$%>,,>%$$$%%%-%->>,,,>%$$@@$$$%%%>>,,,",
"433,>%$$$$$$#@@@$$$$$$%>36651>%%%$$$%%$$#@@@@$$&>,,>&%$%%%%%%%%$$%%&>,133331,>%%%%%%%%%$$@@$%%%%%$$$$$$$$$%%>>>%$@@@$$$%%%->>,,,",
"6663,>%%%%%$$@@$$%%%%%>,3663,>%$$$@@@@@@@@$$$%>,3551;$$$%%%%$$#@@$$>156633,,>>-%%%%--%%%$$#@#$$$%%%%$$###$$$%%%%$$$$%%%%%----:::",
"00651>%%@@@@@@@#$$%%%%>>111,>%$$@@@@@@@@$$%&>112331>&%$$%%%%$$@@@$%>36663,,>>>>>>-%%%%;>>>>&%$$$$%%%&>>>>>>>;%%%$$$%->,,,11,>;%%",
"6663,>$@+OO++@@@@@$$%%%>>>;%$$#@@@@@@@$$$%>,35631>>%%%%%%;%%$$$$$%>,3663,>>>,,,,>>%%%->,3553,>%$$$$&,3566652>;%%%%->>,136663,>-%",
"331>%@++OooO+@@@@@$$%>>>>%%$@@@@$$$%&>>>>>>15663>%%%%%>>111>%$$$%%%%&&&%%%->>>>>>>-%%->,3333,>%%$$$%&>1111,>%%%&>111,,,366663,>>",
">;%$@OOXXoOO+@@@@@@%:>,,>>%%$$$$%%>12551,>>,3651>$$$$%&,3531&$@$$%%@@++@@%%-;-%%%%%%%%>>,,,,>%%$$@@@@@#$$$#@@@$&1353,>>,366631,,",
"$$$@@+OO++++@@@@+++@%:>,,>>>>>,11113221>&%%&>1,>%$@@@@@$&>>&%$@@$$$@@@@@$%%%%%%%%%%%%%%%%%%%%$$@@++++@@@@@@@@@#$$%&%%%>,13331,,>",
"@@@@@@@@@@@@@@@++OO+@%->,,13366666631>%%$$$$%&&%$$@++OO+@@$$#@@@@@$$%%%->>>>;%%%$$$$%%%%$$@@@@@++OOO+@@@@@@@@@@++++@@%:>,,,,>:%%",
"$$$$$$$$@@@@@@@@++++@$$%>>,,123666631>%%$$%;>11>>%$@++++@$$$#@@@@$%>>133331,>>%%$@$$%%%%$@@@@@@@++++++++@@@@+++++@@@$%:>>>>%%%$$",
";;;%%%%%$$$#@@@@@@@@@$$$%%%%%;>13663,>%%%%>,3553,>%$$@@$%%%%$$$$$%>,25666652,>%$$$$$%%%%$$@@@@@@@@@+OOO++@@+OOO+@$%%%%%%%%%%$$@@",
"331>&%%;,22,%$@@$$$$%$%%%%%%%$%>,33,>%%%%%>>>>>>&%$$###$%%%%%%%$$$%%;>11111>;%$$$$$$$$$$%%$$$@@$$$$@+OOO+@@@+++@$%%%@@@@@$$$@@@@",
"6651&$%>4774>$$$%%%%%%%%%%%%$$$%>,,>%$$$%%%%$$$#@@@@@@#$%%%%%%%%$$$##$$$%%%%$$$$%%%%$$$$%%%%$$$$%%$@+OOO+@@@@@@$$%$@+OOO+@@@@@@@",
"6431>%%;,21>%$@$%%%---%%%%%%%%%>133,&$#$%%%%$@@@@@@@@@#$%%%---%%%$$$$$$$$$$$$$%%%%%%%%%%%%%%%%$%$$$@+OoOOO++@@@@@@++OXO+@@$$@@@@",
",,,,:%%$$@@@@@$$%%%-%%%;>>>;%%>,2531&$$$%%%%$$@@@@@@@@@$%%%%%%%-;;;;%%%%$$$$%%%%%%%%%%%%%---%%%%$@@+OoXXXXoO+@@++OoXXXO+@%%%%$$@",
">>:%@@++++++@$%%>>>>>;>>121,>%%&>,,>%$$$%%%%$$@@@@@@@@@@$$$%%%>>1211>>>>>,1>>>%%%$@@@@@$%>>>%%$@++OOoXXXXXXXOOOOOXXXXXX+$>11,>>:",
">%%@+OoXXoO+@%->,,,,>;>,3551>$$$$%%$$@@$$%%%$$#@@@@@@@@@$$$$%%>13552,>>>2553,>%%$$@++O+@%>>>%$@@+OoXXXXXooooOOOOooXX..o+=36632,,",
":%%$@++++++@$%>>,,,>%%%%&>>>&%$@@++++++@@$$$$$%%$$$$$$$$%%%%%%>>,11>&%%&>11>&%$$$$$@@@@@$%%%%%$@@++OoXoO+@@@@@@@+++OoO+$15663,,>",
"%%%%$@@@@@@$$%%>,,,>%$@@#$$%%%%@@+OoXoOO+@@$%%%%-%%%%%%%%%%%%%%%%%%%$$@$%%%%$$$$%%-:%%%%$$$$%%%%$@@++O++@%%-%%%%$@@@@@$&1353,>%%",
"$$$$$@@@@@@#$$$%>>>%$$@@$$%%%%%%$@@+OoOO@@$%%%%->:::%%%%%$$$$$$$$$$$@@@@$$$$$$%%>>,>>>%%$$$$%%%%%%$$@@@$%>>>%%$$$%$@@++@$&>>;%%%",
"@$@@@@@@@@@@@@$$%%%%$@@$%%%%%%%%%%%@+OO+@%>>;%%%%%%%%%%$$$@@@$@#@@@$@@@@@@$$$%%>,,,,>%%$$@$$%%%%%%%%%%>>,,,>&%$%%%$@+OOO+@$%%%%%",
"%%%$$@@@@@@$$$$$$$$@@@@$%%%--%%-%%%$@@@$>11,>%$%%%%%%$$@#@@@$$$$$$%%%%$$@@@@$$$%>>>:%$$$@@@$%%%%%$$%:>,33363311>&$@+OOO+@%:>-%%%",
"%%%$$@@@@$$$%%%%%$$@@@$$%%%%%%%%%%%%$$%>1331&$$$%%%%$@@@@@$$%;>>>>-%%%%%$$$$$#$$%%%%$$@@@@$$%%%$$@$%%>,336666631&$@+OoO@%>,,>>::",
"$$@@++++@$%%%%%-::-%%%%%%%%%%$%%:>,,>>>>>>&%$#@#$$$@++++@$%>12321,>:%$%&>11>%$@@@$$$$%%%%%%$$$$$@@@$$%%>>,1111,>%$@+OoO+@$%>>>,,",
"@@@+OOO+@%%-%%>>,,,,>>;>>>>%%$$%>,,,,,>:%$@@@@##@@@@+O++@%>1366643,>%$$&1331>$$@@$$$%%%%%%%%$$@@@@@@@@$$$%%%%%$$@@@+OOO++@$%>,,,",
"@@@@++@@$%%%%%>,34632,,13331>%%%%>>>-%%$$@@$$$$$$@@@@@@@$%>136676631>%%&>,,>;%%%%>>%%$$$$$$$$$$$$@@@@@@@$$@@@+++OOOO+++@@$%%:>>>",
"$$$$@@$$%%>:-->,13532,133652,>%%%%%%$$$@@$$$%%%%$@$$%;>>>>>135666652,>%%%>>;%%;>>,>-%$##$$$%%%%%$@@@@@@@@@@@+OooooO++@$$%%%>>>>>",
">>-%$$$%%>>>>>%&&&;>>>>,,,,>>%%%%%%%%%%%%%%$$$$$@@$%>235533111,,11,>>-%>>>,>>-%%%%%$$@$%>111>>%%$@@@@@@$$$$$@++++++@@$%%%%>>>,,,",
",,,>%$$%>,1,>>%%$$$$%%%%%%->>>>>>>>>>-%%%%%%$$$@@#$&13670063,>%%%%%&;>>>,,,,,>>%$$$@@$$>1353,;%$$@@@@$$$%%%$$@@@@@@$%%%%%%%>>,,,",
">>>%%%%>1333,>%%%%%$$$$$%%>>13355531,>%%%%%%%%%%$%%%>,260qq6,%$@@$$&,131,,,,2331>%%%%%%;>>>>%$$@@@@$$%%%$$$$@@@@@@@$%%%%%$$%%>>>",
">>>>;;>,3551,;%%%%%%$$$$$%;>15666631>>%%%%%%%%->>>>;%%>26874,%$@@$%>16631>>,2551>;%%%%;>>>>%%$@@@@@$%%%%$@@@@@@@@@@$$%%$$$#$%%%%",
"3331>>;>>>>>%$$$$$$$%%%$$$$%>>,>>>;;&;-%-%%%%%>,132,&$$%>,2,,>>%%%&,3663,>%>>,>>%$$$%%>,1331>%%$#@#$%%%%$@@@@@@@@@@@$$$@@@@$%%%%",
"96631>%%->%%$$$$$$$%%%%%$$$$%%%$$@@$$$%%%%%%%%>,2531>%$$$%%>,11,>%;>15531>>>>%%%$$$$$%>,1332,>%%@@@@$%%%%$$$$$@@@@@@@@@@@$$%%%>>",
"0663,>%:>,>>%%%%->>>>-%%%%%%$$$$@@@@+++@@$$%%%>>>,,,>>>%%$%>1331>%$%;>,13331,>%$$@@$%%%&&&&>>,>%@+++@%%>>>>-%%$@++O++@@$$%%->>,,",
"76631,>,13,,>>->>>,>>>>-%%%$$$$$@@@++O++@@$$$%%%%%->>,>-%$$;1661>$#@$%%>1331,>%%%$$%%%%%%$%%>,,%@++@$&>,111,>%$@@+++@@$$%%:>,,,,",
"666665566632,>%%%%%%>,>>%$$$$%%$$@@@@@$$$%%$$$$$%%%:>>-%$$$>1661>$@@@$$$%%&%%%->>>>>:--:>>>,,,,>%$$&,3566631>%$@@$$$$%%%%%:>,,,,",
"66666667966631>>%%%>>,,>%$$$$%%$$@@$$%%%%$$$$$$%%>>>>>>%$$$&1331>%$@@$$$$$%%%%>>,,,,>>:>>,,<332,>>>,36676661>%$$%%%->::::>>,,133",
"6666667799788877633322,,>%%$$$$@@@@@$$@@+++@$:>>,,,2332>%$@$%>>>;%%%%%%>1111>>>>,,,,>>%%:>>13653,>>>,3366663,&%%%%->>,,,,,,23666",
"666666666667qqqq86531,,,>>>&%%%%$$$$$@@@+++@%,,<<<336652>&%%%%%>>>>>>>>156631>;>>,,>>>%%%%>,3663,>-:>,,33331,>%->>>,,,,,,,333666",
"96664331,,13677631>>>>>>,,,13331,,>:%%%$$$$%>,,<<<3333333311>&>>13331,,366631>%%%>>>--%%%%>>,33,>>%%>>>>>>>>;%>>13333<,,,,<33333",
"55331,,>>%>>13331,>>>-%%*:>,335333,,>>>>>>,,,,,,,,,,,,,336631,,13353322335531,>>>>>>>----:>>,,,,>>%%>>>>>>>>>>,3678643<,33333333",
">>>>>>>-%%%->>,13332,>%@@+@@%>,,,,,,,,,13333,>>::>>>>>>,,33355531,,,,,,,,>,133666531,>>>>,,,,,,,>>:>>,,235555567qqq8433336666666",
",,,,>-->>>>>>>>,3653,%%$@@@@$%%>,,,,,,334663,>>::>>>>>>>,,3346631,,,,,,,>%>>13666652,>>>,233332,>:-:>,,3366666788877433366900qqq",
"q874,>>>13332,,,331>%$$%>11,>>->,,,,,,<33332,,,,,,,,,,,,,,<33333355332,,>%%%>>,,132,>>>,35666653,>%%%:>,,336666631,,,,33560qryup",
"qq862,>,336333<<<,,>%$%>1563,>>>,3333332,,,,,,,,<<<<,,,,,,,,,,<333333<,,,>>>>,,,,,>:%$%=,3566531,>>>>>,,,33677761>>>,23467qqryuu",
"4333<,,,,33332,<<,,>>%%>,232,,,336666663,>>>,,,<<<,<,,,,>>>>,,,,,>>,,,2335666633,>%@@++@$>>>>>>>>,,133666668qqq74<,13668qqeqqq00",
"4443333333333,,,,>>>:->>,,,3333336666663,>-:>,,,,,,<,,,,,,,,,,,,>>>>,,33666666331,>$@++@$>>>>>,236677778000qqqq743233668qqqq0766",
"eqq88666666433,>%%$%%%:>,,33666633336663,>%%->>>,,,<,,33365331,,,,,,,,3366651,,13331>%%>13565660rryrq070qqeqq07633,,<33467007666",
"qqqq077666631>:%@@@@$%>,,,2333331,2366631>>>>>>>,,,,,<3333333332,,,,,,,235631,,13653,>,13670990qrrrqq070qqqq07666443333336666666",
"3344666643,>%%@@+O+@%>,,,,,,,>>>,,2366663,,,,,,,>>>>,,,,,>,13663,>:--:>>,1333663333,,,13666996666446666778877670qqqq866333336666",
">,,,23331,>-%$@+OOO@$>,,,,,,,,,,133666633,,,,,,,>-%:>,,>:%>,3666321,,,>>,,,1333644433<,2333566643333666666666780qqeqqq0663336666",
"-::>>>>>>>;--%$@+OO+@%:>>>>,2366666666631>>>,,,,>:%-->>-%%>,3670qqq87631,>>->>,3788843,,>>>,,3334666666666666677800qqeeq86666666",
",,,,,,>>>>>>>>-%@@@@$%>:%%>1670865566663,>>>,33332,,-%%%>>113367qqqqq063,>%%%%>,478743,,>>>%%%*>13666663333336666667qqqq00666666",
"666666533,,,,,,>%%%%>,,>::>27qq73,,13663,>>,1668qq73>%$&1366333367000663,>%%%%>,,3333<,,,,>%@++@%,33331,,>>>,,333334670096663332",
"6666666663334443,>>>>,,1236778742,>136631>>1367qqqq62>>>256633333366666531,>>>>>,,,<3332,,>%$@@%:,,333333222,,,,,,,1333356643333",
"<33366666668qqq74<,>>>,4qrre843,,,,366663113366900766653333366663333666666632,,,,,336663,>>>13333,233668qq8743,,,,,,>>>,,1336666",
"7777767700qeeee873,>>>,37qeq63,,>,,37qqq8766666666700q863,,1366666678886631112334778876511135687764433560qqq743333321,,>>>,25669",
"puyrq070qeeetee843,,,,,233333<,,>>,6qyuyyeqq8766667qqeq72,>,3670qqeeeeq6,&%%>,37eyyrq06666666680qq873,,13678766666666652,>>,3669",
"uyrq06668qqqqqq86432,,,,,,,<333,,>,6epppyq876664346678763112566788888873,%%%->26qrrrq000qqwq0070qqq73111333666666666666633336666",
"00764333670008777663,>>>,,2346633237ruur8432<233333333333666666643333333,,,>>>>13700770qruurq06667766663332<333366666680qqqq0766",
"66678qqqqqqqqq00876531,,,,340qq0633470863,,,,,2367763<,23366666663334444433,>-;>13334660qrrrq0666666666444444478qqwwwwqeqqqq0766",
"660ryddddppyyeeq086666633337eyye73,,,,>>>>>>>,37eyye73,,,23366666678qqqq0763,>>>,,33333467000666766633348qeeeeeyypppppurq0066666",
"qwrudfffdpyyreqqqqqqqwrqqqqqeeq843,,,,,>>>>,,347qqqq7433333666667700qqqqqqq764333333333678qqqqq0qqqqqqqeyyyyyyyyypppppyyeq007666",
"pppdfffdpyeqq000qeryyppddddyq633,<3356633223366643336666666666666667700qqeeeeeqq86666670qeeeeeeeeeyypddddppiyyteetttyytteeeq0066",
"psdfggffpyeq070qryyiippddfdyq63467800900qqqq0866333366666666666665660qwrqqqqqqq0766670qeeeyyyyyppppdddddddppyyteeeeeeetyippyyrrw",
"ppdfghgfpyeq870qruppyyyyppprq00qruurq00ryddur06666666666333366663347eyuyw087776633348qeeeeyyyppddfddiyyyppppyyeeeeeeetyidffddppp",
"ppddffdieq8766700qeryyyyyrrq766qyppuw00qruurq0770qq0076633660qwqqqqqrrrw0966653333368qqqqqeryyppppyreqqeyyyyrqqqqqqeryipddfdddss",
"ppppiye8733366663348rupyr0663337ruuyq06690007670qeeq0866660qruppppurq0009766333366677777770qeeeeq000000qeeeeq076670wypppppppppss",
"ppyrq8442,2378q76367qrrq8633,,347qqq06666666660qryye86667qqryyppdddur090qwq06667qrrrq06666700qq07670qwrrqqq00666660wypppyrrupdff",
"yreq743223368qeq076667664333<,,<333466796666660wypur73348qeeetypdddpr00qruurq00ruddpr06666677776660qruurq0766766670wyppywqqrpdff",
"qqqqqqqqqqqq887766433336800864333367qqwq7635660wypur733360qeeetyyyyrq090qrrq00qrpffpr066666666665368qrrq76667qq0070qryyyrrrrryyy",
"700qruppppye843<,<2,,337eyurq066660wyuyr7333560wypur8333660qqeeeq0000999000768qrpddpr076677707663333666633368qeq0080qeyypppyrq00",
"0qqryppdddprq631,,,,3367qrrreqqqqqqryyye8633660wypprq6467qqqqqqqqqqqqrrrqqqqqqqryppyrqqqqrreqq076433666667788qq006678qqrupppuyyr",
"eeyyppppppprq06433336666790qqeeeeeeeeeeq0766670wyppyq070qeeqq00qqeryyppyyreeeetyyreeeeryupppyreq0766670qqeeqq077790990qrypddffff",
"pppppppuyrrqqqqqqqqqqqq07770qeetteeeqqq076770qqeyyyrq0670qqqqqqqeeerrrrrreyipppyrqqqqqqrupppiyeq0000qrryyyyrq000qwrrrrrpdfffffdd",
"ffffddpyrq0qqeryyupuyyeq0000qetyyyeeq087700qqeeyyyeeq009900qeeyyyreqq00qqeyidddpr076670qruppyyeqq00qrupppppyq00qruppppdfggggfddp",
"gggfffdpurrqqqqqwrryyyyrq00qrypppppyrqqqqrryyyppppppyrrrrrryppppppyreqqqqqqerrrw09666690qrryyyyyyrrrrrypddduw00qypsdddddffgggggg",
"ffffffffddpyw006690wyppyq00qrupdfffdiyyyuppppppdffffdppppppdffffdpppyyeqq080000000007666600wypppppurq00rpddprq0qruppppppppdffghh",
"rrypdfffffddurrq060qrppuyeqqqrrpdfffdppppppppipdffffdddddfffggfdppyyiiyyrqqqqrryyuyrq066660wyppurq863137rpddpyrrrrrqqqqqqqrryupp",
"00qrpdfffffddpprwqqwypppyreq000rpdffdpppppppyyyiddfddddddffffffdpyyypppyyyyypppdffdprq06670wupprq43,>,16qupsppurq066333460000000",
"ddddffffddpppppppppppppyrqq8660wuddpurryppppppyyyyypddfffdddppppppppyrrryyppppdddddppyrq070ruddprq88qqryupppurwq00665360eryrq066",
"hhhggffdiyyyppdddffdddpyw076600ryppyw00qypppppprq00rpdffddppyyypdfdprqqqypppppppppppppprqqqrpdddiyrypddddppyw0766666660rpddpr066",
"fffffdpurqqrpdddpuupdddur000qryupppyq00qeyyyiyye078qripppppppppdfffdyeeypdddpiyyyyyyyiipppppppiyeqqqrryyyyyrq0653112560rpddur076",
"ppppdppyrqqrpddprqqrpddpr00qruppppurq000eryyyyeeq00qeeyyppppppddffdpyyyidffdpyeeeeeeeeyipdddiyeq0866670qqeeeq0631,,1360ryppyq066",
"yyypdddpuyyupdpuq00qryyrq000qwwrrwq0060qryyyytyyyppyyyeeerrupdfddpiyeqeydffdpyeeeeeeqqqqrrrrqq0076666670qeeeeqq877778qqeryyeq066",
"yyypdfffddpdddpyq00qeeeeq0667000000900qrupppyryypddpiyeq00qrpdddiyeq000rudddiytyyyreq0800000076677776600qeeeetteeeeeeyyyyyeqq077",
"ddddddddffffffdpyeqeyyyrq0700qqqqqqqrrypdddpyqqqrrrrqqq0qqqryiiyeq876670qrrreeyipdpyq000qrrq09780qqq076700qeyyyyeqqrypddppyyeqqq",
"ggffddddfffffffdpiyipppyw000qeeeeeyyppdddddur076000000qqryyyyeeqqq000000000qeyypdddur00qyppyw000qeeeq00000qryppyrqqrpdffdpppyyyy",
"hhhgffdddddppppddfffddpyreqqqqqqeeyipdddurwq0670qrrrrrypdfdprqqqryuuyrreqqerypppyrrq000rpddur09qryyyrqqqrryuppppppppdddddpppppdd",
"hhhhggfffdppyyypfgggfdppiyyeqqqqerypfffduwq000qrupppppdfggfdyqqrpffffddpiyipfffdyq06660rpddprqqrupppiyyypppsdddfffffddppdddffggg",
"hhhhhhhgggfdppppdffffffdddddpppppppfhhhhgfddpppddffddddddfdpuyupfghhhhhhffffhhhgdurq969qypddpppddfffdddpppddffgghhgfddpdfgghhhkk",
"hhhhhhhhhhhgfddppdddffgggfffffffdddghkllkhhhgfffffffddddddddddffhhhklllhhgghkllkhfpurrrypdffgggggfffffffddffhhhhhhhgffdfghhklllz",
"llkkhhhhklkhgffdddffgghgggffffffffffgghhklkhgfdffgggfffffggggghhlzzzlkhhggghlzzlhgffhhhhhhkllzljhfddffffgghhlzzzzlkhhggggghhklzz",
"lllkhhhklllkhgggggghhhhhhggggffffffdppdfhkkhgffghhhhhggghhhhhhhkzzzzkhhgffghlzzlhhhhlzzzzllzzxzlhfddffgghhklzzxzzzllkhhhhhhhhlll",
"hhhhhlllllllhhhhhhhhhgghhhhhhgfffffdpyypfghhhhhkllllllhhhggfgghhlzzlhhfffffggghhhkkllllkkkklzzzlhgfffghhhlllzzzzzzlllllllkkhhhhh",
"gghhhlllllllkhhklllkhhhhkllkhhggggffddddfghhllzzlllllllkhhgggghhllllhhhhhgggfffghlllkhhhhhhhkllhhgfghhhkllllzllllzlllllllllhhggf",
"lkkhhhklllllkhhkllllllkkkhkkkkkhhhhhkllllllzzbczlhhhhhhkkkkkkkllllzzzzzzllkhhhhhhhkkkllkhhhhhhhhfdfghkllllzzzzlllllllkhhhhhhhhhh",
"lllllkklllllkhhhkllllllkhhhhkllkkhklzcczzllzzbczkhgghhhklllzzllllllzzcbzzzzlzzllkhhkkllkhhhhhhhhgfghhllzzlllllllllllkhhhhhhhhhhh",
"hkklzzzzzzllhhhhhhhhhhhhhhhhhhhklllllllkkhklzzzzllkhhhhhllzzzzllkhhkkllllzzzzzlllllkkhhhhhhhklllkhklllzzzzllkkkklllllllzzzzlhffd",
"ghhkzcbzzllkkhhhhhhhkkkhhhhhhhhkllllkhhhhhhhklllllkhhhhklllzzzllkhhhhhhklllzzllllllllkkhhhhhklllllllllllllllkhhklzzzzzzzbbzlhgdd",
"ddfhkzzzlkhkkllllllzzzzzkhhhklllkhhklllkhhhhhhhhggghhlllllzzzzlllllkhhhhllllzllllzzzzzzzkhhhhhklllzzzlllkhhhkllzzbbzzzzzzzzlhhgg",
"dfghhlllkhhhllllzzzzbbbzlkhkllllhhhklllkhhhhhhhhgfghhllzzzllllllzlllhhhhllzzzzzzzzzzbbbzlkhhhhhkllllllllkhhhkllzzbbvzzlllllkkhhh",
"hhllllllhhhkllllzzlzzzzzzllkkhhkklllkhhhhhhhklllkhklllllllzlzzllzzllhhhhllzzzbbzzzzzzzzzlllllllkkhkklllllllkkhkllzzzzzllkhhkllll",
"zlzzzlllhhhklllzzzllllllllllkhhklllllkkhhhhhkllllllzllllllllllllzlllkhhhkllzbbbbzzllllllzzzzzzzlkhhhlllllllkhhhhklllllllkhhkllzz",
"zllzzlllhhhklllzzlllkhhkllllllllllzzzzzzkhhhhhkllllzzlllkhhklllllllllllkhhklcbbbzzlllllllzzzvbczlhhhlllllkhhhhhhhhhklllllllllllz",
"llllzlllhhhklllzzlllhhhhllzzzlllllzzbbbzlkhhhhhklllzzlllhhhhlllzllllzzllhhhlzbbbzzlllllllzzzbbbzlhhhllllkhhhhhhhhhhhlllzzzllllll"
};
