/* XPM */
static const char *ea[] = {
/* columns rows colors chars-per-pixel */
"128 128 13 1 ",
"  c #0B0B0B",
". c #170F07",
"X c #1F170B",
"o c #131313",
"O c #1B1B1B",
"+ c #2F1B0B",
"@ c #2B230F",
"# c #372313",
"$ c #332B13",
"% c #3F2B1B",
"& c #473323",
"* c #4F3B27",
"= c #4F3B2B",
/* pixels */
"$&&%&%&&&%%%%%%%$&&$&&$$%&&&&%$@@&&%%%&&%%&%%%%%%%%$$%$&&%$$$@@$%&&%&&&%%%&%%%%%%%%%%%$$&&&&%&%$%&&%%%&%&&=%&%%%%%&&%%%%%&&%&%%%",
"&=+++@##@++XX@@@@@+X+#++X@###+@&=&+X++@++@#+++++XX++++X++++++X@$$&@@+++@+@+++++++++++++@@@@@++$%$&@+@+++@@@@+++++@@@@@++@@+++X$$",
"&&@+XX+##+XXX++X+@X@@XXXX+#@#+X@%%#++++++X++XX+XXXXXXXXX+XX+XX@$&&#+@@++X#+++XXXXXXXXXXXX++#XX@$&%@XXXXXXXX+XXXX+XX+@+++XXXXXX@%",
"&##++XXXXXX++++X++++X...XX+##X.X%@#++X+X+XXXX++++XXX+XXX+XXX+@.@&@@XXXX++.XX+XXX....XX.XXXX+@@X$&+@+++XXXX+X+X++X+@+++XXXXX+++X@",
"&#@+XXXX.XX++@X@+X+XXXXX+#X++X..%+X++X+X+++XXXXXXXXXXXXX+XXX++XX%+X+XXX+XXXXXX+XXXX+XXXXXXXXX+XX%+X+++XXXX+XX++++X+XXXXX+++##+..",
"%@@@XXXX.XXX+++X.+++X+X@+++@#@.X$++++XX+++XX+X+XXXXXXXX++XXX+X.X&++X++XXXXXXXXXXX+XXXXXXXX+X++X@&+X++XXXXXXXX+++X+XX++++@X+X@+.X",
"&#XXX.XXXXX.XXXXXXX++++@+++###X@=#XXX+XX+X+XXXXXX+XXXXX+X.X@++XX%+XXX.XXXXX++XXXX+++++XX+X+XXX.X&+X++XXXXXXXX++X++XX+XX+++++@+.@",
"%@++XX+XXX....XXX+@++@#+X+#+##X@&#++XX+#+@X+XXXXXXXXXXXX+X+++@.@%+XXXXXXXXX+XXXXX+@X@@X+XXXX+XXX&+X+X+XX+XXXXXX+XXXXXXX++++@+X.X",
"%+++XXXXXXXXXXXX#+#++#+#+@####X@=#+X++++++++XXX++XXXXXXXX++@+X.X%#XXXXXX+XXXXXXX+XXX###XXX+XX+.X$+XX++X++++@+X+XXXXXXXX+@##@++.X",
"$@XXXXXXX+X@++XX@#@++++++@##@+XX&@X+++++@X+X+++++XX+@XXXX+++X@.X%+XXXX+XXXXXXXXXXX+X@#@@XXXX@@XX%++XXXX++++++@+XXXXXXXXX++++++.X",
"%@+++XXX+@@@+#@@@+@+@++@#+@###XX%++XXX+XX@++++@++++XX@+XXX+X++.X%+X+X++XX+++X++XXXXX#@#+XXXX++.@%+XXXX++XX++++XXXXXXXXXXXXXX+@XX",
"&++@XXXX++X##++#@++@####@#####XX%#XXXX+XXX+++++++XX++X++XXX+X+.X%@+XXX+++++++@+X@++++##XXXXX+XX@&++XX++++++++XXXXXXXXXXXXXX+@+.O",
"&+++X+XXXX++@+@@@+@##@@@######XO%#XXXXXXXXXXXX++XX++XXXXXX++++.X%@X+X+++++++++X+@+++@XXX++XX+X.O&+X++++X+++XXXXXXXXXXXXXXXX+++X@",
"&@+++++@+@#@+++++X+@@X@######+XX%@XXX.X+@+X@@++XXX++XXX#++++@+X@&#++X+++++++XX+XXX+++XX+XX+XXX.X&@XXX+XX++XXXXXXXXXXXX.XXX++++.X",
"%++XX@+@@++++@+++X++@#########X@&@XXXX++++##++XXXX+XXX++++++++.X%++++@+X+++++@+X++@++XX+X+++++.X$+++X+X+++@+XXXXXXXXXXX++X++X+.X",
"%+.XX@++++++++++X+++@@#@+@#@X+X@&#@X+XXX+@@+XXXXXX++@#+@++++++.X%+++X@X+@+++++X++@XXXX++XX+X++.@%@+XXXX+X+XX+XXXX#+XXX+++++++X.X",
"%X+X+XXXXX++++@#@@@++##+###XX+.@&++++X++++++X+++XX+@#++##@+@@+XX%+XXXXX++++++XXXX+++XX@+++X++X.X%+++++++XXXXXX+@@#XXXXXXXX+@++.X",
"%+XXXXXX+++@+++++++@+++@@@++X+.@&#+X+++++++X+++++XXX+++@#++@+@.@%#XXX+++XX+@+X+X++X++XXX+XX+X+X@%++++++++X++++++#XXXXX+XXXX++X.@",
"$XXXXX++X+++XXX+@@#@###++XX++XXX@XXX+@@@+#@+XXX+X+X++X+@X+#+@X.@%+++++@+++@+++++XXX+++XX+XXXX..X$+X#@+++XXXXXXX+XXXXXXXX+XXXX..O",
"$$XX+XXXXXXXXX@##@@++++@#+X++.X@@XXXXX@@#+++XX+X++++XX++#X++X.X@$%XX+@++X@+@+++++XXXX+X+XXXXX.X@%&##@++XXXX+@XXXXXXXXXXXXXXXX.X@",
"%%X...........XX...XXXXX......@%%X.....XX..........X..........X@%$X........X..X........X.......$&&+XX......... ...............X$",
"%$@@@XXXXXXXXX@X@@X@@@@@XX@XXX@$%%@XXXXXXXXXXXXXXX@@XXXXXXXXXXX@@@@XXXXX@@@XXXXXXXXXXXXOXXXXXXX$$@$@@@XXXXX.. .XXXX@@XXXXXXXXX@$",
"%%%&&&%$%&&&%%%%%&&&&&&&&=&%%&%%&%%%%%$$%%$%%%$%&&=&%%%%$%%%$%$$%%%$%%%$%%$$%@@$%%&&%%&%%%%%%$%%$%%&&&%$@$@@@@@@@&&$$$%%$$$$%%%%",
"+++++X++++@@@X%%&&++++@##@@X+++@+@@+@++@@@++XX@$&&@++++++@++++++++++++XX#@++XX@@%%+X++@+++++X+++++++++++XXX++X@%&&+XXXX+XXX+++++",
"++XXXXXXXX+++XX$&@#++++XX@+XXX++@++X++XX+XXXXX.@&+#+XXX++X+XXXXXXXX+XXXX+X++XX.X%@+.++X+XX.XX+X+X++X+XX.X..XXX.@%#+X..XX..XX++++",
"XXXXXXXX+X+X+X.@&+++++XXX+++++++++XX+++@XXXXXX.@&++X+XX+XXXXXXX+++XX..X+X+++XX.X&+XX+XXXXXXXXX+@+#++XXXXXXX+XX.X%XXX.......XXX+X",
"XXX+XXXXXXXXXX.X%++X+++++++@+@++X++X+++X++++XX.X&+X+XXXXXXXXXXXXXXXXX+++@@@X++.X%@XXX.XXXXXX+XX++XX@X+XXXX++X+.X$+XXXXXX+XXX+XXX",
"XX+XXXXX+XX++X.@&@++XX+++@+X+XXXX+X+++XXXX++#X.X%+XXXXXXXXXXXXXXXXXXXXXXX++XXX.X%+XXXXX.XX+XX+X+X.X++++XXX+++X.X$XXXXXXX+XX+++XX",
"@@+XXXX.X#+X++.@&+X+XXX+++++XXX+X++++++XXX++@#.X%+XXXX+X+XXXXXXXX++XXXX+X.XXXX.X%+X+X+++XX++@++@+++++++++XXX+@.X$+XX+++XXX++++XX",
"++X++X+XXXXXXX.X&@++XX++@+++XXXXX++++XXX+XX+++.X%+XXXX+++XXX+XXXX+XX+@XXXX+X++.X%+XXXX+++X++@+XXX+++++++++XX+X.X%+XX+@+++++XX+XX",
"++XXX++++XXX++XO%@++++++++X+XXXX++@++X++++++++.X%+XXXX++XX+++XX++@XXXX+X++++++.@&+XXXX+XX+@@+@.XXXX+@+++++++++XX%++X++++XXXX++X+",
"+++XXXX+++@+X+X@&@++++@@+++X++X+++XX++XXXXXX++.X&+XXX++++++++++X++X+@+XX++++@+.X%+XX+X@+@++++XXXXXXXXX+#+X++++.O%#+XX++++XXXXX+@",
"XXXX.X+X+@@###X@&#+XXX+XXXXXX+++XXX+XXX+XX++++.O%@X+++++@+X#++@XXX++@+++++++++.O%++XXX++#@++XXX++++++X+XX+++++.X%+XXX+++++++XXXX",
"+X+X+++++++@@@XO%@X+XXXX+++X+@+X+++++XXX++XXX+.X%+XXX+X++@+#@@#####+X+++++++++.@&#+++X++XXXXXXX+XX++X+X++@@+@@.X$+XXX+++++@#XX++",
"++++++++@@+@##X@&@+XXX+@+++X++++X++++XXX+XXX++.X%++++++++++##++++@+XX+XX+++#@+.X%++XXX++@+++++++XXX+X+++++++@+.X%+XXXXX+++@++X+@",
"X++@@X+++++++@XX%@+XXXXXXX+++@+++++#@XX+#@+X++.@%+XX+++X@@+@@+@++@#@@@+++++@@@X@&@+++@+++++++@+++X+X++++++@+X+.X$X...X@+++XX++@@",
"+++++XX+@+++@#XX%#+XXXXX++@@+@++XX+@+++@##@++X.X$+X+XX+++@+@#@##@##@@#@#@++@@+X@&#X+++XX+@++#@##+X++++++@+@+X+.X@X...XXX++X++@##",
"X+++++#++@++#@.X$+X+XXX+++@+@+XXXX++++++@+++++.X%+@XX+@@X+##++#++##@##@@@##+@@X@&@XXX+X@+@#@@+#@++X+@++@#@@@##.X$+++X+X++++++@@@",
"+++XXX+X++#@@+.@%XX+@#+++@@@@@++X+@@+++@@@@@@+.X%++XX#+@+@##+@@@@+@+#@@+++@+@@.X%XXXXX@+####+++++#@+++@@##+++X.X&+XX+++++@+@#@++",
"++X+@+XXX++++XX@%+XX+@++##@@+#+@##@@+@@@+##@#+.X$XXX@@++@+++X+#@@@+XX+++@#++@#.X%#+XXX++@#@++++++@@+++@+++++++.X$XXXX+++++####@@",
"+@++X+XXX@@X+X.@$+++@+X+@++@+@@@+++++++@++@@@X.X$X+@XX++++@+##@X++XX++@++++@+X.X@XXXXX++++@+X+++XX+XXXXXX++XX...@XX++++++@++###@",
"...........XX.XX$@.XX.XX..XX..X...............@@$$X........XXX.XXXX..XX...XXXX@@$@X..XX.....XX.XXX........X...X@$@.......X..XXXX",
"X@XXX@@@XXX@@@@%&%@@@@XXX@@@XO@X@@XXXXX@XX@@X@@%%$@XXOXX@@O@@@@XX@XXXXX@@@@X@X@&%$@XX@@@@@X@@@@@XXX@XXXXXXXXXX@$$@@@@@@@@@XX@@$@",
"$&&&%$%%%%%%&&&%&&&&&%%$%&&%%$@@@%%$%$$%%%%%%%%%$%$$%%%&&&%&&$%$$&&%%&%&&=%&=&&&%&%$%%%&&%&&&%%$$&&%%%$%%%$$$%%$$%%&&&%%&&&&&&%@",
"%&@@#+X+#+++++@@+@++@#++##@@+X@@%%@+XXX+@@+++@@+#@+++@++##+++X$%&&+++++#+++@@@+@@@+#+++++++++X$$&&#+++++++XX+++XX++@+++++@#@++$%",
"&##+X+XX+XX+@@@XXXXXXX+++++++X.@%X++X+XXX+++++X+@++XXXXXXXXXXXX@&+#XXXX++X+++X++++XXXX+++X+XXX.@&##+++++++XXX+XXXXXX++++@@##@@X%",
"=++X+XXX+XX++X+XXXXX++++@+X+XX.X$XXXXX+.X.XXXX++++X++X+X+++XX+XX%@++XXX++++++XXXXX++X+++XX@XXX.X%@++XX+++++XX+XXXXXX+X+++@####X@",
"%++@+#+X+X+++++XX+++@+XXX++XXX.X$X...XX.X.XXXX+++++XXXXX+XXX++.X%++XXXXXX.XXXXXXX++++@@XXXX.XX.X%@XX+++++XX++++++++XXXX++@####X@",
"&@+++XX+X+++++XXXXXX+XXXXX+XXX.X%X...XXX...XX+++++@++++XX+XXXX.X$+X..XXXXXX.XX+@.XX+XX++++XXXX.X%XXXXX+X+++XXX+@+X++XXXXX++@##X@",
"&+XXX..XXXX+@++X++X++@+@+XXXXX.X%+XX.X+XX+X+++++@+X++++++XXX+X..$XXXXX+XXXX...XXX##+XX++++++++X@&XXXX++++XX+XX+X+X++XXXXX++##@XX",
"%+XXXXXXXX+X+XXXXXXX++++X+++++.X%+XXXX++++X++XX+XX+XX+++X+++XX..$+XXX+XXXXXXXX...XX.X+++++++@+.X%XXXX++++XXXXXXXXX++XXXXXX+++@X@",
"&@+XXXX+++XX+XX++#@+XXXX+@@+++.X%+XX++XXXX+XXX+XXXXXX+++X+++++.X%+XX+XXX++XXXXXX++XX+++X++X+++.@&XX++X+++X++X@+X+@+XX+XXXXX+++XX",
"%+XXXX+++@+XX@XX@@#+X++++@++++.X&@XX+XXXX+XX+X+X+X+X++XXX+++@+.X%+XXXX++++XXXXX+++XX++++XXXX++.X&+XX+@+@@++X++@@@XXX++@+XXX+++XX",
"%+XXX++++++X+@+XX++XX++@#+@++@.X&+X+++#++XX++@X+++++XX+X+++@+@X@&+XXX+++++++X+++@++++@+++XXX@+.X%+XXXX+@+++#+XX+@+++++XX+X+++#.X",
"%+XXXX+@@+++++X++XXX+++@++@@##X@&#+++@+++++X+XX+X++#@@X++++@@@X@&@XX+++X++X+++++XXXXXXX+@+###+.X%+XXXX@@++++XXX+XX@@+XXX++++X+.X",
"%+XXXX+++++++XXXXXXXXX+XXX+@##X@&#+++@+++XX+XX+X@++@++X+X+@@##X@&#+++X+++XXX+X+#+XX..XX++@+++@X@%X..X+++@++XXXXXX+++@X@@+@+@++.X",
"%@XXXXX++@++XX+XXXX+XXXX+@+++@X@&#@#+++@+++XXXX+@+++++X++++##+X@&#+XX++@++@+@@+++XXXXXX+@@@+@@.@$XXXX@+@@@+++XXX#X+#++@+++#@++.X",
"$XXXX+X+++++@#+X+X++X+++X+++++X@&#+++@+@#@+++++++@#@+XX+++@@+#X@&@+X++++++++X##++++X++@+++###@XX@XXX+XX@@##XX+X++++XXXXXX@@#++XX",
"$+XX++++#@++++++XX+X+++X++++++.X%@X++++@+++++@++#+@@@++++@#++#X@%+XXXX++X+@X+++@+++++@@@+++++X..$+X++++++@@@#@@@XX++XXXX+@@+X+.X",
"%XXXX+X+X++@#++XXX@+X++#@+++++.@%@X+@++++@@@#@+@+++@@++X@@@@#@.X&+@@+++++@+X+####X+@+@@++@@++X.X$XXXX+++@@++@@#++++++XX@#@@+++.@",
"%+X.XX++X+@++XXXX+X+++@@+++++X.X%+++++++++@####@++++++++@#@+++.@%+++++++@++++####X+#@++XXX+++X.X%+XXX@+++++++##@++++++@@#@@@+X.X",
"$XXXXXXXX+++XXXX+XX+++@+++XXX..X$+X++++X++++++++++#+++++++@++X.X$+++XX@+@++++@++++@+++++#@XXX..X$XX+@@@+@@++X+@++#XX++#@@+++X.X@",
"%$X.......X.........XX.........X@@X...X..X.....XXX..X....XXXXX@@%@X.X...X...XX..........X.....XX@@..............X...XX...X....X@",
"$%@XX.XXX@X@@XXXX@@X@@XXXXXXXX@%&%@@@XXXXXXXXXXXXXX@@OX@@@@@@X@%%$@XXXXXXXX@@X@XXXX.XXXXXXXXXXX@%@@XXXX@XXXXXXXXOXXX@@XXXXX@XXX$",
"@$&&&$$$%%%$%$$%%=&%%%&%%%&=&%%%%@%%$%%%%%%&$@@$$&&&&%%%%&&&&&%%%%%%%%$%&%%%%$@@$&&$$$$%$%$$$@$&%$$%$@%%%&&%&%$@$=&%%&&%$%%%%===",
"+@+@@XXX+++X+X@@%&#+++++@++XX+@XXXXX+XX++++++XX@$&#+@+@+@@++@@+++@#++@@@@@@@+X@$@%@+X+XXXXXX++XXX+XXX++++@@##+@@$%#+@+#+@+#@@+@@",
"X++XXXXXXXXXX.X%=&@XXXXX+XX.XXX.XX@.XXXXXX++XXX$&%#XX+++XXX+++XXXXXX+XXX+X+@+XX@&%+XX..XXXXXXXXXXXXXXX+XX++#+.@@&&#+#XXX+++X+X@#",
"X++XXXXXX++X+X.@&##+XX++XXXX.XXXXXXXXXXXXXX.XX.$&@++XXXX+XXXXXXXXXXXXXXXXXXXXX.@%+#X.XXX+@+XX..XXX.XXXXXXX+XXXX$&##+XXX+X++@++##",
"X+++XXXXXX+@++.@%+...X++++X.XXXXXXXXXXXXXX..X+.X%+XX++++XXX+XXXXXXXXXXX+XXXX++XX%+XXXXXXXXXXXXXXXXX.XX.X++@+++X@&#XXX++++#+#@@+@",
"X+XX.XXX++XXXX.@&XXXXXXXXXXXXXXXXXXXXXXXXX+XX+.X%++X+XX+++XX+XXXXXXXXXXXXXXXXXXX%XXXXXXXX+XXX++XXX..XXXXX+++#@.X%+XX+@+@@+@@@X++",
"XXXXXX++XXXXXX.X%+XX+XXXXXXXXXXXXXXXXXXXXX++++.@&#@+++++X++++XXXXXX+XXXXXXXXX+.X%+X.XXXXXXXXXXXXXXXX..XXX+@##@X@&@++++@#XX@##+@X",
"++XX++XXXXXXXX.X$X+XXXXXXXXXXX+X.XXXXXXXXX+@++X@=#+++X+X+@X++XXXXXXXX+X+XXX+XX.X%@XXXX++X+XXXXX..X..X.XXX+@###XX&@#@++++++#++@@X",
"++XXXXXXXXXXXX.X$XXXXXXXXXXXXXXX+XXXXXX+XX++++.@&#@++XX+@+++++XXXXX+XXX+XXX+++.X%@XXX++++XXXXX..X@+X...XX++###X@&@++#@@++##X+XXX",
"X+XXX++XXXXXXX.X$X.XXXXX+XXXX.X+XXX+XXX+++++++X@&#+@+@@#@@+++++++++++XXX+XX++X.X%+XXX+++++++X.XXXXX..XXXX+@#@@.@%+++@+@+###X++XX",
"XXXXXXXX+XXX.X .@XXXXXXX.XXXXX+++X++X++++@+@++X@&#++@+@+@@++@@#++++X+++XXXX+++.X%+XXXX+XXX@@+XX.......XXXX+#@+.X&@@+XX@+##@++XX+",
"XXXXXXXX+X+XXX..@XXX.+X..XX+++++++++++@@@#@++@X@&#@@@@##+@###+@#+X++++@#++++++.X%+XXXXXX++X+XXXX...XXXXXXX++++.X&@++X+++++@++XX+",
"XXXXXX+#@XXXXX..@XXX.....XXXXX+@+@+++++@#@+++@X@&#@@#++++@+@@+##++X++++@+++@++.X%+X+X+++++X+XXXXXXXXX+XXX+++@#X@%+@++@@+++@+XX++",
"#X+X@###@@XX+X.X$+XXX...XXXX.X+XX++@+++@@+++++X@&#@#@X++@##++@#@#XX+++@#X++@+@.X%XXXXX+X+XXXXX@XXXXXXXXXX++@@@.X%+XXXX+++XXX++X+",
"XXXX+#@###+X++..@X...XXXXXXXXXXXX++++@@++@@##@X@*#@@@X++++XX@####+@#+++XX++++@.X%+XXXXXXX++XX+++XXX+XX+XX+++++.X%@+XXXXX+#+XX+@+",
"X++++#####@X+X.X%XXXXXXX+++XXXXXX++X++++++@##+.@=##@+++++++##+++X++@+@XX++++++.X$+XXXXXXX+@+XX+++++++#@@++X+++.X$+XXX.X++X+X++X+",
"X+#+###@@#+XXX.X$+XX+XX+++X+XX+XX++++++++@++++.@&#+++@##@X+++++@++@++X+++@+X+X.X$+XXXXXXX+@+XX++++++++X+X++XXX.X$+++XX+@++++++@@",
"#@#+@++@@#++XX.X%@XXX+++++++++++@++@@@##@#++++.@%+XXX+##@@@@#@+++@+++++++++++@.X%+XXXXXXX+++++++@@++++@+++++XX.X%+X+++++++X++XXX",
"+X++XX++XXXXXX.@%+XXXXX@@@@+@+@@++++@#@+X++@+..X%+X++++X+#@@@++@##+X++++++++XX.X@XXX+@@++++++++X++++@@@++@+++..X$XXX+@++++++XXXX",
"+X+@XXX++XXXX.X@@@XXXXX@#+++@##@++@#@++++++XX.X@%%@+@@##+@+++XXX@+XXX+X++@+++.X@$%++++X++X++XXX+++#@@@+++++++.XX$%+@@@+++++XX+X+",
"...X....X.....X$@$X......XXX..XX.X.XXXXXXXXX..X%%%X...X.X..............XXX....@%%&+...XX..X.....X..X..........X$$$X.XXX.XXX.....",
"X@X@XXX@@XXX@@@$@@$@@XXX@@X@@X@@XXXO@@@@@@@XXX@%$@@@X@XX.X@@XO@XX.XXXXX@X@@XXX@%%&@XXX@@XXX@@@@@@X@XXXXXXXXXX@@$$@@XO@@@@@@@X@@X",
"%&&&%%%&&%$%%%&%$%&%%%$$&&&&&%%&$&&%%%%&&*&%%%%%%&&%%%&&&%&&&%$@X%%$$$%&&%%%%%&%%&%%%&&&&&&&=%&%%&&%%%%%%%%%%%$%%%%%%%&%%%%%%%%%",
"&&#@++@##@+@++++@+X++XX+@##@++@@%&@+#+@#++@+X++++@+X+++++X###@@@%%+X+X+@@++++++++++@#####@###+$%&&##@@++X+@+++++++@+++XXX++@++$%",
"&##X+X++@@+XX+@+++++XXXX+++XXX.@&##++X+XXXXXX+XXX@XX+X+++XX+++X@%++XXXXXX+X+XXXXX+X++@+X+X++++X$&##+++XXX++XXXXXXXX++XXX+X+X++.@",
"=++++XX++++XXXXXXX+++XX+X++XXX.@&@+++X+XXXXXXXXXXXXXXXXX@+XXX+.@&@X.XXXXXX++XXXX+@+++X+XXX++++.O%+XXXXXXX+XXXXXXXXXXXXXXXXXX++.X",
"&+XXX+++XXXXXX.XXX+X++XXXXX+@+.@&+X++XXXXXXXXXX.XXXXX+X++XXXXX.@&@XXX+++++X+X+++++@+XXXXXXXXXX.X%+XXXX+XX+XXXXXXXXXXXXX+X+X+++.@",
"%XXXXX+XXXXXXXXXXXXX+XXXXXXXXX.X%+++XX+++XXXXXXX.XXXX+X@+++++@.X%+@+++++XXXX+++++++X++.XX+++XX.X%+XXX+XX+X++XX+XXXXXXXX+X+++++.X",
"%XXXX+@+XXXXXXXXX@XXXXXXXX++X+.X%@+++@XXX+XX.XX.XXXX++X++X+++#X@%+++++@+XX+@X+++@+++@+XXXXX+@+.@%+XX++XXXXXXX+XXXXXXX+++++X+++.X",
"%+XX++@@+XXXX+XXX+XXXXXXXX+###.X%@X++XXXXX.XXXX++XX@X+XX++@#@@.X$+XX+++@+XX+X++@@+++XXXXXXXXXX.X%+XX++XXXX++++X++XXX+++XX++XXX.o",
"%+XXX++++XXXX+XXXXXXXXXXXX++++ .$++XXXXX+XXXXXXXXXX@@#+++X@##@.X$+XX+@@+#++X+++####@+@++++X+++XX$+X++X++@@+++++X++XX+++XXXXXX+.X",
"%++XX+@+++@XXXXXXXX+XX.XXXX++X.@&@XXX+XX@+XXXX+XX++++@@#+X++++.X%+XX+@##+++@##@######+++@@++@+.X$++++++++++@++X+@@X+X++XXX+X+@X@",
"%++XX++@+XXXXXXXX++@XXXXXXX++X.X%#XXX+XXX++XXX+XXXX++++++XXX++.X%+XXXXXXX+@+@+++######X+X+++++.X%@X+++++X++++++@@+X+X+X@+XXX++.X",
"=@+XXXX@XXX+X+@++XXXXXXXXXX+XX.X&@+XXXXXX++++XXXX+++X++++++++X.X$+XXXXX++++@@+++++@##@+@++++++.X%+XXXX+++#+X++@+@++XXX++++++++.@",
"&#+XXXXXX+@@+XXX+++XXXXXXXXXXX.X%@XXX.XXX+X+@XX++X+XXXX+++++++.X%+XXXXXXX+@++++++++@+++#@#++++.X%+XXX+++++X++++@+++++++++@+@@+.X",
"&#+X+@++++@++++++++@+X++XXX++X.X%+XXXXXXX++@+XXX++++++++++@+++.@%XXXXXX##+#@+@#XXXXX++X+++@+++.@%@XX+@+++@+#@+++++XXX+XX+@@@+@.X",
"&#+XX+++X+@+@+@@@@++++X+@++@+X.X%X.XX+@+++@#+XX+++++@+++++@@+@.X$XXXXX++++@+@++++++@+@@@@@++@@.X%@+++X++@#@@+++++XXX+XX+@+@@@+.X",
"&@+XX+@#+##++@++@@@++@++++X+#X .@XXXX@@++###@++#@+++++++@@++@@.X@XXXXX+X++@##+@++++@+@++#++++X.X%@X+X+@++++++++XXXXXX+++++@@@+X@",
"%#+XX+@##+X+@#+#@@#@+@@+++#@+X  XX.XX+++X++++XX+X+++X+++@@+++X.X%@XXXX+++++XX++@+#+++++@+@@+++.X&+X++@+X++@++++++XXX...XX+@+@+.X",
"%@@@+X+++XX+@#+#+@##+@+++@+++X .@XXXX+XXXXXX+XX+@+X+XX++++X+XX.X%@XXXX++@@#+++XX+@+++X++++++++.@&+++XXX++@++++++XXXX...XX+++@X.X",
"$@+++@XX++@+++@+@@+++#++++++X...X.X+++XXXXXXX+@@+XXX+X++XXX+X..X$XXX+XX++@+++++XXX++@@+@+@+++XX@%+XXXX++++@@@@++XXXXXXXXXX++X..X",
"&%X.X...X.XXXXX......XXXX.....XXXX.X....... ...X..............X@$@........XX......XXX......XXX@@%$...XX....X... .XXX..........X@",
"&$@X@@X@@@X@XXXXXX@XXX@@@XXXXX@@@@@X@XX.X..XXXXXXXXXXXXXXX.XXX@$@$@X .XXX@@@XX. XXXXXXXXXXX@X@$&&%@X@XXX@@XXXXXXX@@@@XXXXXX..O@%",
"%&&%&&==&%%&%$@$%*&%&&%=&%%%%&%%%$$%&%%%$$@@&%%@@%&$%%$$$$$%%%%$%%%@$%&&&%%%%$$$$%%$%%%%%%%%%&&&&&&&%$%%&&%$%%%%%&&&&&&%%$$$%%%&",
"##@+##++@@++#+$$&&++@+@@++@#@+@+XXX+@+X+XX+++X@@&%@@@@+++XXX+++@+XXX++#@@@+++X@@&%++X++@@@+@@@+@##@@+@@@+++++X$%&*#@@@@@++++#+++",
"@XX++XX++X@@++X$&@@+X++XXXXXXXXX.XXXXXXXX.+XXX.@&+#+++++XXXXXXXX++XXXX+X+XX+XX.@&++XXXX++X++++X++@+++X+++XXXXX.$&##++++XXXXX++XX",
"XXX@XXXXX++@++XX&@+XXXXXXXXXXXX+XXXXXXXXXXXXXX.X$++XXX++XXX...XXXXXXX+X+XXXXXX.X%XXX.XXXXX+++XX++++++@@X+XX++X.X%#++XXXXXXXXXXXX",
"X+XX+@++XX+++X.X%@XXXX+XXX++XX++X+XXXXXXXXXX++.X$XXX.+XX+++XXXXXXXXX+XXXXX+XXX..%XXXXXXXXXXXX+++XXXXX+XXXXX++X.X%+XXXX+XXX++++++",
"+X+XX+@#++@+#@.X%@+XX++++@#+X+@+X+XXX.XXXXXX+X.X%XXXXXXXXXXXXXXXXXXXXXXX@++XXX.@&+XXX+X+XXXXXXXXXXX++XXXXX++++.X%+XXXX+XX@X+XXXX",
"++++++++++@@++.X&#X++X+++++++++++++++++XXXX++@XX%+XXXXX+XXX+XXXXXX+@+X++X+XX++.@&@XXX+XXXXXXX.XXXXXXX+X+X+++++.@&@XX++X+@+XXXXXX",
"+++X+++++++@##X@%#XXX@@@@#++@#+#+@@+@@++XX++++.@%+X+XXX+++XXXXXXXXXXX++XXXXX++.@&@XXX.X..XXX.XXX++XXXXXXXXX+@+XX&@X++++++++XXXX+",
"+@+#++XXXXX+@#XX=#XX++++++X++X+@@#@###@++++@#@.X%+XXXX+@+++XXXXXX+XXX++XX+X+#+X@&#XXX.XXXXXXXXXXXXXXX+++++++##X@%@++XX@++++++X++",
"+@+XXX+XXXXX++.X%+XX+XX+X+@XXX++@@@@#@+++++@#@.X%@XXX..XX+++XX+X+++XXXXXXX++X+.X%+XXX.XXXXXXX+XXXX+X+XX+++@+@#X@&@+++++@@+XXX+XX",
"++XXX@+XXXX+XX.o%XXXX++#+X+XXXX+++@++++X+@+++X.X%+XXXX+X++++@.X+++XXX++XXX++++.X%+XXXXX++++++XX++XX+@+++++++##X@&@+XXX@#++XX++X+",
"XXX+X+X.XX++XX.@%XXXX+++@+#+X+@@++@XX+XX++++++.X%#+X+XXX++++X..+#XXX++++++X+#+.X%+X+XXXXX+XX+++++++X++++X+@@#@X@&#+++++++@+@#@@#",
"+XX+XXXXXX++@@.X&#+X+++@@++@@++XXX+XXXXX+++X++XX%+XXXX+++XX+XX+X+++++XX+++++++.X%+X++XXXX+XX+++XX+X+XXX+++@##+.@&#++++@@++@##+@@",
"X++++XXX++++++.@&+X++@@@@+@@+++XX++++XXXX++X++XX%@XXXXXX+++++++X+++XX+XXX++++X.X%++XXXX+++X+#+@++@+X++X+@#@#@@X@&#++++@@@@@@+#@+",
"++++XXXX+XX+XX.X%+XXXX+@++@@XX++++++@++XX+++++.X%+XXXXXX++++++++X@+@+X++++@++@.X%+X++.+X+@+++++++++@@@+++#@##@X@&#+X++#+@###@@##",
"@X++XXXXXXX++XXX%@+X++++###@@++@+#@@@@+XX@+@#+.X%@++XX+++###@+X+X+++X++++++@+@XX&@X++X@+#++@++@+++@++++@@@##@+X@&+++++@##@####@+",
"++#@X+XXX++@+@XX%#++++X+#@@#@++++@+@@+++#@++++.@&+++X++@@@++++++@+@X+++@+@#@@+.X%+XXX+++@@@@@+@++XX++++++@#+++.X$++++++@#####@@@",
"+++@+@XXXXX++@.@&##X++@#++##@@@++++@+++@++++++.O%@+.X+@@@@@++++@+@++@++@+++++X.X%+XX+@#@X+@+XXXX+++++++@+@+XX+.X%@+X+@@#@@@@@@@#",
"#X++#+XX+XXX@X.@&+@+++X+##+#@X#@+++X+X+++++++X.X$XX++@#+X@#@+++@X++X+X+XX++++X.X%X.XXX++XXXX+++@++XX+X@@++XXX..O%+++@@++++XX+++@",
"X.XXXX..XXXX.XX@$$X.....XXXXXXXXX.....X.......X@@O....XX.XX.X..XXX..X...X.....X@$@...........XX.XXX...X.......@@%$.........XXXXX",
"XX@@OO@XXXXXXXX$%@@XXXXX@@@@@@@XX@XXXX@@O@XX@X@%$@@X@@@@@@@XXXXX..X@@XXXXXXXXX@$@@@XOXX.XXXXX@@X@@@XXXXXXX@@@X@%&@@@X@X@@XX@@@@O"
};
