/* XPM */
static const char *so[] = {
/* columns rows colors chars-per-pixel */
"128 128 47 1 ",
"  c #1B1B1B",
". c #2B230F",
"X c #372313",
"o c #332B13",
"O c #3F2B1B",
"+ c #2F371F",
"@ c #232323",
"# c #272727",
"$ c #2F2F2F",
"% c #373F27",
"& c #373737",
"* c gray23",
"= c #432F1B",
"- c #43331B",
"; c #4B371B",
": c #533F1F",
"> c #473323",
", c #4F3B23",
"< c #4F3B27",
"1 c #4F3B2B",
"2 c #533F2F",
"3 c #5F4323",
"4 c #5B472B",
"5 c #574333",
"6 c #5F4B37",
"7 c #53573B",
"8 c #6B4727",
"9 c #774F2B",
"0 c #7F532F",
"q c #675333",
"w c #67533F",
"e c #775F3F",
"r c #434343",
"t c gray28",
"y c #4B4B4B",
"u c gray31",
"i c gray34",
"p c #5B5B5B",
"a c #6F5743",
"s c #775F4B",
"d c #5B6347",
"f c #676B4F",
"g c #7B634F",
"h c gray39",
"j c gray42",
"k c #6F6F6F",
"l c #777777",
/* pixels */
"*ajiwiuwuuuuwwiiuhuhphpshpphit62rhjhhputiipppi6qwupipappiiuwu6rutapiiwuiiiihuphhhjjhhhhpuqwyuqtu6hjhuiutryuyi6yuuuhhpiihpihphaui",
"tijtrtrrrtrr2rtyyu6wiuiuiuyyy&ry6ap4iur*tupuyutt4t6iuyiyttrrr&*6yiyyytttyyyy*yippppppaiyttr*5&*wyh06r46t*rr*rrrrrt3iipipay<yiiuj",
"hii&51*tr*$$&&**r*rrry6yut**r&>yhhy&r***trtt*r***1ryt**&*r*rr&&tpay***r*****$*yyyu6piiur**rrr-&yppur***tr&&*&*&****rrttyihpy*&&i",
"kuy1&*&$$$$&1rr4&**rryuyt4****Orhuu<<**rr&*$>>&r*rrr****1&*rr*$rayy&***&&$$$$ryuyrtyytyr*yrrt*$&ary*3&&&&$>&r*rtr2r**ryiiyhyur$5",
"e5&&&$$$&&*r**t2*r*t*yrrr5*,rr#&purr&**r21&$*&&**rrr**>>&&*1**@#ut**,*&$>$$#&rtyty5tt2r**rr*21##i*r**&$$$$&&&*yiyrrr**tutywtry$r",
"ay&;&t**r4rr31rrr**rrrtrrt&&**$&aur**&**&1***$&&&&*&&&$&&**r*&@$itrrrr**$O#$&*2rrtryt4r**r*tt&X$yr&***&$$O&*ryrttrrr***rt**&r1#*",
"ur&$$tr**&&**rtyyryr5ttt8r1&*r$&py***&*,**4*&rrr&&r1><&&:rrrt2#$iy*******&>>*1*rrrrtyyyrrtyttt##y*$&&*&$$$&*-tr,tr****,3i&$&*t$$",
"u**&-&yr**$&*<ty4rrrtttty&$3*r$#yt**&&&>*r<*$&21*6*r*&>***5r5tO&pt**&&&***1***rr*rrytttr2ttt4yo#yr&11**&$&**,y1rr1**tuyrut$&tr$&",
"pr**&-*r1**,t7yr5rrrtuuyy&&r*1$$wr&&*&;<2r*&&*r**t&*>O****4rty$&it&>&&&***&$$**,:*ryr1rrttttt4##yr&***&**&*ytyu1t1rrr5y*t*&rti&$",
"ht1****1rty>2tr&*tttquuyur*rtr$&p*$&rr**<$*&&*r**rr&&&***t4tyy$&u4**&&**<*&$&,*&<**r****ttttyt##ur&&&&&*>**tt*iyrrr<r15*&-*5up&*",
"pyt*trryr&&>&*$&**rryuuuu*yyyy$&i6&**r**&&&&&*tr***r&%&*2rrty6$$urr<******&&&>&*rr<*<*&*tr2yu6#+ur&&&*rr*&rtrtytr**u:*2t&&*ypi$&",
"hyr&&&*yy4:>&$$r**ry56uiutuyuq$&iy&&&**r$&;&&&>$**&&&$&**rrttt#$i6**rr****,$$$&*1r*>*>&2ttttyy#$u&$$&rrr*r1tu,yyyir5t*t*trruiiO&",
"pu*&r*ryyt&**&$&***yyyytyyuuuu$>py*&$*1&rr&**&$$O$&&***,&&*rtt$&pu**rr**r*1$$&&*12*&***rr*t2yu##r2$O***&,rr1yyyyyt*2t2rtu3ryi6O&",
"utr***yr<*&rr$&;**r4yyyt6yyyyr$&hyrr>&&,rt*$&&$#@$&&*rr*,>*4yy$&py*rrr2*r*&&&****1$&&$&rr*ryyuO$t&$$->&**r*rrttryr1rrri*yyr54i##",
"yr1****r&&1*ttr****ruyrrytuyrrO&iytt*&<rty&&&$$$***&*5:*ttrrry$&purrr*r****r*rr*1&$&&&*4***trtO$t*&&&***1***yytt2rrrry8t&**rrt#@",
"pu&--$&tiut58tttrrrtyyrtu8uyttO$iqyytr5tyt**1&&,r*r1:t5y6ytuyy$&purrr*rt2****r**&&**&**rrr*r*r#$yt>****trrrrrtyyyr*rr4tr2**2rr#$",
"iittryuii4rtyutyt4ytyttyr5y6rt$&pyyu6ytttrr*&***rrrr*r86i8iiuy#&pytrr*rtr*&*&*rrt4rtryq*rtr*r*@oiy*r1rttrtrrrrrr*rrrrrrrrtt&5y&$",
"ytrr5yiyr,rtq6yr*tuyyuy5ttuuyt#$iyrttyrrr*r&*r**41rrr*ruipuiqu$&dutrrrttr*&t&*2ttrttyyyr14rr5r$&pyrrr2ytrrtrtrtrrttrrrrttr**rt$#",
"t*&rr***rrrt6y6ttyyyrrryy4uty&$$t&&*rr*r***,rtr*rrr*2<4iuttiu&$&6rrrr1*&*&*r,rrrrrrtttyyrr2tr#@Oyttrtrt46trryrr5ttrt55*,*<&$r##$",
"tr&*&**&*rrrrrryt4tr6ytrr4rr4#O$*r&***rr,*2*rr&*r**3*:tuu35yyO&*yutr:***r&rr2rrr*3r5rtttr&**&@$>yurrrryuytrr**rtrrrrrtt*&>$$1 #&",
"5*$#@ @o.#######$$##X####$o##$#>rr$########@#@.@######$$###$#$>uuu&###@##@####@#########@oo#@#&66u*##$$$##.#@#@######$$@@   $ @*",
"*&&##@@##@@##o@#$$#$$$$##$$#$$&tyr>$$$$&>$##$##$$##$$$$&$$&>&&*iiy*$$$$&$$$O$$$$###$#$$$$#$##$1y6ur$$$O$$######$#$$$$$$###@@$#Or",
"rtyttrtrrrr*2O#O*uiuyyuytuyyuipppipiuuuiwtuiurrttipiiuipiiiwwppwpiiiiiipiiiiurtrypitywyuuuiuupipiaiiiiqu6uiyyr1yrupiwuuuy5trrttt",
"rr*3*******&$##$yurr5rrr*r*trtyyy6tty6tttrtr***yapytrrtuyrttyy4yy6tytyiuttttr&*5iir**rrytt*rrry5yyu5t4ytttrrr&&*iutr5rrtr***r***",
"&&&&&>-&&$O$$@ $6*t>&>&&$,&&&&&rr1r2*rr*&>&;&&#1p6u****&****rr2**<**rtrtr*4*1$@&ayt&&&&1,&*:rrr***rr*r*&$*&**&#&i4t**&&&$&$**&*&",
"&&&&&*&&$#$>*$@or&&&;&&&$$&&&&$>>***rr***$$*r*@#y4**&*&&&$$**1*&***ttt**r*&&$$@$u4,&*<&&1&*r****&>&&&&&&*r*&*>#$ur*&>&&&&&&**tr*",
"**&&<;>,&*$&$&@@*:&&>&$&$$$&&&&&&&*****&&&&***@$i5&&&*r&;>>1*&&*&****2$&*<>&&*##yr*&*11*&&*,,*&1,r1&1*&**r*&&&#$6r*&&&$&&&,**<&*",
",*&*&$$$#&&&,& @5*&&&&&&&*&$&$&&&&&>&***1*&&&&@$u4&&&1r*&$&*&&rrrr**$>$&&,&&**#Opy,*****&1&&&****r&&**&&&*1&&*#$6*>>>&&1&>*1***2",
"*&*&$&$$$&*y&&@#r**&$$$$&**r**rr&*&&&rr11*&>**@#ut1&&*r*&>&&&*rttr$$&$$&*&*rr*#$yr&1&**<***>&rr******,$&>*rr**#$yr&&**&&rr**r5t*",
"&*&$&&&**&>r**##tr&$>&$******rrr&&&&&2r***&*rr##uy2&>***>$$&*r****&r*****&:**&@#ur&&*r<r**&&>r**r*r***&&$&r2*r#$it*&*&&*rrryrt*$",
"*t*$&1r56&*$$- #r&&&*&$&>,<***r*$$&*&*4tr2r4rr#Ouyr**,**&&&*r2****r*rrrt****rr$$it&&***&&1&>$rr5rr5r**$$&rr*r4#$y*&**&&*r5t56r,*",
"&&&**&34&$&1r4#@tr&>*1&*rrr**rr&$>&><*rrrrrrt5#$u6**<***r44&rrrr**r***$:;rtrtt$Out&&1&**12,&&trrrr5r**&*r2***&@$ytr*&*rttr*,*&&<",
"$$$$$$#$>&*4r* #6y**2*r*rrr**rr2<*r&&*r2trrtyy##uy***rr5ttr**r*&*r****$&&ttyyy#$it&&**41rr**rytttr4r*&&rr****r#$ut**&*t84&$*&$$$",
"$&$&&&&&*rrr**@$i2&&&*r15tr*rrrtr**$&*rtttt4tt#$ay2<**r2r&****r1*r1rrt$$&5ttty#Oir&**rrrr**3ttttyrr****rrr**yr#$ut*&&*rt*&>&>>,*",
"&1****2rtuy8r*#&it&&****2t*rrr5t5r*&*rrrttrrtt$Out**rrr*5*rr*&2*r*34qr**r4tyyy#Oiy*rrr2r22*rrttrrr*&r**rrrruyro#yt*&*<1trr*rr*rr",
"***r*1*5rrt*r*#&pt****&*r*rrrrrt44*&<*rrttttrr$$ut***r**2**r**rrrt*tuu6yyttyyt#Otr*r**rr5rr45trt4r*r*&24t5rttrO$wr*&&1ur*y*&t*&*",
"****rr45t*r2r*#>65**rr**rrr4rrrryyr&&r**tyyytr##6t**r*rt*r*rrrrry6u46yqttttrtr@#ut*1rr5rrrrt4rttttttr2ry5yytrt#$ur&&r3<$ry*r**rt",
"y5r*rrrrttrr6t#$urrr4rrr*2rrrrttu6t1***r45yq5r@#yrrrrryyrrtyyrttuyyy6yyytrrrr*@#it*rrrrttr4r*trrtyyt**8tyutyuy#$p6rut*$&uiyttt2t",
"y54r*3r3rttyt4#$yr1trtttr*rr3rr6ytr2rrrttq4tyr.#5rtytuyuytyuyttyyyquwy6tr*rr1*X$ur**rrrt4tt6rr4ty86t2rrryyryyt$*pr#&$ttruiytuyyy",
"y4553rrrrrr4rr#Outrtttytrrr**14ytr2trrrtyyty6r#Oyty5iuu8uuuuyrruuuquuuytrr6t*t@#iy**rrrtr4tytrrryyyttr2tttyyyy$&w&$>$ryuput<tyui",
"uy6yt5rtt*rr*#@#r***rt7t4rr***6tr*t,*ttyy6yut&#$rrtu6yuiuuyy5rtqy66yyyyr&2ttt$@$yrrrrtr4rrt6t4ttty6r4t5yrrtrr&$$y$&-ryyyiuyryttu",
"$$$$o$$#o#Oo###&tr$###$$$$+##X$##+#@@$$O$$o$$O$&rr&$$$$$&&&$OO$$$$$$$$#@#o$$O@O&yr$######o####$#$&#o#$$$O#$#$O&r7&&#$#.$&$$$#$$$",
">&&$$$$o$$$&$#$rtr*$##$$$$$$#$$$$$$#$$&&$$&&&$&ttyt**>&**&>&&&&&>&&&&&$$***&$O&uuyr$$$$$$$$$$+$$&*$$$$&&$$$$$&riurr$$$#&&$&$$$&$",
"ihhpipiuupauyyrtyuuy6ytyuuiiyr*rtppwuiiiiipphaiqypephphppipputtwuhhpppiipiphiaiipiwyuuyyuuuty5r7uppiiuuiiuuuippp6upuippiipiiiyti",
"jhi6tuiuyytyr&1rrrrrr*2r4rttt**&up62rrtyyyyiu8uyyyiuiiiuyyyut**usgqtuytyyyuuuyttyyt5rrrr4rr2**5rppqrrrrytrrrttiqtutttyyytuyyyrtu",
"eqirt5yy***&$=&$&>***&&&&&,1r*##ury**r1*2rrtytrt**yu6yy4yy**r*$rhuutr*rrtttrr&*r*r*3*&>&1*&&*&#>ayy&&&&*******yu*y***rr*&**521$r",
"iitrtyyury*&#$****&&&&$$&>&*rr##t&&-**r*r&,rttyy**2yyyy64*+&*t#&iy85&*rrr*rr*r***r1***2*11&**&@$it&$$1&,**&**1**>r**1*,****2rr#$",
"aurrt**t*r&>-****&**&&$$&&&*r5#$y&#O&&r**&&*rty2r-ry5yyyr&r**yO$ytr*&&*rrr*r*4*1*1<rr*&*&**&&&@#yr*$**&***<*****&:&&********rr#$",
"uytr*rt***&$>****&&**&&$$&,&r8$$y&$$O&1******ryyt*ryyytt2*rtt6@#ut2**&&rrr4rr*2rrr*******rrtr*@#ut&$$$&&****<*****&***&*r**rrr#$",
"uirrrr1>***&&1*&&:&&&&>;&&&*ty#$t*$$$&**r&>-*rruytt6u6ytyy4tty#$y*&,rrrr5rrtt*4tr*rr&**rrr5rr2o$ur&-$$&&,**r******&*****rrrrrr#$",
"pqr&***&*&&&1**&,*&&&&&&&&&*rr#$r*$>&***&*&*r,*ttt5yuuy6ut5tyu$$iy**rrrrr5rrt*t*r*1*rrr5r54trr#$u2&>$&$*r**r***&&&**&*&1rr5rrt#$",
"ut>&&**&&&>&:*,*&&****&&&&**rr##rr&**1*rrr&>*rtr,tyyuuuiiyt5yy$&py2rrr2*t65rtrrrr**r2rtrrttt45#$ur&&&&<******r2&&&&&r***rrrrt4#$",
"ut;&&&&&&$&*r**r&***2&&&&,*2tr@@6y*&*&,*rr*1*rtrtyutyuuiiy4yyt$&p652*rtttytru*rrt4trrr23tyyy6t#$wr&>&*****r**r&***&**&&**rr5yt#$",
"ut,&&&&&&&,1rr**&*rt*&&>1*rryt@#uur&**>$&1&&&rtt4uuy5uyqqqyyyy$&syrrttytt7yuuyyrrtr5rrttryyt6y$$ur<>$****rtrr4*****&&&<&*rrry5#$",
"yr&&&&$$&&&*21*r***,&&&&*&*ttt#$py***&&&$&***5rt*ryuyy4iyyyyyy$*syrrrrrrt6tuyyyttyrtryytrtt6yy$$w4$>&*&&&**&*:****&&&<*1*rrrtr#$",
"ur&&$$$$$&*3r4****r**&*,***yiu#$iut1**r**&*rrtytrryy5tty6ytyuy$&suyytyuiiyuutyy*yyrytyyr4tyytt$$it*&&&**&&&&*&**$$&**r**rtrttt#$",
"ar&$$$$$$&rtrrrrrrrr*****trtuy#$i4r*ttrr**r*tt5trtyutyyyi4y4yr$>hpyrtryuy6puuu2ttt44trr4ty6tt4O$w5&&&>&&&&**rr**********258yyt$>",
"ur$$&&>$$&*tryrrrrrrr*1*rrryuu$&pur*rtrrr5rtyyyt53yyuu5t6r:t5t$&jitryiuut56iy*&yttty*rttyttyyt$$y*&$&**r*r*2trrr*2*<,3rrrtttyy$$",
"ur&&$*>&**yqr2t4rrytrrrttrt5yt#$pu*rrtt2ty54yttrytu6iuuuuyuyry&&ayryuwiytiiyiitrttt*rt6yy8yttr#$ut>&>1*r&**rtrr*rr*&*rtrrrrry5o$",
"yr&$;&&&*tyyyrrrtrtttr*2r5ri4i$Oi5ry5yyyyyyyyy6uttyuuuuipiiiut$*huhhhpauyiyypy5ytu*&r6yyyttt5r#$ur**1r2rrr*6yr1*rrrrrrrrrrtyy4o$",
"i*$$$$$&tyuy6r*rrr*rtt5tt5uh5t&$piyuui4yuuytrrttrryyyyuupppihy@&jahyuppuuuiiptyt6i55yytytt4rr2#$ut5rr******tt***rr26r**rrrrrr*@#",
"6&#$$&*yttyutr**trtrt8rrturty&$$iyyuiui4uuytr1r**,6uyyyyuut8p*$&ghy4yiuuyuiu4uiu6r4tytt6trr**$o$rr&**rrr*****t*1**rr5r**1rrr*##&",
"y1O###$O#$$$##$#X@####@@##o$$oOriy&$&&&&$$$$######@##$$#o##$##&thh&&$$$$$$&$$$$&&&$$$$$$######$&t1$##@@######@@###o###o###o#$#$&",
"tr&#$$$#$&&&*&>$&&$$&$$o##$$&$yi6y1&$&&*&*&&&&$###$$$$O$+$>$&$>piyr%***&&&&&$&$**&>&$$$$$-$$$>&tt2&&&&$$$$#$$##$O#$$$$$$$$$$&&1u",
"urr6uuuiiiiipytyypfpiuiuyujhlkkkjjapppwhhuiupitrrphpwiuwiyutuiuu*uiihhhqi6iph6rpuppiiiuwywwu7wuyyuiipiuwpuuiiy5u6ppiuyuuuuuuiuiu",
"r&*r2yu67yty6*riujiutrrry5yyyjphpppiu3iiitrtt&ryywuyyyyuirrrryy6r*ryrytytyyyurriuputtrrrrrrrtrrr2rt6tttytrtr5&&rypytrrttty65trty",
"$&&&*r5*rt**r&&tppi*&*&*r&&riuiy5r*trt1tr,&&&##&i6y>**,*tyy&#$$1&&&****r*12ry&&yppit:r*&*r*r*&1*&&r***t<&&&*$o$ypiy*<&&*****&&*&",
"&&&**rr2*&rrt*O1pyi&*&*r***rriiitrrr*rrr*&rr*$@#u26r;*r5r*u&*;$**r<*&*&&**1t4r$rh8i*&*1rr****1&&r&*1*r>&$&**r3O*i5y*&&&&*&&&**r>",
"******rrrrrtr5#$iyty**rtt2*$y:i2i2r1*rtr&*tt*r@#yr*>&-&*1*t>$>$*r*&**&&$&rr2rrO&i4*&&*r&*rryr*&r$$**$>&>&1***r#$y2&&&$&&*&&$&1r>",
"**1***rr***1tt#$yt**&*&1r*&&tyyt2t***r&$&&$&&*#&pu*&>&&**$$$$$$<**&&&r*2rttryt$&ir&r*r**r*rr*$&$-**&$&&$****rro#yr*&&$>>*&&&1r4&",
"&434rttr*rr*r*o$t<$$*$$*r*&*ryyyyrrrr*&&&$&r**$$q6&&&&*2u$#o$&&&1&&&&r5r*rtttr#&u5*&**;**rt*&&*&*r1$$$&&***rrr#$ur&&&$**&&1rrr5*",
"rtrrrr*r***r4r$$t*$&&&&*&&***ypyyttrr**&$&*r<r$$ut<&***rur##&O&*&$&$&rttrryry5$&ppy**u&&*&rr*>rr5&##$&*>rr4r2r$&it*&&&>*:r<rrr**",
"rr*&*r5tr*rtyr$$tr$$&***r&r1ryi5tu5tr>&&&&&&rt$$tr>**&rrr*O$&r***&&>*&<rrrrty6O>hpryu,$&&**,>&rr&$@#&**1*rttyt$&pt*&**rrr5rrr***",
"rrrtr*rrrtyrtt##tr$$&&**r1r1rrirrtrrr****&$&ry##ty*&$$*&&$>rrtrttrtytr2rr<1tuyO*6it1t*&*$&&&$&$$$&*rr*1&rtttyy$&i4****r22ttryr**",
"*rtr*4tt6r&&**@$6r&$&**1*try5iiyr***tr1****rt5#$uy*&$$&t&$*r55yty*trttrttrruui*rpjututryy*&&$$>&**r4*&&2yrtyt4$>uyr*<*r*tuuyyr*r",
"rrttt7yqt**ytr#$u*&&&r*r*r2ihuyyt*&O*&&&111r4t$$iy&*$$rrt**tytrytrttrtupy5ypjk**hpyturr1**r&$&&*&**:2rrrry5ytt#$ayrr**r5yyyyiryr",
"*2rt5wyytrrrrr#&y*&$&&***rrui6ytytt*&&11tytrty$>pw*&&2tryt<rtyrtttrtttupuypjkjrrh6rr1,*&&&*$ry$&*&rrr*122ryttr#&i5r&1r*rrry5uutr",
"&*1rrttytrtyyt$&y*&>&&1**ryuiph6jht*&rrrtrrtyy$&ir**&*tyrt2rrrrrt*ryuui66phjwjr*hhpuy&,*ryt*&$-&$*t*r*ryrttrrr$>ur$**&**rr2<5ytr",
"**r*1*r5tyyytr#$yr&&>&1ttruiu6yppt**&*rrr*ttyt$$u2&&1*6tryt2*rttrtupii66iihpkjO$jkp2*rtryut&##$#$&*&**rrrrrrry$$ut<***,r:**rty5*",
"trrr**q87tyy55#Ou4&>&r2tyuiu6iphhyrr**1**rttyy##yr&&*rytt5ttttrrrtyiiiuiiphjjh&rsu1&*yy7r@@@#$&&$##&r*rrtttttr#-ut>$1*<r,r*rr5tr",
"tr:rrtyyytyy5*#$y2*&trruttipjhpph*****r*rtrtyr#$utr**ryy5tt4ty5rrrr6uyiiipwhjk&*i*&*yuy*-*r&$*&&&$&*r**rty6ttt$$ir&r*&yutttrrtrr",
"5r*3rt5yyytt51#&6r*,*y5y5tuppphyr*1&r1*rrrttrr#$yr*r4ttyyytyqytytrruuyippphhhi&&phhiy31>**1r**&&>rr33y****rrrr#$u*&ruuyttrrrrrtt",
"tyyyy*ryttt6tO#&t&*&**5r*r56uittr2*<****rr5r2$#$y*&*ttyyyyty4<y***ryuiiiwppii*&>ipyy4&&*&<*ttr,15tt5trrrrrttr$$&u5rr2rtr*rty215t",
"rt6yyr*y8ttyt#$&t6r&*******tuu44rr**<*r1<*r2r#$*ut*<r5yyyyttrr4&1:rtu8uiuu63y$*rr&@$O&1*5t**rrr*yytrtrrtytrrt$&*twrrrtttuiurr*rr",
"#X#$$##O$$O#O$$uyy&@#####X#o$$####...@X@##$$$#&w55&##$#o$#O##$$###$##O@$$$$$$O&ipy&$$##O#####$$#####$$O>$$##$$$ytt>##@O$$$$#$$#@",
"$#$$&$&&&&&*&$1y7t&$###$###$>$$$$$##O##o#$$$&$*6tt2$&$$$&$$#$$#$$$$$$$$$>&&$&>riiut$#$$$$$$$$&>&&$&&&$$&**&&&$&ytr*$ #&&&$&&$##o",
"ywiiwihpapphiuuiiwyuyuuy6yyupyttypiyuytyuuuuiiiiiaiuu6iipeuiurryyppuuwuuwipuphphpuitipiiiuiiityiihhpiiifphippapiyyuwriipiwpphiuu",
"hpt*5ttyuuuut4y7yrrr54r*rrtrtrrrppt2*rr*rtttyqy6ytrrrrrrryryt**yhhu4tttt6tyyyu3puyuyutyuyryyuyyuehuuyy6yyuyu9uuy5rt*5tt5yuiiputt",
"dyy&***rrrr**r2*r***,&&$&&&&*r$*pyur*%&&&*&*rr*****&&&&,&1rrtr$5hytr*****rrt*tt*Oryyyy4r**ryy5$*huitr23rrrt5trttr*&&&&*&ttyyytOr",
"ur*rr*r*&*11*r*rrr*&&&*&&&>>*<$&irr**&>&$&*1*1**r***&&&rrr*rt4O$ut**&&**rrtyyyrr>ruuutrtrrt5uy$$p8rtr2r**rrrtr41*1&%&***rrtyy2#$",
"t**rr*r&**&&&*42rr***r&&&&>*rt$$uu6***&*,*rr>*****&***21**rt5r#$wr*1&&&*rttuyr**rt*yyry***&*yt#$iyrrr**11r*rtr***,<*&*****rrt*@#",
"tr&****r******rr2***1*&&&*rtut$&su,&&trt*:r**,&****r***&&rrr*ro$ur&&$$***rrryt1r*y2trytrtt<12t$$ut**1***rrrrt5rrr****&*****rr* @",
"wt&&&:*r***&***rtr*2r:<**r**2t$&pt*&&&*rr*rr2&&***1:*rr&&r*rt3o$ur*$$$&&**rtrtytytyrtutytt**tt$$i*o>****r*tttrt:r1****,***rrr2$&",
"ut&&*&1rrrrrrr2r***$&8r**rr**5#$ut*&>,&1<&***&&**&*1rt2&*2ryyt#$ir*&$&$&&$&rty2ry6uyuy55uurr*r##r$&***,rrttt*rtr&&&&**2**1rtyt#$",
"ut$&*:rr5r4trrtrrrr*&*rr2*rr42$&ir*&****,****&&*r1r3trt***y8y6#$ir**<&>$&*&&ty1t5yuyyttr***rty.#ur*&*rrttryt:rr&#,>&r**rrtyr:2#$",
"ur&****rrr2&***rr4r**rtrrrrrry=&itr**:>**rr**&rtr*tr45yr*ruyyu$&py*r*******&*:ryyyurrt2rr*rttt#>it*>rrt3rttrrr2**&1*42rrtt34rr$&",
"wt&1&1rrrr*&&&**<yty4rttrrrrtr#$iy2r**&r2t8r**rrttrry8iu5uuytu$*pur**r**rr&*r*trtr*,r2rtt*rr5y$$ur>*r2ttttrttrr<**rr**rtyr**rt#O",
"pu*&$&&**&&,**rr**rtrytrrtrrtt$$iyr**,**5ttytyt6yyt5yuuyuuyuti$&it*3ttrtyt1tr3ttrrr*rtt**rttyt##ur**rtyyyryuyrrr4rtt*rrrr2*2rt$&",
"itrtr*<*&&*****:ttrry2**r5rt6t$$uyr**r1*2rrtyywty6yyu7yutyyuui>>u5rttrtytt6tttttrrttyyt&&*ty5r#our&*rtyuuuuyttr*2rttrrrrrtrtuy$$",
"wyr,**r1&&&1*$&*ttyuurtrttttyy#$uyrrtt*r*rtyyuqyutr6iuui4yyiui>&wy*r4tyy6yttttrrttrrtyyrtrttrr#$uyr1tt5y6y6yttr*2rrttrtttyuquy##",
"at*2r:2*&*r*rrtyu4yytr5t256tty$$utr4rt44rtttyu9yut36yyui4tuuqu&*pt<rty66wyt6ttrrr*rrr**rtt4r2r outrrttyyyuytyrrrrrrtrr5rr4uuyt#O",
"au*,,rtt<rtrrtryuuuttytrty8tttO$wt*rrrttytr6tyyuuyyuyy69ytuuqt#&pytryuyu6uuyytrr*431**r**r48,$#$urrttt4uuwuytry5tr5rrrrrrtyuiy$*",
"ay4tyryt5rrrty3yyytyyy5yytttty$$ut*rttt6t46yyyyyyytt5trt**:2t1@#uy5rtyyuuuuuy5r2**rrrr**&&&;&r@$puttyyyu6iyy5ryyttr*rrr5tr55y5&>",
"pytr67yrtrrrtyyyyuurttt5trrttt#$w5rr4tt6yy9yyu6quyrrrtr*1*&$*$ oqr&*ttyuuwuu9yrrrr****r2rt&&**@$wuy5yy5uuuyt6u4tttrrtyt8r5yuiu$&",
"w5rttyyr5r2<rr5tyutrt*rttrrrr$#$6*rttrtyyyyyyyt8tr$$$$***rr&#   ##$&5tuuuyuuytr4r1*&&&*rrrrrr$$&wyrttty6uuipiiyuutty6tyytytu5&$*",
"tt$$$####@#X##$#o$####o#$o###o$>6r$$$$$$$$-$$$O&$@@@@@o#@##@@   O$# #$$$$$$$OO$#O#$#@#####OO##$<65$$$$$$$$&&$$##$OO$$$$$$$$$$&*<",
"6rr$$$$$##$$$$O$$&$O$$$$&$$>&$&yyut&&&>&&&&&&&&&&#$$$$$$#$$$$@#&&##+$&&&**&*&&&&&$$$#$$$$$$$$&riiy*$&>&>&>*&&$*r*&&&>&$&&&&&&*ty",
"iyyuuuywwyuuut*tujhuiiiuiiiiiuuuaipiiipsppphhhiiuihiipayyyt6t*r*1*yiapipshhppuytyhpiiuuuwuiiiipippippppphhhapt6uwepppheeppipkkhi",
"r1*r****rrrr**2yhhuttyryiytyqqt5tttyyquuu9yttrtujp6ttyr*rr*,$**&1*tyuyuuiyuyutrrahyyyrrrtrttyuyyuutyuui65uuipyuyhhuyuiuuuuupipiy",
"r$>&&1&&&$$&**$5hiq>***tt**r5r*&**rt**rrt5**r*$tkytr*&$$&*$#@&$$&&rr>&6yytyyy5$rpu7r*>&****rrr2*rtrrr:trtyytt5&rhuuttttttryty5yt",
"r********$$>rt#&euyrr**r**********2r*&&**:r2rt&*py&rr&O$**$##$$O$1r>&**rrtuyyt#$ur,,&&;&&****rr*r*rtr**2tt2r2t$&pyrr2*rtttttyttr",
"rrr*rtr**1**tt#>pyy****r***,1r*r*r*******rythh&*wrryy##$&>$#$-$#>**&*r&rytyyr*#ot<$&&&&>&&*&*1t1r*2rrtyrttrr*5$>sutrrrrttryuuyyy",
"ttyr**r**r**rt#&iy**&&&,1*11rrrrr322**r*rtuuwi*rhu-r& #$$$$>$$$$,*rrrr4tt5t**r #6*>&&&$&***:&rr2*r1rrtrrrr*1:y$>py5rrrr5turyytrr",
"ui55u7t4tt&*tt$&it&$$&&*r**rrt4rr2rrr4ytrrywpu&rjy$$@@##$&$$$>$***5r*rtttr$$**@$t**&*&**rr*r*rtrrtt3tr21<***yu>&p6tr5r5tiyy55ytt",
"iiiyiiuyytrrty$$ir&>$o$*1*1rrrr4rrrrrwwt,2i3ii&*h3$##&&&&&&*<&&&&*rttr***2***r$$5r,&1&**rrrrrrrr3ttttrrrrr*ti8&&hutrttyuitu5uiyi",
"hppipiy2yyyytt#$pt*&>&**r*rrrrrtttrtyippuup6tu**it&$#,>&*&&****&>*ryt6t1&rr*r*##irr,&&**rr2r4rrrrrrtttttr*tuit#Oiy2rrtwuuii6pipp",
"hphpiipi6iutyyO&at*&&*1ryrr*rrrrr*r*uiiiipiyyu&$tr*&$>*>$$&*<**r&*ty4tt>$$$$*r @p5&=&&<*rr*rtyrrytrtyy4r>*yyii$$qtr2*ryhhp4uuihp",
"hhphhhpwiiiqiu$&et&&*&rttr2*rryrr&r*ttutpipppp$$u6*&&&&&&>&&**rr&rr&&$#$$-#$*r @ut*1*rrrrrrryrtttyytyty42*5ipp&$iyr*1t6hpiuuhwhq",
"jhhqhpp4iiiiwi&&pr&&**r3yrrr**rr*r7ryutyiippwi$&p6*$&$r*<******yrr**&#@#$$&*y*.#iytr1r2rryr4yyr6t5ytyu4yt5u6wp*&pi*truii3phjhhjj",
"ajjhajj9hhhauy$&u*&&*48yy2*5*rt5*6trtttyihpwiy$&p6*&*$rr**1***ry5***&>>&&**8rr@Optr*2ttrttuty3rytr6yttyryyiiii&*hitrtryiiiphhhjw",
"hkhhhwhpiiii9i&>y*****4yu*3q1rrrrutruttqyhipuy$$pu****yyrr*1r4yytt**12rr7t8yt*#&puttr5ttuyy65ttrryyt2tyyyuui6i$*hpytryuuhphppphj",
"jahhjkfhuihuii$$t*&**&ruu5uy*rrrtiytuuiuipuirt$&syr***tyt4trryyttrrrrr5t6tryrt$>piytrtyuy5tr5rr4ttuyr4yyyu6uiqO&piu:u4iypui6hpph",
"qwhjkkkwipw64y#&yrr*r*t66qtrr2rrupuuiiiuuyuyyt$$iut**55y6ttty6ty4rttr*55ttrtry$&wuyttyyyrrrt5*4t5yu4yyyyuuii8i$>hiuuiipphpphiijh",
"aahslfkpiutttr#$y64turyuiitrrytriwiuuuuiuyuyr5#&pyr*rryyytryuttt45ttr5tytt4rtyO&ii6uuiyttrrrr*trrr,rttyyuuy6ii&&hiuyiu6hajhhh4ha",
"klk5hfapiui*rr#$wutty7p69wt2ry8r8pqiuyu6yyy8tr$&it&&&1ututrtytyrrtttttt4rtr*2r+&hiuuiuyryrrr*4rrttryt*<*rytyyu$*iut2t7whjjkklp5p",
"llhhyippipur2O#Ouutu7w7i9utrtuityppii5iiyttuu*$&y*&1&2rtytrt5tyttrtrttt4*r&rt$O*huyuuiyyyrrr4rtiur&yrr*rr5t2r$o#**tiiiiippuqkhwh",
"ry$#$$$$##$#@#$*y6&$$&&&&Oo#$$O#o#$&O$$$###$$&*ry1$O$$$#$$#####O#O##$O#######$&riu>&&$$$##@###$OO$##$@#########&t*o#$$$$$&$&$&*r",
"r*&&&O&&$&$$$$*uiur***&r&$&&&$&$+&>&*$$#$$$$&&>yur*$$&&&&$$$$$$$#$$$$$$$$$$$$&rwpiy*&>&&$OO#$#$&&&&&&#$#######$yur*$$$&&&*rrr**t"
};
