/* XPM */
static const char *wall_we_128[] = {
/* columns rows colors chars-per-pixel */
"128 128 163 2 ",
"   c #2C230F",
".  c #36230F",
"X  c #2E2511",
"o  c #342513",
"O  c #392615",
"+  c #352B14",
"@  c #3C2C16",
"#  c #3E2C19",
"$  c #3E3017",
"%  c #3E3119",
"&  c #402E17",
"*  c #412E1B",
"=  c #492F1A",
"-  c #403017",
";  c #43321B",
":  c #4A351D",
">  c #4D391E",
",  c #50371F",
"<  c #533E1F",
"1  c #432F20",
"2  c #463321",
"3  c #4A3623",
"4  c #4E3A23",
"5  c #4E3A29",
"6  c #513721",
"7  c #533D23",
"8  c #593F22",
"9  c #533E2B",
"0  c #55401F",
"q  c #564122",
"w  c #5D4324",
"e  c #56412C",
"r  c #5C452A",
"t  c #5D482D",
"y  c #564231",
"u  c #5B4632",
"i  c #5E4A34",
"p  c #5F4B38",
"a  c #634525",
"s  c #694627",
"d  c #634827",
"f  c #6C4827",
"g  c #644629",
"h  c #694728",
"j  c #644B2C",
"k  c #6A492B",
"l  c #734D2B",
"z  c #784F2C",
"x  c #67502F",
"c  c #68502F",
"v  c #75512E",
"b  c #7B512E",
"n  c #604731",
"m  c #624C34",
"M  c #6B4E33",
"N  c #624E39",
"B  c #684F38",
"V  c #744F30",
"C  c #665133",
"Z  c #6A5333",
"A  c #66513B",
"S  c #6B533C",
"D  c #6F593A",
"F  c #745232",
"G  c #7C5532",
"H  c #725837",
"J  c #7F5836",
"K  c #72563D",
"L  c #7D5738",
"P  c #735B3C",
"I  c #795C3B",
"U  c #6C5641",
"Y  c #6E5843",
"T  c #715741",
"R  c #745C43",
"E  c #7A5D44",
"W  c #765E49",
"Q  c #776041",
"!  c #7C6344",
"~  c #77604B",
"^  c #7D654A",
"/  c #7F684A",
"(  c #7E6652",
")  c #7E6851",
"_  c #80542F",
"`  c #825532",
"'  c #855935",
"]  c #8A5C35",
"[  c #815938",
"{  c #825A38",
"}  c #845B38",
"|  c #875E38",
" . c #845C39",
".. c #885E38",
"X. c #8B5F39",
"o. c #905E37",
"O. c #935F39",
"+. c #87603B",
"@. c #8A623B",
"#. c #8A613C",
"$. c #94623B",
"%. c #806343",
"&. c #816443",
"*. c #816444",
"=. c #816445",
"-. c #826443",
";. c #866947",
":. c #80644C",
">. c #85664D",
",. c #806848",
"<. c #806849",
"1. c #816949",
"2. c #81694B",
"3. c #81694A",
"4. c #826A4A",
"5. c #846C4C",
"6. c #836B4C",
"7. c #8B6D48",
"8. c #8A6D49",
"9. c #906442",
"0. c #9D6D47",
"q. c #87704E",
"w. c #8A704D",
"e. c #89714F",
"r. c #816B52",
"t. c #836B53",
"y. c #816954",
"u. c #846D57",
"i. c #856D54",
"p. c #8C6F54",
"a. c #877051",
"s. c #887051",
"d. c #897250",
"f. c #8B7350",
"g. c #8F7755",
"h. c #8B7352",
"j. c #8F7857",
"k. c #877059",
"l. c #8C755D",
"z. c #8D755B",
"x. c #927757",
"c. c #907857",
"v. c #957A57",
"b. c #93785B",
"n. c #907858",
"m. c #967C5B",
"M. c #91795D",
"N. c #997D5F",
"B. c #A07E5C",
"V. c #8F7760",
"C. c #8F7961",
"Z. c #927A61",
"A. c #957F68",
"S. c #9C815F",
"D. c #978064",
"F. c #9A8062",
"G. c #988066",
"H. c #9B8369",
"J. c #9D856D",
"K. c #A08266",
"L. c #A48C75",
"P. c #A18972",
"I. c #A99179",
/* pixels */
"9 9 4 > > , < q 9 9 4 6 9 y t r a 8 : @ O O # ; > q i N N m d w 7 e i i y e 9 9 9 7 > , w w e 9 q q 7 7 q < , > > 7 e u y e w d m i y e e e t t y y 9 e i N N y 5 2 3 2 * # ; : 8 j P I D S S A N N C D I R S N A U Y S m r q q r i N N i t y u u y y e 9 9 y u ",
"C Z l l l l b ` ' ] ` [ %.! Q I ..` f , @ o O t C.I.L.H.n.8.@.] ` [ -.4.4.%.[ ` ] ' b z _ } &.! ! P G ` ' ] ] ' _ L ! ! R I ` ' &.! D Z l F R R R I I R R Y A i w d N i 3 # ; 3 y S 5.c.M.z.i.r.h.h.e.j.A.H.F.m.h.e.5.4.4.! I I I I I ! ! ! ! I I I I P D C S U ",
"C j k f f k k f l F S A D D P I [ _ l 8 O X @ e r.C.y.E L G Z Z l G :.:.G l f f f l z ` ] ..I I G J &.! G b b ` ` ` b b v b b v Z Z k k S S S C N N N N N N U S d r m y : # ; 4 N ~ n.F.v.e.! R R R R ! 4.4.! ! / 4.4.! ! P m j l F K R R I G G K U S Z k k m m ",
"q w a k j j t t m i u u i N N m k a w > @ O # q R 4.! P A m k s s k S S k g t t g s s f f l b b f k S S k s s s f f l l l v S A N m m N A A C C t t m C C D U S N N S N 3 # # : 9 U z.B.0.o._ F S A N N N N N N C C N N C D C C C C A S P P k k P P D C C j a w ",
"i i t r w w w d m C N i i i i N C t 4 ; # @ ; q R ! P C A N d a w a j j r q w w w a s s a w r r q < q q q < < q w w a a s h d t C Z k g r t C C N i N N C D S S j s v f > # ; 3 e R A.K.9.` b l m i i i i i i N C C N N S S N p i i i i t r q w w d m i t r w w ",
"i i t r q q i i N i r r i i q w a a < ; O O # 9 U R M f h a a w w a w w w w 7 7 w a s s a w w w w w w w 7 7 < 7 7 7 w w w a a k Z C t t i i r a m C A A C D C Z k f l k 7 ; # : e Y k.h.[ z Z C N i i y 9 q m C N i i m k k C C N i r w q q w r i i i y q 7 q q ",
"p u e 7 7 q r t i y 5 9 t m y 9 9 7 > - o X @ 9 U E F l a w w a a g e 9 q < 7 7 w a s s a w , , w r m y 9 6 < 7 7 6 9 8 w w w w i m i i i i r r i i r d S U U S d a j t 4 @ O # 9 C ! -.G k d t i u e 9 w r i N i i p m k g r r t r q 7 9 e t t i y e 4 3 9 t C ",
"i i q w a a a w q w a g m i i N C t 4 # o X @ 4 S R D j a w 7 7 7 q r r w w 7 7 w w w 7 7 q y u q q w w , > < q w w e e w a a a a r m m i i i m r w w d m N N i t t i y 3 @ O @ 3 t J | H m t r r t i i i i N N i i p m k a a r i i r w e y i i r w e e g s f k ",
"t r w w q w a s a w q q q q w a s a > % + + ; 8 l G b l a a a a w w a s a w q q w a s s a w w w w w w 8 3 3 8 w w w w w w w a d m N k k m j d a a a j C N m i i r a m i 4 2 * & ; q D P k g m i r r i p i N U S m i S S k g r r r t i i q r j j r q y m k f s s ",
"y t g a a w r t i y 9 9 y N S N e 7 7 : @ O ; r I ! F s a w q q w w w a w w w w w a s s a w a a a w q < < q w w w a a a a a a h m m k g r r g s s g 9 9 d a a w w d m t : # @ # * t ! 4.N 9 w r t y N C C C A A N i p m k g e e t r w d i i m u e 9 w r i m k s ",
"s s a w q 7 7 e u i t i S A y e r q > % + + @ q ! 8.F a 7 7 w w q q w a a a a w q q w a a a a s s a a w w w w a s s a w a a a w r t i m r a s s a a w w e y i i r a a w : @ O O # 7 v G k w r r r t i p i i p p i p p m k g r r r r g h m m j j m i i i q w a f ",
"s a a w w w w r i i i i N i i m k a > % + + @ 9 I -.G l a w w w w w i i y 9 7 q r r w a a a a w w w a w q q w a a a w w a g r r g s s h m i d a a a w w w r m i y 9 9 4 ; @ O O # 6 k l a w r r r t r r w a m C N i i p m m h g r t i u e 9 y i i i d w w a a s ",
"< q w w w a s h m i i i i i q w a a , - + X O , G ] b l a w 7 7 a g e 9 9 9 q 7 9 e y i q < < 7 7 7 a a a w r r q q u i w w r r w w w 0 7 q w a s k m m g k S S d w w < & O O O & > a f s a a a j j d w w r i i q r j C N i t r g a a w w w 9 e u i r a j m t r ",
"< < w a a a a w w w 9 9 y y q < w 8 : # o   o ; m P k a w < < 7 w w 7 q y u w w j j w w w w 7 4 < < < < < < < 7 a g e e 7 < w w r r w w < < < 8 a a a w w r i i t r w < & O @ # ; : 8 w 7 7 w a a g m i t e e 9 7 q y i i i y e w w r q 7 7 w w u i i t q < < < ",
"- & & @ O O O @ ; 2 ; & ; ; & # $ - # # + + + + $ ; : : ; & O O @ & & & * # @ @ # @ O O # & & & & & & & ; # O O @ & & ; & & - ; - - - - - # O O # # O O # ; ; # O O O O + + @ # # & - # O O @ & * # @ + + @ ; & O O # ; * * * & & # O O O O O O O O @ # & - & & ",
"+ + + + O O + + + + O O o X X o + + O o o X + + O O O O O O O O O O O O O O O O + + O O O O + + O O O O O O O O O O O O O O O O O o + + O O + + O O O O O O + + + + O o o o + + O O O O + + O O O + + + + + + + + + + + + + O O o o + + + + o X X X X X X o O O ",
"9 9 9 4 > > > > 4 7 w w 7 4 5 5 4 4 4 9 7 7 9 e y y 9 e u y 9 9 w 8 3 * O O O @ : 4 9 4 3 3 4 e y i m m w w 8 9 9 9 7 7 w w 9 9 7 4 > > > > > > 4 9 r t i i i i r w r i N N t t i m w w < < w a s 8 & o + + & 7 N Y S C N N A N t t i i i N A A N u y e g a r r ",
"C D P P G z l l b v Z C S U U S C j k k m Z v G P P G G P P F z ` b l 8 $ + - r ! e.6.! L L ! ! R I | ] ` | ;.5.~ R G G P P L L P I I P P P U S l G ;.i.^ ~ / ! R R R ~ ( ^ R I | ' b l l l b ` ] ' l 8 # ; m 4.A.P.J.Z.i.-.+.X.$.9.>.r.a.h.h.5.^ R L G b v b b ",
"l k j r w a a a a a r r h k k h s k j C N m k l b b l k m m k f f s a < & O # q R ;.| ` b l f h t j l l f k m N N m k a w q i N S S k h d t i N C D R W R U U A N i p N A A m j C j a a l l f l b l w > @ & e S ( r.W R R S D D P I F v Z H L L S A N N S S C Z ",
"a a s a w q r t i i r w w w a a s s k k A S F z j r w r i m k s a w 4 ; O O O 4 P -.L l a w r r e e w a a w w a g h a w 7 9 w w q q w a w w w a a h m N A A C j r q r m S S k s k a a w a a w a s a < ; O @ 3 r V G H Z k h f h d t i m k k d t i N U S M k Z C ",
"s g r r w w w r i i t r w a s s s k m N A A m d g s a w q q r r w w 9 3 @ O O ; C I G l f a a w w w q q w a s k m m r w r t i t q w a a w q w w 8 8 w w w w w w 7 q j C N m d a j j q q i i q q r q 3 & O @ 3 u Y E [ G l s s k m m k f z b b F S A N m m N C C ",
"s g m i t r 9 e N m d w w a s k m i t r w d m m k a r t i N C j q 6 4 : @ + @ 4 C P k a a w r r w w w w w a j C N i t d g s s a 8 4 3 7 a a a w r r q 7 9 9 9 9 7 7 e y S S d a s s a w 9 9 w a s a > # O O * 9 U W E P N i w w r t i m k k m N p N C C N i t r ",
"7 9 9 e t r q < q 7 9 9 w r m m i m h a r t i i q < 3 5 y i t r r q 4 ; @ + @ > t Z v l a a a a a w q q w a a w e e g k j j k a w q a g m i d w 7 9 9 e 9 e w w w w q q w w w r m i t r t y y y t q 3 # O O * 9 N U N N m u 8 7 a g r d g k S U N N C Z k a a w ",
"7 9 y i q q w w w w r r r t m i t r q q w r i i q 7 7 7 7 q q q r w , ; + X O 3 f b l s a w a a a a w w w w r r 9 9 g f k k s a 8 6 6 9 y m h a w q N N q 7 w 8 4 3 5 9 7 r j j d w w w w w w w q < : & O O # 6 k V m m j s a w 8 e m M k k Z C N N C C N m i i ",
"s g m m k a a w i i i m k f l l m i i i q q i i r w w w 9 e w w w w , ; @ + @ 4 C I G f w w a f l f a w 7 7 7 q u m k k m m d a a a a w q q < q w w 9 5 3 3 7 q w w 7 7 w w q 7 7 7 w w w w r r t r 4 ; O @ : w f v Z C k s a a a h m m d d m i i i i m j g r t ",
"a a a s s s a r i N C Z k s f k C C C m k g m i m u e 7 6 8 a s a w , ; + + $ 7 D P l a 8 7 w w q q t i t r q w a k M D P P T N e 7 < w a a w < < 7 9 5 4 7 7 q q q q q e e w w q q w w 9 e m C S A e : * & > r S U U N d w w w r t i N C C N i i i i i y y i N ",
"a w q w a s a w r i A A t t N A i t i m h h m m j s s a a w a w e 9 3 # o X @ > f b b k e y i i q < q q 7 < < q i i y y t r a w 9 7 7 < < 7 7 4 4 4 5 9 w w i i i N C C N u q 0 w w 7 9 9 e g h j e 3 % + @ ; 7 k v Z m t t y y y y t r w d i i p i i i t t m C ",
"s a w q w a w w w w r r w w w d i i q q w d m m r a l l a w w w e 5 2 # O o @ > s b z l a a j j a w i y 9 7 < q w w q w a g r r 9 7 7 < < < < < < 7 9 9 7 r N A N N C C N i w w q < < < < 7 7 9 y t 4 ; @ + ; 9 N S k s a w w w q w a s a r i i i r w w r r w a ",
"s k m j a w w w w w w a a a r t i i w w w a s a a a s s s a a w e 9 2 # + + @ : s l a w w a a s s h m i r w w w 9 8 a a a w r r w w 0 q y i w w q q w w w r i i t r g k m i r w 7 4 6 7 7 < < 7 q < : % + + # 4 t Z k s a w w w w w w a s g r t i N C m e 9 y i ",
"r t i i w w w a a a w < < q y i r w w w 7 7 w w 7 7 w w w w r r w 7 ; @ X   o * e i q 7 w w r r w d N N y 9 w w 7 q r r q q a s s a q 7 9 9 7 < w w w w 7 < < 7 9 y u m g a a w 6 6 8 w w w 7 < < > : % + + @ 2 e i i u w w 7 7 w w 9 e d a r t e e w w r e q 7 ",
": : & * & & & & & ; ; ; ; & ; * & & & ; & & & & * & & & & & : : & * * @ o X + @ ; : & & & ; ; & & & ; % + + # & & & ; & & & ; ; ; ; & & & & # ; ; ; ; - & & & & & * 2 2 2 ; ; # O O O O O O @ # & & # @ + + @ & ; & @ O @ & & # O O + @ # * 2 2 * * * * * * & & ",
"O O O O + + X X + + o X X o O O O O O O O O O O O O O O O O O O O O @ @ O o o O @ @ O O O O @ @ O O + + O O O O O O O O O O O O O O O O O O o O O O @ @ O O O O O O O O O O + + + + o O O O O O O O O O O O + + O O O O @ @ o o + + O O O O * * * # @ O O O O O ",
"s g m e 3 & # ; ; : 3 3 8 w r e 9 7 w w e e 9 9 6 7 7 7 7 9 w w 7 < > : 3 2 ; : 4 4 3 3 4 7 7 4 : : 4 4 > , w a a w 7 9 y i r w a w 8 4 ; # # # & 7 C P A t 7 : 3 3 5 e t r 9 4 : ; : , w w 7 4 4 7 w w 7 7 w w w w w w 7 7 w a a s s a a a a k S N d w r r w w ",
"` G j q : & @ 6 b ] ` z f l G ` ` L I I L [ E R F l b G z l b b b b l l s a r t m Z l l l l Z j h f H P C Z [ ] ` G P I ! 4.4.&...X.X.b , O o # e U i.z.i.%.[ [ %.4.5.5.^ W R H k h j Z G _ z v P P v l l l l l c c l l l l l l Z Z G ' ] ] ` [ %.4./ %.[ ` ] X.",
"G b f w : # # 4 C I G z l l m N C C N N A S U S h a a a r r r d k s a a a w r d k l a r i N C j k s k k s k P I G b b v Z S U S k l b l 7 * O & r P 5.h.^ R M f l F S U U S k s a w r r k k d r t r a a a a a a w a a w w w a f l b b b l f f f f k m N t j v ` ",
"Z c d < $ + @ > l G b l f k M C C j d d j C C m a w w a a a a a a s s a 8 7 w w r r e e t r w w 7 e u i r a j Z k k c m t t i m l l l a 7 2 # ; 9 N R W U N d a a a r i i m k s a 8 4 4 w a s g r r a a a a a k m i w w w a a a r r t r w a s h r t i N C C Z Z ",
"G z s 8 : # # 9 P ! F s s h k h a w r r w w e e w w a a a w q 7 9 9 7 0 7 7 7 < < q w w q q w w w w r t r r h k m i r w w d j C N m l k 7 2 ; ; 2 9 U R M a a a a h m i i m h a a w w w r r w r i i q < 7 8 a a a w w a a f l k d t m j a a a a r t i N C C N i ",
"l l a < & O # q R ! D m N m m m g s s g e e t r w w w w w w w w 7 q r r r r q < < < 3 3 5 9 7 < < q i i y y i i r w r t i N C C N m k a 7 * O @ : t U R j w w w r r w a s a 8 9 w w w w w q < q w w w w w w q q i i w a s s a w r t i m d w q w a h m i t r w w ",
"a w w > @ + @ 4 S R M s s h h a 8 8 w w e y i i w w w w q < < 7 7 9 r r w w q q w w 7 4 7 w a a w q y i r w r r q q j C N u q r N A i e 4 * O O : 8 g a w q w w , , w w a w 8 4 4 7 w a s a 7 3 4 7 w w w w q q w w a a w w w w r r w w w w 7 7 7 q i i i i i i ",
"r r 9 : @ O @ > t Z f h d r w a m i t r r r w a w w q q w w q q r r r r 9 7 7 q w w r r w w w 7 9 9 9 e q q r r w w w w q q < w a h j q : # O O * 8 l b f a a w w w q q w a w w q q w w a w w w q 7 7 7 w w q q i m k a w q w a a w w w w w w w r t i i t r w w ",
"a w 9 3 @ + % 6 l b l a a a a s h h m i i N C C t r a a w q t i r r i i q 7 4 9 y i q < < w a s s j m i w w i i i i r a j j q 9 y i t r 9 3 @ O * 9 D P A u 8 7 7 < < r j j r q w w w w r r w w w w 7 w a a 7 9 u i t r w w w a a s a a s s a a w r i i i i t r ",
"s a > % + + @ > l b l a w q u i d d i i i N A A t r w a w w q 7 9 9 w w q 7 7 9 9 9 7 < < < < q i m m i r r i i r r i m d w r r q w a g 8 3 * ; 9 t C Z C j a w q q w w w a a a a w w w w a a a 8 9 7 q w w r t i i r w 7 7 w a a a a s s s s s s a a r i u e 7 ",
"r e 4 ; + + @ 4 C P k s a w q w a g r t t t i i t r w a w w q 7 4 9 9 e i i w w w w w w e e w w w d m i t t i i t r w a w w q q w a x t 3 # # & 2 7 a f a a a a a w w w w w w 7 9 9 r r w w q q w w w a j j k k N m d w w w w w w w a a s s a w r t i i i i t r ",
"w 8 3 ; + + @ : q d h s a w w w q q r r r t i i t r a a a w w w 7 7 w w w w q q i y 9 7 w w r r g s s a a w w w w w r r w a a a r t C t > @ O O * 4 e t i i r w w w w w i i t r 9 9 w a j j a w e e w w w w q q w a a w q q w w w w w a a w q q r t i p p i r a ",
"w w 3 ; + + o & 7 w r r g k m i w w w w r r w w q q q w w w w a a a w q r r w w i y 9 4 9 9 7 w a a w 7 7 q w w 7 q j j q w a a a a s a : O O @ 3 9 r r 9 9 w w w w w d N A k a a w 0 q r r a g e e w w q < < 0 w a j C N i w w w w w w w w w w r m S S i y m C ",
"i y 4 * O O O & 9 i t r a a a w w w a a w w w w r r a a a w < < w w w w 7 4 < 7 9 9 7 < < 7 w w w a a a w w a a 7 9 e e 3 3 < 7 9 e w < & O O O * 3 9 e 9 7 w w < < < q y i m j a w < < < < < q y u w w w w < < w a a a w 7 w w w w < < < < w a a k S S N t q < ",
"+ + @ @ O O O o O O O O O O * @ O O @ @ O O # ; ; ; ; & & # + + # & & @ O O # & ; ; ; & # & & # O O # - ; & & & # # & # + + @ & ; ; ; # + + + + @ # # # # # & & # & ; ; O O O O # # # @ # # # ; ; # O O O o o o o O # - & # - & & @ O O # # O O # ; & * & # O O ",
"+ + O O o o + + o o o O + + O O + + + + X o o O + + O o o X + + o X X X X X X o O O + + + + o o o O + + + + X X X o + + X X X o + + O O O O o X X X X X X o + + o o + + + + X X X X X X X X X + + + o o o o o o o O + + + X X X X o o O O o + + + + + o O O + + ",
"y y i i i i w w < 7 9 9 7 q w w w w , : 3 3 4 4 : : 2 3 4 9 e e 9 4 > 4 9 e r t i m d w 7 4 > > < q e 9 ; @ # # ; 3 y u 7 , 8 w q q w a w w 9 5 4 4 > > 4 4 4 9 9 9 9 4 9 4 : : : , 8 w r t i u e 9 w w r r w w r r t r g a a w w a s a : # o X o : C P A y 9 5 ",
"h k H I [ ` ` ` b b z l l l b ` ] ' b l l z b b l l z b b G P I I P G b ' ] ] @.8.8.| ` ' ' G G ' X.$.` 7 O O O # e / h. .b b L ! -.@.@.-.E k k S S k k j C S U P R R R P I ! &.| ' ` J %./ R R ! ! L ` O.$.$.O.X.@.8.e.6.%.G b ' X.$.] l 8 # % y R k.l.( R F l ",
"w a h k m N N m t h l l f k j Z G b b l f k S A i r g s f s a a h k j d k f f k P P k k m N m A P I ` l , & # & ; q D P k s s k S R / ! P Z k k B A C C C C N m N m k k m m t d k F ! / R K G G Z Z k v ! / R K F b G G b z f h d j b v a : . O 5 N ! ^ S N C Z ",
"9 y i m k h h s s k m m w a a g d t i m r r i i y 9 7 q w w q q i m m i t r w d m m d w r t t t C Z v s : @ # ; : 7 j C N i r w r t i S ! ! G l a w w w w a s k m i r a h a w q u m N m k s a a h a a d m N N N m m m N A A i r w d C j 9 * o o 2 t D P A i r a ",
"7 r j C N i t d a g r r q < < q i i t t y y t r w w 9 9 d a a r i i r r m m d w w r i m k k m N A S k a : & # ; 3 9 u m d w 9 9 w r i p N m l l a w w d m S k h m m h k m m r w w r i m k s s k m m w h D P R U U A k k S A N N A S k a 8 : + o # 5 u i y e g s ",
"w w a a w a a a a w e 9 9 6 7 9 y u i i t t i i q < < q w a a d i i w a a a a r i i r a s s a w q r j t 3 @ # ; 3 9 w a a s h g r t i N C m j t i i i N C C t t i m g s s g r r a g m i i m g k S S d w m N A A N i m i i i r a a k m t 5 * O O ; 9 N A i r q < ",
"w a a g d r w w w w r r q 7 9 y i i y 9 9 e w w r r q q w a s g r r w w e e y e w r i N C j k k m N u 5 @ O @ ; : e S S h a m i q 7 7 8 w a w r i i r d m N i u 9 9 9 9 7 q w w 8 8 w r i i r d m i 9 7 a k m i p i r w q w a s a w 9 5 3 ; + + ; 7 a h t r w w ",
"w w r d g g e e w w r r 9 4 4 8 d g u 9 5 4 w a w w 7 7 w w r r w w w w r r w w i i N i t r g h m N N e % + o @ ; q D P h w q 7 < q w r i i w w e e w d C C N i r a a g r r q w a g e y i i w d N N r < w a w d C m e 9 y N C j a a a d 8 : + o # 7 a k m i r w ",
"w w w w w a a a a w w w q 4 3 4 y i t r w w i y e 7 w w r d k h d r w w q q q 7 9 r D P A y 9 q j C N e % + @ & ; 8 l G b f w 7 w w i m d w q q u i i N P P A i i i t r r r r r a k S S N i w r m m r w w r i m m N C m N N C j a w i i y 3 + + 2 9 g f a w r r ",
"w w w w r r g s s k m i 9 4 4 9 e t i i w r i i y 9 7 w f l l l f g m i t r r t i u q q r r q q i N i e 2 O O O ; w I &.G f w 7 q w g h a w w a a h s k S A C C C m t r g g r r a k m N N u 8 9 u m d w w d N S k g r t i i i i w w r t i e # O 2 r G G Z j a w ",
"< q r r q w i m k k Z m a w < < 7 7 7 9 9 e y e q < < q w a r r w a w w q < 7 7 q q 9 e g s a w r r q > $ + o O * 8 V ` b l m N C C A m d w w w w w w d m C N m k s a r i i t r q q i N C m a r i i r r i i p m k s a w e e r w w w r e 3 % o o * 7 f l a w w w ",
"4 4 7 8 a g r r g k Z Z k a w 7 e 9 9 7 7 q i m h a a w w r i i r w q < < 7 9 9 y i i m k s s a r t i e & O O # @ 3 h v Z C t m S U N i r w e e q q t N C C N i i m i i t t e 9 7 r S U N i t t i i y y i i p m k g 9 9 u i i i y y i t 3 # o + 2 e f k t 9 9 7 ",
"< < < q w w r t i i t r w w e e w w q 7 7 9 y i r w w r i i i i r w q < < w a a r m S S d w w r i p p e * O O O @ : h l f k m C C C N N C m k g r r w w r t i i i i q w a s a a a h m m d w q r N B k a a r i m h g m i i i i i y y t q : # + + ; 7 j j r 7 7 7 ",
"w w < < w w e y t r w w < 7 w w < < w w 7 7 4 7 w w u N C j q 7 w w 7 < < < w a a g m i w w r r q q u e * O O O # 4 t j a w i i i y 9 9 y y 9 6 7 q r r w w w w 9 y p m k a a w w r i i r a a g m u y 9 w w w w 7 q y y q q y i r w w 7 ; O X o ; , w w 9 9 e r ",
"O O O O # ; : : : ; ; ; - & & & & - - # O O @ # & * 2 3 : : ; # & & # # # & & & & ; ; & & & * # # # * # + + X o @ & ; ; ; ; ; ; ; ; # * * * * # & & & * * & * * 2 2 * * & & & & & ; 3 3 ; & & & & * & ; ; ; * @ O O O O @ * ; & @ O # ; # O X o @ & & & * @ O O ",
"+ + X o o O O O O O + + + + O O O + + + + + X X + + + @ O O o o o o o o O O + + O O O O @ @ o X X + # # + X X X + + O O O O + + + + + + O O O O O O + + O O O O O O O o X X o O O O O O O O + + O O * * * # @ + + + o o O @ # # O O + + O O O O O O O O O O + + ",
"3 2 ; ; : , w w q 7 7 4 3 4 8 a s a : @ O O @ ; > 9 u p p i r w 7 6 4 9 e 9 4 3 4 7 9 9 w w 9 9 w w 9 9 w w , > 4 9 e y 9 9 w w e 9 9 9 9 9 r t r r 9 9 r t e 9 3 3 : ; @ + % : w j S S N i i i i m k k m i y y y y i i t t e 9 9 e t t y 9 3 3 9 9 9 9 9 9 9 9 ",
"s s s s l v P I } ] ` L P P ` ` X.` k , @ o O e ^ z.h.q.4.%.[ ` b z f k S K F b ` L K K G G P P ` ` b G ' ] ` ` b G P P U K [ ..&.! R I | | E W / / / / / ! F F P S e 2 @ O # e ! h.i.i.h.e.4./ / ;.$.$.;./ ( ( / ! J G P I I I I I P P v l b G K U P P P P I I ",
"s a a a s k k k f k Z m i n k b b b l 8 O X @ 9 S R D Z k f f k Z C t d k s a w w w f b b G Z Z k k j c f l l l f s a w r d k f k f l F K K F l m N N N C D S R R D 9 ; + + # q I 5.4./ ~ R A N A U U S D C A U U U S A N m k k k g a a s s f k m m d a a a h k ",
"a w e e i m m i t t y u g g d d k a w > @ O # , k F K S k s a a j j a a a a a w w r m i t d g s a w w a s s a a w a a a a d m i t t i N A S k k m N C C C C C D S S e : @ + @ 4 D I D Z k k Z m t i i i t r t r w w r r w r m i y e w w a w w a s a a w i i r w ",
"w w w w w w r r g h m m h h m m k a > ; # # ; q P ! D Z Z j a w w a s a w < < q w w r r w w a w 9 9 d s a w e y u i t d a k m i t t C m d a s k m N N N p N C j d a a 7 ; # & 9 S W R U S N k h m i i i w w i m h a a r i i t r q w a a a w w d m m w a a a a w ",
"< 7 9 e w w m m r w w w r t e e g a , ; O O # 9 D I G l f a a w w w w w w w 0 q w a s s a w w d N N N i t r q 7 9 e w w a a s h h j m i i i r a j C A A C Z k f s a a 7 : & # 4 S W R U N i d w r r w w w w w w w w r r 9 9 y i y 9 w w q w a s s a a w q w a s ",
"< 7 7 9 w a s a a w 7 9 r r 9 9 9 4 : # o o @ 7 l ` G z a w w a a a 6 3 7 < < q w a s s a w q q w w q 7 7 7 7 7 3 3 9 e w a s k m i i i p i r w r r 9 y A S D m t r 9 : @ + o ; C P m t i i r w w w e e w w 8 9 4 7 w w 9 9 w w 8 7 7 7 7 7 w w 4 3 : : 3 3 7 0 ",
"< 7 3 4 8 r m i q q w w r t i i i t 3 # o X @ , l G F j a w q q < q w w w w 0 q r t i u 9 7 w w q q r r 9 7 7 q r r w w w a s g d t i p p m h a a w w d m C N i N y 5 2 * @ + : C I D C N i t r w r i i w w w w 7 4 7 7 w w i i i i w w < < < < < < < 7 4 8 a s ",
"4 9 w w q w a s a w q < q q w a g a > % + + ; 7 l G b l w w a a 7 7 a s a w q q w a s g r t i i w w i i w w w w w w a a w w i N C C C C C j a a w a j C N i t t i u 9 3 ; & @ 3 f G B i t r g a a a a a w q w w q < < < < q i i t r w w q < < < < q w w 7 9 e r ",
"r r w w w w r r w w 7 9 r t A N e 7 < > $ + ; q D P m r w w q q w w a a a a w w w a s s a w w a a w q q w w w w w a s s a w w r i m k k m m h s s d 9 9 g a w q i y 5 ; @ + @ 3 N K S N y y t t i i t r q q w w w w w w w r m i q q w w w w w w e e q < < < < < ",
"w w w w 7 9 9 9 r r w a j m d a a 8 > ; # @ # 4 D P k a r r w w q q w a a a a w q q w a a a a s s a a w w w w a s s a w w w w r i m m m r a s k m i r w w w w r i y 6 ; @ + o = f G B i i m h g r t t r w w w w 9 e m j k k N N y e d a a a a a w q w w q q w a ",
"9 e w w w w w w r r w w i i i m h a > % + + @ > t D Z j a w w w w w w w 8 9 7 7 7 7 w a a a a w w w a w q q w a s a w 7 9 y i m h k m C N i r a a w q q w a w d m y 2 @ + + o & a l a a s h d r w d m i t r w w w w w a w w q q q q e 9 9 7 7 7 7 7 7 q w a a s ",
"7 q w w w a a s s a a w i u e 9 r w > ; + X O 3 i A d w w w q w a a w 7 w w q < < q r r q q w r e t g a a w w w 7 8 a a a r i m d w 8 9 7 q w a s k m m g g m m N y 2 @ O O O & 7 a w a s a a a s s a w w w w w w a w w e e w a j m t r q 7 9 4 9 9 9 e w w a a ",
"4 7 w a a a a w q < < q y y q 7 w 7 : # o   o & 8 g r r w w < < w w 7 < w w w w w w w w w w u i i y q < < < < 7 w w 7 7 4 7 w w u i t r w 8 6 7 a a w 7 w w w w i y 4 * O O @ ; 7 w w w 9 9 w a a a a w w w e e w w e e w w w w w w w w 9 4 7 7 w w w w < < w w ",
"# & & # @ @ # & : : ; & ; ; ; # # & # @ + + + + # ; 2 2 ; # O O @ & & @ @ + O O @ @ O O + @ ; ; ; ; & & & # O O @ & & # & & & & & & & & & @ O O # # O O # - - # O O O O + + @ # & - - # O O @ * * @ O O O O # # O O # # O O @ & & @ O O O O @ @ O o + + o O @ & ",
"+ + + + O O + + + + O O o X X o + + O o o o + + O O O O O O O O O O O O O O O o + + O O O O + + O O O O O O O O O O O O O O O O O O + + O O + + O O O O + + + + + + O O o X + @ O O O o o o @ # @ + o o + + # # O O + + + + O O o o O O + + + X X X X X X o O O ",
"e e e 9 4 > 6 7 7 7 w w e 9 9 4 3 3 4 7 w w e e y u i i i y 9 9 w 8 3 * O O O @ : 4 9 9 5 5 5 9 y i i i t r 9 4 4 4 4 7 w w 9 5 9 4 3 3 : : 3 3 4 7 w r i u y 9 w r i u e e m C C m t q q < w a s 8 & o + + # 3 i A N i i N A m d a j C N A P P N y 9 9 w w r r ",
"I E ! -.| ] ` ' ] | I I I I I I I P G G P I L [ %./ ^ R S C S K L b l 8 O o & q P ! ! P S S P P D Z G ` I I I P D c l l s k S U P P S A C C S A t m U W R S N N D I Y S N N Y R R D j r a s s l b b l 8 # % i R 5.h.h.5.! I | X.O.$.7.h.z.Z.N.x.! I | ' G ` ' ] ",
"` [ I I D D S S D Z k f l v v l f f l F S S F b ` G l k m i t d k s a < @ O # 4 N R R P k g d t t d k k d r w a s s a w 7 7 w d A S k s a w w d j C S U U N d a m C N i r r m N N i e 8 a s a a l l w > @ @ 9 C ! ! S N C D S T T K F F K R [ L B N N A P P D Z ",
"f k P P k k Z Z k s s s h k m m a w e i S K G v j t i i t r g s a w 4 2 O O @ 3 N K k s a a a g r r w w w w w a s s a w , , w w q q w a w w w a s s h k C C k a 9 e i i t t C Z k a a w w w w a s a < ; O O 1 9 l G B m k h h k j t i N N m t d g k N A N N N p ",
"w a C C N N A S k g r t i m k s a w w d m C d d i i t r q q i m r w 9 3 @ O O & a l f s s s a a a w q q w a s h m i r w r t i m w w i i t r r r w w q q w w q < 4 e N m d w i N C j q q u u q w a a > # O @ 3 y D I F l f s s g m N C Z l z z f a r m N C C N i ",
"w r i p i i i i i i i i t r g g r r w w r t C m t t i i t t C j r 7 9 3 * @ # : a a 8 7 w a s s s a a w w w m i t t i m h s s g r r w r i i t t i i q 7 9 9 7 < 7 7 q q w r i i t r w w 8 8 w w r e > # O O 1 9 D I S N t r w w r t i m k k m m i N C C C j a w ",
"7 e y i r w q q w w q q r r w w 8 9 r r r r r r w w q q r t i m r 8 3 * O O # : q d g a a a s s a w q q w w a a w w r r g s a w w w r r r r w w q q w w w w q q y t q < < q i N i i w w r r w a a a > # O O * 7 a k m m k a 7 4 e t i i t m S A r q i N t r w w ",
"w r i i d w w w w w i i i m d w e e q q w w r r 9 9 9 9 7 q w a a 8 3 * o X O : a s a a w w a a a a w w r r a s a w r r w d i i t r q q w a s s a w i i y 9 9 7 7 q < < < q N A i r w w r r w w w < : & O O # 6 l G m m k s a w q w a g t u i m r a j C t r r r ",
"s h m m h h m m h a a d j Z l k j r g a w q r r w r i u y y i m d w 3 * O o # : s l f a 8 8 a f l f a w w w w a s g r r r r w r i i t e 9 7 a s s a a w 7 < < q r r q < < 7 e 9 9 7 w w w w q q r r > ; O @ : w z G m m h s a a a a a w r t i i i i r r i i t r ",
"r t i i t t C C t r r r h k k k m i i m h a a a j m e 9 9 e u m d 8 3 ; + + % , f l a w e e w w e e g g m u q w a g d r r r e t m j q 4 7 q w w a w 9 9 4 7 < 7 7 9 9 9 7 q w w 7 7 w w e e w d S N 9 ; & & > w z b j r w a w w w w w a s k m i p N i i t t t t ",
"a w e e g h m i r w r t i m m m i i t r r d g s s s s a a w w w w 8 : # o X @ : 8 a a r i N C m e 9 7 w w w 9 9 w w w a a a w 7 9 9 9 7 < q w w q q w w 7 7 w a j C A N d w w w w w 7 7 w w q q w w : % + @ : w b G j r w w e e r w w w a d i N S S m t m C N i ",
"s g e e w a w w w w r r w w w r i i r w w w r r w a l l a r i i q < : # O O O : s l a r i N C M k s s a a w e 9 7 q r r w w q 7 7 8 w w w w 9 9 w w 7 9 7 9 y N C C A m d w i i q 7 7 7 7 < < q w w , ; @ + ; 7 l b s w w w w r i i t r w r i i d a a a w w w w ",
"a d m j a a m i w q w w r r r r w a w w w a s s a a s h s g r r w 7 : # + + @ : a s a r i m j k k k d t r r w w q q w w w w a a a a a w w w w w r r w w w w r t i m k k s k m i q 7 7 6 7 7 7 < q < : % + + @ ; q r w w w a w w a a w w w d i i m m k s a w w w ",
"s g m m g s s h l f r r w a a s s a a w w a a a r t i i t t i i t q : O o X o & 8 a a w r t i m m C A N i u w w r r a a a a f l f g m i w w w w i i w w w w w w j C C Z l f d r w w a a a a w w r q : % + + @ : 8 g i i g a a a a a w w a g m m g a a w u t q < ",
"> : * * * * & & & * ; ; ; & & & & & & & & & & & * * * * & * 2 2 * & & @ o X + + # & & & & * * * ; ; * * & ; ; & ; ; ; & & & ; : ; ; : : ; & & ; ; ; ; - & & & & & * 2 3 3 2 ; # O O O O O O @ & * * * @ + + # & ; # O O & ; - # @ O + @ # * 2 2 * * * & & & & & ",
"O O O O + + X X + + o X X o + + O O O O O O O O O O + + O O + + O O O O O o O O # # O O O O @ @ O O + + O O O O O O O O O O O O O O O O O O O O O O + + O O O O O O O O O O O O + + O O O O O O O O O O O O O O O O O O @ @ o o + + O O O O * * * * O O O O O O ",
"s g m e : # # ; ; : : > 7 w r e 9 7 w w r e 9 4 5 9 w r i i w w w w 9 5 3 2 2 3 5 9 9 9 9 9 y y 9 4 5 4 3 > 8 w w w 9 9 y e r w w 8 4 2 * @ # # ; 4 p A i q > > 4 9 9 7 9 5 3 2 2 3 4 7 w 8 , : 4 6 < < w w w w w w w w 7 7 w w a s s a a a a k S S d a a a a w ",
"l l j q ; @ @ : f z a w w a z b l v P P v v P P D D P R R T M f l F S S N y 9 9 y N C j k k Z m a d S S N m V v Z C C C S U U K L ` ` l : + o & e U u.k.W S l l S U P H k g m i i i t d k l f s s s s s s k j C C C C j k k j C C Z b _ ` ` b L %.-.[ ` ` ` ] ] ",
"z l f 8 : @ # : t m d a s h d d h k k k Z Z D Z C C N N N N m i w r S S u 9 7 w a h a w w j S S N y e 8 w d m B F G Z C t i A S k l b l 6 @ O * m W ( ( Y m d a s k m m r w a w w w r r k s a d m m k s a w a a w a a w q w a f l l l l f f f k Z C j t m m l b ",
"Z j d < & O O : k z f s s k j C C C N N C C A A i t i N C C k h s h m i r w w w i i w w i m k h a w r r w a j m k k S A N i p m l l l a , ; & ; q m U S k a a w a a w w r r g a a w w w w a a s h k k s a a a s a w w w w w r r a a a w e e g k m i t t C C C C ",
"v l a 7 ; @ # 4 D P h a s k k h d t t t C C N N C C N i i N C j a a m j q < < q w w q q r d k s a w r r w w q q i m m i i N A A S S G f 6 & ; : 4 e S S d w w a a g r r r t i i t r w w i i t r r t N N u y i m t r w w w a l v Z j k a a w w r i i t m S S d w ",
"l l a < & O # q P ! S i i N C j k s s g r t i i i N C C A N i r 9 9 9 e 7 < < q t i t r a s s k m i y e 9 9 r t y u i i i N A A S S k a 7 * O @ 3 y A A e 7 w w r r w a a k m j r w w r m i t r g g d t i m j g r t i N C j d w r r w a a w e y i i r r i m d a ",
"a w w > @ + @ 4 D P m r g h k a 8 8 w w r r w w w r i i y e t r 9 7 9 7 7 < < q w w r q 3 > q t m m k a w 7 w w q r N A N i r j H P h 8 > ; O O 1 4 w w 8 8 w w 7 7 w w a w 8 9 9 8 w a s g r r g a a r i i q < < q i i r w r r g a a w w w q q w w r t i m h s ",
"s a 8 : @ o @ > f l a w r d h g e y i m i i r r i i i N A N d w w a j j q 4 7 q i i e 9 e r q 7 9 e r r 9 7 w a a a w q w w w r m m d 8 ; @ O O * 7 k l a w w w w w q q w w w a a g m i t r r r q 7 9 9 i i 9 9 7 q r r q q r r w a a w a a w w i i t t i i d a ",
"f a 8 3 @ O # , l b a w w a s s s g m p i N C C A S k k m i t r w r i i r w 7 9 y m h a a r i N C C N y 4 6 a k m u 9 e N N r r j j a 8 3 * O O * 9 D P h w q q w w q 7 7 8 y m k g r r w a s h r r 9 e m j r q r r w w w w w a s s a a s s a r i m h h m i r w ",
"f a > & O o O > k l a w 7 q j j q e N A C C N N C Z k k m i r a a h m i 9 4 > , w a s k s g r t C Z k a a a a h h j m i r w r r q w a a 3 1 # 1 9 y C Z k a a w w w w w w w r t i m d w w a j C N m g g m m i i w w w w a w r d a s a a a s s s h a a d i i q 0 ",
"s a 7 ; + + @ 4 C H h w w w q q 9 y i N p i i i p m k k m i y e w d S S r < < q i N C C N i t t i i w w w w i i y e r r i i y e r r k w ; + @ ; 3 w f k e 9 g s a w w w 8 9 r t i m h k m i y e g a a a s h r r w w w w w w r r w a w w r r r t i m w r i i t r ",
"a 8 4 ; + + @ : a s a w w a a a w q i i i i i N C C N i i i r w 7 e A S r < 7 9 u i t r w a j C N i r w w w w w r t i i i i i i t r k w ; + o O 1 7 a g r r w a w w w w e e y y t r w a w w r r q 0 w r i i r w w w w w w w w w w w w w w w e y i i d d i i r w ",
"h a 7 ; + + o & 7 a a a s k m i w w w d i i q q q q e u i i r a a g e e w w q r N N r < < 0 q w a a 8 7 7 w w w q r j j r q i i t d k a : @ O @ 3 9 r r q w a s a w w w w w w w w w w w w a a a a w r r e 9 9 e w a m i r w w w r r 9 7 w w w r i N C C N i i i ",
"s a 7 * O O O & r j h s s a a w w w a a r r w w u i g g i u w w a k N N r w w w w w w w w w u i g s l f s s l k 9 9 i m t r w r u m h 8 & O O O * 7 a a q 7 a a a w w w r t j j h a r r w w w w r r a a w w e r a s s a r t i m g a w w w w a h j m i i m j q < ",
"* & & # O O O o O O O O @ & & # @ @ # # O O # ; ; ; & ; ; # @ @ # * ; & O o + @ & * & & & & & # O O @ & & & & & # & & $ + + # & ; ; ; # + + + + # & & & & & & & & & ; ; @ O O O # & & & & - # # ; & & @ O o o o o @ # ; ; ; ; $ @ + O O # # O O # ; & * * @ O O ",
"O O + + o o + + o o o O + + O O + + + + X X O O + + O o o o O O o X X X X X X o O O + + + + X o o O + + + + X X X o O O o X X o + + O O O o o X X X X X X o + + o o + + + + X X X X X X X X X o + + o o o o o o o O + + O O O + o o o O O o + + + + o o O O + + ",
"i u t r r r w w q 7 7 7 7 < w w a w 7 4 3 3 5 5 3 3 4 4 5 9 y e 9 4 4 4 6 9 e t m j a w 7 6 4 7 w w 6 ; @ O @ # ; 3 t j q 7 w w w w w w w w 7 4 4 4 > > : > 4 9 e e 9 4 4 4 : : 4 7 < q r t i y 9 7 w a a h m i t r w a a g r r w a s a : @ o X o * e p p i t r ",
"h k H P G b b b l l l l f f l b ' [ B m k l k k l l f k S S V l l l Z Z G ` b L ^ ~ M f z z f l b ` ` z 8 ; O O # e ! 5.R S k k T R G G K S l V S S V l k k l l Z D P P Z C D P L G l k P P D D P P S K } X.] ] ' | 8.5.R S V b ` ' ] ' l < + + e P i.z.i.! L b ",
"7 w a k a a a a a a s s s f s f l v Z m a d m m d a a a a w q w a k m m d a a d C C a w r d g l G ` b s , & # - ; q D P A i w a j D P P A m k k S A N m m m m m r a s s a d m N N N S S D Z l k j t r m R R D D S K F z f k h s f l ` b a : + + 3 m ! ! D C C Z ",
"s g m m h s s a a w 7 q j j k s a d S S m t i i i y 8 7 w w q w a k S N r 7 9 9 u m r a a s a d m Z v f < ; ; & ; 4 t D Z j a w r r r m Y R F l a w w w q w a a a w a a s a a d N A i d g s a a s a a a k k j i i i t t i i t d k k m u 5 * o + : w k v m i t r ",
"6 q j j a w r d a a 7 4 7 w a a w 7 9 e u i q q w w q w a s a w a d m i r w q q w r t e w w i N C c k a : # # ; ; 7 j C d w q q w w w w r j l l a w w r i i t r w a s s a r i i d w r r g s s s a w r i S K P P S N k g r t i N S S k a 8 : + o # 7 f l w w a s ",
"s a a a w a a a w 7 3 3 7 < < 7 7 7 w w w w w w q < < w j j a a s a a a a a a w i i r a w w r r q w w 8 : & # ; 3 9 g k s a a w r r w a j j a d i i t t i i r w w a a s s g m i i i t r g h s k m i t r w d m C N m m u e e g k k k C t 4 * O O ; 7 f l a w q 0 ",
"w a a s a w q < < q w w q < < < < < < q i i r w r e 9 7 w a s s a w q < < q w w e e g k j j a a j j r > @ + @ ; 3 e m j a a a a w 7 < q w a w r i i r w r t i u 9 9 7 0 q q w w 9 9 9 9 u m k g r r q w a h m i N m r w q q i N N i q 7 3 # o o # 7 k l d r w w ",
"w w w a a a 7 3 8 w q 7 7 4 7 w a d e t m C N u q 7 7 7 w w a a w w q q w w w w i i r a g a a w r r w , O X O @ ; 7 j j a w e 9 9 9 7 q w w w w q q w w r t t r w w w w e e w r i y q q i i d d i u q q w w w j S S r q w a m C t t y 9 5 # o o * 4 e r r r w w ",
"w w q q 7 7 7 7 w w w w 7 4 3 3 7 q w w w w w w e e r r w a s s a w w w q 7 7 7 w d m A N u q w j j d < @ o O # ; > a h a w w w w w r r w w q q i i t t N A A m d w w w w a j C N i i i i i w w e u i i w w i i p N A m d r i i t r r r 9 2 + + : 8 a s a r i i ",
"r r 9 9 5 9 7 q w w w 7 3 3 : > < 7 9 5 9 9 w w q < < w f l l l f g m t q q r t i y e 9 r r 9 8 a s a < $ + o O & 4 i m d w w w e e g a a w w a a s s k m i p m k a r r g g r t i i r w r r q q r t i i r d N A N i i i w w i i r w r r r 4 $ + : w b G l a a w ",
"4 8 a a 8 9 w a a s s a a w 0 < < 7 9 9 9 < < < < < < q w a a a a w w w q < 7 7 q q 7 w a s a w w w q > $ + o O # : a k m i r a j C N i r w w w w w w a s g r r g s a w r t i u 9 9 r t C m t r r r w w r t i N p i r w q q w w r r r e > # o + ; 7 f l d r w w ",
"4 9 7 q r t i N C j k s s a w < < < < 7 9 9 7 0 7 7 7 9 w w w w q 7 7 7 7 7 7 9 y i r a s g r r w w w < @ o O # ; 6 a k m i r d S S d w r r r r q q w a s g r r w a w w r t i i q q i m m i r w r r r r r t i N p u e 9 9 y u m h g r e > # o + : w f k w 7 < < ",
"7 7 < q u m j k C j a w r r g a w < < q y i w w 9 9 9 e t r 9 7 w w 0 < 4 7 w r i p i i w w w w w w 9 3 @ O O O @ : a h a w r t m m r w i y 9 9 y i r w a w r r r r q q w w w a a s h g r r q r j C t r w w i i i i i u y e t t i i y 9 2 @ + + ; < a s a w 7 4 ",
"y 9 4 9 y i i i i i w w 7 7 9 4 4 9 y y q < < 7 4 9 y i C j q < w w < < < < w w j j w w w w r e 9 9 e 9 # O O O @ : t j a w w a a a w 7 w w 7 7 9 9 9 9 w w w w q r j m e 9 e r w w r r w w w w i i w w w w w w w r u y 9 9 y i t r w 7 ; O X + ; > q r q q q r ",
"O O O O # ; 2 2 : ; ; - $ # # @ O O 2 2 ; # # # # # # ; : ; @ O # - - # # & & & ; - - & & * & # @ & & # + + X o @ @ * * ; ; & & & & & # & ; & & * @ O O @ & & ; : : ; & # # & & & * 2 2 ; & - ; ; ; ; ; ; ; & @ O O O O @ * * @ O O # ; - @ o o @ & & & & # O O ",
"+ + X X O o O O O o + + + + o o + + + + + + X X + + + + O o X X O o + + o o + + o O O O @ @ o X   o @ & # @ X X + + O O O O + + + + + + o O O O O o + + O O O O O O O o X X O O O O + + o o + + o O # # & @ + + + + X X O O # # + + + + o o O O o O O O O o + + "
};
