/* XPM */
static const char *wall_s4[] = {
/* columns rows colors chars-per-pixel */
"128 128 64 1 ",
"  c black",
". c #070707",
"X c #0B0B0B",
"o c #170F07",
"O c #1F170B",
"+ c #131313",
"@ c #1B1B1B",
"# c #2F1B0B",
"$ c #372313",
"% c #3F2B1B",
"& c #232323",
"* c #272727",
"= c #2F2F2F",
"- c #373737",
"; c gray23",
": c #432F1B",
"> c #473323",
", c #4F3B27",
"< c #4F3B2B",
"1 c #574333",
"2 c #5F4B37",
"3 c #67533F",
"4 c #000053",
"5 c #00006B",
"6 c #434343",
"7 c gray28",
"8 c #4B4B4B",
"9 c gray31",
"0 c gray34",
"q c #5B5B5B",
"w c #6F5743",
"e c #775F4B",
"r c gray39",
"t c gray42",
"y c #6F6F6F",
"u c #777777",
"i c gray50",
"p c #836B57",
"a c #8B735B",
"s c #937B63",
"d c #9B7F6B",
"f c #000083",
"g c #00009B",
"h c #0000B3",
"j c #0000CB",
"k c #0000E3",
"l c blue",
"z c #1B1BFF",
"x c #3737FF",
"c c #838383",
"v c #8B8B8B",
"b c #939393",
"n c #979797",
"m c #9F9F9F",
"M c #A7A7A7",
"N c gray67",
"B c gray70",
"V c #B7B7B7",
"C c gray75",
"Z c #CBCBCB",
"A c gray86",
"S c #DFDFDF",
"D c #EFEFEF",
"F c white",
/* pixels */
"&--0000rruuuuurr06-&&&&&&&&&&&&&+++&&&&&&+++++++++++++&&&&&&&&&&---&&&+++++++++++++&+&&&&&++&&&&&&&&&&&&&&&&&&&&&&&&&&&&&&&&&&&&",
"--0660000rrruuuvur006-&&------&&&++&&&-&&&&&+++++++++&&&&-666--&---&&&++++&&&&&&&&---&&&&&&&&&&&&&&&&&&&&&&&&&&&---&&&&&&&&&&&&&",
"66----6600ruuvvnvvuvuuuuvvrrr00-&&++&------&&&&&&-------6rvvvv66----&&&+&&&&&&&&---666666&&&&&&&&&&&&---6066606066666-&&&&&&&&&&",
"6666060000ruuvnnnvnnnNNNNCNNnr0-&&++&-----6660000uvvvvvnCCCCCn066---&&&&&&&&&&---6600rrvvur06&&&&&&&60000rvuurrr00rrr06-&&&&&&&-",
"660ruruuvvunnnnNNCNCCZSZSSSSNur-&&&+&-----0rruruvnNNCSDDDDDDDNn00-----&&&&&&&-60rruvvnNCCNNnu0&&&&&660ruvvvvuuuuuuvuur06-&&&&&66",
"0uvvnvnnnNNNCCCCCCCZZSSDDSDZCvr6-&&&&---00ruuuvvCZZSDFFFFFFFDZNv06----&&&&&&-0rruunnCCZZZZZZCn0&&&&60ruvnnnnNnnvvvvnvur006&&&-06",
"unnnnnnNNNCCCCCCCZZSSDFDFDDDZnu0-&&+&--00runnNnNZDFDDFFFFFFFDSZvr6---&&&&&--00uvvnCCCZSZZZZZZCn6&&&6runnCCNnNNNNNNnnnvvur0&&&60u",
"CCZCZZCZZCCCCCCCZZZZSSZDDDDSCNvu6&&+&-00unnNCnnNSSDDDFDFDFDDSZCNr6---&&&&--00vvnnNZZZZZZZZZCCNv6&&&0rnNNCCCNCNNNNNnnnnvur6-&&0vN",
"ZSSSDSSZCCCNNww2CCZCZCZCZCCNNnnu0-&+&0ruvnNNNnvnZSSSSSSSSCCCNCNN00---&----60rvvnNCZZZZCCCNNNnur6&&60vvNCZZCCNNnnww1nvnuur0-&&0NC",
"CZCZCCZNCNNNMepe1NCVVVZZZZZZZZZZZZZZZZZZZZZZZZZZZZZZZZZZZZZZZZZZZZZZZZZZZZZZZZZZZZZZZZZZZZZZZZZZZZZZZZZZZZZZZnneae2cuuuur0&&-rCC",
"NCNCNCNNCNCVn3se11<bbbmmmmmmmmmmmmmmmmmmmmmmmmmmmmmmmmmmmmmmmmmmmmmmmmmmmmmmmmmmmmmmmmmmmmmmmmmmmmmmmmmmmmmmm3epd3%tuurur6&&-rNC",
"NNCNNCNNNNNNb2w2$Oottiiiiiiiiiiiiiiiiiiiiiiiiiiiiiiiiiiiiiiiiiiiiiiiiiiiiiiiiiiiiiiiiiiiiiiiiiiiiiiiiiiiiiiii$$1w2%0uurur6&&0vNN",
"NNCNNNNnnvnvc1,:#;6000000000000000000000000000000000000000000000000000000000000000000000000000000000000000000-->>:$0uurur6&-6rnN",
"vNNNNNNnnvnvcOo. ;6;;------;;;;;;;;;;;;;;;;;;;;;;;;;;;;;;;;;;;;;;;;;;;;;;;;;;;;;;;;;;;;;;;;;;;;;;;;;;;;;;;;;;;-Ooo.0uurur0--60uv",
"vnvNNNNNNNNNb9;;6rrtq54445555555555f55f5555f55fffffffffffffff55ff555554444444445445544554444544444444444454tqqq-*&-0uuvnuu6&-6rv",
"vvvnvNNNNNNNn0768q0iy5555555ffffff5ffffffffffffffffffffffffffffff555554445454554455544445444444444445554444iyrt;--6trvnNvnr&&&6u",
"uvuunvnvnvnuut00;68mvff555ffffggggfffffffffffgggggggffggggggfffff555555555555555545555555444444444444454444mvruttttrvvvvvnv&+&-r",
"ruuvuuvuuur06666608mvff555fffgggggfffff5ffffffggggggffggggfffffff55f555555ff5555444455455444544444544454444mv0rrruuuvnvvvnv&+&&0",
"rrrrr00006-----666;mvf55ff5fgffggffffffffffffgfgfgfgffgggggfffgff5f555455f555555554444454455544445444444444mv8rruurunvvvvnv+++&-",
"-rr06------------6;mvfff555ffffffffffffffffffffffffffffggggfgfgfffff5555fggffkkkkkjg45544444444444444444444mv8uruuurvvvvvnv++++&",
"+&6---&&&&--&&&--==mvfff5ffffffffff5ff5fffffffff55555ffgggfffffffffff555jllllkkkkkhghhhf4444444444554444444mv80uur0rvvvuvn6+++++",
"+++&&-&&&&&&&&---==mv55f5fffffffff55ffff5ffkkkkkfffffffffgggffffffff54gkzzllkkjjjhggjjhghhg4444444444444545mv;rur000rrnvnr&+++++",
"++++&&&+++++&-6--==mvffffff5fffffff5ffggkllllllzzzzkggffffffffffffffhkkkllkg554444444444ggjkg54444444444444mv@=---0000rr6+++++++",
"+++++++++++++-6-6==mv5fff55ffff5fff5fkllllllllzxxxzxxzkfffffffffffhlkkklkjf5555554444444445ggjf444444444444mvX++++&&-r-&++++++++",
"+++++++++++++++&-=;mv5fffffffff555fklllkfffffggggggkzzxlf5fffffffglllkllj55554544444444444444hh544444444444mvX++++++++++++++++++",
"+++++++++++++++++&@mvffffffff5555fkxlg555555fff5ff555glllkffffffglllkllj5555555444444444444444gh54444444444mvX++++++++++++++++++",
"++++++++++++++++++Xmv5fffff555445kzzh55555fffffffff555fhlzkfff5flllkllk555555455444444444444445jh5444444444mv@++&+++++++++++++++",
"&&&&+++++&&++++&++Xmvfffffff5555kzxhf55ff5ffff5555554555glzkf5gkklkllj5555555544444444444444444fjg444444444mv@&++++++++++++&&&&&",
"--&&++&&&-------&&@mvfffffff555hlzjff555ffffff55555544555glzjflkllkkk555ff5f55554444444444444445hhf44544444mv@&&&&&&&++&&&------",
"66-++&&-6rrrrrr6-==mvfffff55555klkf55555fffffff55554444445glfklkllllk555555f55555554444444444444ghkf4554444mv@&&&&&&&&&&-----666",
"v6&&&&rvnnnnnnnnvr8mvfffff55555kkh55555fffffff55555544554555fkkkllllg55fff55555555554444444444444jkj5544444mv@=&--0006-6666rrrrr",
"r-&-6rNZZZZCZZCCnncmvfffffff55hkk55555fffgffff55555554445554gklllzlkf55555555555f5544444444444444kkk5444544mv806rrvvrrrrrruvnNCN",
"r66rvNCZDSDDDDSCZNmmvffffffff5llk555555ffffff5f5555554444555kkzlzlzgf5555555545555545444444444444kkk4444445mv0uuvnNNvuuuuvnNCNCN",
"vvnNCZZSDDDSDSDSSZCmvff55fff55lll555555ffffff55555554444444hlllkklkff555f544444455555444444544444kkk5445454mvunnNZSSZnnnnnnnNNCN",
"nNCZZSZZZZDDDDDDDDCmv5ffff5555kll555fff55f55555f55544444445klllkkljffff5f545444445555544444444445kll5544444mvcNCSFFDDCCnnnnnnuvv",
"NCCZZZZCCCZZSSDSDACmv5ffff555fgllh5fff55555555555544444455hkkkkkklgf5ff55444544445555544444454555llk4554444mvbNSFFFFDSZNnnvuuuuu",
"NNCCCCCCNCCCCCCCZVBmvfffgff555gxzk55ffffff555545444544455fkkkkkklk55ff555444444445445455554555555kkf5444444mvmZFFFFFDSZnnuvr0rru",
"vnNNNNnnnnnnnnnnnnbmv5fffff55ffkzl555ff55555454544444455gkkkkkkkkfg5555554444444444455555555f555jlh54444444mvmFFFFDDCZNNnur06rru",
"vvvvvvnnnnnnnnnnvncmvfffff5555fkzxk555f5554554544444554fkkkkkkkj5gkh555555444444445455555555ff5fkkf54444445mvZFDDSCCCCNNnr066rru",
"vvuuuuvvnnnnnvnvnvcmvffff55f555fkzlk555555445544445555flkkhkkkjf55jljf5555544444444444444455555glk555444445mvZACCnnCCNNNvr6-60ru",
"uuuuuuuuvvvvvvnvnvcmvfffffff55f5fllkkf545455555545555gkkkkjhkk55545klk555544444444444454444555gllkf55555455mvmVnnnnnnnCNnr6-600u",
"ruuuuuuuuuuuuuuuvuumv555fff555555fklllhf44555555555fjlkkkkkhj4444455klj5555444444444444444544fklk55555f5455mvmnNnvvvnnnnv0-&-660",
"00r0rrruuurururrrr0mvf5555ff555555fkkkkkkj4555555hkkzzkkkkhg445445555jlj554444444444444444445klk55555555555mvcvvvvvvvvvvr0-&&&66",
"60000000rrr00000608mv555555f55555555fjkkklkklkkkklklllkkkg544444455544hkkg54444444444444445fkkh545555555455mvmnvrvvvvvvur6-&&-&6",
"6000000r0000666666;mv55f555ff554554444ffkkkllkkkklkkkkjgf44444444455444hkkkff4444444444455kklj4444455555555mvcVnvrrrrr0r06-&&&&6",
"-00rrrr0006066666=8mv455555f5555445544445fffff55555fff5444444444445444445jkkkkhghkkhggffggkkf54444454455555mv8Vnvr000-----&&&+&&",
"&6ruur006066666--=8mv445455ff555445544444454455554454444444444444455555554fjkkkkkkkkkjhggh55544444545555f55mv@rnnvr0-&&&&&&&+++&",
"+&6rr000666606---68mv44555555555455544444444455554544444445444455555555555445fhghkkljff54455444555555555555mvX&0vvr0-&&&++&&++++",
"++&------606--&&-6;mv444455f555555454444445444554554444444445545555555554445555555fg55444454555554455444544mvX++-rr0-&&&++++++++",
"++++&&-----6&&&--6@mv44445555545544544544454455555544444444555555555fff555555555445555555555555554455544444mvX+++&&--&++++++++++",
"++++&&&&&&&&+&&-&&@mv544445455544445fgf44444555554444444455554555445fgff55555554455555555545555544444544444mvX++++++++++++++++++",
"+++++&&&++&+&&&&&+@mv5444544555544fghkjhhg55555554444444555555fkkkkkklgff5f55f55455gkkjh455544hggg544544444mvX++++++++++++++++++",
"+++++++++++++&+&++Xmv44444445554fkjhhjjkkkh4455554444444555hkkklkkklzzhffffff555555klklkk5555jjhhhh44444444mvX++++++++++++++++++",
"++++++++++++++&+++Xmv4444444455gkkkkkjjjkkkf45545545444445klkklkkkklllgfffff555555hllllklkf5kkhjjhhf4444444mvX++++&&++++++++++++",
"+++&&&&&++++++&+++Xmv444444444gkkkkhjkkkkkkk445555554455fkkkklkkkkkkklf55555fff555kkllllllkkkkkkkkkk5544444mvX++&&&&&&&++&&+++++",
"+++&&&&&&&&&&&+++&@mv444444444hkkkkf444fkkkkg445455554545kkkllk54445555555555ff555kllllllzlkkkkkkkjk4444444mv@&&&&&&&&&&&&&&&+++",
"++&&&&&&&&&&&&&&&&@mv444444445hkjkg44544khkkh445445555445kllzzk54gghhhf545f5555555klllkkllzlkkjkkhhh4444444mv=00666-&&&&&66&&&++",
"++&&600666&------6=mv444444444gkkk444455fkkkh55555555544flllzlgfjkkkllf55f55555555klkkkggzxlkfgkkkjh4444444mv80rrrrr-&&6006&&&&&",
"+&&6rvvrr000rrrrr0;mv444444444gkkkkkklllkkkkh44555555555flzlllg55fkkkkf55555555555kkkkkg5gzzg5fkkjjg4444444mv800uuvu660rrr6&&&&&",
"&&6rvnnnvrrrvrrrrr8mv444444445jlkkkklllllkkkh555554555555klzllkhhjkllkf55554455555kllklg55ghffgkkhgf4444444mv;0ruvNvrrvvr06&&&&+",
"&6rvnCCCNnvvvvrrrr0mv444444444hkkkjkkkkkklklkf545555555555kzlkkkkkkklk555554555555kklllg5ff555gkjhhg4444444mv;rrnCCnvnnur0-&&&&&",
"&0vnNCSSZCNNnvvvrv0mv444444444hklk5444555kklkf5555555555555klllkklkkkk555555555555kkkkkg555555gkjjjg4444444mv;rvCCSNnnnr06--6-&&",
"60vnCSSSZZZZNNNnvvtmv444444444fklkf44455fkllkff5555f55555555fgkkkkkkkg445555555555klkklg555555gkkkkh4444444mv8unCSZZNNvr06660---",
"00rnCSSSZZZZZZCNNNumv44444444445ff5544545fgggff55555f5ff555455fff5fff5445545555555ggfgg55555555ff5554444444mv0vnCSSZCNnu00rr0---",
"&60vnCCCCCCNNNNNNNumv44444444444545544445555f555455555ff5555555554555555555555555555555ffffff55454444444444mv0vvnCCCNnvurruvr6-&",
"-0vvnNNNNNNNNNNNNNcmv44444444444445554555f5555555455555fff5555f555555555555555555555555ffffff55444444444444mv8rvnnCNnnuuruvnrr-&",
"&0vvvnNNNNNNNNNNNnumv4444444445455555555555f5f5545555555fff55fff55555555ff55555555555ffffffff55555544444444mv0rvnnCNvvurruvnvr-&",
"-0nnvnNNNNNNNNNNNnumv4444444444555f55555fffff55554455555f5f5ff5f5555555555555555555fffffffffff5555554444444mv0rvvnNnvur0rvnnvr-&",
"6vnnnnnNNNNNNNNNnv8mv4444444444555f555ffffff555444445555f5555gkkkkkkkg555f5555555555fffggffff55555554444444mv8rvvnnnvr0rrvnvvr&&",
"rvNnnnNNNNNNNNNNv08mv44444554445fffff55ffffff55554445555555jklkkllllkkf555445fff5555ffgggfgfgff555444444444mv=0rvnvvur0uvnnvr6&&",
"vvNNNNNNNNNNNNNn06;mvf5544544455fffffffffffff5555544445555jkkkkkkkkh555555555fff5ffffffgfffffff555544444444mv@=0ruvu000uvrrv0&&-",
"vnNNNNNNNNNNNNNn0=;mvf55555555ff5f55fff5fff5f55555544455fkkkkkkkkkg555555555f5ff5f5fffffffffff5555544454544mv@&&&&rr00rurrr6&&&6",
"rvNNCCNNNNNNNNNn0&=mv5555555555f5f5ffff5fffff5f555444445kkkkkkkkkgfff555555555ff5ffffffggggff55544545455445mv@&&+++-60r06666&+&6",
"rvNNCCNNNNNNNNNn6&@mmf555555555555ffffffffffff5f5555444gkkkkkkkkj55555555555555ffffffffgggfff55555555544445mv@++++++&&&&&&&+++&6",
"rrvNNNNNNNNNNNnv-&@*vm5545555555fffffffgffffffffff5555fkkkkkkkkkf5544455555555555ffffffgggfffff55555554444mv+X++++++++++++++++&-",
"6rrvnNNNNNNNNNn6&&@=@vm5445555555ffffffggfffff5fff5555jkkkkkkkkk54544455555555555ffgfgfgggfgfffff55555554mvX++++++++++++++++++&&",
"66rrvNNNNNNNNnr&&&=7=@vm4455554555ffffgfffffff55ff5555klkklklkkh44444444555555f5ffffffffffffffff55555555mv@+X++++++++++++++++&&-",
"-6rrvnNNNNNNn6-&&&=97&Xvm455555555f5ffggffffffffff5ffgllklllkkkk544555555fffggf5ffgfffffffffffff5555555mv@+X++++++++++++++++&&--",
"666rvnNNNNNn6-&&&-606-+Xvm555555555fffggggggffffffff5gllkkkkkkjk554455555555hg5ffffggffffffggffff55555mv@&@+++++++++++++++++&--6",
"rrrrvnnNNNv0------6666@+Xvm555555ffffgggggggfgfffffffhllkkkkkkjkh44455555555kg5fffffgffffffffff5f5555mv@=@&&+++++++++++++++&-6rr",
"uuvvvnnNNv0006rrr0666=&@+@vmf555fffffggggggffggfffgffjxlklkkkkkkkf445555555fkg55fffffffffffffff55555mv@=-&&+&&&-&--&+++++++&-6rv",
"uuvnnnNNnrrrvnnur06-6-&&*&@vm55555ffffgfggfgfggggggfghxxlkkkkkkkkk54445544gkkg5555ffffff555f5fff544mv@&@&+&&---------&+++++&-rrv",
"vnnnnNNnvvvnNnnurr0---&&=-=*vmff5555ffgfffffffgggggggjxzlkkkkkkkkkkh5ff55hkkkg5555fffff55555fff555mvX+@&&&+-----6-----&+++++&rvv",
"vnnnNNnnnnnNnnnuu0----&&=69-=vm5555ffffffffffgffgggggjzlkkkkkklkkkklkkkkkkkkkf555ffff5555555fff55mv..X+&&&&-6--66666---&++++&6vv",
"rvnNNNNNNNNnnnvrr06--&&&&69r;=vm555f5f5555ffffggggggggklllkkkkkkklllllllkkklkffffffff55555555554mv.+X++&&-660660rrr6---&+++++-rr",
"r0vnNNnNNnnnnvrrr000-&&&&6rur7-vmffff55555fffgffgggfffkzllllkllllllllkklkkklhfffff5555555555554mv..@&&&-rrur0r0uvnnv66--&++++&6r",
"600vnnnnnnnnvurrr006-&&&&6rucy9-vmfff555555fffffgfgffghxllllllklllllkkkllllkfff5f5544555555555mvX+@&&-6ruuvvrrrnnNnnvr6&&+++++-r",
"000rvnnvvnnvvvvrrr00&&&&&6rrvci9-vmffffff55fff5ffgggffghzllkkkkllzzlllllllzjfffff55545555fff5mvX+@&&60ruvnNnnnnCZZZCNn66&++++++&",
"-0--0ruuvvuvvvuur06-&+&&&66rvvbi7=vmfff5ff5ffffffgggggfgkzllkkkklzzllllllzkffff5f5554555fff5mv.+*=660ruNCSCnnnZSSSSZCNv6&&++++++",
"+------0rruuuuur060-+++&&66rvvnby7=vmf55555ffffffggggggggkzzlllkllzzllllxkfffffff5555555f5fmv.+*=600ruCZSZnnnCSDDDDSZCNv6&&+++++",
"++&&&&&&66ruuur00--++++&&--vvvnvcy9=vm55555ffffffgggggggffjllllkllzlzxxlkgggfffff555555555mv..@=600rvnZSSCnnNNZSDDDDSZNv6-&+++++",
"+++&&&&&&-6rrrr0&++++++&&&&-rvnvvcy7=vm55555ffffffffggggfffgklzlllzzzlkgggggffff554555f55mv..@&6urrunNZZCnvvvnCZSSDSSSCn66&+++++",
"+++++++&&&&&&&&++++++++&&&&-0rvnvvur-@vm55555ffffffffgggffgggfhkjjjkhggggggfffff5444555fmv..@&&6vuvvnNZCnvuuuvNZZZSSSSCnv6&+++++",
"++++++++++++++++++++++&&&&&-0rrrurrr7=@vm555555ffffffffgggffgffffffggggggggfff555555555mv..@&&6rvCnNNCZnvvuuuvNCCZZSSZCNv6&+++++",
"&&++++++++++++++++++&&&&&&&--00000009*@+vm555555ffffffffgggffffgfffffgggggffff55555545mv..@&&&6vnCCNNZNnvnvvuvnNNCCZZZCCv6&+++++",
"&&&&&&&+&&&+++&&&&&&&&&&&&&&&------6=&@@+vm55555ffgggfffffffgfgggfffgggggfff5f5555454mv..X&&&-6vNSZNNZnnnNNvuvnNNCCCCCCCN6-+++++",
"&-&---&&&&&&&&&&&&&&&&&++&&&&&&&&&--&&&*@Xvm5555ffffffffgggggggggggggffffgffff555555mv..X&&&&-ruNZZNCCnNCNnvunnNNNNCNCCCN6-+++++",
"&----------&&&&&&&---&&++++&&&&&&&&&&&&=@+Xvm5555fffffffggggggggggggggffffffffff555mv..@&&&&&-0rnCCCCCnCNNNnvnnNNNNNNNCCNr-+++++",
"&--00rrr00006666666-0-&+++++++&&+++&&&-=&@+Xvm555fffggfffggggggggggggggffgfgfgffffmv..@&&&&&&-60uNZCNCNNNNvvruuNNNNNNNNNNv6&++++",
"&-00rvnnnvvr066600006-&&++++++++++++&&&&&&@+Xvmmmmmmmmmmmmmmmmmmmmmmmmmmmmmmmmmmmmv..X&&&-&&&--0rvNNCNCNNnvuuurnNNNNNNNNNvr&++++",
"&-0rvnNCCCNvurrrr00006&&&&+++++++++++&&&&&&@+Xvvvvvvvvvvvvvvvvvvvvvvvvvvvvvvvvvvvv..@&=---&&&&-00unCCNCNNnuurrrvNNNNNNNNNnu-++++",
"&-6unNCDSZCNuuunnvvrrr06&&&&+++++++++++&&&++X...XXX++@@@+++++XXXXXXXXX............+@==----&&&--60rnnNNCNnuur0ruuvNNNNNNNNNn6++++",
"&-6rvCSSDDCCnvNCCCCnvrrr06&&++++++++&++++++++@++++@@****@@@@@+++++++++........++++*==&----&&&&--6runnNCnvur00rruvnnNNNNNNNnr&&++",
"&&-6rnZSSSNNCNCDDSSSCNnvr0&&&&++++&&&&&&&&&&&&@@=@;88888;;;;;;;;====@@@@@@@X@@@@====-------&&&---rrvnnvvvr00rrrruvnnNNNNNnnr&&++",
"&&&-0rvNnZNNNCSFFFDDCCNNur6&&&&+++&&&&&&&-&&&&====66000000000rrrrrr00=&&&&&====0rrrr0rr006-&&&&&-0ruvuuvrr0r0rrruvnNNNNNNvr0&&&&",
"&&&&600rruuvnZFFFFFFDZZNnur&&&&&&&&&&&&--6----6666660rrur0ruvnnCCnnv00-&&&--0rruuvnvvuuur06&&&&&&-0uuuuurr0rruruuvvNNNNNNr0-&&&&",
"&&&&&666666rvNSSDFFFSSZCCnr6&&&&&&&&&&-666666660000rruurruunNCCCCCnnr0-&&&-00uunNCZCCNnvur06&&&&&-6ruurrr0000uruvvnNNNNNnr0-&&&&",
"&&&&--6--6600nCCSSDSSSZZZCv6&&&&6666-6600rrrrrr0r0r0rrrrrrunCCCCCCnnu0&&&&-0uunCZZZCCNnnnuu0-&&&&&-6uur0r66660ruvnvNNNNNnr0&&&&&",
"&&&&-666660rvvnnCCNCNCCZZCur-&&6600660ruvnnvnnvrr0r0rrrrruunnnnnvvvur0&&&&-uunCZZZZCCNnnnvuur6&&&&&-00066--&-6rnvnnNNNNNnr6&&&&&",
"&&&&---6600rvvnnnCNnvNCCSCnr6&&&60ruuunNCZZCCvvvur0r00000rvvvvvvrrrr00&&&6rvnCZZZCCCnvvvvuuur0-&&&&&-66--&&&6rrnnnnNNNNnr06&&&&&",
"&&&&--666600rrvvnnnnvnNNZZN00&&&60uuunnCZSZZCNnvur0000660rrrrrrrrrr000&&&6rnCZZCCNnvvuuuuvuunu6&&&&&&&&&&&-0ruunNNNNNNNnr0-&&&&&",
"&&&&----66666660ruuvnvnNCCnr0-&-66uvvnNZSCZNnvvrrr0606600rrrrrrrrr0666&&60rnCCCNnvvrurrruuvnnn6&&&&&&&&&&-6ruuunNNNnuvnr0066&&&&",
"&&&&---66666-----660ruvNNNnn0&&&-0uvnNCZZNCnvrrrrr000000rrrrrrrr006666&&60vnNNNnvuurrrruvvvnNCv-&&&&&&&--0ruuuvnNNNr0uvvr06&&&&&",
"&&&--666rr066&-&&&&&&&60rnvu0&&&-6unnNZCCCnvrrrrrr00000rrrr00000066-6-&&6ruvvnnvvrrrruunvnvvnCn6&&&++&&-660rrunnNNr0rrr0r06&&&&&",
"&&-666rrvvvr006&&&&&&&&&&&606&&&-6rvNCSZCnvrrrrrrr0000rrrr0066006-66-&&&-rruvunuurrrunnNnvvvvCnr-&&++&&--660runvnr0rrr0066&&&&&&",
"--666rrrvvvr00006&&&&&++&&&&&&&&-60unZSSnvrrrrrrrr000rrrr0066600----&&&&-0ruuuuuruvnnnCNnvvvvvvr-&&+++&--60ruuvvurrurr666-&&&&&&",
"6660rrrur066&&60r0&&&&&+++&&&&&&-660vZSCnvrrrrrrr0000rrr0006660-----&&&&&60uuuuuvnnnNCCCnvvrr6--&&&+++&&--0ruruurrrur06--&&&&&&-",
"66660r0r00&&&&&6ru0&&&&&+++++++&&-60rnCCnvvrr00000606rrr6066666-&&-&&+&&&60uuunvnNNCNCCCCnvr0-&&+&&++++&&-00rur0ruur006-&&&&&&&-",
"-660000006&&&&&&0ur6&&&&&++++++++&&60rnnnnvvrr0066666606666606&-&&&&+&&&&&rvnnNNNNCCCCCCCnnvrr6&&+++++++&&000rrrurrrr66-&&&&&&--",
"--66606666&&&&&&6rr06&&&&&+++++++++&&&0vnnNnnur006-666-----6--&&&&&++&&&&&6rnCNCNCCCCCCCCCnnvrrr6&++++++&&&-6000000066-&&&&&&&--",
"-&&&&&&&&&&&&++&&600-&&&&&&++++++++++&&&0nnNvvrr06-6&&--6---&&&+&&+++&&&&&&-rnCCCCCCCCCnnvrvnvvrr-&+++++++&&&&&&&&&---&&&&&&&&&-",
"&&&&&&&&&&&&&+++&&---&&&&&+++++++++++++++&vvvur06066--&&&&&&++++&+++&&&&&&&&-rnnCCCCCCCvr-0nNnnvv6&++++++++&&&&&&&&&&&&&&&&&&&&&",
"&&&+++++++++++++++&-&&&&++++++++++++++++++&-0rr6-&-666-&&+++++++++++&&&+++&&&-rvnnCnnnv0&-vNNnnvv-+++++++++++&&&&&&&&&&&&&&&&&&&",
"&&+++++++++++++++++&&&&+++++++++++++++++++++&&---&&&&&&&&++++++++++&&&+++++&&&&--rvvr6&&&rvvuvvv0&+++++++++++&&&&&&&&+&&&&&&&&&&",
"+++++++++++&&&&&++++++++++++++++++++++++++++++++&&&&++++++++++++++&&&++++++++++++&&&&+&6rvvvvr00&&&++++++++++++++++&+&&&&&&&&&&&",
"++&&&&&&&&&&&&&&&&++++++++&&&++++++++++++++++++++++++++++++++++++&&&+++++++++++++&&&&600rrrr0-&&&&&+++++++++++++++++&+&&&&&&&&&+",
"&&&&6666&&&&&&&&&&&&&&&&&&&&&&++++++++++++++++++++++++&&&&++++++&-&&+++++++++++&&&&66666006-&++&&&+++++++++&&&&&+&&&&&&&&&&&&+++",
"&&&-00000000000--&&&&&&&&&&&&&&+++++&&&+++++++++++++++&&&&&&&&&&--&&&++++++++++++&&&&&&&&&&&+++&&&&&+++++&&&&&&&&&&&&&&&&&&&&&&&"
};
