/* XPM */
static const char *wall_s5[] = {
/* columns rows colors chars-per-pixel */
"128 128 140 2 ",
"   c black",
".  c #070707",
"X  c #0B0B0B",
"o  c #170F07",
"O  c #0F1700",
"+  c #171F07",
"@  c #1F170B",
"#  c #131313",
"$  c #1B1B1B",
"%  c #2B230F",
"&  c #232B0F",
"*  c #332B13",
"=  c #3F2F17",
"-  c #2F371F",
";  c #232323",
":  c #373F27",
">  c #373737",
",  c gray23",
"<  c #430000",
"1  c #470000",
"2  c #530707",
"3  c #5B0707",
"4  c #5F0707",
"5  c #670B0B",
"6  c #6B0F0F",
"7  c #731313",
"8  c #771717",
"9  c #7F1B1B",
"0  c #4B371B",
"q  c #533F1F",
"w  c #732B00",
"e  c #473323",
"r  c #4F3B23",
"t  c #533F2F",
"y  c #3F472B",
"u  c #5F4323",
"i  c #5B472B",
"p  c #474F33",
"a  c #574333",
"s  c #5F4B37",
"d  c #53573B",
"f  c #6B4727",
"g  c #774F2B",
"h  c #7F532F",
"j  c #675333",
"k  c #67533F",
"l  c #775F3F",
"z  c #000047",
"x  c #000053",
"c  c #00006B",
"v  c #434343",
"b  c gray31",
"n  c gray34",
"m  c #5B5B5B",
"M  c #6F5743",
"N  c #775F4B",
"B  c #5B6347",
"V  c #676B4F",
"C  c #7B634F",
"Z  c #6F7357",
"A  c gray39",
"S  c gray42",
"D  c #6F6F6F",
"F  c #7B7F63",
"G  c #777777",
"H  c gray50",
"J  c #831F1F",
"K  c #8B2323",
"L  c #8F2B2B",
"P  c #972F2F",
"I  c #9B3333",
"U  c #A33B3B",
"Y  c #A73F3F",
"T  c #874307",
"R  c #9B5B13",
"E  c #AF7B1F",
"W  c #875733",
"Q  c #8F5F37",
"!  c #9B633B",
"~  c #A36B3F",
"^  c #AF4747",
"/  c #B34F4F",
"(  c #BB5757",
")  c #836B4B",
"_  c #836B57",
"`  c #8F7753",
"'  c #8B735B",
"]  c #AB6F43",
"[  c #B37347",
"{  c #BF7B4B",
"}  c #937B63",
"|  c #9B7F6B",
" . c #CB7F4F",
".. c #C76363",
"X. c #CB6B6B",
"o. c #D37373",
"O. c #C39B2F",
"+. c #9F8363",
"@. c #9F876F",
"#. c #A78F77",
"$. c #AF977F",
"%. c #CF8353",
"&. c #D78B5B",
"*. c #D7BB43",
"=. c #DF9363",
"-. c #E79B6B",
";. c #EFA373",
":. c #F7AB7B",
">. c #EBDB57",
",. c #FFE74B",
"<. c #FFFF47",
"1. c #FFFF6B",
"2. c #FFFF73",
"3. c #000083",
"4. c #00009B",
"5. c #0000B3",
"6. c #0000CB",
"7. c #0000E3",
"8. c #7373FF",
"9. c #838383",
"0. c #8B8B8B",
"q. c #939393",
"w. c #979797",
"e. c #9F9F9F",
"r. c #B79F87",
"t. c #BFA78F",
"y. c #A7A7A7",
"u. c gray67",
"i. c gray70",
"p. c #B7B7B7",
"a. c gray75",
"s. c #FFB383",
"d. c gray78",
"f. c #CBCBCB",
"g. c LightGray",
"h. c gray86",
"j. c #DFDFDF",
"k. c #E7E7E7",
"l. c #EFEFEF",
"z. c white",
/* pixels */
"; > > n n n n A A G G G G G A A n v > ; ; ; ; ; ; ; ; ; ; ; ; ; # # # ; ; ; ; ; ; # # # # # # # # # # # # # ; ; ; ; ; ; ; ; ; ; > > > ; ; ; # # # # # # # # # # # # # ; # ; ; ; ; ; # # ; ; ; ; ; ; ; ; ; ; ; ; ; ; ; ; ; ; ; ; ; ; ; ; ; ; ; ; ; ; ; ; ; ; ; ; ",
"> > n v v n n n n A A A G G G 0.G A n n v > ; ; > > > > > > ; ; ; # # ; ; ; > ; ; ; ; ; # # # # # # # # # ; ; ; ; > v v v > > ; > > > ; ; ; # # # # ; ; ; ; ; ; ; ; > > > ; ; ; ; ; ; ; ; ; ; ; ; ; ; ; ; ; ; ; ; ; ; ; ; ; ; ; > > > ; ; ; ; ; ; ; ; ; ; ; ; ; ",
"v v > > > > v v n n A G G 0.0.w.0.0.G 0.G G G G 0.0.A A A n n > ; ; # # ; > > > > > > ; ; ; ; ; ; > > > > > > > v A 0.0.0.0.v v > > > > ; ; ; # ; ; ; ; ; ; ; ; > > > v v v v v v ; ; ; ; ; ; ; ; ; ; ; ; > > > v n v v v n v n v v v v v > ; ; ; ; ; ; ; ; ; ; ",
"v v v v n v n n n n A G G 0.w.w.w.0.w.w.w.u.u.u.u.a.u.u.w.A n > ; ; # # ; > > > > > v v v n n n n G 0.0.0.0.0.w.a.a.a.a.a.w.n v v > > > ; ; ; ; ; ; ; ; ; ; > > > v v n n A A 0.0.G A n v ; ; ; ; ; ; ; v n n n n A 0.G G A A A n n A A A n v > ; ; ; ; ; ; ; > ",
"v v n A G A G G 0.0.G w.w.w.w.u.u.a.u.a.a.f.j.f.j.j.j.j.u.G A > ; ; ; # ; > > > > > n A A G A G 0.w.u.u.a.j.l.l.l.l.l.l.l.u.w.n n > > > > > ; ; ; ; ; ; ; > v n A A G 0.0.w.u.a.a.u.u.w.G n ; ; ; ; ; v v n A G 0.0.0.0.G G G G G G 0.G G A n v > ; ; ; ; ; v v ",
"n G 0.0.w.0.w.w.w.u.u.u.a.a.a.a.a.a.a.f.f.j.j.l.l.j.l.f.a.0.A v > ; ; ; ; > > > n n A G G G 0.0.a.f.f.j.l.z.z.z.z.z.z.z.l.f.u.0.n v > > > > ; ; ; ; ; ; > n A A G G w.w.a.a.f.f.f.f.f.f.a.w.n ; ; ; ; v n A G 0.w.w.w.w.u.w.w.0.0.0.0.w.0.G A n n v ; ; ; > n v ",
"G w.w.w.w.w.w.u.u.u.a.a.a.a.a.a.a.f.f.j.j.l.z.l.z.l.l.l.f.w.G n > ; ; # ; > > n n A G w.w.u.w.u.f.l.z.l.l.z.z.z.z.z.z.z.l.j.f.0.A v > > > ; ; ; ; ; > > n n G 0.0.w.a.a.a.f.j.f.f.f.f.f.f.a.w.v ; ; ; v A G w.w.a.a.u.w.u.u.u.u.u.u.w.w.w.0.0.G A n ; ; ; v n G ",
"a.a.f.a.f.f.a.f.f.a.a.a.a.a.a.a.f.f.f.f.j.j.f.l.l.l.l.j.a.u.0.G v ; ; # ; > n n G w.w.u.a.w.w.u.j.j.l.l.l.z.l.z.l.z.l.l.j.f.a.u.A v > > > ; ; ; ; > > n n 0.0.w.w.u.f.f.f.f.f.f.f.f.f.a.a.u.0.v ; ; ; n A w.u.u.a.a.a.u.a.u.u.u.u.u.w.w.w.w.0.G A v > ; ; n 0.u.",
"f.j.j.j.l.j.j.f.a.a.a.u.u.u.u.a.a.a.f.a.f.a.f.a.f.a.a.u.u.w.w.G n > ; # ; n A G 0.w.u.u.u.w.0.w.f.j.j.j.j.j.j.j.j.a.a.a.u.a.u.u.n n > > > ; > > > > v n A 0.0.w.u.a.f.f.f.f.a.a.a.u.u.u.w.G A v ; ; v n 0.0.u.a.f.f.a.a.u.u.w.w.w.w.0.w.0.w.G G A n > ; ; n u.a.",
"a.f.a.f.a.a.f.u.a.u.u.u.u.a.u.u.a.u.a.a.a.a.a.u.w.0.0.0.G w.0.G G v ; # ; v A G w.w.a.w.0.G w.f.f.a.f.j.j.j.j.a.a.a.a.u.u.u.u.u.A n > > > > > > > > v A G 0.w.u.a.a.a.a.u.w.w.w.0.0.A G A n v ; ; ; n A 0.u.a.f.a.a.a.f.w.w.w.0.G 0.G 0.G G G G A n ; ; > A a.a.",
"u.a.u.a.u.a.u.u.a.u.a.a.u.a.u.a.u.u.a.u.w.w.0.G G G G G G G 0.G A v ; ; ; v A 0.w.w.w.0.0.G w.a.a.f.a.a.a.a.a.a.a.a.u.u.u.u.u.w.A n > > > > > > > v A A G w.u.u.u.a.u.w.G G G A A A A A n n v ; ; ; n G w.u.a.f.a.a.a.u.w.w.G G G G A G G G A G A v ; ; > A u.a.",
"u.u.a.u.u.a.u.u.u.u.u.u.u.u.u.u.u.u.w.0.0.G G 0.G G G G G A G G A v ; ; > n A w.w.w.0.G 0.0.a.a.a.a.a.a.a.a.a.a.a.a.u.u.u.u.u.w.0.v > > > > ; > > v n A G u.u.w.w.0.G A A n n A n A n n n v ; ; ; ; A 0.w.a.u.f.f.u.u.u.0.0.G A G G G A G G A G A v ; ; n 0.u.u.",
"u.u.a.u.u.u.u.w.w.0.w.0.w.0.w.w.w.0.w.0.0.0.G 0.G G 0.G G G G A A v ; > > A G 0.w.0.0.G G u.a.a.a.a.a.a.a.a.a.a.a.u.u.u.u.w.w.w.0.v > > > ; ; > ; v n G w.w.w.0.0.A A n n v v v v n A n v v ; ; ; ; n A 0.w.a.a.a.u.u.u.w.G G G G A G A G G A G A v ; > v A w.u.",
"0.u.u.u.u.u.u.w.w.0.w.0.w.w.w.w.w.0.w.0.0.w.w.G G G G G G G G G A > > > > A G w.w.0.0.G G a.u.u.a.a.a.a.a.a.a.a.a.u.u.w.0.w.w.w.G v > ; ; ; ; ; ; ; n n 0.0.0.G G G A A n v ; ; v n n v v ; ; ; # ; ; v A 0.w.a.a.a.u.u.w.0.G G G G G A G G A G A n > > v n G 0.",
"0.w.0.u.u.u.u.u.u.u.u.u.u.u.u.u.w.0.0.0.A G G A A A A A G G A G n > ; ; v A G w.0.0.G G w.a.a.a.a.a.a.a.a.a.a.a.a.u.w.0.0.w.w.0.A v > ; ; ; ; ; ; ; ; n n A A G A A A v ; ; ; v n v v ; ; ; # ; # # ; ; v A 0.w.w.u.u.u.0.G G G G A G A G G 0.w.G G v ; > v A 0.",
"0.0.0.w.0.u.u.u.u.u.u.u.u.w.w.0.0.A A A A A n n A A A A A G G A n ; ; ; v A A w.0.0.G G u.u.a.a.a.a.a.a.a.a.a.a.a.0.0.0.0.w.w.G A v ; ; # # # ; ; ; ; ; ; ; ; ; ; ; ; ; ; v v v ; ; ; ; ; # # # # # # ; ; v A 0.w.w.w.w.0.G G A G G G G A 0.w.u.0.w.A ; ; ; v G ",
"G 0.G G w.0.w.0.w.0.w.G G G A A v v n n n v n n n n n A G A A n > ; ; > v A G G 0.0.G w.u.a.a.a.a.a.a.a.a.a.a.a.0.0.0.0.w.0.G G A v ; ; # # # # ; ; ; ; ; ; ; ; ; ; ; ; ; v ; ; ; ; ; ; # # ; # # # # # ; ; > A 0.0.w.0.A G G G G G G A 0.0.0.0.0.w.0.; # ; > A ",
"A G G 0.G G 0.G G G A n v v v >.>.>.>.>.>.>.>.>.>.>.>.>.>.>.>.>.>.>.>.>.>.>.>.>.>.>.>.>.>.>.>.>.>.>.>.>.>.>.>.>.>.>.>.>.>.>.>.>.>.>.>.>.>.>.>.>.>.>.>.>.>.>.>.>.>.>.>.>.>.>.>.>.>.>.>.>.>.>.>.>.>.>.>.>.>.>.>.>.>.>.>.>.>.>.>.>.g G G G 0.w.0.0.0.w.0.; # ; ; n ",
"A A A A A n n n n v > > > > > >.O.O.O.O.O.O.O.O.O.O.O.O.O.O.O.O.O.O.O.O.O.O.O.O.O.O.O.O.O.O.O.O.O.O.O.O.O.O.O.O.O.O.O.O.O.O.O.O.O.O.O.O.O.O.O.O.O.O.O.O.O.O.O.O.O.O.O.O.O.O.O.O.O.O.O.O.O.O.O.O.O.O.O.O.O.O.O.O.O.O.O.O.O.O.O.O.g G A G w.0.0.0.0.w.0.# # # ; > ",
"> A A n v > > > > > > > > > > >.O.O.O.O.O.O.O.O.O.O.O.O.O.O.O.O.O.O.O.O.O.O.O.O.O.O.O.O.O.O.O.O.O.O.O.O.O.O.O.O.O.O.O.O.O.O.O.O.O.O.O.O.O.O.O.O.O.O.O.O.O.O.O.O.O.O.O.O.O.O.O.O.O.O.O.O.O.O.O.O.O.O.O.O.O.O.O.O.O.O.O.O.O.O.O.O.g G G A 0.0.0.0.0.w.0.# # # # ; ",
"# ; v > > > ; ; ; ; > > ; ; ; >.O.O.g g g g g g g g g g g g g g g g g g g g g g g g g g g g g g g g g g g g g g g g g g g g g g g g g g g g g g g g g g g g g g g g g g g g g g g g g g g g g g g g g g g g g g g g g g g >.O.O.g A n A 0.0.0.G 0.w.v # # # # # ",
"# # # ; ; > ; ; ; ; ; ; ; ; > >.O.O.g < < < < w < < < < < < < < < < < < < < < < < < < < w w w < < < < < < < < < < < < < < < < < < < R w . O + + + + + + + + + + + + + O O O O O O O O O + + O O O O O O O O O O O O . .   >.O.O.g n n n A A w.0.w.A ; # # # # # ",
"# # # # ; ; ; # # # # # ; > v >.O.O.g < < < T T w < < < < < < < < < < < < w w w < < T R R T w < < < < < < < < < < w w T < < 1 2 1 w E T X + & & - & & & - & & & & & & & & + + + + + & + + & & + + + + + + + + O O + O O . >.O.O.g > n n n n A A v # # # # # # # ",
"# # # # # # # # # # # # # > v >.O.O.g < < E O.E w 3 5 5 3 2 1 1 2 1 < < w R R E E E O.O.O.R 2 5 8 8 7 5 5 5 5 5 3 w E O.E 6 I I L E ,.O.& y p p p p p p p p p y y p y y y : : : : : : : : y y : : : : - : : - - - - & O . >.O.O.g # ; ; > A > ; # # # # # # # # ",
"# # # # # # # # # # # # # # # >.O.O.g < w O.E < 8 7 5 5 5 3 3 2 2 2 3 3 < w R E E O.O.O.T 7 L K 9 9 9 8 7 7 7 8 K 8 w E O.T U Y U E 1.,.: y p d d d p d p d p p p p p y y y y y y y p y y y y y : : : : : : - - - - - O . >.O.O.g # # # # # # # # # # # # # # # ",
"# # # # # # # # # # # # # # # >.O.O.g < T O.R 8 9 8 7 5 4 3 3 2 3 3 4 5 2 < R E E O.O.O.T I U L L K K 9 9 9 9 9 K I L R *.E Y / / O.1.<.y p d d B B d B d B d B B d p p d p p p y p p p p p p y y y y y y p y : : : - + O >.O.O.g # # # # # # # # # # # # # # # ",
"# # # # # # # # # # # # # # # >.O.O.g < w O.R 8 8 8 7 5 5 4 2 2 3 3 3 1 w R R R E O.*.*.O.R K U I L L K K 9 K K L I L E *.R Y / / O.1.1.p p B B B B B B d B B d d B d d d d p p p p p p p p y y y y y p y y y y : : - + O >.O.O.g # # # # # # # # # # # # # # # ",
"; ; ; ; # # # # # ; ; # # # # >.O.O.g 1 < E O.w 7 8 5 5 4 3 2 2 2 2 1 < R R E E T E *.*.*.O.R I Y I L K K 9 K L I K T *.O.L / ( ( O.1.1.B p B B B B B B B B V d d B V d d d d p p p p p p p y p p p y y y y y y : : - O O >.O.O.g # # # # # # # # # # ; ; ; ; ; ",
"> > ; ; # # ; ; ; > > > > > > >.O.O.g 1 5 w E E R 2 4 4 3 3 3 2 2 < < T R R E R 8 8 O.*.*.*.O.R 9 I L L I L K 8 w R O.O.T U / ( ( O.1.<.F F 9.0.0.9.H 9.0.9.H B B d B B d B d d d d p p p p p p p p p p y y : : : : - O O >.O.O.g ; ; ; ; # # ; ; ; > > > > > > ",
"v v > # # ; ; > v A A A A A A >.O.O.g 2 5 7 w E E R T w < < < < < w T T R R T 6 I Y 9 O.*.*.*.O.E T T w w T T R O.O.O.T / I L K _ #.r.u.p.f.g.h.j.j.g.g.f.p.i.9.d B B B B B B d d d d d p p p p d p p p y y y : : : - O O >.O.O.g ; ; ; ; ; ; ; > > > > > v v v ",
"0.v ; ; ; ; A 0.w.w.w.w.w.w.w.>.O.O.g 2 5 8 8 w R R R R T T T w w T T T R T 4 L U Y / J E *.*.O.O.O.O.E E E E O.O.E T K L _ } r.i.a.d.g.h.h.j.k.k.k.l.k.k.k.j.a.} C M B B V B d d d p p p p p d p p y y y y : : : : - O O >.O.O.g > n n n v > v v v v A A A A A ",
"A > ; > v A u.f.f.f.f.a.f.f.a.>.O.O.g 2 5 8 8 8 2 w T R T T T T T T T T w 3 K L I Y Y / K E *.*.O.O.O.E O.O.O.E R T _ } #.r.t.i.a.f.g.j.j.k.l.l.l.l.l.k.k.k.g.a.u.#.@.C Z B B d d d p p p p d d p p p y y y : y : - - O O >.O.O.g A 0.0.A A A A A A G 0.w.u.a.u.",
"A v v A 0.u.a.f.l.j.l.l.l.l.j.>.O.O.g 2 5 8 9 9 8 5 2 < w w w w w w w < 4 9 K I U Y Y / / U R E O.O.E E E R T J I K C | #.r.t.a.d.h.j.k.l.l.l.l.l.l.l.l.l.k.j.f.a.t.#.} M d p d d p p p p d d d p p p y y y y : : - - O O >.O.O.g w.u.u.0.G G G G 0.w.u.a.u.a.u.",
"0.0.w.u.a.f.f.j.l.l.l.j.l.j.l.>.O.O.g 1 5 8 9 9 9 8 8 5 2 < < < < < 2 5 8 9 I I U Y / / / ( / U J L J J 9 K U Y Y K s N | $.r.r.a.h.k.l.l.l.z.l.l.l.l.k.j.g.g.a.t.$.$.@.C k d p p p p p d d d B d d p p p p y y : : - O O >.O.O.g f.j.j.f.w.w.w.w.w.w.w.u.u.a.u.",
"w.u.a.f.f.j.f.f.f.f.l.l.l.l.l.>.O.O.g 2 7 8 K 9 9 8 5 5 < 4 4 4 4 5 5 7 9 K K K U Y / / ( ( / / / / Y Y Y U U Y 9 e t k M | t.a.g.k.k.l.l.l.l.l.k.h.f.p.u.q.| } N M } #.@.| } V p d d p d d B B d d p p p p y y y : - + O >.O.O.g z.z.l.l.a.a.w.w.w.w.w.w.G 0.0.",
"u.a.a.f.f.f.f.a.a.a.f.f.j.j.l.>.O.O.g 2 5 8 K K K 8 7 2 < < 4 4 4 5 7 7 5 < T T 9 / / / ( ( ( / Y I K J J J 8 K 8 s C s M @.#.$.u.a.k.k.k.k.f.a.f.i.$.$.@.} _ _ s k } r.$.@.| } V p d d d d d d d d d p p p p y : : : + O >.O.O.g z.z.z.l.j.f.u.w.w.0.G G G G G ",
"u.u.a.a.a.a.a.a.u.a.a.a.a.a.a.>.O.O.g 2 7 9 K 9 K 9 5 < T < 3 5 5 5 7 2 w R E E J / / ( ( ( ( ( P E E E E E E E R C M s N ) } +.+.t.t.r.t.i.r.r.$.+.] ! Q Q Q Q C } t.r.r.$.#.@.} p p p d d d B B B d p p p p p y : - + O >.O.O.g z.z.z.l.j.f.w.w.G 0.A n A A G ",
"0.w.u.u.u.u.w.w.w.w.w.w.w.w.w.>.O.O.g 2 7 9 K K K 9 2 T R T < 4 5 5 2 w R E E E K / / ( ( ( ( / E *.O.O.O.O.O.O.E ' | C ! ! ! ] { %. .[ ] ]  .&.=.%.] ~ ~ ] ~ ~ C $.r.t.r.$.#.@.} p p p d d d d B d d p p p y p p y : + O >.O.O.g z.l.l.a.f.u.u.w.G A n v A A G ",
"0.0.0.0.0.0.w.w.w.w.w.w.w.w.w.>.O.O.g 2 8 9 L L K 7 w R T T w 2 5 4 w R E E E E L / ( ( ( ( ( I O.*.O.O.O.O.O.O.E @.' ! ! ~ ! ~ { &.&.{ %.&.=.=.&. .[ [ { { { { W $.t.t.t.$.#.#.#.V p p p d d B d d d d p p y p p y y + O >.O.O.g j.a.a.a.a.u.u.w.A n v v A A G ",
"0.0.G G G G 0.0.w.w.w.w.w.0.w.>.O.O.g 4 8 L L L L 2 T R R T T < 5 < T R R E O.O.L ( ( ( ( ( ( R *.*.O.O.O.O.O.O.E | M Q [ [ { { [ { &.&.&.-.-.=.=.%.&.&.=.=.&.&.[ ) $.t.$.#.#.$.$.} y p p d B B d d d d d p p p p y : + O >.O.O.g w.w.a.a.u.u.u.0.A v > v n A G ",
"G G G G G G G G 0.0.0.0.0.0.w.>.O.O.g 4 8 K L L 8 w R R R T R w 1 < T R E E O.O.R R R T R U / O.*.*.O.O.O.O.O.O.O.} N W  .&.=.=.&.=.=.=.-.-.=.=.=.&.t.t.t.r.r.$.) ] M #.r.$.$.$.#.#.p y p d d B d d B d d d p p p y y + O >.O.O.g w.w.w.w.w.a.u.w.A v > v n n G ",
"A G G G G G G G G G G G G G G >.O.O.g 4 8 L I I 6 R E R R R T T < < R R E E O.O.*.*.*.*.,.O.P *.*.*.O.O.O.O.O.O.O.@._ ! | #.#.$.t.t.=.-.-.-.-.-.{ t.t.t.r.r.$.$.` ) j $.r.t.#.@.@.} y p p d d d B B B d B d p p y y y + O >.O.O.g 0.0.0.w.w.w.w.0.n > ; > v v n ",
"n n A n A A A G G G A G A G A >.O.O.g 4 8 L U 9 T E R R R R R T T < T R E E O.O.*.*.*.,.,.O.R *.,.*.O.O.O.O.O.O.O._ f ) +.#.#.$.$.t.t.-.&.%.-.-.%.t.r.r.r.$.$.#.+.` ~ ) $.} ~ ] ) M y p p p d d B B B B d d p p y y : + O >.O.O.g 0.0.0.0.0.0.0.A n > ; ; ; v v ",
"v n n n n n n n A A A n n n n >.O.O.g 4 9 L U 6 E E E R R R T R T w T R E E O.O.*.*.,.,.,.E O.*.,.*.O.O.O.O.O.O.O.) g C ` | $.$.#.+.` =. . .=.-.=.+.$.$.$.#.#.+.| ) g Q W ~ ] ] ! C d p p d d d d p B B d d p y y y : + O >.O.O.g 0.0.0.0.0.0.G A v > ; ; > ; v ",
"v n n n n n n A n n n n v v v >.O.O.g 4 9 I U T O.E E R R R T R R T w R E E O.O.*.,.,.,.*.R *.,.,.*.O.O.O.O.O.O.O.l ~ { [ [ ] [ { { %.%.=.-.=.=.=.&.{ ] ] ] ] ] ~ Q f f W Q q f ! k y p d d d B d d B V B d p p y y : + O >.O.O.g A A A A A n A n v > ; ; ; ; v ",
"> n n A A A A n n n v n v v v >.O.O.g 5 9 I 7 E O.E E R R R R T R R w T E E O.O.*.,.,.,.*.E *.,.,.*.O.O.O.O.O.*.*.l W ] ! Q Q Q ! ! [ { =.;.-.-.=.[ ! Q W W Q ! Q W g f Q u u f Q i y y p d d B B V V V B B d p y y : + O >.O.O.g A n n n > > > > > ; ; ; # ; ; ",
"; v A G G A n n v n v v v v v >.O.O.g 4 9 U R O.O.E E R R R R R R R T w R E O.O.*.*.*.O.R *.,.,.*.*.O.O.O.O.O.O.O._ W ] ! h S i.8.8.S ] &.;.;.=.&.S i.8.8.S Q Q ! W g W f q u f h s y p p d d B B B B B B B d p p y y & O >.O.O.g 0.A n > ; ; ; ; ; ; ; # # # ; ",
"# ; v A A n n n v v v v n v > >.O.O.g 5 K 9 R E E R R T T T T w w w w 8 8 R E O.O.O.E U I O.O.O.O.E E R R R R R R ' ! ~ Q g W S 6.6.[ ~ { -.-.%.{ { S 6.6.W ~ ~ Q h h ! g g u W f p p p p p d B B V V V V V B d p y y & O >.O.O.g 0.A n > ; ; ; # # ; ; # # # # ",
"# # ; > > > > > > v n v > > ; >.O.O.g 5 K I K 9 7 7 6 5 6 5 5 5 8 8 8 K L 9 J L P L ( ( ( / Y Y Y Y Y Y Y Y Y Y R #.Q ~ ~ ~ ~ ! ~ ~ { ! [ &.=.{ { { ] ~ ~ ! ! ! ! h W ! f f f W : y p p p d p B V V V V V V B d d p y & O >.O.O.g A A n > ; ; ; # # # # # # # # ",
"# # # # ; ; > > > > > v ; ; ; >.O.O.g 5 K U Y Y U U L K 9 8 8 8 8 8 9 K I I Y Y / ( ( ( ( ( ( ( / / Y U Y Y Y Y R _ ] { ] ~ ~ ~ ] [  .~ [ &.&.[ ] { { ] ~ ~ ~ ! W g g W u g W l p p p d d d d B V V V V V B B B d p y & O >.O.O.g ; ; > > ; # # # # # # # # # # ",
"# # # # ; ; ; ; ; ; ; ; # ; ; >.O.O.g 5 L U Y U Y I L 9 8 9 8 7 8 8 9 K L I U Y / ( ( ( ( ( ( / / Y Y Y Y U Y R E ' ! [ ] ] [ { %.%.%.] { &.&.] ~ {  .%.{ { [ ! h g Q g h Q ~ _ p p p d d d B B V Z V V V V V B d p y & O >.O.O.g # # # # # # # # # # # # # # # ",
"# # # # # ; ; ; # # ; # ; ; ; >.O.O.g 7 K U Y Y U I K 9 9 8 8 8 8 9 9 K I U Y / / ( ( ( ( ( ( / Y Y Y U I U R O.O.R Q [ [  .=.-.-.&.{ ] %.=.=.[ ] ~ { &.-.-.-.{ ~ ! ~ W ! ] +.M p p d d d d V V V V Z V V V V B B p y & O >.O.O.g # # # # # # # # # # # # # # # ",
"# # # # # # # # # # # # # ; # >.O.O.g 7 K U Y Y Y I K 8 8 8 6 2 w w w T T T R E E O.O.O.O.O.O.O.O.O.O.E E E O.O.O.*.E [ { &.;.:.-.%.[ [ &.-.=.[ [ Q ] &.;.:.:.&.[ [ ] Q ] { ' k p d d B B B V V V Z Z Z Z V B B d p y + + >.O.O.g # # # # # # # # # # # # # # # ",
"# # # # # # # # # # # # # # ; >.O.O.g 8 R E E E E E R R T T T T T T R R R E E E O.O.O.O.O.O.E E R R R R R T R O.*.*.E ! { =.:.:.=. .~ h [ &. .! h W [ &.-.:.:.-.%.[ ~ W ~ C N s d d d B V V V V Z Z Z V V V B V d p y & + >.O.O.g # ; ; # # # # # # # # # # # # ",
"# # # ; ; ; ; ; # # # # # # ; >.O.O.g 6 T T R T T T w w J 9 6 8 7 9 9 9 L U Y / / ( ( ( ( ( ( / / Y E E Y U Y R O.O.U Q [ =.:.:.=.{ ] W W ~ Q g u ! %.&.=.;.;.=. .] ! ! W k s B d B B B V Z Z Z Z Z Z Z V B B B B d p & + >.O.O.g ; ; ; ; ; ; # # ; ; # # # # # ",
"# # # ; ; ; ; ; ; ; ; ; ; ; # >.O.O.g 5 K U Y K T J L K 9 8 8 8 8 8 9 K I U Y Y / ( ( ( ( ( / / U E O.R Y U U Y E E ( W ~ %.;.:.&.~ ! W h h g f u !  .%.%.=.-.&.[ ~ Q Q a s y d B V V V V Z Z Z Z Z Z Z V B d B B d y & + >.O.O.g ; ; ; ; ; ; ; ; ; ; ; ; # # # ",
"# # ; ; ; ; ; ; ; ; ; ; ; ; ; >.O.O.g 8 R E E E E R R 9 9 8 7 7 8 9 9 K I I Y / / ( ( X.E E ( R E E E U U U U Y / / ( K ~ [ { { ~ ! Q ! ! ~ ! ~ [ [ { { ] ~ [ [ [ ! Q f r a p B B V V V V Z Z Z Z Z Z Z V V B B d d y & O >.O.O.g v v > ; ; ; ; ; v v ; ; ; # # ",
"# # ; ; v n n v v v ; > > > > >.O.O.g R R T L U Y K R 9 J w T T w 9 K I I I R E R Y O.*.*.O.E O./ E U Y U U U U Y / X.U W [ ~ Q ! ] {  .&.;.;.;.&.{ { [ f Q ! ] ] ! W 0 p B B B V V V Z Z Z Z Z Z Z Z Z Z V B B d p y & + >.O.O.g A A A > ; ; v n n v ; ; ; ; ; ",
"# ; ; v A 0.0.A A n n n A A A >.O.O.g R R T Y U U K w T T J 7 T w w w T T R E E E *.*.O.E E O./ E E U ^ R E E / Y E *.*.K ] ~ ~ W ! ] ] ! ~ ! ! ! Q Q W h ~ ] ~ Q ! g - p B B V V V V Z F F F F F Z Z Z Z V B B d p y & + >.O.O.g G 0.G v v n A A A v ; ; ; ; ; ",
"; ; v A 0.w.w.w.0.A A A 0.A A >.O.O.g 5 T E E U I R R J 9 J T T T R R R R T T O.O.E X.( O.*.O.O.O.E E E E O.E / O.O.O.E ( W ! [ [ ~ ! ~ { %.%.{ ] ~ ~ ] ] ~ ] Q Q Q q p B d B V V V Z Z Z F F F F Z Z Z V V B d d p y & O >.O.O.g 0.u.0.A A 0.0.A n v ; ; ; ; # ",
"; v A 0.w.a.a.a.u.w.0.0.0.0.A >.O.O.g 5 K U R E E R K 9 T T w w T R R T U T E E / R E O.O.E E O.O.E E E E O.E O.O.E X.E O.R ! ~ ] ~ { &.-.s.s.:.=.&.{ ] ~ ~ ~ Q ! g - p B B B V V Z V Z F F F F Z Z Z Z V B B d d p y & O >.O.O.g a.a.w.0.w.w.G A n > ; ; ; ; ; ",
"; n 0.w.u.a.j.j.f.a.u.u.w.0.0.>.O.O.g 5 K U R O.E T T R T J T T T R T K T E E E E R O.O.( ( E E E O.E E O.E O.E E E O.E X.( g ~ ~ ! [  .&.-.-.-.-.&.[ ] ~ ~ ! ! ! f y B B B B V V V V Z F F F F F F Z Z V V B B d p y & + >.O.O.g a.j.u.w.w.w.A n v > > v > ; ; ",
"v n 0.w.a.j.j.j.f.f.f.f.u.u.u.>.O.O.g 5 9 E O.E R w T R T T 9 J T R T T K R E E Y O.O.( ( / O.R E R E O.E I ^ E E E X.( ..( P ] ~ ! [ { Q g g ! { %.] ~ ! ~ Q [ Q p p B B B B V V V Z Z F F F F F Z Z V V V B d d p y & + >.O.O.g j.f.f.u.u.0.A n v v v n > > > ",
"n n A w.a.j.j.j.f.f.f.f.f.f.a.>.O.O.g u E E E E I L J T J 8 9 8 w T w L I U Y ( E O.R ( ( R O.O.O.E O.R Y U U Y / / ( ( ( ../ ~ { ] ] [ ! Q Q ! ] { ~ ~ ~ ~ ~ W = p p p B B B V V Z Z Z F F Z Z F Z V V V B B d d p y & + >.O.O.g j.j.f.a.u.w.G n n A A n > > > ",
"; v n 0.w.a.a.a.a.a.a.u.u.u.u.>.O.O.g R R R R K T R T T T T 7 9 8 9 K L I Y Y / E O.O.( ( E *.E / E / Y U U U Y Y / ( ( ....( U ! [ [ ] ! ! ~ ~ ] [ [ [ ] Q u * : p p p B B V V V V V Z Z F Z Z Z Z Z V B B d d d p y & + >.O.O.g a.a.a.u.w.0.G A A G 0.A v > ; ",
"> n 0.0.w.u.u.u.u.u.u.u.u.u.u.>.O.O.g T R R T R E T 9 9 8 w T 7 9 8 K I L R T ( O.*.^ ( E O./ R E / / U U Y Y Y Y E E ( ......( f g h W W h Q ! ! ! ! h f u f 0 y p B B B B d V V V Z Z Z F F Z Z Z V V B B d d d p y & + >.O.O.g w.a.u.w.w.G G A G 0.w.A A > ; ",
"; n 0.0.0.w.u.u.u.u.u.u.u.u.u.>.O.O.g T w w w R T L L 7 w T T w T w 9 R E E T R O.O.O.O.*.O.E E U U E Y U I R E O.*.O.X.E O.O.( u g g W W Q W h g g g g h Q ] g y B B B B B B B V V V V Z Z Z Z Z V V V V d d d d p y & + >.O.O.g w.a.u.0.0.G A A G 0.w.0.A > ; ",
"> n w.w.0.w.u.u.u.u.u.u.u.u.u.>.O.O.g 3 8 L R R T T T R T w w w w J T R R Y R O.O.O.O.*.*.O.E E E O.E R E E O.O.O.E E O.O.o...( g ! W W W ! ! ! ! Q Q ] { %.&.Q - : = = p d B B B V V V V V Z Z Z V V B B B d d d p y & O >.O.O.g w.u.w.0.G A n A 0.w.w.0.A > ; ",
"v 0.w.w.w.w.w.u.u.u.u.u.u.u.u.>.O.O.g 3 T E E E R T R T w w J w w w T R R R O.O.O.O.O.*.O.O.E O.O.E E R R O.O.E E E E ( / 6 / ( ! %.{ [ {  .%.%.&.{  .=.=.&.[ f = q q 0 = p B d B V V V V V V Z V Z V B B B d d d p y & O >.O.O.g w.w.w.0.A n A A 0.w.0.0.A ; ; ",
"A 0.u.w.w.w.u.u.u.u.u.u.u.u.u.>.O.O.g R R T 9 L K T T T T T T T T T T R E R R E O.*.*.E / ( / O.E ^ Y / / E E ( / ( ( U = q 0 6 W  .&.{ %.&.=.=.=.=.-.=.{ f 0 f h h f u 0 = d d d d B B B V V V V V V B B B B d d p y & + >.O.O.g w.0.0.G A n G 0.w.w.0.A v ; ; ",
"0.0.u.u.u.u.u.u.u.u.u.u.u.u.u.>.O.O.g = 7 K L I L K w w w w w w J 8 L K T E E E O.E ( ( ( ( ( / / / Y Y Y Y / / / / J = 0 f f f 0 f ] %.%.&.=.=.=.=.{ g 0 f Q Q h h h f f u = p d d d d B B V V B B B B d d B d d p y & + >.O.O.g G 0.G n n n G 0.A A 0.n ; ; > ",
"0.w.u.u.u.u.u.u.u.u.u.u.u.u.u.>.O.O.g 2 7 K I K L 9 8 8 5 3 6 5 7 8 J T T E E O.O.E O.O.O.O.O.O.O.O.O.O.O.O.O.O.E 0 0 0 u f f f f u 0 h ]  . .%.{ g = f Q ~ ~ Q Q h h h f u q = y d d d B B B B B B B B B d d d d p y & + >.O.O.g ; A A n n A G A A A v ; ; ; v ",
"A 0.u.u.a.a.u.u.u.u.u.u.u.u.u.>.O.O.g * T T R R R R R R R R R R R R E E O.O.O.*.,.,.,.,.,.,.*.*.*.*.*.*.*.*.*.E q = q f f f h h h h g f 0 f ! W u f Q ~ ~ ~ ~ ~ Q Q h h f u 0 * o : p d d d d d B d d d d d p d p p y & + >.O.O.g # # > v n A n v v v v ; # ; v ",
"A 0.u.u.a.a.u.u.u.u.u.u.u.u.u.>.O.O.g R O.O.O.O.E E E E R R R R R E E E O.O.*.*.,.,.,.,.,.,.,.*.*.*.*.*.*.E w * q 0 u f f h h g h h g h h u % = g Q Q ~ ~ ~ ~ ~ Q Q h h f f = * * * % - y p p d p p p p p p p p p p y & + >.O.O.g # # # ; ; ; ; ; ; ; # # # ; v ",
"A A 0.u.u.u.u.u.u.u.u.u.u.u.w.>.O.O.g E O.O.O.O.E E E R R R R T R R R E E E E O.O.O.O.O.O.O.E E E E E R R w o * q f f f h h h h g h h f u z x z g h Q ~ ~ ~ ~ Q Q Q Q h f = * * * * * * * = : y p p p p p p p p y y : + O >.O.O.g # # # # # # # # # # # # # ; > ",
"v A A 0.w.u.u.u.u.u.u.u.u.u.w.>.O.O.g R E E R R R T w w 6 6 6 6 6 6 8 9 L U Y / / ( ( ( ( ( ( ( / Y 9 < o % * % * 0 f h h h Q h h h f 0 z x c z z h h Q ~ Q Q Q Q Q Q h 0 = = * * = = = = 0 = * = y y p y y y y p y : & O >.O.O.g # # # # # # # # # # # # # ; ; ",
"v v A A 0.u.u.u.u.u.u.u.u.w.A >.O.O.g < 4 8 K K K K 9 8 8 8 8 8 8 9 9 K I U Y Y Y / / / / / U 8 = = = = * * * * * * f h h h h h f f = x c c c x x z u h Q h Q Q Q Q Q f = = = = = 0 0 0 0 0 0 0 = * * = - : : y y y : + O >.O.O.g # # # # # # # # # # # # ; ; > ",
"> v A A 0.w.u.u.u.u.u.u.w.v > >.O.O.g < 5 8 K K K 9 9 9 8 7 7 8 8 9 9 K I I U U U Y Y I 9 = = = 0 0 0 0 = * * * * * = f h g g h u z c 3.3.3.3.c c c ; 0 f h Q Q Q Q h 0 = = = 0 q q q q q 0 q 0 0 = = = * * % - : : : + O >.O.O.g # # # # # # # # # # # ; ; > > ",
"v v v A 0.w.u.u.u.u.u.w.v > ; >.O.O.g < 4 7 9 K L 9 8 9 8 7 7 8 8 8 9 9 L L L L 8 6 * = 0 0 0 0 0 0 q 0 = = * * * * * = f h f = z 3.4.5.5.5.5.3.c c z q q q h h h h q 0 0 q q q u u u u q 0 0 0 0 = = * * * * * % & - O . >.O.O.g # # # # # # # # # # # ; > > v ",
"A A A A 0.w.w.u.u.u.0.n > > > >.O.O.g < 4 7 9 9 K 9 8 8 8 7 7 7 7 8 8 9 K 7 2 = = 0 0 0 0 0 q q q q q q q = = = = = 0 0 q u 0 z c c 4.5.6.6.6.5.3.c c = f u 0 f h f 0 q 0 q f f f f f f u u 0 0 0 = = = * * * * * % @ O O >.O.O.g # # # # # # # # # # ; > v A A ",
"G G 0.0.0.w.w.u.u.0.n n n v A >.O.O.g < 3 5 8 8 9 9 8 7 7 7 5 5 7 5 4 = u h 0 = = = = 0 0 u q u f q q q q = q q = 0 f g u q f b c c c 4.5.6.7.5.3.3.c z u f u 0 f 0 = = 0 f f u f f f f f f u q q 0 = * * * * * % % o . . >.O.O.g > > ; # # # # # # # ; > v A 0.",
"G G 0.w.w.w.u.u.w.A A A 0.w.w.>.O.O.g < 3 5 7 8 8 8 8 7 7 5 5 3 * u f Q Q Q Q 0 * 0 q u u u u f f u q * * q u u f g h h g g f G m x c 3.3.4.4.4.c c H 9.u g g g u w E E E f R O.E h f h h f f u q 0 0 0 * * % % % @ + O . >.O.O.g > > > > ; # # # # # ; > A A 0.",
"0.w.w.w.w.u.u.w.0.0.0.w.u.w.w.>.O.O.g < 2 5 7 7 8 7 7 5 3 * 0 f h W h Q Q Q Q q = 0 q u f f f f f u q * 0 u u g Q Q Q W W h u e.w.z x c c c c c x S d.u.f h h g w R E E E T O.O.*.T f h h h f f q q 0 = = * % % % @ & O . >.O.O.g > > > > > ; # # # # # ; A 0.0.",
"0.w.w.w.u.u.w.w.w.w.w.u.w.w.w.>.O.O.g % % < 2 4 4 2 = 0 g f h Q h Q Q Q h h Q 0 = q q u f f h h f u q = q f f f Q Q Q Q W W h p.p.c c c c c x z > i.a.a.h h Q W R E T R *.O.T w O.E h h h h f f u q q = * * % % % + & O . >.O.O.g v v v > > > ; # # # # ; v 0.0.",
"A 0.w.u.u.u.u.u.u.u.u.w.w.w.0.>.O.O.g 0 q u f h Q h ~ Q ~ h h Q h Q h Q f f h 0 = q u u f h h h h f u q u u u f f h Q Q Q g ] f.i.c c c c c c c v y.p.p.W g Q Q T *.*.*.O.O.>.>.*.E h g h h h f f u q = * * % % % + & O . >.O.O.g A A v > > > ; # # # # # > A A ",
"A n 0.w.u.u.w.u.u.w.w.w.w.0.A >.O.O.g 0 q h Q Q ~ Q ~ h ~ h h Q h h f f q f h * = q u u f h h h h f q q f u u u u q f W Q f y.f.u.c c c 3.3.3.3.3.w.i.i.Q h Q W R E R T O.O.R E T E h h g h h f f u q = * * % % @ & & O . >.O.O.g w.w.0.v v > > ; # # # # ; v A ",
"v n n 0.w.w.w.w.w.w.w.w.0.G A >.O.O.g = q f h h Q h ~ h Q f h Q h h h f q f f * = q u f h h h h h f q 0 u f u u q q f Q g ~ d.d.q.c c c 3.5.5.5.3.9.u.i.! f Q W E O.*.>.>.O.E *.*.*.f g h g h f f u q = * % % % @ & & O . >.O.O.g u.w.w.0.A v ; ; # # # # # > A ",
"n n n A 0.w.w.0.0.w.w.0.0.0.0.>.O.O.g * q f h h Q h ~ h Q h f h g f f q 0 f f * = q u f f f h h f f q 0 q q u u q u W W f =.d.a.H c c 3.4.6.7.6.4.D y.u.! f Q W W R E O.*.*.O.E *.O.h h h h h h f q = = * % % % + - & O . >.O.O.g f.f.a.u.w.v v ; # # # # # # ; ",
"> n > > n A G G 0.0.G 0.0.0.G >.O.O.g * = f f h h h Q h ~ h f f h f f 0 0 0 q % = = q f f h f f f f q 0 q q q q q u h W f %.d.a.S c c 3.4.6.7.6.4.m y.i.W g W W W Q W W g = q f h f f h h h h h f q = * * % % @ & & & O . >.O.O.g j.j.f.a.u.0.v ; ; # # # # # # ",
"# > > > > > > n A A G G G G G >.O.O.g % = f f Q h h Q h Q u u u u f q : * : q * * 0 q u f f f f f u q 0 q q q q q 0 f g g Q a.p.b c c 3.4.6.7.6.5.3.e.u.h g h W W W W g q * = = = f f f g h h f u q = * * % % o & & & O . >.O.O.g l.l.j.f.a.u.0.v ; ; # # # # # ",
"# # ; ; ; ; ; ; v v A G G G A >.O.O.g % * q q h u h h h Q h u u 0 : : : : : - % * = q u f f u f f u 0 = q q q 0 0 0 0 u g f i.i.3.c 3.3.4.5.7.7.5.4.q.i.g g g W W h u = = = 0 q = q f f h h f f 0 q = * % % @ o & & + O . >.O.O.g l.l.l.j.f.u.0.v > ; # # # # # ",
"# # # ; ; ; ; ; ; > v A A A A >.O.O.g @ * = 0 q u u f f u f 0 : : : y y p p y % * = 0 q u u u f u q 0 * 0 0 0 0 0 0 = q f f w.u.c c 3.3.4.5.7.7.5.4.H e.f g g h g 0 * * = = = q * q f f h h f f q = * * % % @ + & + + .   >.O.O.g j.l.j.j.j.a.w.v v ; # # # # # ",
"# # # # # # # ; ; ; ; ; ; ; ; >.O.O.g O + * * & 0 * 0 q - u : y y p p d B B d - * = 0 q u u u u u q 0 * 0 0 = = 0 0 = q u f [ y.c c 3.3.4.5.7.7.5.4.m G f g g f 0 * * * * 0 = = * q q f h h f u q = * * % @ o + + + + .   >.O.O.g f.j.j.j.j.a.w.0.v ; # # # # # ",
"# # # # # # # # # # # # # # # >.O.O.g O + & & & - - - - - : y p d B B V B V B - * = 0 0 u u u u u q = * 0 = = 0 = = = = f u Q G c c 3.4.4.5.6.7.5.4.3.0 g h g u 0 * * * * 0 0 = * 0 u f f f f q q = * % % @ o + + + + .   >.O.O.g f.f.j.j.f.a.u.0.v ; # # # # # ",
"; ; # # # # # # # # # # # # # >.O.O.g + & - - - : : : : y y d d d B B B B B B - * = 0 q q q u q q q 0 * * = = = 0 = = = u f u , 3.3.3.4.4.4.5.6.5.4.3.0 W g u f = * * * = 0 0 * * q 0 f f u 0 0 = * * % @ @ . + + + + .   >.O.O.g a.a.f.f.f.a.a.0.v ; # # # # # ",
"; ; ; ; ; ; ; # ; ; ; # # # ; >.O.O.g + & - : y y y y y p p d d B d d B B B B - * = = q q q q q q 0 = * * * * * * = = = 0 g 0 x 3.c 3.3.4.4.4.4.4.4.4.f g u f u * * * * 0 0 = * = q q u f 0 q q = * * % @ o O + + + + .   >.O.O.g a.a.a.a.a.a.a.u.v > # # # # # ",
"; > ; > > > ; ; ; ; ; ; ; ; ; >.O.O.g + & - : y y y y p p p p d d d d B B B d - * * * = q q q u q 0 % g ~ ! W f 0 * = = = f 0 x 3.3.3.3.3.3.3.3.3.4.c f f f g 0 * * * = 0 = = * 0 q q u u q q = * * % @ @ o O + + + O .   >.O.O.g u.u.a.u.a.a.a.u.v > # # # # # ",
"; > > > > > > > > > > ; ; ; ; >.O.O.g + & - : : y y y p p p p d p d d d d d d - * * = = q q q q q 0 % 0 ! ] ! g = * = = = 0 = % z x c c c 3.3.3.3.3.z f u g f * * = = = * * * 0 0 q q q q q q = * * % % o o O + + + O .   >.O.O.g u.u.u.u.u.a.a.u.A > # # # # # ",
"; > > n n A A A n n n n v v v >.O.O.g + - : : : y y y y y y p p p p d d d d p - * * = 0 q q q u 0 * * % % q u * % * = 0 0 q 0 q q q q 0 = * z z x c $ = g W u * 0 u u f Q ] f = 0 0 q q q q = = * % % @ o o O O + O O .   >.O.O.g u.u.u.u.u.u.u.u.0.v ; # # # # ",
"; > n n A 0.w.w.w.0.0.A n v v >.O.O.g + - - : : y y y y y y y y p p d d d d p - % * * 0 q q q q q q q 0 * % % % % * * = 0 q q q u u u f u u u q 0 = % * 0 u % h { { { %.{ ] h q 0 0 q 0 0 0 = * * % % @ o O O O O O O     >.O.O.g u.u.u.u.u.u.u.u.0.A ; # # # # ",
"; > n A 0.w.u.a.a.a.u.0.G A A >.O.O.g + & - : : y y y y y y y y y y p d p p p - % * * = 0 q u u q q q 0 0 = * * % % * * = 0 = 0 q 0 q u u u u u u u q q 0 = % f &.%.] %. .W 3.6.* = q 0 0 = * * * % % @ o O O O O O O     >.O.O.g u.u.u.u.u.u.u.u.w.G > # # # # ",
"; > v G w.u.a.l.j.f.a.u.G G G >.O.O.g + & - - : : : : : y y y : y y p p p p y : % * * = = q q u u q u u q 0 * * * * * * * = = 0 q q u q q u u q q u u q q q 0 % ] &.] [  .{ q c u 0 * = 0 * * * * % @ o o O O O O O O .   >.O.O.g u.u.u.u.u.u.u.u.u.w.v # # # # ",
"; > v A 0.a.j.j.l.l.a.a.w.0.u.>.O.O.g + & - - - : : : : : y : : : y p p p p y : % * * * = 0 q q u u u u q q 0 = * * * = * * * = 0 = = q q q q q q u q q q q 0 % f { [ { 2.*.] [ ! h % * = * * * % % @ @ o O O O + O O .   >.O.O.g w.w.u.u.u.u.u.u.u.w.A ; ; # # ",
"; ; > v A w.f.j.j.j.u.u.a.u.a.>.O.O.g O & & - - - - - : : : : : y y y y y y y : @ * * * * = = q q q q q q q q 0 * * * * = = = * = * = = = = 0 = q = 0 0 0 0 = * * ] { ~ [ ] ! [ ! ] u % * % * * % % @ o O O O O + O O .   >.O.O.g 0.w.w.u.u.u.u.u.w.w.A ; ; # # ",
"; ; ; > n A 0.u.w.f.u.u.u.a.j.>.O.O.g O + & & - - - & - - - - : : : : y : : y : o % % * * * = = = = 0 0 0 0 = = = * * * * * * = * * * * * * * * * * * * = = * * % f [ Q ] ] W ~ Q ! Q * @ % % % % @ @ o O O O O O O O     >.O.O.g 0.w.u.u.u.u.u.u.0.A n ; ; ; ; ",
"; ; ; ; v n n A A G G 0.w.f.z.>.O.O.g O O + + & & & & & & & - - - : - - - - - - o o @ @ % % % * * * * * * * * * * * * % % * * * * * * * % % % % % % % % % % % % % % W h g W g W W g W f % @ @ @ @ @ o o O O O O O O O     >.O.O.g 0.0.u.u.u.u.u.u.A n > ; ; ; ; ",
"; ; ; ; ; v v v v v v A 0.u.j.>.O.O.g . O O O + + + + + + + & + & & & & & & & + . . o o o o o o @ @ @ @ % @ @ % @ @ @ @ @ @ @ @ @ @ % % @ @ @ o o o o @ o @ @ @ @ o = f * f h u h q f h * o o o o o . . O O O O . . .     >.O.O.g 0.w.u.u.u.u.u.w.A n > ; ; ; ; ",
"; ; ; ; > > v > > v v n n w.a.>.O.O.>.>.>.>.>.>.>.>.>.>.>.>.>.>.>.>.>.>.>.>.>.>.>.>.>.>.>.>.>.>.>.>.>.>.>.>.>.>.>.>.>.>.>.>.>.>.>.>.>.>.>.>.>.>.>.>.>.>.>.>.>.>.>.>.>.>.>.>.>.>.>.>.>.>.>.>.>.>.>.>.>.>.>.>.>.>.>.>.>.>.>.>.O.O.g w.0.u.u.u.u.u.w.A n ; ; ; ; ; ",
"; ; ; ; > v v v v v n A 0.0.w.>.O.O.O.O.O.O.O.O.O.O.O.O.O.O.O.O.O.O.O.O.O.O.O.O.O.O.O.O.O.O.O.O.O.O.O.O.O.O.O.O.O.O.O.O.O.O.O.O.O.O.O.O.O.O.O.O.O.O.O.O.O.O.O.O.O.O.O.O.O.O.O.O.O.O.O.O.O.O.O.O.O.O.O.O.O.O.O.O.O.O.O.O.O.O.O.O.g w.w.u.u.u.u.u.w.A v ; ; ; ; ; ",
"; ; ; ; > > > v v n n A 0.0.w.>.O.O.O.O.O.O.O.O.O.O.O.O.O.O.O.O.O.O.O.O.O.O.O.O.O.O.O.O.O.O.O.O.O.O.O.O.O.O.O.O.O.O.O.O.O.O.O.O.O.O.O.O.O.O.O.O.O.O.O.O.O.O.O.O.O.O.O.O.O.O.O.O.O.O.O.O.O.O.O.O.O.O.O.O.O.O.O.O.O.O.O.O.O.O.O.O.g w.w.u.u.u.u.w.A n v ; ; ; ; ; ",
"; ; ; ; > > v v v v n n A A 0.g g g g g g g g g g g g g g g g g g g g g g g g g g g g g g g g g g g g g g g g g g g g g g g g g g g g g g g g g g g g g g g g g g g g g g g g g g g g g g g g g g g g g g g g g g g g g g g g g g u.u.u.u.u.u.w.A n > ; ; ; ; ; ",
"; ; ; ; > > > > v v v v v v v n A G G 0.w.0.w.u.a.a.w.A n > ; > v v G 0.0.w.u.f.j.a.f.u.w.0.0.A A A n v n v v n n A A A A A A A A A n v v v ; ; v n A w.a.a.a.u.w.0.0.A G A A A G G 0.w.w.w.v ; ; ; ; ; ; ; ; ; ; > v A G G G w.u.u.u.w.G 0.w.A n n v v ; ; ; ; ",
"; ; ; ; > > > v v v v v > > > > > v v n A G 0.u.u.u.w.w.n ; ; ; > n G 0.w.u.a.f.f.u.a.w.0.A A A A A n n n n n n A A A A A A A A n n v v v v ; ; v n 0.w.u.u.u.w.0.G G A A A A G 0.0.0.w.u.a.0.> ; ; ; ; ; ; ; > > n A G G G 0.w.u.u.u.A n G 0.0.A n v ; ; ; ; ; ",
"; ; ; > > v v v A A n v v ; > ; ; ; ; ; ; ; v n A w.0.G n ; ; ; > v G w.w.u.f.a.a.a.w.0.A A A A A A n n n n n A A A A n n n n n n v v > v > ; ; v A G 0.0.w.w.0.0.A A A A G G w.0.w.0.0.w.a.w.v ; ; ; # # ; ; > v v n A A G w.w.u.u.A n A A A n A n v ; ; ; ; ; ",
"; ; > v v v A A 0.0.0.A n n v ; ; ; ; ; ; ; ; ; ; ; v n v ; ; ; > v A 0.u.a.j.f.a.w.0.A A A A A A A n n n n A A A A n n v v n n v > v v > ; ; ; > A A G 0.G w.G G A A A G w.w.u.w.0.0.0.0.a.w.A > ; ; # # ; ; > > v v n A G w.0.w.A n A A A n n v v ; ; ; ; ; ; ",
"> > v v v A A A 0.0.0.A n n n n v ; ; ; ; ; # # ; ; ; ; ; ; ; ; > v n G w.f.j.j.w.0.A A A A A A A A n n n A A A A n n v v v n n > > > > ; ; ; ; > n A G G G G G A G 0.w.w.w.a.u.w.0.0.0.0.0.0.A > ; ; # # # ; > > v n A G G 0.0.G A A G A A v v v > ; ; ; ; ; ; ",
"v v v n A A A G A n v v ; ; v n A n ; ; ; ; ; # # # ; ; ; ; ; ; > v v n 0.f.j.a.w.0.A A A A A A A n n n n A A A n n n v v v n > > > > > ; ; ; ; ; v n G G G G G 0.w.w.w.u.a.a.a.w.0.0.A A v > > ; ; ; # # # ; ; > > n A G A G G A A A G A n v > > ; ; ; ; ; ; > ",
"v v v v n A n A n n ; ; ; ; ; v A G n ; ; ; ; ; # # # # # # # ; ; > v n A w.a.a.w.0.0.A A n n n n n v n v A A A v n v v v v v > ; ; > ; ; # ; ; ; v n G G G w.0.w.u.u.a.u.a.a.a.a.w.0.A n > ; ; # ; ; # # # # ; ; > n n A G A n A G G A n n v > ; ; ; ; ; ; ; > ",
"> v v n n n n n n v ; ; ; ; ; ; n G A v ; ; ; ; ; # # # # # # # # ; ; v n A w.w.w.w.0.0.A A n n v v v v v v n v v v v v n v ; > ; ; ; ; # ; ; ; ; ; A 0.w.w.u.u.u.u.a.a.a.a.a.a.a.w.w.0.A A v ; ; # # # # # # # ; ; n n n A A A G A A A A v v > ; ; ; ; ; ; > > ",
"> > v v v n v v v v ; ; ; ; ; ; v A A n v ; ; ; ; ; # # # # # # # # # ; ; ; n 0.w.w.u.w.w.G A n n v > v v v > > > > > v > > ; ; ; ; ; # # ; ; ; ; ; v A w.a.u.a.u.a.a.a.a.a.a.a.a.a.w.w.0.A A A v ; # # # # # # ; ; ; > v n n n n n n n v v > ; ; ; ; ; ; ; > > ",
"> ; ; ; ; ; ; ; ; ; ; ; ; # # ; ; v n n > ; ; ; ; ; ; # # # # # # # # # # ; ; ; n w.w.u.0.0.A A n v > v ; ; > > v > > > ; ; ; # ; ; # # # ; ; ; ; ; ; > A w.a.a.a.a.a.a.a.a.a.w.w.0.A 0.w.0.0.A A > ; # # # # # # # ; ; ; ; ; ; ; ; ; > > > ; ; ; ; ; ; ; ; ; > ",
"; ; ; ; ; ; ; ; ; ; ; ; ; # # # ; ; > > > ; ; ; ; ; # # # # # # # # # # # # # # # ; 0.0.0.G A n v n v v > > ; ; ; ; ; ; # # # # ; # # # ; ; ; ; ; ; ; ; > A w.w.a.a.a.a.a.a.a.0.A > n w.u.w.w.0.0.v ; # # # # # # # # ; ; ; ; ; ; ; ; ; ; ; ; ; ; ; ; ; ; ; ; ; ",
"; ; ; # # # # # # # # # # # # # # # ; > ; ; ; ; # # # # # # # # # # # # # # # # # # ; > n A A v > ; > v v v > ; ; # # # # # # # # # # # ; ; ; # # # ; ; ; > A 0.w.w.a.w.w.w.0.n ; > 0.u.u.w.w.0.0.> # # # # # # # # # # # ; ; ; ; ; ; ; ; ; ; ; ; ; ; ; ; ; ; ; ",
"; ; # # # # # # # # # # # # # # # # # ; ; ; ; # # # # # # # # # # # # # # # # # # # # # ; ; > > > ; ; ; ; ; ; ; ; # # # # # # # # # # ; ; ; # # # # # ; ; ; ; > > A 0.0.A v ; ; ; A 0.0.G 0.0.0.n ; # # # # # # # # # # # ; ; ; ; ; ; ; ; # ; ; ; ; ; ; ; ; ; ; ",
"# # # # # # # # # # # ; ; ; ; ; # # # # # # # # # # # # # # # # # # # # # # # # # # # # # # # # ; ; ; ; # # # # # # # # # # # # # # ; ; ; # # # # # # # # # # # # ; ; ; ; # ; v A 0.0.0.0.A n n ; ; ; # # # # # # # # # # # # # # # # ; # ; ; ; ; ; ; ; ; ; ; ; ",
"# # ; ; ; ; ; ; ; ; ; ; ; ; ; ; ; ; # # # # # # # # ; ; ; # # # # # # # # # # # # # # # # # # # # # # # # # # # # # # # # # # # # ; ; ; # # # # # # # # # # # # # ; ; ; ; v n n A A A A n > ; ; ; ; ; # # # # # # # # # # # # # # # # # ; # ; ; ; ; ; ; ; ; ; # ",
"; ; ; ; v v v v ; ; ; ; ; ; ; ; ; ; ; ; ; ; ; ; ; ; ; ; ; ; # # # # # # # # # # # # # # # # # # # # # # # # ; ; ; ; # # # # # # ; > ; ; # # # # # # # # # # # ; ; ; ; v v v v v n n v > ; # # ; ; ; # # # # # # # # # ; ; ; ; ; # ; ; ; ; ; ; ; ; ; ; ; ; # # # ",
"; ; ; > n n n n n n n n n n n > > ; ; ; ; ; ; ; ; ; ; ; ; ; ; # # # # # ; ; ; # # # # # # # # # # # # # # # ; ; ; ; ; ; ; ; ; ; > > ; ; ; # # # # # # # # # # # # ; ; ; ; ; ; ; ; ; ; ; # # # ; ; ; ; ; # # # # # ; ; ; ; ; ; ; ; ; ; ; ; ; ; ; ; ; ; ; ; ; ; ; "
};
