/* XPM */
static const char *wall_s2[] = {
/* columns rows colors chars-per-pixel */
"128 128 96 2 ",
"   c black",
".  c #070707",
"X  c #0B0B0B",
"o  c #170F07",
"O  c #1F170B",
"+  c #131313",
"@  c #1B1B1B",
"#  c #2F1B0B",
"$  c #2B230F",
"%  c #232B0F",
"&  c #372313",
"*  c #332B13",
"=  c #3F2F17",
"-  c #3F2B1B",
";  c #2F371F",
":  c #232323",
">  c #272727",
",  c #2F2F2F",
"<  c #373F27",
"1  c #373737",
"2  c gray23",
"3  c #430000",
"4  c #530707",
"5  c #5B0707",
"6  c #6B0F0F",
"7  c #771717",
"8  c #43331B",
"9  c #4B371B",
"0  c #533F1F",
"q  c #473323",
"w  c #4F3B23",
"e  c #4F3B2B",
"r  c #533F2F",
"t  c #3F472B",
"y  c #5F4323",
"u  c #474F33",
"i  c #574333",
"p  c #5F4B37",
"a  c #53573B",
"s  c #6B4727",
"d  c #774F2B",
"f  c #7F532F",
"g  c #675333",
"h  c #67533F",
"j  c #775F3F",
"k  c #434343",
"l  c gray28",
"z  c #4B4B4B",
"x  c gray31",
"c  c gray34",
"v  c #5B5B5B",
"b  c #6F5743",
"n  c #775F4B",
"m  c #5B6347",
"M  c #676B4F",
"N  c #7B634F",
"B  c gray39",
"V  c gray42",
"C  c #6F6F6F",
"Z  c #777777",
"A  c gray50",
"S  c #831F1F",
"D  c #8F2B2B",
"F  c #836B4B",
"G  c #836B57",
"H  c #8F7753",
"J  c #8B735B",
"K  c #937B63",
"L  c #9B7F6B",
"P  c #A76B6B",
"I  c #C39B2F",
"U  c #9F8363",
"Y  c #9F876F",
"T  c #A78F77",
"R  c #AF977F",
"E  c #EBDB57",
"W  c #838383",
"Q  c #8B8B8B",
"!  c #939393",
"~  c #979797",
"^  c #9F9F9F",
"/  c #B79F87",
"(  c #BFA78F",
")  c #A7A7A7",
"_  c gray67",
"`  c gray70",
"'  c #B7B7B7",
"]  c gray75",
"[  c #F3A3A3",
"{  c #FFC7A7",
"}  c gray78",
"|  c #CBCBCB",
" . c #DFDFDF",
".. c #E7E7E7",
"X. c #EFEFEF",
"o. c white",
/* pixels */
": 1 1 c c c c B B Z Z Z Z Z B B c k 1 : : : : : : : : : : : : : + + + : : : : : : + + + + + + + + + + + + + : : : : : : : : : : 1 1 1 : : : + + + + + + + + + + + + + : + : : : : : + + : : : : : : : : : : : : : : : : : : : : : : : : : : : : : : : : : : : : ",
"1 1 c k k c c c c B B B Z Z Z Q Z B c c k 1 : : 1 1 1 1 1 1 : : : + + : : : 1 : : : : : + + + + + + + + + : : : : 1 k k k 1 1 : 1 1 1 : : : + + + + : : : : : : : : 1 1 1 : : : : : : : : : : : : : : : : : : : : : : : : : : : 1 1 1 : : : : : : : : : : : : : ",
"k k 1 1 1 1 k k c c B Z Z Q Q ~ Q Q Z Q Z Z Z Z Q Q B B B c c 1 : : + + : 1 1 1 1 1 1 : : : : : : 1 1 1 1 1 1 1 k B Q Q Q Q k k 1 1 1 1 : : : + : : : : : : : : 1 1 1 k k k k k k : : : : : : : : : : : : 1 1 1 k c k k k c k c k k k k k 1 : : : : : : : : : : ",
"k k k k c k c c c c B Z Z Q ~ ~ ~ Q ~ ~ ~ _ _ _ _ ] _ _ ~ B c 1 : : + + : 1 1 1 1 1 k k k c c c c Z Q Q Q Q Q ~ ] ] ] ] ] ~ c k k 1 1 1 : : : : : : : : : : 1 1 1 k k c c B B Q Q Z B c k : : : : : : : k c c c c B Q Z Z B B B c c B B B c k 1 : : : : : : : 1 ",
"k k c B Z B Z Z Q Q Z ~ ~ ~ ~ _ _ ] _ ] ] |  .|  . . . ._ Z B 1 : : : + : 1 1 1 1 1 c B B Z B Z Q ~ _ _ ]  .X.X.X.X.X.X.X._ ~ c c 1 1 1 1 1 : : : : : : : 1 k c B B Z Q Q ~ _ ] ] _ _ ~ Z c : : : : : k k c B Z Q Q Q Q Z Z Z Z Z Z Q Z Z B c k 1 : : : : : k k ",
"c Z Q Q ~ Q ~ ~ ~ _ _ _ ] ] ] ] ] ] ] | |  . .X.X. .X.| ] Q B k 1 : : : : 1 1 1 c c B Z Z Z Q Q ] | |  .X.o.o.o.o.o.o.o.X.| _ Q c k 1 1 1 1 : : : : : : 1 c B B Z Z ~ ~ ] ] | | | | | | ] ~ c : : : : k c B Z Q ~ ~ ~ ~ _ ~ ~ Q Q Q Q ~ Q Z B c c k : : : 1 c k ",
"Z ~ ~ ~ ~ ~ ~ _ _ _ ] ] ] ] ] ] ] | |  . .X.o.X.o.X.X.X.| ~ Z c 1 : : + : 1 1 c c B Z ~ ~ _ ~ _ | X.o.X.X.o.o.o.o.o.o.o.X. .| Q B k 1 1 1 : : : : : 1 1 c c Z Q Q ~ ] ] ] |  .| | | | | | ] ~ k : : : k B Z ~ ~ ] ] _ ~ _ _ _ _ _ _ ~ ~ ~ Q Q Z B c : : : k c Z ",
"] ] | ] | | ] | | ] ] ] ] ] ] ] | | | |  . .| X.X.X.X. .] _ Q Z k : : + : 1 c c Z ~ ~ _ ] ~ ~ _  . .X.X.X.o.X.o.X.o.X.X. .| ] _ B k 1 1 1 : : : : 1 1 c c Q Q ~ ~ _ | | | | | | | | | ] ] _ Q k : : : c B ~ _ _ ] ] ] _ ] _ _ _ _ _ ~ ~ ~ ~ Q Z B k 1 : : c Q _ ",
"|  . . .X. . .| ] ] ] _ _ _ _ ] ] ] | ] | ] | ] | ] ] _ _ ~ ~ Z c 1 : + : c B Z Q ~ _ _ _ ~ Q ~ |  . . . . . . . .] ] ] _ ] _ _ c c 1 1 1 : 1 1 1 1 k c B Q Q ~ _ ] | | | | ] ] ] _ _ _ ~ Z B k : : k c Q Q _ ] | | ] ] _ _ ~ ~ ~ ~ Q ~ Q ~ Z Z B c 1 : : c _ ] ",
"] | ] | ] ] | _ ] _ _ _ _ ] _ _ ] _ ] ] ] ] ] _ ~ Q Q Q Z ~ Q Z Z k : + : k B Z ~ ~ ] ~ Q Z ~ | | ] |  . . . .] ] ] ] _ _ _ _ _ B c 1 1 1 1 1 1 1 1 k B Z Q ~ _ ] ] ] ] _ ~ ~ ~ Q Q B Z B c k : : : c B Q _ ] | ] ] ] | ~ ~ ~ Q Z Q Z Q Z Z Z Z B c : : 1 B ] ] ",
"_ ] _ ] _ ] _ _ ] _ ] ] _ ] _ ] _ _ ] _ ~ ~ Q Z Z Z Z Z Z Z Q Z B k : : : k B Q ~ ~ ~ Q Q Z ~ ] ] | ] ] ] ] ] ] ] ] _ _ _ _ _ ~ B c 1 1 1 1 1 1 1 k B B Z ~ _ _ _ ] _ ~ Z Z Z B B B B B c c k : : : c Z ~ _ ] | ] ] ] _ ~ ~ Z Z Z Z B Z Z Z B Z B k : : 1 B _ ] ",
"_ _ ] _ _ ] _ _ _ _ _ _ _ _ _ _ _ _ ~ Q Q Z Z Q Z Z Z Z Z B Z Z B k : : 1 c B ~ ~ ~ Q Z Q Q ] ] ] ] ] ] ] ] ] ] ] ] _ _ _ _ _ ~ Q k 1 1 1 1 : 1 1 k c B Z _ _ ~ ~ Q Z B B c c B c B c c c k : : : : B Q ~ ] _ | | _ _ _ Q Q Z B Z Z Z B Z Z B Z B k : : c Q _ _ ",
"_ _ ] _ _ _ _ ~ ~ Q ~ Q ~ Q ~ ~ ~ Q ~ Q Q Q Z Q Z Z Q Z Z Z Z B B k : 1 1 B Z Q ~ Q Q Z Z _ ] ] ] ] ] ] ] ] ] ] ] _ _ _ _ ~ ~ ~ Q k 1 1 1 : : 1 : k c Z ~ ~ ~ Q Q B B c c k k k k c B c k k : : : : c B Q ~ ] ] ] _ _ _ ~ Z Z Z Z B Z B Z Z B Z B k : 1 k B ~ _ ",
"Q _ _ _ _ _ _ ~ ~ Q ~ Q ~ ~ ~ ~ ~ Q ~ Q Q ~ ~ Z Z Z Z Z Z Z Z Z B 1 1 1 1 B Z ~ ~ Q Q Z Z ] _ _ ] ] ] ] ] ] ] ] ] _ _ ~ Q ~ ~ ~ Z k 1 : : : : : : : c c Q Q Q Z Z Z B B c k : : k c c k k : : : + : : k B Q ~ ] ] ] _ _ ~ Q Z Z Z Z Z B Z Z B Z B c 1 1 k c Z Q ",
"Q ~ Q _ _ _ _ _ _ _ _ _ _ _ _ _ ~ Q Q Q B Z Z B B B B B Z Z B Z c 1 : : k B Z ~ Q Q Z Z ~ ] ] ] ] ] ] ] ] ] ] ] ] _ ~ Q Q ~ ~ Q B k 1 : : : : : : : : c c B B Z B B B k : : : k c k k : : : + : + + : : k B Q ~ ~ _ _ _ Q Z Z Z Z B Z B Z Z Q ~ Z Z k : 1 k B Q ",
"Q Q Q ~ Q _ _ _ _ _ _ _ _ ~ ~ Q Q B B B B B c c B B B B B Z Z B c : : : k B B ~ Q Q Z Z _ _ ] ] ] ] ] ] ] ] ] ] ] Q Q Q Q ~ ~ Z B k : : + + + : : : : : : : : : : : : : : k k k : : : : : + + + + + + : : k B Q ~ ~ ~ ~ Q Z Z B Z Z Z Z B Q ~ _ Q ~ B : : : k Z ",
"Z Q Z Z ~ Q ~ Q ~ Q ~ Z Z Z B B k k c c c k c c c c c B Z B B c 1 : : 1 k B Z Z Q Q Z ~ _ ] ] ] ] ] ] ] ] ] ] ] Q Q Q Q ~ Q Z Z B k : : + + + + : : : : : : : : : : : : : k : : : : : : + + : + + + + + : : 1 B Q Q ~ Q B Z Z Z Z Z Z B Q Q Q Q Q ~ Q : + : 1 B ",
"B Z Z Q Z Z Q Z Z Z B c k k k E E E E E E E E E E E E E E E E E E E E E E E E E E E E E E E E E E E E E E E E E E E E E E E E E E E E E E E E E E E E E E E E E E E E E E E E E E E E E E E E E E E E E E E E E E E E E E E E E d Z Z Z Q ~ Q Q Q ~ Q : + : : c ",
"B B B B B c c c c k 1 1 1 1 1 E I I I I I I I I I I I I I I I I I I I I I I I I I I I I I I I I I I I I I I I I I I I I I I I I I I I I I I I I I I I I I I I I I I I I I I I I I I I I I I I I I I I I I I I I I I I I I I I I d Z B Z ~ Q Q Q Q ~ Q + + + : 1 ",
"1 B B c k 1 1 1 1 1 1 1 1 1 1 E I I I I I I I I I I I I I I I I I I I I I I I I I I I I I I I I I I I I I I I I I I I I I I I I I I I I I I I I I I I I I I I I I I I I I I I I I I I I I I I I I I I I I I I I I I I I I I I I d Z Z B Q Q Q Q Q ~ Q + + + + : ",
"+ : k 1 1 1 : : : : 1 1 : : : E I I d d d d d d d d d d d d d d d d d d d d d d d d d d d d d d d d d d d d d d d d d d d d d d d d d d d d d d d d d d d d d d d d d d d d d d d d d d d d d d d d d d d d d d d d d d d E I I d B c B Q Q Q Z Q ~ k + + + + + ",
"+ + + : : 1 : : : : : : : : 1 E I I d 4 4 6 6 6 6 6 6 6 7 6 6 7 7 6 6 4 4 6 6 6 6 6 7 7 7 7 7 6 6 7 7 7 7 7 7 7 7 7 7 7 7 7 7 7 7 7 7 7 7 7 7 7 6 6 6 7 7 q 6 6 6 6 6 6 6 6 6 7 7 7 7 7 7 7 7 6 6 7 6 7 6 7 7 6 6 6 , : + E I I d c c c B B ~ Q ~ B : + + + + + ",
"+ + + + : : : + + + + + : 1 k E I I d 6 7 7 7 7 7 7 7 7 7 7 7 7 7 7 6 6 6 6 6 6 7 7 7 7 6 7 7 6 6 7 7 7 7 7 7 7 7 7 S 7 7 7 7 7 7 7 6 7 7 7 6 6 6 6 6 6 6 6 6 6 - 6 6 6 7 7 7 7 7 7 7 7 7 6 6 7 6 6 6 6 6 6 6 6 2 , , @ + E I I d 1 c c c c B B k + + + + + + + ",
"+ + + + + + + + + + + + + 1 k E I I d 7 7 7 7 7 6 6 7 7 7 7 6 6 7 7 6 6 6 6 6 6 7 7 7 6 6 7 7 7 7 7 7 S 7 7 7 7 7 S S S 7 7 7 7 7 6 4 & 4 4 # 4 4 & & # # # 4 # O # 4 4 4 4 4 4 6 6 6 6 4 4 # 4 # # 4 4 # z z k , : : + + E I I d + : : 1 B 1 : + + + + + + + + ",
"+ + + + + + + + + + + + + + + E I I d 4 4 4 4 6 6 6 6 6 6 6 6 6 7 7 7 6 6 6 6 6 6 6 6 7 7 7 7 7 7 7 S 7 7 7 7 7 7 7 7 7 6 6 6 4 # 4 & O O O O O O O . . O O O O O O O O O O O O O O # 3 O O O O O O o B k 2 1 @ + @ + , o E I I d + + + + + + + + + + + + + + + ",
"+ + + + + + + + + + + + + + + E I I d & & 4 4 4 6 4 4 6 6 6 4 6 6 6 6 6 6 6 6 6 6 7 7 7 7 7 7 7 7 7 7 7 7 7 7 7 7 7 7 7 7 7 7 6 4 4 4 & O O O O O O O O O O O O o O o o o O O o o o O O O O o . . . , z , @ + + + X + @ O E I I d + + + + + + + + + + + + + + + ",
"+ + + + + + + + + + + + + + + E I I d 4 6 6 6 6 6 6 6 6 6 6 6 7 6 6 6 6 6 7 7 7 7 7 7 7 7 7 7 7 7 6 6 6 6 6 7 7 7 7 7 7 6 6 6 6 6 4 4 4 4 # # # # & # # # O # O O O O O O O O O O o + o . . , z 2 2 2 : + + + + + X + o O E I I d + + + + + + + + + + + + + + + ",
": : : : + + + + + : : + + + + E I I d 6 6 6 6 6 6 6 7 7 7 7 7 7 7 7 7 6 6 6 6 6 6 6 6 6 6 6 4 4 4 4 4 # & 4 4 4 - 4 4 4 4 4 & & # & # # # # & 4 4 4 4 4 4 4 4 4 6 6 6 6 6 4 4 # # 3 3 3 # O 2 k 1 : + + + + @ : o o @ :   E I I d + + + + + + + + + + : : : : : ",
"1 1 : : + + : : : 1 1 1 1 1 1 E I I d 6 7 7 7 7 7 7 7 7 7 7 7 7 7 7 7 6 6 6 4 6 6 6 6 4 4 # O O O O O O O O O # O O O # # # # # O # & & & 4 # O # # 4 4 4 4 & 4 6 7 7 S S 7 7 6 6 6 6 4 , 2 2 : + @ + + + : , o . . > :   E I I d : : : : + + : : : 1 1 1 1 1 1 ",
"k k 1 + + : : 1 k B B B B B B E I I d 4 6 7 7 7 7 7 7 7 7 7 7 7 7 7 7 6 6 6 6 6 6 4 4 & # O O O O O O O O O O O O O O O # 4 4 & & 4 4 4 4 4 4 4 4 4 6 6 6 4 & 4 4 & - 4 4 4 4 6 6 4 , 2 , > > X o . + @ , 2 o . + + : @ + E I I d : : : : : : : 1 1 1 1 1 k k k ",
"Q k : : : : B Q ~ ~ ~ ~ ~ ~ ~ E I I d 6 6 6 6 7 7 7 6 6 7 7 7 7 7 7 7 7 7 6 6 6 4 4 # # O # O O O O O O O O O O O # # & 4 6 7 7 7 7 6 6 6 6 6 6 6 6 6 6 4 4 4 4 4 # O # O O 3 , , , > : : @ , O O o @ > 2 O O + + + : @ + E I I d 1 c c c k 1 k k k k B B B B B ",
"B 1 : 1 k B _ | | | | ] | | ] E I I d 4 6 4 6 6 6 6 6 6 6 6 6 7 7 7 7 7 6 6 4 4 4 # # O O O O O O O O O O O O O O # 4 4 4 6 7 7 7 7 7 7 6 6 6 4 4 4 4 # O O O O O # O O O # , , > : + + X @ : : @ @ > 2 O O o + o + O O @ E I I d B Q Q B B B B B B Z Q ~ _ ] _ ",
"B k k B Q _ ] | X. .X.X.X.X. .E I I d & 3 # 4 4 4 4 4 4 4 4 4 6 6 7 7 6 6 4 4 4 4 # # O O O O O O O O O O O O O # & 4 4 6 7 7 S S 7 7 7 6 6 6 6 6 4 4 4 4 # # 4 O O # 3 & 2 2 > @ @ + @ @ > , : @ @ 2 4 4 4 4 O # 4 # # 4 E I I d ~ _ _ Q Z Z Z Z Q ~ _ ] _ ] _ ",
"Q Q ~ _ ] | |  .X.X.X. .X. .X.E I I d # # # # 4 4 4 4 4 4 4 4 4 6 6 6 6 4 4 4 4 4 # # O O O O O O # # # & 4 & & & 4 6 7 7 S S s s s S S S S 7 7 7 7 7 7 7 7 6 6 6 - 6 7 6 z > @ @ @ @ # 6 : : @ @ @ 4 6 - 4 4 4 3 4 4 4 4 E I I d |  . .| ~ ~ ~ ~ ~ ~ ~ _ _ ] _ ",
"~ _ ] | |  .| | | | X.X.X.X.X.E I I d 6 6 6 6 6 6 4 6 6 6 4 4 4 4 # # 4 4 4 4 4 O # # # # O O O & 4 6 6 6 6 7 7 7 7 7 S S s s s s s s S S S S S S S S s s S S S S S S S k z @ @ + - : 6 6 > : + + + + + @ > o O O o o o o E I I d o.o.X.X.] ] ~ ~ ~ ~ ~ ~ Z Q Q ",
"_ ] ] | | | | ] ] ] | |  . .X.E I I d 4 6 6 6 4 4 4 6 6 4 4 4 4 4 4 # 4 4 4 4 3 # 4 4 4 4 4 4 4 6 6 7 7 7 7 7 7 7 7 7 7 7 7 7 7 7 6 6 6 6 6 6 6 4 4 6 6 6 6 6 6 6 6 6 6 z 2 1 : o O @ # # > @ + X + + + : . . . . . . . . E I I d o.o.o.X. .| _ ~ ~ Q Z Z Z Z Z ",
"_ _ ] ] ] ] ] ] _ ] ] ] ] ] ] E I I d 7 7 7 S 7 7 S S S 7 7 7 7 7 7 6 6 6 6 4 4 4 6 7 7 7 6 7 7 7 7 7 7 S S S S S S S 7 7 6 6 6 7 6 6 6 6 6 4 4 4 4 4 4 6 6 6 6 6 6 6 4 z , > @ o 2 > , O o @ + + X + + . . o o . . . . . E I I d o.o.o.X. .| ~ ~ Z Q B c B B Z ",
"Q ~ _ _ _ _ ~ ~ ~ ~ ~ ~ ~ ~ ~ E I I d s s S s S s s s S S S S 7 7 7 7 6 6 6 4 6 6 7 7 7 7 7 7 7 7 7 7 S 7 S S S s s S S 7 7 7 7 7 7 7 6 7 7 6 6 6 6 6 6 7 7 7 7 7 7 7 > 2 , @ @ # + > , , # @ @ @ @ @ . . . . . . . . . . E I I d o.X.X.] | _ _ ~ Z B c k B B Z ",
"Q Q Q Q Q Q ~ ~ ~ ~ ~ ~ ~ ~ ~ E I I d S s s s s s s s s s S S S 7 7 7 6 7 7 6 7 7 7 7 7 7 S S S S S 7 S 7 7 7 7 7 7 7 7 7 7 7 7 7 7 7 7 7 7 7 7 7 7 7 S S S S S S S 7 , 2 > + X @ + + : : , : @ + @ @ o o o o O o . o o o E I I d  .] ] ] ] _ _ ~ B c k k B B Z ",
"Q Q Z Z Z Z Q Q ~ ~ ~ ~ ~ Q ~ E I I d 7 S S S S S S S S S 7 7 7 6 6 6 7 7 7 7 7 7 7 7 7 7 7 S S S S 7 7 7 7 7 6 6 6 6 4 4 4 4 4 4 4 4 4 4 4 < 2 z v v B V B z 2 2 4 & : > : @ + @ + + : + : @ @ + @ o O # # O O O o o O O E I I d ~ ~ ] ] _ _ _ Q B k 1 k c B Z ",
"Z Z Z Z Z Z Z Z Q Q Q Q Q Q ~ E I I d 4 6 6 6 6 6 6 6 6 6 6 6 6 4 4 6 6 6 6 6 6 6 6 7 7 7 7 7 S S 7 6 6 6 6 4 3 # # 4 # # # # O O # O > B A A A A W ! ! W ' } ' W c > @ @ @ + : > + @ + @ @ : @ + @ o # 3 # O O # # o # # E I I d ~ ~ ~ ~ ~ ] _ ~ B k 1 k c c Z ",
"B Z Z Z Z Z Z Z Z Z Z Z Z Z Z E I I d O # # 4 4 4 4 4 4 4 4 4 4 4 4 4 4 4 6 6 6 6 7 7 7 7 S S S 7 7 6 4 4 4 4 4 4 # # # # # & O O O , c V V A A V A _ } A _ ....! x 1 @ @ , @ : + : > + + + @ : + + 3 3 3 3 4 - 7 7 6 6 6 E I I d Q Q Q ~ ~ ~ ~ Q c 1 : 1 k k c ",
"c c B c B B B Z Z Z B Z B Z B E I I d O O + O O O O O # # # # # 4 4 4 4 4 6 6 6 7 7 7 7 7 7 7 7 6 6 6 6 4 4 4 4 4 4 & O # 4 # O # k , k c h G P G V Q _ ! ' } _ B x B : + : + + @ > k 1 + + @ @ X + O # 4 4 4 6 7 7 7 S S E I I d Q Q Q Q Q Q Q B c 1 : : : k k ",
"k c c c c c c c B B B c c c c E I I d O # # # 3 # # O O O O O O O # 4 4 6 6 6 7 7 7 7 7 7 7 6 6 6 6 6 4 6 4 4 4 4 4 4 # # 3 # 4 2 : > k k m G K P B x V ! ! ! A x B v , @ : @ @ @ o o o o @ @ O o O O # 3 4 4 6 7 7 7 S S E I I d Q Q Q Q Q Q Z B k 1 : : 1 : k ",
"k c c c c c c B c c c c k k k E I I d - 6 6 6 4 4 4 4 4 4 4 4 4 4 4 4 6 6 6 7 6 6 6 6 6 7 7 7 7 7 7 6 6 6 6 6 4 4 4 6 6 4 4 4 6 + , , u l m G P G c t A ..! W Z v B c , : > > O o # 3 # O , k O # 4 4 4 4 6 6 6 7 7 7 7 S E I I d B B B B B c B c k 1 : : : : k ",
"1 c c B B B B c c c k c k k k E I I d S S 7 7 7 6 6 6 4 4 4 4 4 4 4 4 4 4 6 6 6 6 6 7 7 7 7 7 7 7 7 7 7 7 7 7 7 7 7 7 7 7 7 S : : > , < u u G P B k z A ` ! A A B k k > k 4 O O # 4 , 2 1 1 # # 4 6 6 6 6 7 7 7 6 6 6 6 6 E I I d B c c c 1 1 1 1 1 : : : + : : ",
": k B Z Z B c c k c k k k k k E I I d 7 7 7 6 6 6 4 4 4 4 4 4 4 4 4 4 4 4 4 4 4 4 6 6 6 6 7 7 7 7 7 7 7 S S S s s s s s s D : > > : 2 2 k z V V v x c c c B B C B z 2 k V , , , 2 1 1 > > @ # & 7 7 S S S 7 S S 7 7 7 7 4 E I I d Q B c 1 : : : : : : : + + + : ",
"+ : k B B c c c k k k k c k 1 E I I d 6 6 4 4 4 4 4 4 4 4 4 4 4 4 4 4 4 4 6 6 4 4 6 4 4 6 6 6 6 7 7 S S s s s s s s s s s i : , > : > , 2 x c l 1 k x v k k x c z 2 , k k > z B c > @ @ @ + q S s s s f f f f f f f f f s E I I d Q B c 1 : : : + + : : + + + + ",
"+ + : 1 1 1 1 1 1 k c k 1 1 : E I I d # # O O # 4 # # 4 4 4 4 4 4 4 4 4 4 4 4 4 4 # 4 # # # & & 4 6 7 7 7 7 S S S S S S S - : , ; : : @ > 2 c l 2 k k x p u 1 2 2 k > c B > k k : @ + + + 4 7 S S s f f f f f f f f f f f E I I d B B c 1 : : : + + + + + + + + ",
"+ + + + : : 1 1 1 1 1 k : : : E I I d # O O O # 4 # # 4 4 4 4 4 4 4 4 4 4 4 4 3 3 # # # 4 # # # 4 4 4 4 4 4 6 6 6 6 6 6 - 2 : < t , 1 k , > k 2 2 2 1 2 k k k 1 2 c 1 c V 2 z @ : @ X   +   S f f f f f f f s s s s s s s E I I d : : 1 1 : + + + + + + + + + + ",
"+ + + + : : : : : : : : + : : E I I d # # & 4 4 4 4 4 4 4 6 4 4 4 4 4 4 4 4 4 4 4 4 4 4 4 4 6 6 6 6 6 7 7 7 S S S S S s s + > 1 m 2 > c A B Z W A V Z Z W Z B v B k k v z i D 1 2 a e - , 1 O O s s S 7 S 7 7 6 6 6 6 6 6 E I I d + + + + + + + + + + + + + + + ",
"+ + + + + : : : + + : + : : : E I I d 6 6 6 4 4 4 4 4 4 6 6 6 6 6 6 6 7 7 7 6 6 6 7 7 7 7 7 7 7 S S S S s s s s s s f f f s @ , t p 1 2 A W ! ! ! ) } ........! Z , z x : @ > B K K G h h c V x k 6 4 # # # # # # 3 # # 4 E I I d + + + + + + + + + + + + + + + ",
"+ + + + + + + + + + + + + : + E I I d 4 4 4 4 4 6 6 6 6 6 6 6 7 7 7 7 7 7 7 7 7 7 7 7 7 : , 7 7 7 7 7 7 7 S S S 7 7 S S 7 7 > , , t k 1 Z W ! ) ! _ ........} ! x > k , + + k V A G b i B V C Z B x 1 o O O + O O O O O O E I I d + + + + + + + + + + + + + + + ",
"+ + + + + + + + + + + + + + : E I I d 4 6 6 6 6 6 4 4 6 6 6 4 4 6 6 6 6 7 7 6 7 7 6 6 : , , 6 4 4 4 4 4 4 4 4 4 # 4 6 : : : @ > - < l 1 V W W W A ! ) ' ` _ ! Q x 1 , @ + @ v A A a 2 b b B x Z Q A x k x O O o o O . . . E I I d + : : + + + + + + + + + + + + ",
"+ + + : : : : : + + + + + + : E I I d 6 6 7 6 6 6 6 6 6 6 6 4 4 4 6 4 4 4 4 4 4 4 4 3 : , 2 2 # # # # O O O O o O O & : : : + : 1 2 2 k l v 2 k k z c v B x B C : : : + + 1 B B c > 1 p N W _ ' ` Q v B k 2 O O O # # # # E I I d : : : : : : + + : : + + + + + ",
"+ + + : : : : : : : : : : : + E I I d 7 7 7 6 6 7 7 7 7 6 4 4 4 4 4 4 4 3 3 4 4 4 # O + , , , O O O + O O O O O O O 2 , @ @ @ : , z k k , k x z k c B C A v x k + : + + , k B B 1 : a p A W ! ! ! ) A B V z 2 4 - 7 7 7 7 E I I d : : : : : : : : : : : : + + + ",
"+ + : : : : : : : : : : : : : E I I d 7 7 7 7 6 6 6 6 6 4 4 4 4 4 4 4 4 4 4 4 4 4 3 3 + @ @ > O O O O O O O O < 2 l > @ + @ : : : k k : , v z - r x Z W ! W V l @ @ @ @ , a B c > > m b W } } W _ ' ! A c B c z y S s s s E I I d k k 1 : : : : : k k : : : + + ",
"+ + : : k c c k k k : 1 1 1 1 E I I d 7 7 7 7 6 6 6 6 6 6 6 6 6 6 6 4 4 4 4 4 4 4 4 3   + + @ 2 , 3 # O O < < k 1 @ : , : @ @ , : 1 , : , k r < < < k B B ! A k +     @ , e B k > 1 r i ! ..' ! ! ! ! ! A V Z c > 7 7 S s E I I d B B B 1 : : k c c k : : : : : ",
"+ : : k B Q Q B B c c c B B B E I I d 7 7 7 7 7 7 7 7 7 7 7 7 7 7 7 6 7 6 6 6 6 6 6 6   + + + > 2 6 4 4 , k 2 : + @ k 1 : @ + 2 , , : > , , < u u u c Z A W V 2 @   X > , z V 1 , q q r V W K G A W ! ! ! A c B c 6 7 7 S E I I d Z Q Z k k c B B B k : : : : : ",
": : k B Q ~ ~ ~ Q B B B Q B B E I I d 6 6 6 6 6 6 6 6 6 7 6 6 7 7 7 7 7 7 S S S 7 7 7 + + + + @ 2 k , 2 k > + @ : 2 1 , , , 7 7 7 , : > , 2 2 , , , , k v V a 1 +   + : , v v 1 2 , * q B V b s i v A ! ! ! x v C 2 6 6 6 E I I d Q _ Q B B Q Q B c k : : : : + ",
": k B Q ~ ] ] ] _ ~ Q Q Q Q B E I I d 4 4 4 4 4 4 4 4 4 6 6 6 6 7 7 7 S S S S S S 7 7 @ + + @ : : z z 1 : @ @ @ > c k 1 , s s f s & @ : > , z l v v m B V z , : $   X : k B x k 2 , , , 2 m M m z v B V W A B x Z v 6 6 4 E I I d ] ] ~ Q ~ ~ Z B c 1 : : : : : ",
": c Q ~ _ ]  . .| ] _ _ ~ Q Q E I I d 3 4 4 4 4 4 4 4 4 4 4 4 6 6 6 7 7 7 7 S S 7 7 7 7   X + : 2 k : + , 7 + : z B , @ 2 7 S S D = = @ @ > 2 k v v m k , @ O $ +   + @ k v k k 1 : , , , i v v k z v B A A Z k B W , S S E I I d ]  ._ ~ ~ ~ B c k 1 1 k 1 : : ",
"k c Q ~ ]  . . .| | | | _ _ _ E I I d 3 4 4 4 4 4 4 4 4 4 4 4 4 4 6 6 6 6 7 7 7 7 7 < > b z l r , : : > 4 4 4 k B 2 : > 6 4 6 : ; r i - $ $ : : * , : $ # $ $ : +   + @ t m l 1 : @ : , , , , , , , z v v z B 2 z ! 2 s s E I I d  .| | _ _ Q B c k k k c 1 1 1 ",
"c c B ~ ]  . . .| | | | | | ] E I I d 4 4 4 4 4 4 4 4 4 4 4 4 4 4 6 6 4 6 6 6 6 < u u r j p i e - O O 6 6 6 , W ! , > + + @ @ $ q r h p q ; $ $ $ $ $ - e * : $ +   > * a b t , : @ : , , > , , , , 2 v v r m e : A z 7 7 E I I d  . .| ] _ ~ Z c c B B c 1 1 1 ",
": k c Q ~ ] ] ] ] ] ] _ _ _ _ E I I d 6 6 6 6 6 6 6 6 6 6 6 4 4 4 4 6 6 6 6 6 < q h F U N g a i q O O O 7 > k A z @ : S S @ $ q r u h F b i i i i r e r q $ > $ O   : * h b 1 > , @ @ : , , , > : , 2 z z r v x , ) z 6 6 E I I d ] ] ] _ ~ Q Z B B Z Q B k 1 : ",
"1 c Q Q ~ _ _ _ _ _ _ _ _ _ _ E I I d 7 7 7 7 7 7 7 7 7 7 7 6 7 6 6 6 6 6 4 h N J T U G h G R m q < O O : t m t : @ S @ ; % $ q r u F F F b b p r q - $ * & - O @   @ ; r c 2 , , @ > @ @ @ > , k z B V A A A V , c k 4 6 E I I d ~ ] _ ~ ~ Z Z B Z Q ~ B B 1 : ",
": c Q Q Q ~ _ _ _ _ _ _ _ _ _ E I I d 7 7 7 7 7 7 7 7 7 7 6 7 7 7 6 6 6 4 p h J R R B h u i F e f < O O , t i , @ + & = w - $ O = r i b b g p $ $ $ $ * r e w & %   + : t c k k , > , 1 1 z k u p V Z C x 2 , : + : > 6 6 E I I d ~ ] _ Q Q Z B B Z Q ~ Q B 1 : ",
"1 c ~ ~ Q ~ _ _ _ _ _ _ _ _ _ E I I d 6 6 6 6 6 6 7 6 6 6 7 6 6 6 6 6 4 O n U J J M i u q ; p i f > @ , < i i < + + & w < w q * # $ q i q : & 8 e i g g g g r & *   X : < i z k k k z z B h r p 1 1 , > @ @ @ > : @ : 6 6 E I I d ~ _ ~ Q Z B c B Q ~ ~ Q B 1 : ",
"k Q ~ ~ ~ ~ ~ _ _ _ _ _ _ _ _ E I I d 6 6 6 6 6 6 6 6 6 6 6 6 6 6 6 6 O * p H H b e ; , $ * b h 0 > > , r i i , @ $ 9 w w w r w 9 ; , 1 * * q r i g g n K J N r 9 & X : t r m x B B M B z e r , : @ : : > q < , , : @ S 7 E I I d ~ ~ ~ Q B c B B Q ~ Q Q B : : ",
"B Q _ ~ ~ ~ _ _ _ _ _ _ _ _ _ E I I d 6 6 6 6 6 6 6 6 6 6 6 6 6 6 6 6 O $ & ; i q $ * * $ p h e : > > ; q i , @ + % w r w r g i r r $ - e r r g g g g K ! K Y n 9 9 + + e r r c x M i p k , , > , 2 2 r q r ; $ S s s s s E I I d ~ Q Q Z B c Z Q ~ ~ Q B k : : ",
"Q Q _ _ _ _ _ _ _ _ _ _ _ _ _ E I I d 6 6 7 7 7 7 7 7 7 7 6 6 7 6 4 & 1 2 >   - q * @ $ r n q i : @ ; < < ; : + @ & w w r g J V n i 9 8 q w g g N J N K Y Y Y Y g w $ + < i r t 1 < q 2 > : q h J J M h p h r $ 7 S S s s E I I d Z Q Z c c c Z Q B B Q c : : 1 ",
"Q ~ _ _ _ _ _ _ _ _ _ _ _ _ _ E I I d S S S S S 7 7 7 7 7 7 7 7 , , ; > @     $ q $ - p J a % - 2 @ > ; ; % : + @ q 9 w N ! _ ! n & 9 - r i g n J J J J K J J Y N e - > @ , q r , 2 , > q N U T R { [ U N p b q 7 7 S s s E I I d : B B c c B Z B B B k : : : k ",
"B Q _ _ ] ] _ _ _ _ _ _ _ _ _ E I I d s s s s s s S S S S S : @ : @ : +     $ - i i b B j q > 6 k @ @ > : : + O * 9 w r J ! ! J y * - q r i g g n n J J N g i g g r - $ @ : > 2 , ; q i N T / / ( { { T U n H J i s s s s E I I d + + 1 k c B c k k k k : + : k ",
"B Q _ _ ] ] _ _ _ _ _ _ _ _ _ E I I d s s s s s s s s S 2 , , @ + X       $ q p b g F N y 7 S s s : @ @ > : @ O $ w r r n Y ! N 8 * q r r i g g g i m N m r r r w 9 $ @ $ ; ; + & * r F U T / / [ [ [ / T F b R M s s s s E I I d + + + : : : : : : : + + + : k ",
"B B Q _ _ _ _ _ _ _ _ _ _ _ ~ E I I d s s s s s s s s z k k @ + + X   + = ; m U b r h = > r - S s > : : : @ @ $ $ - q w i J ! n % - w r w r g r i r r r r r r r w - % @ % ; @ + $ $ i H U T / / ( { [ / / b h J e S S S S E I I d + + + + + + + + + + + + + : 1 ",
"k B B Q ~ _ _ _ _ _ _ _ _ _ ~ E I I d s s s s s s s 2 k , + X + X + @ & $ * q N g q $ @ t b p q y s S S > > $ $ = q w w g m N > $ 8 w 9 w w w r r w 9 w r r * & $ - % % O O + @ # > r H U U / / / { { / / U h h - 7 7 7 7 E I I d + + + + + + + + + + + + + : : ",
"k k B B Q _ _ _ _ _ _ _ _ ~ B E I I d s s s s f s + , > + X + +     & & $ O $ 9 = $ @ , b G G a - - 4 4 S : + $ & & - w i r = $ * * & & & = * 8 8 & q w 9 - $ $ $ % @ + + + + @ $ : e n U U T / / { { / / T F e * S S S S E I I d + + + + + + + + + + + + : : 1 ",
"1 k B B Q ~ _ _ _ _ _ _ ~ k 1 E I I d f s s f s     + : @ + +     + & O # $ & $ : : * p G G N b c * o 3 - @ + $ O O O - e 8 O @ $ & - - - q & * * w w q 9 & $ : O @ @ + ; + + % % : - h H U U T T [ [ / / T H < $ s s s s E I I d + + + + + + + + + + + : : 1 1 ",
"k k k B Q ~ _ _ _ _ _ ~ k 1 : E I I d s s f f f +     + + + @ # O O O # O O ; @ , k r i b K P G b u , o # @ @ @ ; $ O $ & $ O @ @ % - ; 9 w w 9 w r - * ; ; $ ; $ * $ O O O + % + $ > p H U H H H T / / / / N 1 > s s s s E I I d + + + + + + + + + + + : 1 1 k ",
"B B B B Q ~ ~ _ _ _ Q c 1 1 1 E I I d s s f f f :         + & O O # o # 3 $ + + > x h i e n P P G N u 2 k % @ ; ; ; = = $ $ ; ; ; ; @ ; $ < t , ; ; - > $ $ * $ O $ $ $ O % % + + > , e h U H H U T T U T T h 1 t s s s s E I I d + + + + + + + + + + : 1 k B B ",
"Z Z Q Q Q ~ ~ _ _ Q c c c k B E I I d s s s s s s <     & - # O O # O # 3 @ @ > , , 1 k r i b K G G G V 2 , @ @ ; ; ; ; % < ; ; : < < < < t 2 t < ; $ $ $ $ O O $ $ * * * > % + + > < < e H N H U U U U H H b q q s S S s E I I d 1 1 : + + + + + + + : 1 k B Q ",
"Z Z Q ~ ~ ~ _ _ ~ B B B Q ~ ~ E I I d S s S S s s s s s s 4 O O # 4 4 4 3 @ > 1 > , , 1 1 , 1 2 i b K K N q , , ; ; ; ; ; < : @ $ * * - r r r r * - * * * - & 8 9 & $ * * ; @ + ; : > $ q e N B B G N N U T b q e 7 4 6 s E I I d 1 1 1 1 : + + + + + : 1 B B Q ",
"Q ~ ~ ~ ~ _ _ ~ Q Q Q ~ _ ~ ~ E I I d S s s s s s s s s - O O 3 4 4 4 5 3 : : , 1 1 2 , k z k 2 k p n P G b a 1 1 ; 9 * $ $ O O O $ $ q w q q - - - * q b g w = * $ * ; * % + ; ; 7 7 $ - - r p h p p N ( [ N e i 6 4 4 6 E I I d 1 1 1 1 1 : + + + + + : B Q Q ",
"Q ~ ~ ~ _ _ ~ ~ ~ ~ ~ _ ~ ~ ~ E I I d s f s s s s s s - o O O 3 3 4 4 6 o o % > 1 k c k z c B A A W W K K G b u , ; & $ $ O $ $ $ $ $ $ $ $ $ & * - = i n i w - * $ : ; % + + ; & - - & : $ $ ; q r p U R A b j r : 4 6 6 E I I d k k k 1 1 1 : + + + + : k Q Q ",
"B Q ~ _ _ _ _ _ _ _ _ ~ ~ ~ Q E I I d f s s s s s S - O o 3 O 3 3 3 3 # . . . ; > 2 k c k l l z C A B M G V M m < % % $ $ - & = = = * - - $ & * * - & = r r r - O O O $ $ + % ; O O # 4 $ > $ ; < q b T R H b p ; : , 4 4 E I I d B B k 1 1 1 : + + + + + 1 B B ",
"B c Q ~ _ _ ~ _ _ ~ ~ ~ ~ Q B E I I d s s s f f s 4 o o O o # 3 3 3 o o   . . . $ > 1 k 1 1 1 , k x m m M b m m q + @ & & = r r r w < w $ - * $ $ $ $ = 8 g i 8 $ $ O O + + % & O O 4 4 $ $ q q r i G / T b p , , < k 2 3 E I I d ~ ~ Q k k 1 1 : + + + + : k B ",
"k c c Q ~ ~ ~ ~ ~ ~ ~ ~ Q Z B E I I d s s s s s - 3 o o 3 o . o 3 3 3 3 .   . .   * , 1 2 1 2 2 k k m m m i p < ; : & & = r g m n i i g r w e * $ * $ $ & p i 9 9 $ O $ + @ o O + # 4 # $ > > r i N A A M 2 2 k n b B z n E I I d _ ~ ~ Q B k : : + + + + + 1 B ",
"c c c B Q ~ ~ Q Q ~ ~ Q Q Q Q E I I d 7 S S 4 # o 3 o o o o o 3 3 3 3 3 o   . .     % @ > , 1 k 2 2 l m 2 < , , > + & = w r g g g N N g r 9 w e e 8 $ $ $ 8 r r w O O * + $ o o o 4 4 # O : $ r b G m 1 , 2 m J n L A v 2 E I I d | | ] _ ~ k k : + + + + + + : ",
"1 c 1 1 c B Z Z Q Q Z Q Q Q Z E I I d . . . .   . o o . o o o o 3 O . . .               : > 1 1 2 2 1 , ; , ; , : + % = r r w r r r g n g w 9 - w r 8 $ O & w w r - - ; $ o . o 3 4 3 O # $ $ i b u 1 2 a J G K J ! W A W E I I d  . .| ] _ Q k : : + + + + + + ",
"+ 1 1 1 1 1 1 c B B Z Z Z Z Z E I I d           . . o o . o O O O o o .   .                   : , , > > > ; ; ; > : + & = = = = w w 9 w g g w $ q r w * $ $ 8 - q - ; ; . . . . o o o o # : , k k r q r n K L ! W W ! ) m E I I d X.X. .| ] _ Q k : : + + + + + ",
"+ + : : : : : : k k B Z Z Z B E I I d           .   o o   o o o o . o                         % , , > > > ; ; < 2 , @ + & & ; ; = = w 9 w r r $ $ q w 9 - $ * 8 * $ $ q . . . . . . o O O @ : q q q r h K A ! ) ! ! ' ' v E I I d X.X.X. .| _ Q k 1 : + + + + + ",
"+ + + : : : : : : 1 k B B B B E I I d           . . . . .   . . o o .                       . . . < , , , > , , : : % % & & $ & $ - = = = 9 w * O $ w w q & * - * $ - 8 i .   . . . o O 3 - @ 1 l z B V A W ! _ ! ! ' _ v E I I d  .X. . . .] ~ k k : + + + + + ",
"+ + + + + + + : : : : : : : : E I I d           .       .   . . o . .                           3 o 3 # , , > : @ + @ + + O + + O O $ $ $ * * $ $ $ w w = * & > : $ ; = 9           O o o 9 : : 2 k c V G G ! ' _ W ! _ A E I I d |  . . . .] ~ Q k : + + + + + ",
"+ + + + + + + + + + + + + + + E I I d o .     .   . .   . .   . o 3 .                         . 3 3 3 3 o . o ; ; @ + % @ + % % ; - - * * - & * & $ = = $ & ; q < $ % q i g .       o o o $ @ @ ; 2 x B V n K ! ! B ! _ ! E I I d | |  . .| ] _ Q k : + + + + + ",
": : + + + + + + + + + + + + + E I I d 3 3   . .   . o . .   o 3 3 4 o                       . 3 o o o 3 o o o o o * + @ + + @ % ; = w e e 8 & & @ O O O $ - r a , * $ * a m m         o o $ + : , q r h B Z b L C v A ! ! E I I d ] ] | | | ] ] Q k : + + + + + ",
": : : : : : : + : : : + + + : E I I d 4 3 o . . o .       o 4 6 3 3 .                       o 3 o . o 3 o o o . 3 - @ + @ + O $ ; = w r r 9 = - @ + @ $ ; i V k & & # a M z a         o   O @ : > 1 , p Z c B A V c B ! ) E I I d ] ] ] ] ] ] ] _ k 1 + + + + + ",
": 1 : 1 1 1 : : : : : : : : : E I I d 3 o . o . o o o . o 3 6 6 3 o                       . o 3 o o o 3 . 3 o   o & & % @ O $ * % - & & & * $ O O O $ ; < n V u $ $ V ! V l k p           o O @ > , 1 k c k v A Z k v _ _ E I I d _ _ ] _ ] ] ] _ k 1 + + + + + ",
": 1 1 1 1 1 1 1 1 1 1 : : : : E I I d 3 o . o . o 3 3 3 4 4 6 4 3 .                       3 o . . o 3 3   o .   ; & = q ; $ $ * & & * * - = - & O + % < t i t $ & ^ ..! b v k e         o 3 $ @ : > > q c x V B C k v _ _ E I I d _ _ _ _ _ ] ] _ B 1 + + + + + ",
": 1 1 c c B B B c c c c k k k E I I d o 3 o . o o 3 3 4 4 6 4 4 3                         3 o o o o 3 o         : ; = - < * O - = r i i m i w - $ + % ; = < < w ^ ' ! B n v k *       . o # o O : * * < i x B z v l z ! ! E I I d _ _ _ _ _ _ _ _ Q k : + + + + ",
": 1 c c B Q ~ ~ ~ Q Q B c k k E I I d o 3 o 3 3 4 4 3 4 4 4 4 3 3                       o 3 o o o . 3 o     . + 1 r = * q < O $ * r g g g i r ; % % ; ; ; i J ! W A k - a 2 @ O     . o . o o   + : * * r i h k c 1 z ! _ E I I d _ _ _ _ _ _ _ _ Q B : + + + + ",
": 1 c B Q ~ _ ] ] ] _ Q Z B B E I I d o o 3 4 4 4 4 4 4 4 3 4 3 o                       o 3 o o o o o .     : : t q - * 9 = $ $ $ r g g N i i ; ; ; % ; V _ ) ! V b m > : @ + $     o o . .     O @ $ - r i p l v 2 z ! _ E I I d _ _ _ _ _ _ _ _ ~ Z 1 + + + + ",
": 1 k Z ~ _ ] X. .| ] _ Z Z Z E I I d o 3 4 4 4 4 4 6 4 4 4 3 .                           o   o o o o       > : ; q - q q q = - 9 r i i i i i < ; % < i A _ W V M m l : + + : $ &   . .           @ @ - r i x c B , 2 ! ! E I I d _ _ _ _ _ _ _ _ _ ~ k + + + + ",
": 1 k B Q ]  . .X.X.] ] ~ Q _ E I I d . 3 3 4 6 3 4 4 3 4 6 o                                 . . o o   .   , : : < q q i e < ; ; ; 8 q - q < i p b p B c B v m m t @ + + O $ $ $ .               # @ : , r z c B , 1 Q _ E I I d ~ ~ _ _ _ _ _ _ _ ~ B : : + + ",
": : 1 k B ~ |  . . ._ _ ] _ ] E I I d o 3 4 4 4 3 4 3 3 4 4 .                                   .   . . o   . , , , < - e i t < < q > - r h p N N N N N 2 a b m r : + $ & $ $ $ $                   @ @ : q V B x 2 1 B _ E I I d Q ~ ~ _ _ _ _ _ ~ ~ B : : + + ",
": : : 1 c B Q _ ~ | _ _ _ ]  .E I I d 3 4 4 3 3 3 4 3 o o . .                                         . o   . > , , , ; q 2 i i r - * h ' _ L N l r n n * u a , : + $ 8 * * $ $ $ $                 $ @ : < b n n k 2 c ! E I I d Q ~ _ _ _ _ _ _ Q B c : : : : ",
": : : : k c c B B Z Z Q ~ | o.E I I d o 3 3 3 o o o o 3 .                                   .     .   o       > , , , < < q r q q - - Z ' _ W c k m b i : $ % : : - r - q $ $ $ $ =                 > + 2 r b G G z , z B E I I d Q Q _ _ _ _ _ _ B c 1 : : : : ",
": : : : : k k k k k k B Q _  .E I I d o 3 o 3 o .     o .   .                                   . . . o         , : > , < > r ; < q i n ! A N u k i t < > > ; = w r r r q * q * O -                   a N b b J n 2 , k c E I I d Q ~ _ _ _ _ _ ~ B c 1 : : : : ",
": : : : 1 1 k 1 1 k k c c ~ ] E I I E E E E E E E E E E E E E E E E E E E E E E E E E E E E E E E E E E E E E E E E E E E E E E E E E E E E E E E E E E E E E E E E E E E E E E E E E E E E E E E E E E E E E E E E E E E E I I d ~ Q _ _ _ _ _ ~ B c : : : : : ",
": : : : 1 k k k k k c B Q Q ~ E I I I I I I I I I I I I I I I I I I I I I I I I I I I I I I I I I I I I I I I I I I I I I I I I I I I I I I I I I I I I I I I I I I I I I I I I I I I I I I I I I I I I I I I I I I I I I I I I d ~ ~ _ _ _ _ _ ~ B k : : : : : ",
": : : : 1 1 1 k k c c B Q Q ~ E I I I I I I I I I I I I I I I I I I I I I I I I I I I I I I I I I I I I I I I I I I I I I I I I I I I I I I I I I I I I I I I I I I I I I I I I I I I I I I I I I I I I I I I I I I I I I I I I d ~ ~ _ _ _ _ ~ B c k : : : : : ",
": : : : 1 1 k k k k c c B B Q d d d d d d d d d d d d d d d d d d d d d d d d d d d d d d d d d d d d d d d d d d d d d d d d d d d d d d d d d d d d d d d d d d d d d d d d d d d d d d d d d d d d d d d d d d d d d d d d d d _ _ _ _ _ _ ~ B c 1 : : : : : ",
": : : : 1 1 1 1 k k k k k k k c B Z Z Q ~ Q ~ _ ] ] ~ B c 1 : 1 k k Z Q Q ~ _ |  .] | _ ~ Q Q B B B c k c k k c c B B B B B B B B B c k k k : : k c B ~ ] ] ] _ ~ Q Q B Z B B B Z Z Q ~ ~ ~ k : : : : : : : : : : 1 k B Z Z Z ~ _ _ _ ~ Z Q ~ B c c k k : : : : ",
": : : : 1 1 1 k k k k k 1 1 1 1 1 k k c B Z Q _ _ _ ~ ~ c : : : 1 c Z Q ~ _ ] | | _ ] ~ Q B B B B B c c c c c c B B B B B B B B c c k k k k : : k c Q ~ _ _ _ ~ Q Z Z B B B B Z Q Q Q ~ _ ] Q 1 : : : : : : : 1 1 c B Z Z Z Q ~ _ _ _ B c Z Q Q B c k : : : : : ",
": : : 1 1 k k k B B c k k : 1 : : : : : : : k c B ~ Q Z c : : : 1 k Z ~ ~ _ | ] ] ] ~ Q B B B B B B c c c c c B B B B c c c c c c k k 1 k 1 : : k B Z Q Q ~ ~ Q Q B B B B Z Z ~ Q ~ Q Q ~ ] ~ k : : : + + : : 1 k k c B B Z ~ ~ _ _ B c B B B c B c k : : : : : ",
": : 1 k k k B B Q Q Q B c c k : : : : : : : : : : : k c k : : : 1 k B Q _ ]  .| ] ~ Q B B B B B B B c c c c B B B B c c k k c c k 1 k k 1 : : : 1 B B Z Q Z ~ Z Z B B B Z ~ ~ _ ~ Q Q Q Q ] ~ B 1 : : + + : : 1 1 k k c B Z ~ Q ~ B c B B B c c k k : : : : : : ",
"1 1 k k k B B B Q Q Q B c c c c k : : : : : + + : : : : : : : : 1 k c Z ~ |  . .~ Q B B B B B B B B c c c B B B B c c k k k c c 1 1 1 1 : : : : 1 c B Z Z Z Z Z B Z Q ~ ~ ~ ] _ ~ Q Q Q Q Q Q B 1 : : + + + : 1 1 k c B Z Z Q Q Z B B Z B B k k k 1 : : : : : : ",
"k k k c B B B Z B c k k : : k c B c : : : : : + + + : : : : : : 1 k k c Q |  .] ~ Q B B B B B B B c c c c B B B c c c k k k c 1 1 1 1 1 : : : : : k c Z Z Z Z Z Q ~ ~ ~ _ ] ] ] ~ Q Q B B k 1 1 : : : + + + : : 1 1 c B Z B Z Z B B B Z B c k 1 1 : : : : : : 1 ",
"k k k k c B c B c c : : : : : k B Z c : : : : : + + + + + + + : : 1 k c B ~ ] ] ~ Q Q B B c c c c c k c k B B B k c k k k k k 1 : : 1 : : + : : : k c Z Z Z ~ Q ~ _ _ ] _ ] ] ] ] ~ Q B c 1 : : + : : + + + + : : 1 c c B Z B c B Z Z B c c k 1 : : : : : : : 1 ",
"1 k k c c c c c c k : : : : : : c Z B k : : : : : + + + + + + + + : : k c B ~ ~ ~ ~ Q Q B B c c k k k k k k c k k k k k c k : 1 : : : : + : : : : : B Q ~ ~ _ _ _ _ ] ] ] ] ] ] ] ~ ~ Q B B k : : + + + + + + + : : c c c B B B Z B B B B k k 1 : : : : : : 1 1 ",
"1 1 k k k c k k k k : : : : : : k B B c k : : : : : + + + + + + + + + : : : c Q ~ ~ _ ~ ~ Z B c c k 1 k k k 1 1 1 1 1 k 1 1 : : : : : + + : : : : : k B ~ ] _ ] _ ] ] ] ] ] ] ] ] ] ~ ~ Q B B B k : + + + + + + : : : 1 k c c c c c c c k k 1 : : : : : : : 1 1 ",
"1 : : : : : : : : : : : : + + : : k c c 1 : : : : : : + + + + + + + + + + : : : c ~ ~ _ Q Q B B c k 1 k : : 1 1 k 1 1 1 : : : + : : + + + : : : : : : 1 B ~ ] ] ] ] ] ] ] ] ] ~ ~ Q B Q ~ Q Q B B 1 : + + + + + + + : : : : : : : : : 1 1 1 : : : : : : : : : 1 ",
": : : : : : : : : : : : : + + + : : 1 1 1 : : : : : + + + + + + + + + + + + + + + : Q Q Q Z B c k c k k 1 1 : : : : : : + + + + : + + + : : : : : : : : 1 B ~ ~ ] ] ] ] ] ] ] Q B 1 c ~ _ ~ ~ Q Q k : + + + + + + + + : : : : : : : : : : : : : : : : : : : : : ",
": : : + + + + + + + + + + + + + + + : 1 : : : : + + + + + + + + + + + + + + + + + + : 1 c B B k 1 : 1 k k k 1 : : + + + + + + + + + + + : : : + + + : : : 1 B Q ~ ~ ] ~ ~ ~ Q c : 1 Q _ _ ~ ~ Q Q 1 + + + + + + + + + + + : : : : : : : : : : : : : : : : : : : ",
": : + + + + + + + + + + + + + + + + + : : : : + + + + + + + + + + + + + + + + + + + + + : : 1 1 1 : : : : : : : : + + + + + + + + + + : : : + + + + + : : : : 1 1 B Q Q B k : : : B Q Q Z Q Q Q c : + + + + + + + + + + + : : : : : : : : + : : : : : : : : : : ",
"+ + + + + + + + + + + : : : : : + + + + + + + + + + + + + + + + + + + + + + + + + + + + + + + + : : : : + + + + + + + + + + + + + + : : : + + + + + + + + + + + + : : : : + : k B Q Q Q Q B c c : : : + + + + + + + + + + + + + + + + : + : : : : : : : : : : : ",
"+ + : : : : : : : : : : : : : : : : + + + + + + + + : : : + + + + + + + + + + + + + + + + + + + + + + + + + + + + + + + + + + + + : : : + + + + + + + + + + + + + : : : : k c c B B B B c 1 : : : : : + + + + + + + + + + + + + + + + + : + : : : : : : : : : + ",
": : : : k k k k : : : : : : : : : : : : : : : : : : : : : : + + + + + + + + + + + + + + + + + + + + + + + + : : : : + + + + + + : 1 : : + + + + + + + + + + + : : : : k k k k k c c k 1 : + + : : : + + + + + + + + + : : : : : + : : : : : : : : : : : : + + + ",
": : : 1 c c c c c c c c c c c 1 1 : : : : : : : : : : : : : : + + + + + : : : + + + + + + + + + + + + + + + : : : : : : : : : : 1 1 : : : + + + + + + + + + + + + : : : : : : : : : : : + + + : : : : : + + + + + : : : : : : : : : : : : : : : : : : : : : : : "
};
