/* XPM */
static const char *wall_s1[] = {
/* columns rows colors chars-per-pixel */
"128 128 106 2 ",
"   c black",
".  c #070707",
"X  c #00000B",
"o  c #0B0B0B",
"O  c #170F07",
"+  c #1F170B",
"@  c #000017",
"#  c #131313",
"$  c #1B1B1B",
"%  c #2B230F",
"&  c #372313",
"*  c #332B13",
"=  c #3F2F17",
"-  c #2F371F",
";  c #000023",
":  c #00002F",
">  c #00003B",
",  c #232323",
"<  c #272727",
"1  c #2F2F2F",
"2  c #373737",
"3  c gray23",
"4  c #4B371B",
"5  c #533F1F",
"6  c #473323",
"7  c #5F4323",
"8  c #474F33",
"9  c #574333",
"0  c #53573B",
"q  c #6B4727",
"w  c #774F2B",
"e  c #7F532F",
"r  c #675333",
"t  c #67533F",
"y  c #000047",
"u  c #000053",
"i  c #00006B",
"p  c #434343",
"a  c gray28",
"s  c #4B4B4B",
"d  c gray31",
"f  c gray34",
"g  c #5B5B5B",
"h  c #6F5743",
"j  c #775F4B",
"k  c #5B6347",
"l  c #676B4F",
"z  c #7B634F",
"x  c #6F7357",
"c  c gray39",
"v  c gray42",
"b  c #6F6F6F",
"n  c #7B7F63",
"m  c #777777",
"M  c gray50",
"N  c #875733",
"B  c #8F5F37",
"V  c #9B633B",
"C  c #A36B3F",
"Z  c #836B57",
"A  c #8B735B",
"S  c #AB6F43",
"D  c #B37347",
"F  c #BF7B4B",
"G  c #937B63",
"H  c #9B7F6B",
"J  c #CB7F4F",
"K  c #C39B2F",
"L  c #9F8363",
"P  c #9F876F",
"I  c #A78F77",
"U  c #AF977F",
"Y  c #CF8353",
"T  c #D78B5B",
"R  c #DF9363",
"E  c #E79B6B",
"W  c #EFA373",
"Q  c #F7AB7B",
"!  c #EBDB57",
"~  c #000083",
"^  c #00009B",
"/  c #0000B3",
"(  c #0000CB",
")  c #0000E3",
"_  c #838383",
"`  c #8B8B8B",
"'  c #939393",
"]  c #979797",
"[  c #9F9F9F",
"{  c #B79F87",
"}  c #BFA78F",
"|  c #A7A7A7",
" . c gray67",
".. c gray70",
"X. c #B7B7B7",
"o. c gray75",
"O. c #FFB383",
"+. c #FFBF9B",
"@. c gray78",
"#. c #CBCBCB",
"$. c LightGray",
"%. c gray86",
"&. c #DFDFDF",
"*. c #E7E7E7",
"=. c #EFEFEF",
"-. c white",
/* pixels */
", 2 2 f f f f c c m m m m m c c f p 2 , , , , , , , , , , , , , # # # , , , , , , # # # # # # # # # # # # # , , , , , , , , , , 2 2 2 , , , # # # # # # # # # # # # # , # , , , , , # # , , , , , , , , , , , , , , , , , , , , , , , , , , , , , , , , , , , , ",
"2 2 f p p f f f f c c c m m m ` m c f f p 2 , , 2 2 2 2 2 2 , , , # # , , , 2 , , , , , # # # # # # # # # , , , , 2 p p p 2 2 , 2 2 2 , , , # # # # , , , , , , , , 2 2 2 , , , , , , , , , , , , , , , , , , , , , , , , , , , 2 2 2 , , , , , , , , , , , , , ",
"p p 2 2 2 2 p p f f c m m ` ` ] ` ` m ` m m m m ` ` c c c f f 2 , , # # , 2 2 2 2 2 2 , , , , , , 2 2 2 2 2 2 2 p c ` ` ` ` p p 2 2 2 2 , , , # , , , , , , , , 2 2 2 p p p p p p , , , , , , , , , , , , 2 2 2 p f p p p f p f p p p p p 2 , , , , , , , , , , ",
"p p p p f p f f f f c m m ` ] ] ] ` ] ] ]  . . . .o. . .] c f 2 , , # # , 2 2 2 2 2 p p p f f f f m ` ` ` ` ` ] o.o.o.o.o.] f p p 2 2 2 , , , , , , , , , , 2 2 2 p p f f c c ` ` m c f p , , , , , , , p f f f f c ` m m c c c f f c c c f p 2 , , , , , , , 2 ",
"p p f c m c m m ` ` m ] ] ] ]  . .o. .o.o.#.&.#.&.&.&.&. .m c 2 , , , # , 2 2 2 2 2 f c c m c m ` ]  . .o.&.=.=.=.=.=.=.=. .] f f 2 2 2 2 2 , , , , , , , 2 p f c c m ` ` ]  .o.o. . .] m f , , , , , p p f c m ` ` ` ` m m m m m m ` m m c f p 2 , , , , , p p ",
"f m ` ` ] ` ] ] ]  . . .o.o.o.o.o.o.o.#.#.&.&.=.=.&.=.#.o.` c p 2 , , , , 2 2 2 f f c m m m ` ` o.#.#.&.=.-.-.-.-.-.-.-.=.#. .` f p 2 2 2 2 , , , , , , 2 f c c m m ] ] o.o.#.#.#.#.#.#.o.] f , , , , p f c m ` ] ] ] ]  .] ] ` ` ` ` ] ` m c f f p , , , 2 f p ",
"m ] ] ] ] ] ]  . . .o.o.o.o.o.o.o.#.#.&.&.=.-.=.-.=.=.=.#.] m f 2 , , # , 2 2 f f c m ] ]  .]  .#.=.-.=.=.-.-.-.-.-.-.-.=.&.#.` c p 2 2 2 , , , , , 2 2 f f m ` ` ] o.o.o.#.&.#.#.#.#.#.#.o.] p , , , p c m ] ] o.o. .]  . . . . . .] ] ] ` ` m c f , , , p f m ",
"o.o.#.o.#.#.o.#.#.o.o.o.o.o.o.o.#.#.#.#.&.&.#.=.=.=.=.&.o. .` m p , , # , 2 f f m ] ]  .o.] ]  .&.&.=.=.=.-.=.-.=.-.=.=.&.#.o. .c p 2 2 2 , , , , 2 2 f f ` ` ] ]  .#.#.#.#.#.#.#.#.#.o.o. .` p , , , f c ]  . .o.o.o. .o. . . . . .] ] ] ] ` m c p 2 , , f `  .",
"#.&.&.&.=.&.&.#.o.o.o. . . . .o.o.o.#.o.#.o.#.o.#.o.o. . .] ] m f 2 , # , f c m ` ]  . . .] ` ] #.&.&.&.&.&.&.&.&.o.o.o. .o. . .f f 2 2 2 , 2 2 2 2 p f c ` ` ]  .o.#.#.#.#.o.o.o. . . .] m c p , , p f ` `  .o.#.#.o.o. . .] ] ] ] ` ] ` ] m m c f 2 , , f  .o.",
"o.#.o.#.o.o.#. .o. . . . .o. . .o. .o.o.o.o.o. .] ` ` ` m ] ` m m p , # , p c m ] ] o.] ` m ] #.#.o.#.&.&.&.&.o.o.o.o. . . . . .c f 2 2 2 2 2 2 2 2 p c m ` ]  .o.o.o.o. .] ] ] ` ` c m c f p , , , f c `  .o.#.o.o.o.#.] ] ] ` m ` m ` m m m m c f , , 2 c o.o.",
" .o. .o. .o. . .o. .o.o. .o. .o. . .o. .] ] ` m m m m m m m ` m c p , , , p c ` ] ] ] ` ` m ] o.o.#.o.o.o.o.o.o.o.o. . . . . .] c f 2 2 2 2 2 2 2 p c c m ]  . . .o. .] m m m c c c c c f f p , , , f m ]  .o.#.o.o.o. .] ] m m m m c m m m c m c p , , 2 c  .o.",
" . .o. . .o. . . . . . . . . . . . .] ` ` m m ` m m m m m c m m c p , , 2 f c ] ] ] ` m ` ` o.o.o.o.o.o.o.o.o.o.o.o. . . . . .] ` p 2 2 2 2 , 2 2 p f c m  . .] ] ` m c c f f c f c f f f p , , , , c ` ] o. .#.#. . . .` ` m c m m m c m m c m c p , , f `  . .",
" . .o. . . . .] ] ` ] ` ] ` ] ] ] ` ] ` ` ` m ` m m ` m m m m c c p , 2 2 c m ` ] ` ` m m  .o.o.o.o.o.o.o.o.o.o.o. . . . .] ] ] ` p 2 2 2 , , 2 , p f m ] ] ] ` ` c c f f p p p p f c f p p , , , , f c ` ] o.o.o. . . .] m m m m c m c m m c m c p , 2 p c ]  .",
"`  . . . . . .] ] ` ] ` ] ] ] ] ] ` ] ` ` ] ] m m m m m m m m m c 2 2 2 2 c m ] ] ` ` m m o. . .o.o.o.o.o.o.o.o.o. . .] ` ] ] ] m p 2 , , , , , , , f f ` ` ` m m m c c f p , , p f f p p , , , # , , p c ` ] o.o.o. . .] ` m m m m m c m m c m c f 2 2 p f m ` ",
"` ] `  . . . . . . . . . . . . .] ` ` ` c m m c c c c c m m c m f 2 , , p c m ] ` ` m m ] o.o.o.o.o.o.o.o.o.o.o.o. .] ` ` ] ] ` c p 2 , , , , , , , , f f c c m c c c p , , , p f p p , , , # , # # , , p c ` ] ]  . . .` m m m m c m c m m ` ] m m p , 2 p c ` ",
"` ` ` ] `  . . . . . . . .] ] ` ` c c c c c f f c c c c c m m c f , , , p c c ] ` ` m m  . .o.o.o.o.o.o.o.o.o.o.o.` ` ` ` ] ] m c p , , # # # , , , , , , , , , , , , , , p p p , , , , , # # # # # # , , p c ` ] ] ] ] ` m m c m m m m c ` ]  .` ] c , , , p m ",
"m ` m m ] ` ] ` ] ` ] m m m c c p p f f f p f f f f f c m c c f 2 , , 2 p c m m ` ` m ]  .o.o.o.o.o.o.o.o.o.o.o.` ` ` ` ] ` m m c p , , # # # # , , , , , , , , , , , , , p , , , , , , # # , # # # # # , , 2 c ` ` ] ` c m m m m m m c ` ` ` ` ` ] ` , # , 2 c ",
"c m m ` m m ` m m m c f p p p ! ! ! ! ! ! ! ! ! ! ! ! ! ! ! ! ! ! ! ! ! ! ! ! ! ! ! ! ! ! ! ! ! ! ! ! ! ! ! ! ! ! ! ! ! ! ! ! ! ! ! ! ! ! ! ! ! ! ! ! ! ! ! ! ! ! ! ! ! ! ! ! ! ! ! ! ! ! ! ! ! ! ! ! ! ! ! ! ! ! ! ! ! ! ! ! ! w m m m ` ] ` ` ` ] ` , # , , f ",
"c c c c c f f f f p 2 2 2 2 2 ! K K K K K K K K K K K K K K K K K K K K K K K K K K K K K K K K K K K K K K K K K K K K K K K K K K K K K K K K K K K K K K K K K K K K K K K K K K K K K K K K K K K K K K K K K K K K K K K K w m c m ] ` ` ` ` ] ` # # # , 2 ",
"2 c c f p 2 2 2 2 2 2 2 2 2 2 ! K K K K K K K K K K K K K K K K K K K K K K K K K K K K K K K K K K K K K K K K K K K K K K K K K K K K K K K K K K K K K K K K K K K K K K K K K K K K K K K K K K K K K K K K K K K K K K K K w m m c ` ` ` ` ` ] ` # # # # , ",
"# , p 2 2 2 , , , , 2 2 , , , ! K K w w w w w w w w w w w w w w w w w w w w w w w w w w w w w w w w w w w w w w w w w w w w w w w w w w w w w w w w w w w w w w w w w w w w w w w w w w w w w w w w w w w w w w w w w w w ! K K w c f c ` ` ` m ` ] p # # # # # ",
"# # # , , 2 , , , , , , , , 2 ! K K w       X X X @ @ @ ; @ @ ; ; ; ; ; : ; @ @ @ @ @ @ @ X X X X X X @ @ @ @ ; ; : : : : : > > > > > > : : : : : : > > > : : : @ X X X X X X   X X X X X X @ ; @ ; : > > y y > : @ X X   ! K K w f f f c c ] ` ] c , # # # # # ",
"# # # # , , , # # # # # , 2 p ! K K w   X X @ ; ; : : > : : : : : > > : : @ X X   . X X   X @ @ @ ; @ @ : : : : : : : : : : > > > : ; ; ; X X X X X @ @ X X                       X X @ @ @ X X @ @ ; : : : : ; X X       ! K K w 2 f f f f c c p # # # # # # # ",
"# # # # # # # # # # # # # 2 p ! K K w   X @ ; > y u u i i i ~ ~ i i i i u u : @ = 7 7 4 = $ : ; ; > y y u u u i i u y u u u u : ; > ;                                       X @ X @ > y > ; @ X X @ X                     ! K K w # , , 2 c 2 , # # # # # # # # ",
"# # # # # # # # # # # # # # # ! K K w   X @ ; ; > y u i i ~ ^ ~ ~ ~ i i i y ; % e N N N B e 5 * o X ; > y y u u u y > : : : ; X X ; ; X X   X X X X X                     y i ~ ~ ~ ^ ^ ~ i u u y ;                       ! K K w # # # # # # # # # # # # # # # ",
"# # # # # # # # # # # # # # # ! K K w     @ @ ; : : u i i ~ ~ ~ ~ i i 4 4 4 = 5 N V B C D D D C V q =       @ ; @       X         X         X X X X X     X       X @ @ > i ^ / ( ) ) ) ) ( / ^ ~ u > > > X @ @ ; @       ! K K w # # # # # # # # # # # # # # # ",
"# # # # # # # # # # # # # # # ! K K w     X X ; ; > y u i ~ i i i ~ w N N w q q N C C F F F F F F C B e 4     X               X X X X X ; : > ; ; > y : ; : > > ; ; > > u ~ ^ ( ) ) ) ) ) ) ) ( / ^ i u u : > > ; X X X   ! K K w # # # # # # # # # # # # # # # ",
", , , , # # # # # , , # # # # ! K K w   X @ ; : y y y > u i i ~ ~ w S D C C N q w V C F J J J J J S C C C w @ : ; ; @ ; @ ; X @ : : : : y y u > ; u i i u u u y y > ; ; ; y ~ ^ / ( ) ( ( / ^ ~ i u u u y > : @   @ ; X   ! K K w # # # # # # # # # # , , , , , ",
"2 2 , , # # , , , 2 2 2 2 2 2 ! K K w X : > y i i u u u u i ~ ^ ^ C F F S F F N q w C D J Y Y Y J D S S S C q i ~ ~ ~ ~ u u u i ^ ~ ^ ^ ^ ^ ~ ~ ~ ~ ^ ^ ~ ~ ~ > @ ; X X X @ : u u u i u y > X X > : ; @ X ; ; @ @ @ @ X   ! K K w , , , , # # , , , 2 2 2 2 2 2 ",
"p p 2 # # , , 2 p c c c c c c ! K K w ; y u i ~ ~ i i i ~ ^ ^ ( N D J Y T T T V w N V C C D J J F D D D D S N 5 ~ ^ ^ ^ ^ ^ / / ( ( ( ( / ^ ^ ^ ^ ^ ^ ^ ^ ~ i y @ @ @ X X X                     X   X X X X X @ X         ! K K w , , , , , , , 2 2 2 2 2 p p p ",
"` p , , , , c ` ] ] ] ] ] ] ] ! K K w ; > u u i ~ ~ ~ ~ ~ ^ / N F J J R R F V N F Y F N e B C S D D D D C N N 7 # > y > y u u y i ~ ~ ~ i u u u u u y > > ; @ @ @ X                             X   X ; ; ; @ @ @ X       ! K K w 2 f f f p 2 p p p p c c c c c ",
"c 2 , 2 p c  .#.#.#.#.o.#.#.o.! K K w ; ; > y i ~ ~ ~ ~ ~ i ^ S F J T Y C N C F T T T C 7 q w N V C V N q N C V =   X   X X X   ; ; @ ; @     X         : : ; X @ @ X   X X @ X         X   X ; : > > : y > @ ; ; : ; X   ! K K w c ` ` c c c c c c m ` ]  .o. .",
"c p p c `  .o.#.=.&.=.=.=.=.&.! K K w X ; : y u i i i ~ ^ ^ N D F Y F N V F J T T T T F e 7 = 4 q e N V N D F F B @           X     X                 X @ X   X X   @ ; @ ; > ; ; X @ ; : > y u ~ ^ ^ ^ ^ ^ ~ ~ i u u : X ! K K w ]  . .` m m m m ` ]  .o. .o. .",
"` ` ]  .o.#.#.&.=.=.=.&.=.&.=.! K K w @ : u i i ~ ~ ~ ^ ^ q D F Y S N S F Y T T T T T J V N q N C D Y T F D T T F e : y > : : ;                     X X   X X X @ ; @ @ : ; @ @ X : y i u i ^ ^ / / / ( ( / / / ^ ~ i : @ ! K K w #.&.&.#.] ] ] ] ] ] ]  . .o. .",
"]  .o.#.#.&.#.#.#.#.=.=.=.=.=.! K K w ; > u i ~ ~ ~ ~ i i C F F C N D F Y T T T T T T T D B N N J Y T T T J E R J C 4 ~ / ( / ~ u y > > > ; : ; ; @   X X X ; ; ; @ X X @ X X @ : y y u y > u i i ~ ~ ~ ^ ~ ~ ~ i y > @ X ! K K w -.-.=.=.o.o.] ] ] ] ] ] m ` ` ",
" .o.o.#.#.#.#.o.o.o.#.#.&.&.=.! K K w ; > u i ~ ^ ^ ~ u q C D B N F J J T T T T R T T T J C C q B F T T Y R O.W T F w u / ( ( / ^ ~ i u : @ X                                   X   X   X @ @ : : u y ; y : ; : X X @ X   ! K K w -.-.-.=.&.#. .] ] ` m m m m m ",
" . .o.o.o.o.o.o. .o.o.o.o.o.o.! K K w ; > u i ^ ^ ^ ^ 5 C C N N F J Y T T T T E W E R R T F S N 5 q D F J E O.O.R J S 5 ; > > > u u u ; : X     X @ X                                     @ @ ; ; X ; ; @ @ ; > > > > ; X ! K K w -.-.-.=.&.#.] ] m ` c f c c m ",
"` ]  . . . .] ] ] ] ] ] ] ] ] ! K K w ; > u i ~ ^ ^ 4 w V e N D J J Y T T R W W W W W E Y D F C e 7 V D Y R O.+.O.J F V y X ; ; ; @ @ ; ; X ; @ ; : @       X     X X     X           X ; : ; : : : > : y u i i i i u : ; ! K K w -.=.=.o.#. . .] m c f p c c m ",
"` ` ` ` ` ` ] ] ] ] ] ] ] ] ] ! K K w @ @ ; y i ~ i q N q e D F J Y T T R E W W W E D C B V C C e q D Y T T Q O.Q E J F q   > ; @ X X X ; ; ; @ @ ; : : ; ; ; ; > > > ; ; @ ; ; : : ; ; > ; @ @ ; : > > u i ~ ^ ~ ~ i > ; ! K K w &.o.o.o.o. . .] c f p p c c m ",
"` ` m m m m ` ` ] ] ] ] ] ` ] ! K K w   X @ > u y 7 e q N S F F Y T T R W W W R D C V C F Y Y C q 5 C J Y Y Y T T R T J V u i u i / ^ ~ ~ ^ ~ i i ~ ~ u : > u > i ^ i u i ~ ^ ~ u > ; ; > ; ; : @ ; @ X ; > > i ~ ~ u : ; ! K K w ] ] o.o. . . .` c p 2 p f c m ",
"m m m m m m m m ` ` ` ` ` ` ] ! K K w X ; ; : : 4 q 7 e S F F J T T E W W W F V B S F F Y R E T e = e D Y T Y F F F F Y S ~ ( ( ( ( / ^ ^ i u u @ ; ; X X X X X ; : : > i i u y ; X X @ ; @ ; : > u y : @ u u u i u u : @ ! K K w ] ] ] ] ] o. .] c p 2 p f f m ",
"c m m m m m m m m m m m m m m ! K K w @ ; ; @ * 7 q e C D F F Y E E E Y D C C S D F J Y T W W O.D q = V F Y T T F F C S C 2 ~ u > > > > ; @ X                                           @ ; ; : > > X > : X u y > > > ; @ ! K K w ` ` ` ] ] ] ] ` f 2 , 2 p p f ",
"f f c f c c c m m m c m c m c ! K K w > u i = 7 w N V S S F J J J C V B C F F J J J Y T R O.O.W R C 4 7 S F Y T T J F B q = ~ u > : > ; @ X     X                                 X X ; ; : u i u i > X @ X ; @   X X X   ! K K w ` ` ` ` ` ` ` c f 2 , , , p p ",
"p f f f f f f f c c c f f f f ! K K w y u 4 q e N B V D S N q q 7 N D T T F T T T T R R E W Q W D V e = N F J T T Y Y D q 5 ^ ^ ^ ^ ~ i ; @ : ; X                                   @ X ; : i ~ ^ ^ ^ ~ ~ i > ; @ @ @ X   ! K K w ` ` ` ` ` ` m c p 2 , , 2 , p ",
"p f f f f f f c f f f f p p p ! K K w y = 7 w w N N C D C B N V D J T T T T T T R W W T Y F C V B N q q 7 C J T T T T F B 4 ~ ~ ~ ~ i > X @ : ; @     X X                                 ; ; u i i ^ ~ i ~ i u y y : X X ! K K w c c c c c f c f p 2 , , , , p ",
"2 f f c c c c f f f p f p p p ! K K w ; = q q w e e B S F F F F J Y T T R E W Q Q F D B e N C F Y J B q 5 e D J T T T J C 4 : ; X ; ; @ @ @ @ @ : ; @ : @     X                         X @ : : : > y u i ~ ~ ~ i i u : @ ! K K w c f f f 2 2 2 2 2 , , , # , , ",
", p c m m c f f p f p p p p p ! K K w . * 7 q 7 7 N C D F F F F F Y R E W W T C e 7 w B F Y T R E T J N 5 q C F J T T F C 4     X X X X X @ ; : @ X @ > i ~ u y u ~ u i ~ ~ i u > u y i ^ ^ ^ / ( ) ) ) ) ) ) ) ( / ^ y > ! K K w ` c f 2 , , , , , , , # # # , ",
"# , p c c f f f p p p p f p 2 ! K K w   $ 4 5 7 B D D D F J F F J T E W Y B q w B C D F Y T T Q O.E Y C 7 w F Y J Y T D C 4             X ; : : ; : ; u / ( ( ) ) ) ) ) ) ) ) ) / / / ~ ^ / / ( ) ) ) ) ) ) ) ) ( ( / y > ! K K w ` c f 2 , , , # # , , # # # # ",
"# # , 2 2 2 2 2 2 p f p 2 2 , ! K K w     $ 5 N C D C S D D D F Y J F B q N C F F F F T Y T T W O.E Y D e q F Y J Y T T F q           @ X X ; ; ; ; @ u ^ ( ( ) ) ) ) ) ) ) ) ) ) / ~ i > > > ; u ~ ~ i i ~ / / ( / ^ y : ! K K w c c f 2 , , , # # # # # # # # ",
"# # # # , , 2 2 2 2 2 p , , , ! K K w   X o q C S C V V C C C D S N q B S F F F F F F J T T T R R Y J F C 7 F T J J Y T Y V @ @ @ ; @ @ X ; : > y y u ~ / / / ) ) ) ) ) ) ) ) ) ) ) / ~ u > : : ; ; > y : y u u i u y ; @ ! K K w , , 2 2 , # # # # # # # # # # ",
"# # # # , , , , , , , , # , , ! K K w X @ @ N D C V B V C S F F J F J Y T T Y J Y T T T R E W T Y J J F F w F R F F F F F V > ; > > u i u u i i i ~ ^ / ^ ^ / / ( ( ) ) ) ) ) ) ) ^ ~ i > @ @           X ; ; @   ; X     ! K K w # # # # # # # # # # # # # # # ",
"# # # # # , , , # # , # , , , ! K K w X @   N S B N B V C S F Y T T T T T T T T R R E E O.O.R T F F J F F C S F F F F F D N u > ; u i ~ ^ ^ / ) ) ) ) ) ) ( ) ^ > y > u ~ ~ i y : ; @ ; ;               X @               ! K K w # # # # # # # # # # # # # # # ",
"# # # # # # # # # # # # # , # ! K K w   X   4 N N N N C C F J Y T T T R W E E W W W W W O.W Y Y C C F Y J S C F J J F F C V y @ : > u ~ / ( ) ) ) ) ) ) ) ) ) ) ) ) ) ) ) ( ^ ^ / / ~ i u y > > : : : : @ X @ X X X       ! K K w # # # # # # # # # # # # # # # ",
"# # # # # # # # # # # # # # , ! K K w   X X # = q N V C F F Y T T T R R E R R E W Q E E Y J F C C D F J Y F C F J J Y J C q u : u y i ^ ^ ( ) ) ) ) ) ) ) ) ) ) ) ) ) ) ) ) ) ) ) ) ) ) ) ) ) ) ( ( / / / / ^ ~ i u y @ X ! K K w # , , # # # # # # # # # # # # ",
"# # # , , , , , # # # # # # , ! K K w   X @ ; @ $ 5 B F F J T T T T T T Y Y T T T T Y F C V N w B R R T T Y C T R J Y Y S q / / / / ( ) ) ) ) ) ) ) ) ) ) ) ) ) ) ) ) ) ) ) ) ) ) ) ) ) ) ) ) ) ) ) ) ) ) ) ) ) / ^ i : @ ! K K w , , , , , , # # , , # # # # # ",
"# # # , , , , , , , , , , , # ! K K w   @ > > > > = C J J J Y J F F F F S S S D C B N e q N S S N F W W T Y C W R Y Y J V / ) ) ) ) ) ) ) ) ) ) ( / ^ ~ i u u i ~ ^ ~ ^ ( ) ) ) ) ) ) ) ) ) ( ( ( ) ) ( ) ) ( ^ ~ u > @   ! K K w , , , , , , , , , , , , # # # ",
"# # , , , , , , , , , , , , , ! K K w @ ; > u i ~ i N Y T E Y D S D D D D F J J F D N 5 C F F F F C J T R S C T Y Y Y D e ( ) ) ) ) ) ) / ~ ~ y ; ; ; ; @ X ; @ @ : X ; > u ^ / ( ) ) ( / / ~ u u i ~ i u u > : @   X     ! K K w p p 2 , , , , , p p , , , # # ",
"# # , , p f f p p p , 2 2 2 2 ! K K w X ; > y i ~ ~ q Y W W T F F F F F J T Y F F J C 5 D F J J J Y J J C q C Y T Y F B q ( ) ) ( ^ ^ i : > y > @ X X     ; X     X ; @ ; u ~ ^ ( ) ) ( / ~ i i i y > @ X @               ! K K w c c c 2 , , p f f p , , , , , ",
"# , , p c ` ` c c f f f c c c ! K K w X ; > : > u i , D Q E F T T T T T Y F S D J F V 7 S J J J J J F B w B B C F F V q q i ~ i > : : : ; @ X X X X X @         X > u u i ~ / ) ) ) ) ) ) ( / ^ ~ i : : : : ; X X @       ! K K w m ` m p p f c c c p , , , , , ",
", , p c ` ] ] ] ` c c c ` c c ! K K w ; > : : > y >   7 Y J F T T T T T Y F Y T T F e e 7 N C S C V q w N S J D N e e F C 4 ; y @ ; ; : : @ @ ; @ : ; @ u ~ / / / / ( / ) ) ) ) ) ) ) ) ) ) ) ) ) ) ( ^ ^ i y y y :   X X ! K K w `  .` c c ` ` c f p , , , , # ",
", p c ` ] o.o.o. .] ` ` ` ` c ! K K w @ ; ; : : : : ; X w F F J T T T T T T T T Y C B J N N C C C C N B Y F Y Y S N C Y D 7 o : > > : : # # X X X ; > i / ( ) ) ) ) ) ) ) ) ) ) ) ) ) ) ) ) ) ) ) ( ( / i i y > > @ X X X ! K K w o.o.] ` ] ] m c f 2 , , , , , ",
", f ` ]  .o.&.&.#.o. . .] ` ` ! K K w @ : > y u u u y > , B S F T T T T T R T Y F B J T D C Y J F D C e T F S F F C S Y D w , < 1 $ 1 3 8 Z z h t s s d g c f f ^ / ( ( ) ) ) ( ~ u i i i i ~ ~ i ~ i i i i i i y > ; X   ! K K w o.&. .] ] ] c f p 2 2 p 2 , , ",
"p f ` ] o.&.&.&.#.#.#.#. . . .! K K w : > u i ~ ~ ^ ^ ^ ~ q V D T T T T T R T J C F F Y F C Y T T F D N C F D S D C S F C e 4 < 3 z G H n I { { U P P H H _ m b b b v g g ^ ( / i u y y u u i u u u u ^ ( ( ( / ~ i y : X ! K K w &.#.#. . .` c f p p p f 2 2 2 ",
"f f c ] o.&.&.&.#.#.#.#.#.#.o.! K K w ; > u i ^ ^ / ( ) ) / e S F T T T T T J F F F D J F S F R R Y D B q F Y Y S B S S C e w 4 p A I U I G U } } } } { { U ' ' ` ` ' _ m c f s 2 > y i i i i u u i ~ / ) ) ) ( / ~ u : ; ! K K w &.&.#.o. .] m f f c c f 2 2 2 ",
", p f ` ] o.o.o.o.o.o. . . . .! K K w X ; > u ~ ^ / ) ) ) ) ^ N D J J T T Y F F S C D F D D J E E T F C V B F Y D B C D B e e w 4 - 0 G I G G U { } { I I I ] }  . .| | ' M _ ` ` b g a i ^ i i ~ ^ ( ) ) ) ) ) / ~ u ; X ! K K w o.o.o. .] ` m c c m ` c p 2 , ",
"2 f ` ` ]  . . . . . . . . . .! K K w X @ ; > u i ~ ^ ( ) ( / q C D F J Y J S S C S D S S F T R W R J F V V S F D V C V N V V V B w 4 < z G x G I { X.] _ ` | { [ [ [ [ [ ' ` ] [ [ _ M M b f ^ ^ ( ) ) ) ) ) ) ( ^ i > : ! K K w ] o. .] ] m m c m ` ] c c 2 , ",
", f ` ` ` ]  . . . . . . . . .! K K w X @ @ ; y i i i ^ ^ ^ / ^ N F F F J F S S D F D S D Y T Y R O.T F D B J E D N N N C D D F F C e q 1 x A n b I { ] '  .X.]  .[ [ [ X.o...| | [ '  ...M M v f ^ ( ) ) ) ) ) ( / ^ y : ! K K w ] o. .` ` m c c m ` ] ` c 2 , ",
"2 f ] ] ` ]  . . . . . . . . .! K K w X @ ; : > u u i ~ ~ ~ / / / C J J Y Y T Y F F F F J J D D Y W R J F V Y E S e B C J J D F J F B N 7 p n P b M I U U o.#. .| |  .X...o.@. .|  . .| ..' m ` ] ` m f ^ ^ ^ / ^ ~ u : ; ! K K w ]  .] ` m c f c ` ] ] ` c 2 , ",
"p ` ] ] ] ] ]  . . . . . . . .! K K w ; > y u i i i ~ ^ ^ / / ( ( / S J Y R Q W E Y Y Y F S C D Y T T Y J D Y J V N V D T J F J T F D B e 3 x H P m ` [ ] ..o.X.[ [ | }  . ...o.o...[ [ | ..M [ | | [ [ m s u X @ @   X X ! K K w ] ] ] ` c f c c ` ] ` ` c , , ",
"c `  .] ] ]  . . . . . . . . .! K K w : y u i ~ ~ i ~ ^ / ^ ^ ~ ~ i ( F J R W Q W W T Y D B C F Y J F Y T T J F C V V F T J F T T F D S C r k G I _ m [ [ [ ] [ [ [ [ { ....{  .X.X. .|  .$.o.] ] | .. .[ ] _ d @   X X   ! K K w ] ` ` m c f m ` ] ] ` c p , , ",
"` `  . . . . . . . . . . . . .! K K w ; : u u i i i i i ~ i u u u u ~ / D Y T R T R T Y D V D F D C F W E T D C F C D Y T Y F T T Y Y F J L c G P P v ' [ ] { [ ' U [ [ | X.[  . . . . .| $.*.X.[  .|  .o.| ] _ d $ X X   ! K K w m ` m f f f m ` c c ` f , , 2 ",
"` ]  . . . . . . . . . . . . .! K K w @ > u u u ~ ~ ~ i i ~ ~ i i i y / N S F J Y Y Y Y D S F D C C E O.R D V F D C Y T T T T T T T R Y Y U x G H P m ` [ [ [ U ' X.@.o. .' c _ [ } [  ...o.%.$.X. ...X.$.X.| ` b s , o X ! K K w , c c f f c m c c c p , , , p ",
"c `  . .o.o. . . . . . . . . .! K K w @ : y u i ~ ^ / / ^ / / ^ ^ ^ / / / V C D F F Y Y F D F D C F W W F V F F C F T T T T T T T T T T T { n P G ` U ` [ [ ' [ #.@.#.@.o. .] v M | ..X.X...@.@. .[ [ [ X.X. .' m v s $ # ! K K w # # 2 p f c f p p p p , # , p ",
"c `  . .o.o. . . . . . . . . .! K K w ; > u u i ~ / / ^ ^ ^ / ( ( / ( ) ) ^ C S D D F J F F F S D T O.E S D J F F T W E T R R E E R T T R } G I c [ U U U U M | $.| | [ [  .o.| b _  . . .....[ ` ` M m b ` [ ` M b f , $ ! K K w # # # , , , , , , , # # # , p ",
"c c `  . . . . . . . . . . .] ! K K w > u i i ~ ~ ~ ~ ~ ~ ~ ~ ~ i i ~ ^ ( ) / C F F F J J J J S S R W F C F J F Y O.Q R T W W W W E T T R } G G ' ..` { ] ' ` [  .[ ] ] ' ` [ $.@.M M | X. .` ` ] | [ [ [ b ' ` M b c < $ ! K K w # # # # # # # # # # # # # , 2 ",
"p c c ` ]  . . . . . . . . .] ! K K w y i ~ ~ ^ ~ . u / / ) ( / / / / ( ( ) ) ( V S F F J Y F S F F R S D J J F E W R W W W W W E E T T E } H l X. .` [ ] ' |  .| ] [ [ ] ` ` X.*.*. .| [ M ` ..o...|  .o.] _ ` _ M c < # ! K K w # # # # # # # # # # # # # , , ",
"p p c c `  . . . . . . . .] c ! K K w y i ~ ^ / i o # ~ ( ( / ) ) ) ) ) ) ) ) ( ( B S F F J F F F F D C F Y J T R F F T Q Q W W W W T R E } P m ..I ` ` ] ' [ X.' ` [ { ' ` ` ]  .&.*...[  .o.o.| ] ] ' .. .M ` ' ` v $ # ! K K w # # # # # # # # # # # # , , 2 ",
"2 p c c ` ]  . . . . . .] p 2 ! K K w u i ~ / ^ : $ $ $ u u   ( ) ) ) ) ( ) ) ) ) ) e C D F F F F D S D Y J J E W E R E Q Q Q Q Q W T E W { P ] } P ` m ` ` _ ....` _ [ [ _ _ ' ] ..$.$.#.o.o.] ` ] | [ | o.' ' ' _ v $ # ! K K w # # # # # # # # # # # , , 2 2 ",
"p p p c ` ]  . . . . .] p 2 , ! K K w u i ^ / ~ o $ $ #   . o ) ) ) ) ) ( ~ ) ) ) ) ) ^ B C S D D D F F Y Y T E W W E W O.+.O.Q O.E T Q W G G [ } G ` m _ ` g ] X..._ m m b `  .o. . .o.X.| [ ] ] ] [  . .X.| [ ` m c < . ! K K w # # # # # # # # # # # , 2 2 p ",
"c c c c ` ] ]  . . .` f 2 2 2 ! K K w u ~ / / y # $ $ # # o o ^ ) ) ) ) < . ^ ( ) ) ) ) / e N C C S J F J T T T T R E W Q O.W O.O.W R W E G l h G b m b M b s m | o.o.X.] [ o...' m _ [  . .[ ] ] ] ] ] |  . .] M b c 3 , ! K K w # # # # # # # # # # , 2 p c c ",
"m m ` ` ` ] ]  . .` f f f p c ! K K w i ^ / ~ . # # # # # . . : ^ ) ) ^ $ o , ) ( ( ) ) ) ^ q e V V D J Y T T Y T T T R R W W O.O.Q E W W I t 9 3 Z M m c f v b ' |  .o.X.| ' c v m b m ' o.| M ' [ | [ ] ..#.' _ m c p < ! K K w 2 2 , # # # # # # # , 2 p c ` ",
"m m ` ] ] ]  . .] c c c ` ] ] ! K K w i ~ ^ : # # # # # o .   ; ~ ^ ^ u $ # o ( ) ( ( ) ) / = 7 w N V D J Y J F J T T T T R E W O.Q W Q W I Z t p k b c c f b m b m _ _ M b v m m m m M ` | X.| ` m ` ` ] $.@.` _ m v a < ! K K w 2 2 2 2 , # # # # # , 2 c c ` ",
"` ] ] ] ]  . .] ` ` ` ]  .] ] ! K K w u i i . # # # # o .     ; u ~ ~ : # o . < ( ) ( ) ( 1 $ < 4 7 q N C F F D D F J Y Y T T W O.Q Q O.R ] A Z P G l f v v d b v c v v f g b m b b b m M M ` X...] [ | @.*.o.` m b v a < ! K K w 2 2 2 2 2 , # # # # # , c ` ` ",
"` ] ] ]  . .] ] ] ] ]  .] ] ] ! K K w u i # o # $ $ # o .     # @ u y $ o   o # 1 ~ / / 3 $ , $ $ , 1 4 q N V S D D D F F J Y T E W Q O.T U H A P I s p f b d d g f f c b v m m m m m M m m M ` '  .o.o.#.X.' m m v c p < ! K K w p p p 2 2 2 , # # # # , p ` ` ",
"c ` ]  . . . . . . . .] ] ] ` ! K K w u > . # # $ < $ o .     . . # o # o   . o o $ $ < $ $ $ $ $ , < , $ * 5 w B C D D F F F Y T T E T F { A k l n d 3 p m g 2 s s s g b m b m m m m m m b m v v b M ' ' m c v v c g p , ! K K w c c p 2 2 2 , # # # # # 2 c c ",
"c f ` ]  . .]  . .] ] ] ] ` c ! K K w > . o o o # 1 $             . . o o . . o # # # $ # # # # $ $ , < $ $ $ , 4 w N C F F F J J J Y F D x k l x k d g c c m p 3 a d c c b b v g v b g b b b v c v v m b v v v c c c 2 + ! K K w ] ] ` p p 2 2 , # # # # , p c ",
"p f f ` ] ] ] ] ] ] ] ] ` m c ! K K w . . o o o o o               . . . o . .   . $ $ $ # # # # $ $ $ $ $ $ $ , $ 6 q w N S F F F F F F C p 0 c l 3 d f p g M v 2 d s d s f c c c b v f c c c c d c c s f g v v g c v < + ! K K w  .] ] ` c p , , # # # # # 2 c ",
"f f f c ` ] ] ` ` ] ] ` ` ` ` ! K K w   . . . o o .               . . . o o $   , $ , # # # o # # $ $ # $ $ $ $ $ 2 l k q q N C D D D C N j 2 a 3 2 k f 2 d g v p p 2 3 d c k k c c f a s d s a p d s c v f c c g v c , % ! K K w #.#.o. .] p p , # # # # # # , ",
"2 f 2 2 f c m m ` ` m ` ` ` m ! K K w   .     # o # .                 . o o # < d $ $ o # # . . o # # # # # # # # 1 l l s 2 1 = q N N q q A Z g l f d s 3 c b g 3 2 c ' | ` m g a d p p 3 3 3 p p 3 f v v v f p f g p & & ! K K w &.&.#.o. .` p , , # # # # # # ",
"# 2 2 2 2 2 2 f c c m m m m m ! K K w     . . o o .                   . .   $ 3 < # # o . o o . . o . o o o # # # # # < 1 3 g d < = 7 7 5 Z P _ b g f 1 p v _ m v g `  .o.| _ v d 3 3 3 2 p 3 2 3 3 f c g c s p a 3 7 4 = ! K K w =.=.&.#.o. .` p , , # # # # # ",
"# # , , , , , , p p c m m m c ! K K w     . o o o                         . < <   # # $ o o o o . .   .   . . . o . . , 1 1 3 3 < < $ * = j g g p a g f p c _ v v M ] [ o..._ b g 1 1 3 3 3 2 1 1 3 s d s p 2 p 2 4 w 4 = ! K K w =.=.=.&.#. .` p 2 , # # # # # ",
"# # # , , , , , , 2 p c c c c ! K K w       . . .                         < 1 # o # , $ $ # # .     . . . . . . .     $ p 3 2 1 1 3 p X + 1 1 < $   s ' f f b a g ' [ ..@.o.] b d 3 p 3 3 2 1 1 2 3 3 3 p 3 p s 2 N e 4 = ! K K w &.=.&.&.&.o.] p p , # # # # # ",
"# # # # # # # , , , , , , , , ! K K w         . .                         < $ # # # 1 , , 1 # .     .                 1 a n m 1 1 3 d 1 o   . o   2 ` [ p 2 3 d P | ]  .o.o. .m d d a 2 2 2 1 1 3 2 2 2 2 p f 2 7 N e 4 = ! K K w #.&.&.&.&.o.] ` p , # # # # # ",
"# # # # # # # # # # # # # # # ! K K w                                 # . # # . .   $ < $ , , , $ o o                 $ 0 G v 1 p 2 1 1 1 $ . o 1 M ` m 3 d d Z ` | ] ..o.] ` m p p p 1 1 3 1 2 3 3 2 2 2 s s 1 N B e 4 = ! K K w #.#.&.&.#.o. .` p , # # # # # ",
", , # # # # # # # # # # # # # ! K K w         . o                     # . . .   .   o $ # # $ $ o                   < d 3 c f p f p 2 1 2 1   , d m M m d d k P | | ] ....g m g 1 2 1 3 2 1 1 1 2 3 2 1 d c p q N B N 4 = ! K K w o.o.#.#.#.o.o.` p , # # # # # ",
", , , , , , , # , , , # # # , ! K K w       o # #                   o .   . . . o . .       $ $ < < , # @ @ $ < $ # 2 p < v f 1 1 1 2 a p 3 1 v c f c v 3 l U ` ..[ ' ..' b M 2 , 1 p s 1 < 1 2 3 2 < p g p 7 V V N N 5 = ! K K w o.o.o.o.o.o.o. .p 2 # # # # # ",
", 2 , 2 2 2 , , , , , , , , , ! K K w     . , $ .                   # .   . . .   .   3 f c A H I I I P P P I I H A v c g f a 3 a s 3 3 3 2 3 g d d 3 < Z } { `  .` _ | ` M d 1 s f s 3 2 1 , < 2 1 1 c s 4 e C C V V 5 = ! K K w  . .o. .o.o.o. .p 2 # # # # # ",
", 2 2 2 2 2 2 2 2 2 2 , , , , ! K K w   . # < $                   . o . . o . o     d ' U U } .. .X.X.....} } } } } { { U ' M x b b b f 2 2 s f s 3 $ n { [ _ _ ] m c ` ` g p f d a p s p 1 < 2 a 1 d c 5 N V C C B V 5 = ! K K w  . . . . .o.o. .c 2 # # # # # ",
", 2 2 f f c c c f f f f p p p ! K K w . o $ $ #                   #   . . o       + H U [ [  .| [ | |  . .[ ] U U { U U ' ' ` _ ] n c f 1 1 2 p 3 3 m { ] _ m _ ` s v ' m g v c p s f g p p p f d d a 5 e C S C C B N 5 = ! K K w  . . . . . . . .` p , # # # # ",
", 2 f f c ` ] ] ] ` ` c f p p ! K K w   o # # # o o               o . . . o     3 m ' [ ] ` M m _ ` ` b b m b m b M ` v x P `  . .P x c p $ , $ a [ .._ m ` m _ m d M M b v c g f c c g s f c v c a 4 q B S S C C N e 4 = ! K K w  . . . . . . . .` c , # # # # ",
", 2 f c ` ]  .o.o.o. .` m c c ! K K w < 2 p p a d d d d 3 $     . o . . . .   , b M ' ] M c s p f v f 2 2 3 s f g v c a 3 b ` ' | [ m f 3   $ 0 _ ' ` g c M m M d g s f f f v b b m b c c c c d = = 5 e N V C V N e q = & ! K K w  . . . . . . . .] m 2 # # # # ",
", 2 p m ]  .o.=.&.#.o. .m m m ! K K w 2 p d g c x Z b m m m g 1       . .   o d c c f d 2 < < 1 d d f s p 2 2 p p 2 2 f c _ ] _ M ' ` v 1 1 c M M b b c c v b d p p   . . < s f c b b b g d 2 + * = 5 q e e N e w q 7 & % ! K K w  . . . . . . . . .] p # # # # ",
", 2 p c ` o.&.&.=.=.o.o.] `  .! K K w 2 3 a d f c c v m m M G n f $         1 p f f 2 $ , $ # # # . # $ $ < 3 p 1 , 1 f b b b m M M _ m g m M b v c c f p p p 1 $ o . .   # $ $ $ , < 1 $     O % = 4 5 7 7 7 7 7 7 5 & + ! K K w ] ]  . . . . . . .] c , , # # ",
", , 2 p c ] #.&.&.&. . .o. .o.! K K w 1 3 3 3 p a s d s d f c b b j ,     # a f d 1 < $ # . o o         2 3 , , 1 1 $ 1 2 s g c c c v c c M m c s d s 3 < 2 1 #   o . . o $ # $ $ # o # .   . . . + % = 4 = = 4 = 4 4 + + ! K K w ` ] ]  . . . . .] ] c , , # # ",
", , , 2 f c `  .] #. . . .o.&.! K K w $ < < 1 3 3 3 3 1 < 2 a f d g a , $ # 2 a p 1 $ o               $ 3 < o     # $ < < $ < 3 p d g g g c c d 3 3 < < < , o     . .   o # # o # # . . . . . .       O % * * * * * * + + ! K K w ` ]  . . . . . .` c f , , , , ",
", , , , p f f c c m m ` ] #.-.! K K w o $ , $ $ $ $ $ , < 2 1 p 3 p 3 1 p 3 < $ < 1 $ .   . . .       # 1 < $ 1 3 p 3 3 p 3 2 p a a s s p 3 < 2 1 , $ $ #           o . . o o . . . o . . . .             o + + + + + O o ! K K w ` `  . . . . . .c f 2 , , , , ",
", , , , , p p p p p p c `  .&.! K K w   # #       . o $ $ $ $ < 1 1 1 1 2 3 3 , . # # .   . . .       $ 1 < $ 1 3 3 3 p p 3 3 3 2 2 2 2 1 , , $ # # # .             . .     . .     . .                       o O O O o o ! K K w ` ]  . . . . .] c f 2 , , , , ",
", , , , 2 2 p 2 2 p p f f ] o.! K K ! ! ! ! ! ! ! ! ! ! ! ! ! ! ! ! ! ! ! ! ! ! ! ! ! ! ! ! ! ! ! ! ! ! ! ! ! ! ! ! ! ! ! ! ! ! ! ! ! ! ! ! ! ! ! ! ! ! ! ! ! ! ! ! ! ! ! ! ! ! ! ! ! ! ! ! ! ! ! ! ! ! ! ! ! ! ! ! ! ! ! ! K K w ] `  . . . . .] c f , , , , , ",
", , , , 2 p p p p p f c ` ` ] ! K K K K K K K K K K K K K K K K K K K K K K K K K K K K K K K K K K K K K K K K K K K K K K K K K K K K K K K K K K K K K K K K K K K K K K K K K K K K K K K K K K K K K K K K K K K K K K K K w ] ]  . . . . .] c p , , , , , ",
", , , , 2 2 2 p p f f c ` ` ] ! K K K K K K K K K K K K K K K K K K K K K K K K K K K K K K K K K K K K K K K K K K K K K K K K K K K K K K K K K K K K K K K K K K K K K K K K K K K K K K K K K K K K K K K K K K K K K K K K w ] ]  . . . .] c f p , , , , , ",
", , , , 2 2 p p p p f f c c ` w w w w w w w w w w w w w w w w w w w w w w w w w w w w w w w w w w w w w w w w w w w w w w w w w w w w w w w w w w w w w w w w w w w w w w w w w w w w w w w w w w w w w w w w w w w w w w w w w w  . . . . . .] c f 2 , , , , , ",
", , , , 2 2 2 2 p p p p p p p f c m m ` ] ` ]  .o.o.] c f 2 , 2 p p m ` ` ]  .#.&.o.#. .] ` ` c c c f p f p p f f c c c c c c c c c f p p p , , p f c ] o.o.o. .] ` ` c m c c c m m ` ] ] ] p , , , , , , , , , , 2 p c m m m ]  . . .] m ` ] c f f p p , , , , ",
", , , , 2 2 2 p p p p p 2 2 2 2 2 p p f c m `  . . .] ] f , , , 2 f m ` ]  .o.#.#. .o.] ` c c c c c f f f f f f c c c c c c c c f f p p p p , , p f ` ]  . . .] ` m m c c c c m ` ` ` ]  .o.` 2 , , , , , , , 2 2 f c m m m ` ]  . . .c f m ` ` c f p , , , , , ",
", , , 2 2 p p p c c f p p , 2 , , , , , , , p f c ] ` m f , , , 2 p m ] ]  .#.o.o.o.] ` c c c c c c f f f f f c c c c f f f f f f p p 2 p 2 , , p c m ` ` ] ] ` ` c c c c m m ] ` ] ` ` ] o.] p , , , # # , , 2 p p f c c m ] ]  . .c f c c c f c f p , , , , , ",
", , 2 p p p c c ` ` ` c f f p , , , , , , , , , , , p f p , , , 2 p c `  .o.&.#.o.] ` c c c c c c c f f f f c c c c f f p p f f p 2 p p 2 , , , 2 c c m ` m ] m m c c c m ] ]  .] ` ` ` ` o.] c 2 , , # # , , 2 2 p p f c m ] ` ] c f c c c f f p p , , , , , , ",
"2 2 p p p c c c ` ` ` c f f f f p , , , , , # # , , , , , , , , 2 p f m ] #.&.&.] ` c c c c c c c c f f f c c c c f f p p p f f 2 2 2 2 , , , , 2 f c m m m m m c m ` ] ] ] o. .] ` ` ` ` ` ` c 2 , , # # # , 2 2 p f c m m ` ` m c c m c c p p p 2 , , , , , , ",
"p p p f c c c m c f p p , , p f c f , , , , , # # # , , , , , , 2 p p f ` #.&.o.] ` c c c c c c c f f f f c c c f f f p p p f 2 2 2 2 2 , , , , , p f m m m m m ` ] ] ]  .o.o.o.] ` ` c c p 2 2 , , , # # # , , 2 2 f c m c m m c c c m c f p 2 2 , , , , , , 2 ",
"p p p p f c f c f f , , , , , p c m f , , , , , # # # # # # # , , 2 p f c ] o.o.] ` ` c c f f f f f p f p c c c p f p p p p p 2 , , 2 , , # , , , p f m m m ] ` ]  . .o. .o.o.o.o.] ` c f 2 , , # , , # # # # , , 2 f f c m c f c m m c f f p 2 , , , , , , , 2 ",
"2 p p f f f f f f p , , , , , , f m c p , , , , , # # # # # # # # , , p f c ] ] ] ] ` ` c c f f p p p p p p f p p p p p f p , 2 , , , , # , , , , , c ` ] ]  . . . .o.o.o.o.o.o.o.] ] ` c c p , , # # # # # # # , , f f f c c c m c c c c p p 2 , , , , , , 2 2 ",
"2 2 p p p f p p p p , , , , , , p c c f p , , , , , # # # # # # # # # , , , f ` ] ]  .] ] m c f f p 2 p p p 2 2 2 2 2 p 2 2 , , , , , # # , , , , , p c ] o. .o. .o.o.o.o.o.o.o.o.o.] ] ` c c c p , # # # # # # , , , 2 p f f f f f f f p p 2 , , , , , , , 2 2 ",
"2 , , , , , , , , , , , , # # , , p f f 2 , , , , , , # # # # # # # # # # , , , f ] ]  .` ` c c f p 2 p , , 2 2 p 2 2 2 , , , # , , # # # , , , , , , 2 c ] o.o.o.o.o.o.o.o.o.] ] ` c ` ] ` ` c c 2 , # # # # # # # , , , , , , , , , 2 2 2 , , , , , , , , , 2 ",
", , , , , , , , , , , , , # # # , , 2 2 2 , , , , , # # # # # # # # # # # # # # # , ` ` ` m c f p f p p 2 2 , , , , , , # # # # , # # # , , , , , , , , 2 c ] ] o.o.o.o.o.o.o.` c 2 f ]  .] ] ` ` p , # # # # # # # # , , , , , , , , , , , , , , , , , , , , , ",
", , , # # # # # # # # # # # # # # # , 2 , , , , # # # # # # # # # # # # # # # # # # , 2 f c c p 2 , 2 p p p 2 , , # # # # # # # # # # # , , , # # # , , , 2 c ` ] ] o.] ] ] ` f , 2 `  . .] ] ` ` 2 # # # # # # # # # # # , , , , , , , , , , , , , , , , , , , ",
", , # # # # # # # # # # # # # # # # # , , , , # # # # # # # # # # # # # # # # # # # # # , , 2 2 2 , , , , , , , , # # # # # # # # # # , , , # # # # # , , , , 2 2 c ` ` c p , , , c ` ` m ` ` ` f , # # # # # # # # # # # , , , , , , , , # , , , , , , , , , , ",
"# # # # # # # # # # # , , , , , # # # # # # # # # # # # # # # # # # # # # # # # # # # # # # # # , , , , # # # # # # # # # # # # # # , , , # # # # # # # # # # # # , , , , # , p c ` ` ` ` c f f , , , # # # # # # # # # # # # # # # # , # , , , , , , , , , , , ",
"# # , , , , , , , , , , , , , , , , # # # # # # # # , , , # # # # # # # # # # # # # # # # # # # # # # # # # # # # # # # # # # # # , , , # # # # # # # # # # # # # , , , , p f f c c c c f 2 , , , , , # # # # # # # # # # # # # # # # # , # , , , , , , , , , # ",
", , , , p p p p , , , , , , , , , , , , , , , , , , , , , , # # # # # # # # # # # # # # # # # # # # # # # # , , , , # # # # # # , 2 , , # # # # # # # # # # # , , , , p p p p p f f p 2 , # # , , , # # # # # # # # # , , , , , # , , , , , , , , , , , , # # # ",
", , , 2 f f f f f f f f f f f 2 2 , , , , , , , , , , , , , , # # # # # , , , # # # # # # # # # # # # # # # , , , , , , , , , , 2 2 , , , # # # # # # # # # # # # , , , , , , , , , , , # # # , , , , , # # # # # , , , , , , , , , , , , , , , , , , , , , , , "
};
