/* XPM */
static const char *wall_no_128[] = {
/* columns rows colors chars-per-pixel */
"128 128 185 2 ",
"   c #2F2513",
".  c #28231E",
"X  c #312514",
"o  c #382514",
"O  c #352B15",
"+  c #392D17",
"@  c #352C1A",
"#  c #3E2C1A",
"$  c #35341D",
"%  c #3D311A",
"&  c #2D2722",
"*  c #2C2A23",
"=  c #312B26",
"-  c #3D2F23",
";  c #342D28",
":  c #2F3321",
">  c #353620",
",  c #3B3322",
"<  c #3A3922",
"1  c #35332D",
"2  c #3E372E",
"3  c #3B3730",
"4  c #412E1D",
"5  c #44331D",
"6  c #4A361D",
"7  c #4D391E",
"8  c #513D1F",
"9  c #463322",
"0  c #493624",
"q  c #463923",
"w  c #4E3A24",
"e  c #45362A",
"r  c #433C28",
"t  c #4E3A29",
"y  c #523D24",
"u  c #583F24",
"i  c #523E2C",
"p  c #413C35",
"a  c #4D3F32",
"s  c #533F30",
"d  c #3D432B",
"f  c #45442C",
"g  c #49472F",
"h  c #554124",
"j  c #5C4225",
"k  c #55412D",
"l  c #5A452B",
"z  c #5D492E",
"x  c #4A4A34",
"c  c #564231",
"v  c #594533",
"b  c #5E4935",
"n  c #5F4A38",
"m  c #515338",
"M  c #5B573D",
"N  c #634526",
"B  c #694727",
"V  c #64462A",
"C  c #694728",
"Z  c #644B2D",
"A  c #6C4B2C",
"S  c #724E2D",
"D  c #74502E",
"F  c #7B522E",
"G  c #614732",
"H  c #624D34",
"J  c #6D4D32",
"K  c #624D3A",
"L  c #714F30",
"P  c #665134",
"I  c #6A5435",
"U  c #66513C",
"Y  c #6A543D",
"T  c #6E593B",
"R  c #745232",
"E  c #7B5534",
"W  c #71563D",
"Q  c #735B3D",
"!  c #7A5E3D",
"~  c #7A603F",
"^  c #504A45",
"/  c #575B41",
"(  c #675240",
")  c #6C5641",
"_  c #635C44",
"`  c #6F5844",
"'  c #6B5A49",
"]  c #705742",
"[  c #735B44",
"{  c #795D44",
"}  c #755E4A",
"|  c #785F4A",
" . c #616046",
".. c #69654A",
"X. c #776043",
"o. c #7A6244",
"O. c #77604B",
"+. c #79624E",
"@. c #7A624E",
"#. c #79614C",
"$. c #7B644D",
"%. c #7C654D",
"&. c #7C644D",
"*. c #7C654F",
"=. c #7D664F",
"-. c #7B634C",
";. c #7F684A",
":. c #7B6450",
">. c #7D6551",
",. c #7E6651",
"<. c #7F6752",
"1. c #7D6651",
"2. c #716D53",
"3. c #7F6853",
"4. c #805531",
"5. c #835935",
"6. c #8A5C36",
"7. c #845C3C",
"8. c #825B3A",
"9. c #8D5F39",
"0. c #81613F",
"q. c #89613D",
"w. c #94643D",
"e. c #836546",
"r. c #8C6341",
"t. c #876846",
"y. c #806748",
"u. c #83664D",
"i. c #82644C",
"p. c #806848",
"a. c #816949",
"s. c #80684B",
"d. c #836B4B",
"f. c #81684C",
"g. c #836B4E",
"h. c #856D4F",
"j. c #866D4D",
"k. c #826A4C",
"l. c #936440",
"z. c #986741",
"x. c #966843",
"c. c #87704E",
"v. c #89714E",
"b. c #93734E",
"n. c #806752",
"m. c #816952",
"M. c #856D50",
"N. c #806854",
"B. c #816955",
"V. c #826B55",
"C. c #816A56",
"Z. c #836A56",
"A. c #856D54",
"S. c #866E57",
"D. c #826A54",
"F. c #856D58",
"G. c #876F59",
"H. c #866E58",
"J. c #886F59",
"K. c #837157",
"L. c #8C7351",
"P. c #897156",
"I. c #8D7556",
"U. c #8D7555",
"Y. c #8A7253",
"T. c #887058",
"R. c #89715A",
"E. c #89725A",
"W. c #8B735B",
"Q. c #8A725A",
"!. c #8C7459",
"~. c #8A725B",
"^. c #907857",
"/. c #90775E",
"(. c #92795D",
"). c #A26F46",
"_. c #8F7760",
"`. c #907760",
"'. c #937864",
"]. c #927961",
"[. c #997E60",
"{. c #987D67",
"}. c #977F69",
"|. c #9F8466",
" X c #9E856C",
/* pixels */
"C.| K i 0 9 9 9 9 0 t n #.C.>.>.C.~.}. X|.[./.Z.>.*.d.d.*.#.[ ) ) K v k l l i t w i c c c i i k c v n K U U K Y #.>.} [ [ Y A V k s s k j j c c c c c c c c c c i i i i i i i i 0 9 9 0 y Z #.C.>.*.3.Z.I.I.!.Q.Z.C.>.*.d.;.[ U v i i i h y i t t w w t t i c c ",
"c n ` ) k 0 0 0 t n } m.f.h.P.Q.Q.Q.G.G.Q.P.h.;.| Y I T *.N.#.} [ U k t w i i i i k c c c k h y i i y h k v H P Y ` :.>.X.Q A V v c k k c c c c i i c c c c c c i i k c k i i w 7 6 9 i ) #.d.d.o.{ [ } C.Q.Q.Z.*.} } [ T H v c s i i i v n c i 0 0 w w 0 0 y y ",
"i i i v ) } ;.f.Z.Z.o.o.d.d.f.M.P.!.I.L.h.y.o.Q I P P P Y } >.>.#.` n k y y t i i c n n v v l l k i i y j j l v H P P T | | [ Y Z j j j k c c c i i i i i k l l i i l k i w 0 9 9 w k H [ #.f.d.o.Q Y U U ` ;.;.| ) K n v c c i i c c v l l i w w w w w 0 9 9 0 ",
"t t 0 0 t n *./.{.'.C.#.o.o.#.m.Q.Q.G.u.7.E J b l j i k v K U ` o.X.Y n n l h h k v l l v c c c c c i i y h k c i i c v n Y #.$.T P H n c c b n v c c c c c c k h y i 0 4 # # 5 t K *.P.h.;.#.[ U n c i i v [ #.X.Q I H c i i c c c c v l l y y i i i i 0 0 t t ",
"9 9 9 0 w H *.!.].].!.P.h.d.d.h.L.h.| Y v k k k i k c c c c c v l H [ [ H j k c n n v v l l l l k i i k c v l l i i i c c v n Y #.#.Y K n n v v c c c c c v l l h y 0 5 O O 5 l #.P.h.d.#.[ U H n v i i k l l H | #.[ K k i c k h h k v c c k i i c c i 0 0 t t ",
"9 9 0 i ) >.C.Z.Z.Z.f.d.d.d.d.;.| Y Z l k k j j j l b n v c i t t v ) } [ Y K b l j i i c v l l k k j j c k l j i c b v i i j j l K O.} K c n v i i y y i i i t 0 0 t c n U U ) o.d.o.Q U b l j l l k i k i i v [ } Y v i y i c v b z z n n l l j j v c y w 0 9 ",
"9 i K [ #.*.f.f.d.;.o.Q I P H n v v j j k c c c c v n n v c c i i i i n [ } T H v v n n n n n b l j k c c c n v i y j j l l k i y 8 y z ) ) v i c c i w 7 6 0 0 t H ;.;.U v n K Y Y K n v v l z n b h h k c i v ) } ) K v i i i i c n n z l v c c v l k w 9 4 4 ",
"9 i ) #.X.{ | [ ) U b z n n z l v k j j l l l l v v V V v c c i y y y v ) } [ ) K n c i i i c c i c c v l l j j i i i k j j h y 0 9 9 i ) [ z y 0 9 5 4 4 4 9 c } m.#.[ K v h h l z z l k v K U I H v c c c c c c n ` [ U v c i i c c v l l k c c v H z w 9 9 9 ",
") Y I I Q Q A V k k l l v v l l l l v c c v l l l l v c c v l l y y k z P T $.>.} U c t i i i s c c c k j j k c c k j j k i i t 0 9 9 i ) >.C.} n w 9 9 w b } C.>.#.#.) i 9 9 0 i v l l k v U W R S H H V V l k y l [ } K c i i c c l l l l k c c k j j w 9 4 # ",
"| [ I P H n c k c v n n n n n n n b z l v v l z n n n n z z b n n v c c c v n ) #.} n w 0 0 0 t i v n n z l l l k c c c c i 0 9 9 0 t n | G.Q.M.X.{ } } { o.d.f.*.} ) n t 9 9 0 c v l l j V K Y Y K b v V V z i 0 i Y Q H l v c i i v n c i i i i i y 7 5 5 4 # ",
"} } [ Y n c c i i c n n n n v v V V l z n n z b U U K n z l v c v c c c c k l z n ) #.| z h k c c i c c c v l l k c v v h y t t i n } m.>.#.#.} [ [ >.C.C.Z.Q.Z.*.` n c i t w i v n n n n K U U K n n n H b h w 0 0 t n { X.K c i t t t t t t t 0 9 5 5 5 5 0 0 ",
"| } [ U c i i i y y l z z l l z b n n H P P H n n K ) Y Z j k c c c c c c c c i i c n U [ } } ) b c c c i i i i i t i i i t i n $.Z.;.~ q.7.R U U U I T $.3.#.#.| ` n k y y i c n n n n v v n K n n v v n v t 9 9 0 t v [ *.f.{ H i 0 9 0 0 9 4 4 5 5 5 0 k ) } ",
"| | T H k t i i i i l l l l k c n H n n n n n n n H U U K H n n v v n n v c k i i i v n v n Y [ } ` v i w w t w 5 5 w i i K } C.C.>.#.#.h.h.| Y A A H P H U [ } [ ) n c i i i i l z b b l l n H H v i i j j y w w l ` $.C.>.#.#.;.;.#.| O.} } } O.} { { *.>.>.#.",
"| [ H l k i i i i i l z b b z l V A P P H n n b l Z P I D A v v n n v c c i y y i i i i i k l z H T X.[ n t 9 5 9 0 t n | >.} ) ) K v c n n v v c c v c v K [ #.#.[ U v i i i k l l j j h h b H n v i t t i i v ` #.X.{ } } [ [ } } [ ) ) U b H [ } [ | >.C.>.#.",
"[ Y J V v c c i i k l l l l l l l z n H P P H n n K U U K n v v A S A V k s c k j j y w 0 0 t i i i i n } } n t 9 k [ N.>.#.[ U v i i i c v n n c c c v H P H Y #.>.} Y n c c c c v l l i y V V i t 0 0 i K $.m.} [ } [ ) U P P H n k i i k i v K Y I P H ) #.C.",
"C.*.X.Q I H v c i i c v l l k k l z n n H H n n n n n H n n c k c v z l k i i i i i i i t t t t 0 0 y y k K #.Z.f.o.o.{ [ ) n v c c i k c c v c c c c i i i i v K ` :.#.) n v c c c c c i i i t 0 9 0 v #.C.} [ Q Q I Z l h l l v c c i y y y h l l j j l z n K ",
"z H [ | T H v k i i k k j j j j l z n H P P H n v v n n n n l l v v n v c k l k i t 0 0 0 0 i i y y y w w i c K X.d.o.[ Y K v v n v c c c c c c c k V V i t t i c v n ) #.| K c s i i w 7 6 6 w i n } >.#.} [ U k y i k i i i i k k l l i w w i w y y y y i l l ",
"j j l H [ ) v i t t t y j j l l j l b K U K v v n n n n n b h h l l c i w 0 0 0 w i i i i k l l k i 7 7 w w i n O.C.>.| U n n n c i i c n n c i i i i k c k y y i c c c v K $.*.U c i w 0 0 i K ;.M.*.#.{ Q U v c i y w w y i k l l v c i i c c i k l l l l k i ",
"w y j Z [ [ U n v c i k l l k k l l v b K U K b z z n n v k i k n K U U P Z j j i i i i i c c k y w 5 5 5 y Y #.C.M.r.E G c b n v c c c c c i i i w w w i i i k v n v c c c v U >.>.U c c n } >.#.#.#.#.#.) v i i i y y i i y h l l v k h y i c c v n b z l k s ",
"w i v n v K | | K k h y i i i i l l v v n n c k k k j Z W Q Y U ) Y K n k i c c i w w w t i j j i w 5 5 w b [ *.f.;.| K k i c c c k i i s s i k j j i i i c v n n n v v c c i n | C.C.C.C.>.X.{ { { } { 8.E G k h h k c c c i i i k j j k i i i i i i k l z n n ",
"l l i i t t i v [ [ n i i t t t t i i i w w k v H P Y Y I H k k b K n b l j k c i t t i i i i i 0 9 0 c [ m.f.d.o.Q H l i t t i v n v c c c i i c c c v n n v v n K U K A V v c c K >.Q.G.C.>.} ) K n v v c c c c v l l v c s k c v n n v c c v n n v v n n n n ",
"v k h y 0 9 9 i U } >.#.K s 0 0 w y k z K U K n c k l z n b h h b n z l i w 7 w i i i i i t i t 0 i ) } [ | ;.o.` K b l y w t i v n v c c k w 8 j l b n n n v v n K K n H H l j i v [ >.C.>.} Y v s i c c c c v A A v c c i i c v n n n v c c v n H P P H n n n ",
"c c i t t w y z O.G.Q.G.>.) k 0 w t i k l b K K v k j j l l k k v n v c c c i i i i j j i i i t 0 i ) #.} { E L G c c k y w w i c v c v n n v c c i 0 t v n c c K U K n n n n v i v | M.r.7.W K v i i i c c j j l v c v l k i i c v l l v c i i l z n n v c c v ",
"w w 0 9 9 i ) #.>.*.f.d.#.} #.) i 4 9 t v n c k i k l l h 8 7 w k c c i i i i c v b l j y w w 0 5 w Y } [ Y l y i t y w 0 0 6 y v n n n n b l j y t t i c c i i v n n n v c c c t v [ *.#.[ K v c i i c c c c c c v n n v k i i k v l l k c c c c v l l k k l l ",
"6 w w t i n | F.F.C.#.| I I Y [ } ) v t 0 w u j h y y h l k i i c c c i y y j j l l v k y w 0 9 5 h Q ;.| U k w w w w w w w w y l z P P z l v c i i v U Q I h w i k l l h h k i 0 i ` e.7.E G c s i i c c c c i i c n n v k y y y y y w w w w i l l l l l l k i ",
"w i i K | f.*.*.f.d.d.o.T P Y ) ) ` [ [ ) H y 6 w t t w 7 7 w i v H A A u t i k c c c i 0 9 5 5 # 0 K [ ) H l 8 0 0 w w w w 0 w v K U U K n c t 9 i Y } [ K i 0 i v l l k i i i w l } >.} Y c i i i i i i i i i i i c v v k h h l l i w t w 5 0 h l j j h y y t ",
"c K $.G.Z.m.f.;.o.Q R A v c i i c c i k H I Q I l y 6 5 6 6 6 7 8 y i i w w w t t t t 0 4 4 9 0 6 k ) | I Z l y y y y 8 7 7 6 w i v K U K n c c c v n K U K v c l l V V v k h w 0 i T { [ ) b c V V i i j j k c s s c v n n v k h y i k c c i i l l h y 0 0 t i ",
"Q.Z.#.} { Q Y K v k k k c k i i i i i k Z P H U [ ` v 0 % + 5 5 6 7 w w 0 9 9 9 9 9 4 # # 4 5 k ) #.#.[ Z j k v l l h h l k y w w y k v K U U U K n v v n n c c c v v c k i i w 6 h Y } [ Y n c k i y y i k c c i i i c c c i i j j h h k c c i i i w w 0 w l z ",
"d.;.` U b l v v c c k c n n c i s s i i h h k k l P X.X.[ K w 4 4 9 0 9 @ O # 4 4 # + O O 9 n [ #.#.X.Q U H A V l l y w y y w w 0 0 t i v K Y ) ) U K n n n c c n n v k h y i t w k ) } [ Y v k j j y w w i k c i t i k l l i i i k l l v c c i i t 0 i ) #.Z.Q.",
"! Y n v l l k k l l h h l z b n v v l l k i y y i k l P #.C.C.>.>.>.>.>.#.| { Q Y Y U U U K K K [ #.m.>.` Y R S Z k w 0 y y i i i t w y j Z H P U U K n n n v v n n v c c i 0 9 9 i ` #.T Z N j i k l l i i l l y y i c n v i i i k h h k c i y y h l P #.C.f.d.",
"k k k c c v K U K n v v n b z l v v l l l l i w 0 0 w l ) #.C.u.8.E ! ! 5.E Y U P P U U K v c c n U Q X.#.#.d.X.K c i i i i i w w w w i v n v v c v n n n n c c c c c c c i 0 9 9 c } *.T H k i i c c v l l h h j j y y N V l l l l l l i i i k c K X.d.d.;.[ ) ",
"j j k i i c n n z l k k l l l l k k V B N j y w 5 5 9 i K [ { ! ! Q I I A B j y y i i w 0 0 6 y v H P P H U #.G.!.m.H y i i y y i i t i j l v c j l b n z l k c c c c i 0 0 t i i K #.>.[ U K v c c c v l l v k y w w w 7 y l l v k h y i i k K } *.X.Q I H k i ",
"y y y h l l v v n b z z b n c i y h l l j u 7 6 0 0 w c U W R A l i l l i i i w 0 w u u w 9 9 0 i k l k w t v U [ | #.} [ Y n v n v c i c v n n n n n H P H v c c c i t t t t b } m.>.>.C.#.Y n v c c c i i v v y w w i k l v c i t t i l P X.X.T I Y Y H l h y ",
"8 h l l k c c v n n z l k k i k l l h y 0 0 9 0 w v ` | T P H v t 0 w w w w y i t t i w w 7 8 h l l i i w i c l l l v n Y ) ) Y n c i t i c c v n n n n v c c c c i i t i v ) #.{ { } #.#.*.d.o.T H v c c k i y w w w t t i i t t i c K #.*.T I P H k i y h k i ",
"j j l l k c c v l l v v l l l l v k y y t t i v ) } [ ) I P H v y 7 w w w i k l l l c c c c c c k c c i 0 w k l y y i c n K U ` m.$.n i t i i c c v v c c i 0 0 w w y z { X.Y H S R Q Q Y Y Q o.#.#.} ) n c c i w 6 0 9 9 0 t i i K ;.v.o.Q I H l i i i l l v c ",
"c c c c c c c c k i i i c k j j y y j j k K } #.T I | #.X.Q U v i w w t t i i k i k l l j j j l v v l l i i i i y y i i s k l b U [ m.O.v 0 t i j j k c i 0 4 4 t n { o.| ) ) Y H l z l h l U Y I P P I [ ) v t 0 9 9 9 4 9 w v ` #.>.#.T H v i i i i k l l i i ",
"c v n n v k h h k c i i i i i i t i i K #.*.[ Y P P H U [ [ H l y w t t t i l l i i l l j N Z P U U K v i i k l l l l l k i y h b n K ) #.[ i 4 4 5 0 q < < r b } >.} Y I H v c k k i i i i i i i k y h l H [ ) v t y l ` #.>.>.>.#.>.| Z j k i i i l l j j l l ",
"l z n v i i c v l k w 0 w y i c c K | e.q.6.4.R Y K b H Q Q I H z k w 9 9 w j u w w k z H P P P H K U K k y k v v v n n l l l l k c v n v K $.O.g : * = e n } >.| Y I Z N j k c c c i i i i i i y w 0 9 9 w j Z Y [ X.;.m.C.F.>.| | ;.o.H l k i i k l l h h j j ",
"l l k c c c c c c i 0 0 w y c K O.>.| Y I P z l h l Z P H K Y Y H k w 9 9 0 8 h k k h h k k h h k v K K l h b n v v n n v c c c c c i t t i i K O.} n n | u.r.5.S Z Z l i i V V v v l l v i 0 0 t i w 6 5 5 i k i y i H X.f.Z.u.E R W Y H l l l n n v v l l l l ",
"l l l l c c c i 0 0 t t i n } >.X.Q I z y 7 w y k l l l k i i v ) ) i 9 4 5 w y 6 6 7 h k c k k b K U U n H Z V v v n n n v h h l l k i 0 0 t v [ >.C.m.f.d.o.Q K b l j k k j j l l i i c c i t i i i w 5 5 t t 0 0 i c n ) m.M.Q P H H Z V l v n n v c c v n n ",
"k i y w w w 0 0 t t i b [ | T I Y Y v t 0 0 y y 0 y N N y w t i l b K U U K K n i t i k V B B Z H K Y U c i v H n n n b z l k k c k i w t t i K #.Z.Z.C.#.] J V i i i k c v l z b H n n v c i t t t w w w y j j i t t i k I d.v.o.{ | ` H l v v l l l l l l v v ",
"k i y w 0 0 w w y z { ;.X.! I P I P z k y y l l y y i i i w 9 0 k k 0 0 i K #.#.) n n b h h l z n n z l y i b b h y i i l z l l h y 0 9 9 i ) #.d.d.#.[ U n v k w 8 j j l l V C C V l l l l y w w w 5 5 5 5 w i i t t i v H P T $.>.} ) K n v v n H Z V c c l l ",
"l k w 0 w t t n #.C.#.#.Z.Z.#.} } ) v i k l k i i w y w 0 9 9 0 w w 5 5 6 k Y #.>.O.U z v c c v l z l l k v H P H v k c v b z k y y y y i n [ *.o.Q U n z l v k h h j j l l k k k i 0 0 y y y w w w 5 5 5 5 w i i c c c c c n n z H } | H l k k k c c c i i i k ",
"y w w i i n ` } ` ) ) [ ! X.m.>.} ) K b h h k i i y j j i w 5 5 w w 5 5 w i l b U [ m.*.Y n c c n n v k i i l l j j h h k c i y y y k n ` #.f.e.8.E S V l z n n n b z l h h j j c i 0 7 h l i t t i i i w w 7 w i c c c i i l l l H #.*.T P P H z l k i t t i i ",
"w y i n ) [ T P P H A A S R { ,.L.d.Y H P H z z n n v c i w 5 5 w w 7 7 w y k v n n K U Q { #.[ H l k i i t i i y w 7 7 w w 7 6 0 i ) } T T | ) v i i k l l l l l l v v H H v c c i 0 w k l k i i i y y w t i i i i i i i i l z b n n ) *.m.[ U v c i t 0 9 9 0 ",
"i n { o.T P P H l k i i h h b H P Q f.m.[ Y P H v v l l k i 0 0 t i i i y h k c i k H H v n Y [ X.;.;.! l h h h i t 0 5 0 0 0 w k H | #.[ Y I H k i i c c c c k l l j l l v v c c i t y j j k i i i i i i i c c c c c c c l l j h h b n z P #.#.U l i w 5 5 9 9 ",
"3.*.X.! I Z y 7 w y w w 7 7 y l Z H b U C.P.Q P H v c i i i y y l l i w w i v b l j i i c v n b h h l P X.;.#.| ) ) ) Y K K Y ` } #.m.m.#.[ I H l i i c c c c c k k b b z l v c c c i i l l l l h h k v V V H n v c c v H P H n n b z l l l k K | } n t 0 w i i ",
"#.#.o.Q U v i y y y i i k z b n z l l z n Y o.o.P l h y y y N V z c i w 5 0 k l k k c c c k l k w 9 9 i K #.Z.=.I l l z H P U K V Z Y | ;.;.` U b l c c c c c v l l j l b n n b z l v v n b z l k c n b k i l l k c c v n n v c c v n b z l i i i K | C.C.C.C.C.",
"d.o.o.I l w w i l l k k l z n n c k n n n Y X.o.T P z l h y y y j j y t t t i i i i c c c c i w 0 0 w l T o.#.[ Z N B B N j k c k k b K U ` >.#.P l k s s c c c c c b n n n z z b n v v n n z l c v H H v c i k v b l l b n v c c k j j l k y w 0 k [ Z.Q.Q.G.C.",
"o.Q H l v c i i i i y w w y l l i i v K U U b P O.#.T H v k i y i k l k 0 0 i c c c c c c k y w t i c K [ { E S j 8 8 y y y y y 0 0 0 0 w v [ O.) U K n v v n n c k c v K U K n z l j N B Z H n v c c t 0 w n K v v K U b l v c c i y h l l h y w w t n >.Q.G.C.",
"! T v i i i i i i t t y y h l l i i v n n n n n v n Y Y l 8 7 7 8 y y w 0 0 i k i i i i i i y h k U *.Z.#.[ J N 8 7 w w 7 7 i i i t w w w l ` } T I A C C V l l h h k v n n n K U K c k v H H n n v w 0 h l v v c v n n H n v c c v n n n n c i 0 9 9 c } Z.f.d.",
"P H v i j j h y w y j j y y l l y y k v v l j j k v T Q H l l l h 8 5 5 0 y k k i w w w t i c U *.M.o.Q U n c i i i y 8 7 7 8 y i i y 8 j j k H T { Y K b k h h l l c v n n v c c i i i l b U n i i K K i 0 i v l l v v H P H n l l l z n n z k w 9 9 i ` *.o.! ",
"k i i y y y w w w i i k V V l l j l b n n v k i y y h l I T H l j u 6 5 9 w u j k i w y j P *.M.o.! [ U c t w i i k V V k k V B j 8 7 7 w y w l ` #.#.[ K v v c i i i c n n v z V V k c v n n H V V v k 0 7 h l k c c c v v n n v c v v c c k i t w t b { d.o.! ",
"i i i i i y y y y y y h b H P Z N l b n z l v c i t t w w l [ [ K k i 0 5 5 w i l H ) | { o.d.o.R B N j y y j j k c n n c i h h l l j j y w w w t n O.O.n t 0 0 i k j l b n z z b n c i k c c v c v c k w w l n v v n n n n v v l z n n v k w 6 5 y I { o.! ! ! ",
"l l k i i i i k l l l v n n n b z z K U K v i y y 8 7 6 0 i T o.o.T v t 5 0 i H { o.` Y E E W Y l y k i i i c v l l v v l l l l k k j j i t 0 9 9 c } :.K c t 0 t i l l k c c v l z n n v c c c c k l l k c n n n n n K U U K n n n v k y w w w w v ) #.o.Q U n ",
"j j y w w i c c c k l l v v n n z l l l v k i w 5 5 w w i b { d.d.d.*.O.{ ! o.X.` ) Q W Z j y i i k l l i i c c c v n v w w k l v c c c c i 0 9 6 k [ >.C.>.#.} [ Y H l v k i i v n n n v c c c k k c k i i v n n n n n n H Z Z H n v k y y w k ) } { { [ U c t ",
"y y y h k v l z n H V V H K U U K v c i i y y y 0 0 t v T o.o.h.L.L.h.;.| [ { { [ Y n c k i i i i k V V k i c c c v n v t w k l V V k i i t t i l P #.C.>.#.{ X.>.>.#.) v i l l i i c v n n v c c i i k c v n n n n v c c c c v n n v i 0 9 4 t ) #.[ Y H l i t ",
"w y i k l z b n H n c k l z n n v c i w t t i l I { #.#.#.[ I T o.d.#.#.>.>.| ) ) K v k h h j j j j k i y y l l l l l z b n v k y w 0 0 t i c K X.d.*.#.| Q A J [ } } #.>.} n i j l b v h h b v i i i i i i c v v c c c c v n n v i w 0 9 9 0 k T { [ Y l y i i ",
"t i i k j l b n H n n n n n n v i i y y h l I Q [ [ } } [ Y b z n K ) | ;.d.d.o.T H n v j j y y i k l l k i i k j j k v c c c i i t 0 t k K O.>.X.! [ Y n v c c c c n K K ) >.#.n i i c n v k i t w w w t i v n v c c k j j j j w 0 w w 0 v #.P.h.;.| K k w t t ",
"t t w i k c v z V Z H n v i t w u j i b { o.` U K n v c i i y h k n T ! ~ o.#.| I I [ ) n i y y j V H n c i j j k k V V k i i t i v ` #.{ o.;.o.R V i i t i i i i c c v n H P T #.>.#.} Y n c i i i i t t i c c c c c c c c i t 0 0 w n #.P.I.U.h.X.P l k i i w ",
"9 0 w y y h j j l l l l y w t t i n } #.` Y Q T H k w 0 t i c K X.o.o.! ! Q ` Y K K Y [ [ [ I I S S H v i t i i i i i i i i i K $.Z.#.{ 8.E I H l i w 6 0 w i c i i c v l V H U K K Y } G.*.k 5 0 t t w 6 w k c i i i i 0 0 y y 0 v O.Z.h.f.*.,.Z.m.Q H v i y w ",
"6 7 w i k k j j l l i i t w y b { f.*.[ H z n v t 0 9 0 y Z o.Z.h.o.` H l y y y y i c v n U } [ P z v c i w 0 0 0 0 t i l H T { } } [ ) Y H l y y w 7 6 w i c c c v n n n n z l k c c v n Y #.' p ; 9 5 + + 0 t 0 9 9 9 9 0 t n #.m.} [ } O.{ ! o.~ ! Q U v i t ",
"i i 0 w k l l l h y k c c H { M.!.!.G.#.Y b l h y w t v { o.E R W U l y t y y y i i i i i c n _ 2.2.U c i y y y y y i v [ } ` Y I H k y 7 7 5 6 7 y w w 0 0 w y y w t k v n n n c i 0 0 w k U | ;.Q i # + O + @ * * @ % 9 c } 3.#.} { ! ! Q I I Q Q I I Q Y n v ",
"c i i t t i w w 7 7 w z { f.m.m.h.;.| | #.#.{ I l l I { O.[ I Z l h j j y i i i i i i i i c n b h z } >.#.#.;.;.#.#.#.#.#.#.{ Q U n v c i t w w w w 0 9 4 4 4 5 5 0 t c c v n v i t 0 0 6 y b Y } #.} [ I I [ #.O.O.O.#.#.#.C.>.` K v c v v c k c k k i k b ) } ",
"} Y i 0 t w 7 7 w y l I d.v.o.o.d.h.L.I.Q.M.o.! Y [ >.:.` U b l j j j j k c c c c c i i c c c c c v U U K H A R &.C.#.} [ ) ) K b c c c k i 0 0 t t 0 9 6 6 w w t t t i v n v k y y i k l P #.C.>.*.;.;.*.>.Z.Q.Z.C.C.C.>.| T H v c c c c c c c c i t 0 w i c v ",
"0 i n K c i w 7 w n #.P.h.f.m.C.>.#.#.*.C.m.X.Q U H P I Y U P I A V l l v c c c c c i i c c c t 0 0 k l k k c n Y } C.Z.o.Q U H l j l l j u w 0 t t 5 4 9 9 9 9 9 0 t i c c i w 5 5 w v { d.d.d.o.Q I T o.f.C.m.X.X.#.{ R S H n v c c c c c c c c i i w 5 9 w t ",
"9 9 9 c [ >.#.} } } #.$.d.d.#.#.#.>.C.C.f.f.m.#.) U U U P I [ [ T P z l z z n n v c i i c k i w t i c c c i i v H I ) } C.C.} ) K n n v i i t t t 0 4 + X O 0 t 0 0 t i i w w 7 w i c K [ e.l.w.0.Q I H z H | #.| Y I H v c c c c v n n v v l l l l k i t t 0 9 ",
"9 9 5 9 i K #.Z.Q.P.h.f.*.>.C.Z.Q.Q.Q.m.| Y K n v v v v n n z P X.X.` U U K b c i t t t t i i i t i v n v c i i c v v n U ` :.#.) n z l k i i i i t 9 + X O 0 t 0 0 t t 0 0 t i l Y J.'.!.b.).z.{ K c t w v { d.o.[ Y K v v n n v c c c c k h h k k h y y w w w ",
"4 # # 5 t b ` #.#.*.Z.Q.G.C.#.e.x.w.4.A j k v b k i c c i i k c c H X.X.K v c c c i i i c c c t 9 0 k n v c i i c c c c n n n Y #.#.Y n v c i i i i 0 9 5 6 8 7 5 4 9 0 0 0 i K C.!.L.f.#.} [ ) K n v c i c n U } O.) K k i i i i c c c c c k i i i i i i i i i ",
"9 9 9 i ) *.f.;.#.*.L.U.U.L.h.o.T P H v k k n n v c c c c c k i w l ` | T H v c c c i i v n v k w 6 6 7 y y y t i i j j c c c c c K | O.P l k i y w 0 9 4 4 9 5 + + 9 k ) #.#.>.Z.P.h.X.H v K Y ) U b l c c s b ` [ K c c i i i l l i t i i w w t i i k j u w 9 ",
"# 0 H [ #.*.f.d.o.! ! Q I P H H z l h y y i l l k i w 7 w y y 8 8 y k n T T v i c c j l b n n v i t 0 0 w y i c c c c c c c i t 0 0 t v ) ) b i y 7 5 +   X 4 9 4 w U | { o.;.o.T I I I P P H K Y Y n c c c i v ) [ ) U b l c c c c k k l l i i i i i i i 0 4 # ",
"9 i K [ { { ! Q I P z z z l l z n n z l i i l l h 7 5 5 w y y y y w w k U [ [ Y n c c c v v v c i i c c c c c c c c c c c c c t 0 9 9 i ` } Y n k 0 # X . & 9 t v K U ) ) Y I P z z P P H H A S D L H n v c c k i k Y ) ) K v k c c j j k c c i i i c k y w 0 9 ",
") ) ) ) ` Y Z j k k k k l l l z n n z l h l Z P z k y w 8 h b b z l l z K [ m.m.[ K c i v v c i i i c c c i i c c c c c c c i t 0 9 9 i ) m.G.>.U i 9 4 # w I Q U K Y ) ) U b l v n U U K n H K U U b l k i y w 0 i K ) K b l j k c k k j j k i i i y y y w 5 5 ",
"{ Q I I U U b l l l l l l z b n n n v v l z P Z l 8 7 7 8 h b n v k h h k v n Y X.[ k 0 0 0 t t 9 9 i c c c c c c i y y i i 0 9 9 0 t n | Z.F.C.C.#.) ) [ } } [ ) U K K U U b z K ) [ [ ) Y ) ) K n n v i t w w 0 t n U n v c i i t t t i i t t t t w w 0 9 5 5 ",
"} } [ Y H l k k l z b H P P P Z V l b b z z n b j j y y k v n n c k c c c v n n z P O.[ c 0 i c c c c k i i c c k k c c i t 0 0 t n | C.>.#.#.#.O.} #.#.#.#.#.[ U v k k n H P P U Y Y U K U Q Q K n v c i t t t t t w l [ [ H l i w 0 0 w w t w w 6 0 9 9 0 t i ",
"} } { T b k c v n n n n n n z z H H z l l l k k h 8 7 y v K K b l j j l b n v k l Z U ` #.#.[ K i 0 t t w y k l h y i t 9 5 4 i [ C.>.#.| } [ Y K K U ` :.>.X.Q I H v v n K U U P I A A Y ) K n v c c i 0 9 9 9 5 9 w n O.C.>.[ K c i i i i t 0 w w 0 0 t b [ #.",
"#.} [ Y b l c v H P z l l b Y W E R H n v v n v h 8 w k K Y U U H n n b l N B A U U K n z H Y ` .._ n i 9 5 w t 0 9 5 5 9 k ) } [ [ } [ J C N j k v n H P T O.| H l h l H U P P P P H K Q Q K n v k w 6 0 9 > > 9 i ) #.#.#.[ ) ) ] [ } } } } } O.} } O.;.f.m.C.",
"*.| ` K k i i c c v l l v v H P H H n n v v n v y 7 w l A D I I I P H n n n n K U K n c c v K Y ) #.W.3.x > 9 9 4 # 4 w P ! { ! R A v c c c i i j j k k l H [ } T I S A H K U U b z n b h y y y i i i t 0 , * 3 ' >.X.{ { { | { E E I P H n z b U ) } *.m.m.f.f.",
">.O.` U z l c k V V v v l l v v l l l l v v l l h w 0 y A F F F F R H H Z V v v n H n n c i k c c c v K T I k 9 ; 2 U Q I I Y Y K n v c i i i c c c c c n n n Y #.*.[ U K K U K v c c c c k i t t t t e < d / ..X.o.o.o.[ Y I I A B y i i i i c v K Y Y H P #.C.",
"d.;.o.Q I Z h h l z n n n n c k l l v c c v n n v k w y l Z P J A A H n n n v v n n n b l j k i i i v b h z [ >.#.$.Z.C.} Y l h k c j j k k c c c c c c c v n K U [ m.,.) v y 7 w t t t y 8 8 w 0 9 1 3 a b U ) ) Y Z j i i l l h y y w t i i i 0 0 w k v H K K ",
"n Y X.;.| U c t i c n n v c c c k i i c c v n n c t 9 0 l H A A J P H n n v i i c v l l l l l l h y j u w 0 i n T X.#.} [ Y b c c s i k j j k s i k V V l l k k l z H U Q P f $ # 4 # % 5 5 5 , = 1 x M ) ) ) Y n c k k c c c k l l i t t t t t 0 0 7 h l z n n ",
"c v n U [ ) i 0 w y i k l l l l i i c c k k c c c t 0 w k z P Z Z j j j l c k c n n z l v c v c i i i i 0 0 t b [ >.C.:.` K v c c c c c c c c k j j k k c c c c k c n v i c K n 9 O O + 5 5 + , p ^ ' } } [ U n v c c c c v n b z l y w w i i i w 6 6 8 l l k k ",
"w y k H ` ` K c i i c v n b z k y y l l h h l l y w w i l z P P z l h h j j i l H H v c c l l j w 0 0 9 4 t ) #.>.#.#.[ n c c c i i i c c c k k c i w 0 y y k i i i k i 0 9 9 i ) Y t # O < m  .' } #.{ E S Z l h h b n v v l l l k w 0 w w y w 0 w k l l l h h ",
"w i l l k n { X.P l i i y y y y i i y y i k l l y w t i v n z l l l j j h y y y j j k k j j k c i w y w 0 c } G.Z.n.#.) n c c c i i i s s i h h i k j j k k V N y 8 j y 5 + o 4 v U U K v v Y ) ) ) ) Y A B j h l b U U b l v v v i 0 0 t i i i 0 0 i k j j l l ",
"l l i w t t i H X.{ n i t w 7 7 8 y y y y h b v i w 7 y v H P P P P H z h h k c l l v k h y i i i i i v T X.m.u.8.E Y K v c c k l l v c i i l l l l k k c c c i i i c i 9 + O + 5 i K Y H H Q Q U b l V b n v b Y ) ) U K n n H Z V i t i k j j i i l l l l l l ",
"l l y w 0 0 w l T X.#.` v w w w w i i i y y y y y w w y v n n n n H S A Z l i i l l l l k i i i w l ` #.#.*.L.f.Y n n n v v n H Z V k k j j l l v k h h l l v c i i i t 9 # o o 5 h Y [ ) Y E R G v l l v c c v H I U K v v n n H n c i i k c k i y l l l l v v ",
"c k y w t t i K | C.C.>.#.Y i 0 w w 7 7 6 8 j j y w 7 7 h z n n n H P P H v h h l l j j k i y 8 6 k [ >.:.} ` K v i k k l l v c c c c k j j k k j l b n n n c i i c c i 5 + # 4 9 t v K K K U K v c c k j j c b P P H K K n n n K n c k l l j j i i l l j j l l ",
"t w 0 9 9 i ) } [ [ { { [ [ [ Y i 0 t i i i y 8 7 7 w y k v v v c v n n z l y y l l l l k i y 8 6 l } >.} Y v i i k V V H n v k y y k c c c c k h h k v n n v c c v n v 0 5 9 9 9 t n ) [ [ U v c k l l b n n U X.d.*.} [ ) Y U U K b l v c c k i i i k l l h y ",
"0 0 9 0 t n | C.#.[ T I A A S E &.} n t 9 9 i i 0 5 9 w k v v k j j l z z h 7 8 j j l h y 6 0 9 4 t ) #.[ U c t i i i k h h y w 0 0 i i w y v n v c c v K U K n v v n v y 6 6 6 9 t n U I Z l y i t t k v n v K [ *.#.[ K n K U K n c k c c i t t i i k j j k i ",
"8 y i v ` #.#.} { ! ! T Z Z T Q I I [ [ ) n w 6 0 w y y j j l l l z b b z l h 8 8 h j j y w 0 9 # w ) #.[ U c w y y i c n n z l l l z l i w i k v n c c n n z l v v l l k i 0 9 9 0 c v z l y w 0 w i c v c c G E 5.! Q K n n K U K b l j j k i i i i i y w w w ",
"i v ) #.X.Q I P U K c i i t i k l l k v H I Q P q % 5 w y y y y v b z l l l y y 8 8 y w 0 9 5 5 4 t ) #.#.) c t y h k v K U U U U Y ) Y b v n v i c K K b l l v n n n b l j y 0 5 0 i v n v t 0 7 h k v l l c n Q 0.w.6.A l K U K n v c k k c c c i i w 7 7 w w ",
"#.| T P P H z l y w w w w i i k l l k k l l l H ) K 9 O 9 w w w w i i i i w 7 6 0 0 6 6 0 9 5 k Q ;.#.[ T H c i w y l l j l b n v v n n v c v c i w i l A A j h b n H n c i 0 9 9 t v H P z w 9 w y l l l l k n [ *.f.X.U n U U K n v c c c c c i t t w 0 0 t i ",
"{ Q H h 7 6 5 5 9 0 w y l l l l V V l l k k l l i v ) } } ) k w i i y w 0 9 % + 5 5 5 5 9 c [ m.f.d.#.[ Z j y y i k c v l l y y i i h h j l b v i i v b c k l z n n n n c i 0 9 4 9 v K K v 9 4 4 6 k z z l l H Q X.*.[ l y y j b n n n n v i t 9 5 9 i K [ } #.",
"I Z y 6 5 5 9 9 9 0 t i l l h j B V l z n n c i t t t K C.].!.Q.F.C.C.*.o.{ [ [ [ [ [ [ [ } #.} [ | ;.X.Y v w w k v c i i y k k y y k v n n n v i y j j h h k c n n n v i t 0 9 4 0 n U K v w 9 6 w l n n n n U X.y.#.[ K n n n n n n n n n c t 0 0 w v ) } [ ) ",
"h y 0 9 9 9 5 5 w y l z b b z z P P z z P H v i 9 4 5 k ` *.X.o.d.h.P.Q.Z.#.P z P P z z P P z H Y ) ) [ [ } #.) f < 9 0 w w w i k c l l l l l k y y v K Y Y I H v v n v c t 0 9 4 0 K ) U v t 9 5 0 v H P P H K ) ) ) K v v n n z l v c c i i t i v ) | { Q I P ",
"6 6 5 5 9 9 9 0 w y j j l z P I Y ) Y U P H v t 9 5 9 i ) *.f.t.q.5.R I D A v v l l l l y y y y h l H U P I [ #.F.#.l 5 = ; 9 y y i i i i i i w w i v H P I D A v c i t 0 9 9 0 t n O.*.T P H v i i c v K U b b U U K n v v V Z H v i t t i i n [ } ) U P Z h w ",
"5 5 5 5 9 9 9 0 i v l z b n n K ) ) K n n v i w 0 0 t v [ *.$.| J V k i k k k k j j k i i w w y i i 0 0 i c n K ) ) ) ) } ` z y 0 0 0 0 w w y i t i l z n H P H v k y w 0 0 t v { f.C.C.f.X.Y n z l c c v v c v n n n n v c c c c i 0 0 i K | :.` U b l i i y y ",
"5 5 5 5 w w t i v n n n z z P I Y ) K n c k i i 0 k ) #.o.[ ) K k w 7 7 w i i i y y i i i i i i y y i i i c c v n n c c n Y X.{ z w 7 7 w i l l c c c c c v l l y w 0 9 0 c [ *.X.o.#.#.#.#.} [ U n v c l l k k l z n v i t t i i i i v ` } [ Y I Z h y i k j j ",
"5 5 9 0 w y y h b n v v n H U Y Y U v c k k c n ` #.#.} ` K v k h 7 5 5 6 6 6 w k l h h j j 8 6 0 0 t i y y i k l l k c v K U [ ,.*.P l y y j j k c c i i i k i i q < f ' u.8.E ! { [ ) I I [ } #.#.#.[ H l v c c v v i 0 5 w t i v ` | T I P H k w w y k c k i ",
"9 9 9 0 w w w i l l k k l z P P P Z h h l I F.G.} [ } } [ Y b c k i 0 9 9 0 t k l l i i l l h y w t t i c c c c c k j j i i l l v K X.{ z y w w w i k k i t i w 9 i T ;.o.{ ] ) ) ) ) Y b n Y Y I I Y } >.O.K v n v k t 9 9 t v ) [ ) Y P Z V j h y w i l l y y ",
"9 0 w y i i t y l l v v l l l l h y 0 b M.(.*.) K n H K ) Y l y i i w 6 w t t i l l h y y y w w w w t i i i i i j j y i l h 8 7 h l z H Y K i 0 w w 0 0 t t i k K ) } } ) H k y y y i i i i i i i c n K ) } :.#.Y n c v T o.*.>.} ) ) K v k l l k i i i l l j j ",
"t y y y y w 5 7 h l l l l l y y i b _ 2.K.Q.Z.O.H l l b U U b l v i 0 % $ < 0 y y y 7 7 w w w w w w t t t i i i i i c c c k y 8 7 7 h l k n } [ c 0 5 5 4 i ) } U H P H k t w w w y y y y y i c c c c c c v n U [ #.>.*.X.X.#.#.} | { T l y l l k i y y l l l l ",
"l k i t w 0 4 5 h l l l y w 0 i K [ #.#.o.Q U b k y i k l H Y U v t 5 4 9 0 y h b n n v h y y w w w 0 0 i c v b l j l l l l h y w w 7 7 w w i K C.,.n v } >.} Y b v K K k t 0 0 w y y t t i c c c c c i i i l l k i y Z o.Z.>.| I P Y K v c c v n v i y l l v c ",
"k k i i i w 5 5 9 0 w q < r n [ >.u.7.E I P H b h y 0 0 i i i n #.O.c 0 w i v H A A H b l j l k w 0 k l l l v v l l v c k i i w 7 7 w w 5 5 w c K [ :.C.Q.m.Q H k w i w 0 0 t i j j k k y h k c c v n n v k j j i i y y h Z O.>.` U K n z l v c v c i i l z n n ",
"i k c i 0 5 + O + 4 4 0 n Y ) [ { Q U H z z l l k i i t t t 0 0 c n Y Y K n K K Y Y K n n b l j y w w y i k l l v c i y y y i i i w 7 6 w w i n [ #.#.} { Q H h 7 w t i j j 8 h b n v c k k c v n n v k h y i i i i i i i v K Y R D D A k i i k l h w w k c c c ",
"w y y 8 7 5 4 # 4 w Y } [ [ ! { | [ J V l l l k w 0 i i y 7 5 0 i v l z P T $.} b y y y i i v v c i i i y y y h k c j j l l v k y w 0 9 9 i K [ { { [ ) K n c i i i c k h y y y l l v v n n v c v v c c i i c v n n c k c c c K { o.` K v k i y w y t i i i i c ",
"w w w w 0 9 4 w P { #.$.;.t.l.l.e.) b i i i y y y y i i i t w t i i l z H I Q X.m.#.n w 5 5 6 7 w i i i i i c c c c c c c k j j y y w t i v Y ] E D Z l l l i i i k V V i i y h b K U U U K v v n n v c k k l z n n z l k i i i l H | [ n i y y w w t t t i c c ",
"w w t t i k K U K H P I Q X.m.u.8.R H b c c c k l l l l h y i c c k l j h h j V H ) >.#.n w 5 4 9 0 t t i i t y V V k i i t w w 0 9 0 c [ m.f.o.T H k t w y y y i i c v n n n H P P U Y ) Y b v H H v k j j k v v v l l k k j j i v { ;.| Y n k y w w y i k c c ",
"w i i n [ } U n n H P P U Y Q X.M.f.Q P H v i i i k V V v c c c c v n n v k h h v n K U [ } [ K k w 5 5 6 6 9 0 t t t t 0 9 4 # 5 y Y [ ) ) ` Y l h i i i w w w t i c v v v v v v l l l H H n v k i c c k k l z n n v c c c i i i c n Y #.>.X.Y n i w 7 8 y 0 0 ",
"i b { ;.| Y H l i i i y y k b H K ) #.O.K c c i i k v n v c c i y y l l h y i i i i c k h l Z I Q T H v t 9 ; * @ + 5 5 5 4 + % w b X.;.` Y I P V j y i i i i i w i v n n n n b z l k k j N j j 8 w k c c v n n n n v c c c c k i i v n K U } [ P k w 9 5 5 6 6 ",
"C.m.f.d.o.T v t w i i i i i i k l l k n [ ) v i v v h y i c c k i i v n c k c k i y j j h h l l k k c n T { | ` ) Y Q { *.:.} [ Q X.*.C.>.#.#.` v t t i i i i t t i i k i k l l v c i i l l i i w y i i y h b n H n v c c v V N 8 7 t k b n c H { [ k 0 0 w i i ",
"f.d.o.! I H k i w w t i y y i i y y y i i b Y K w 9 t i i k j j k v V V k i i k j j b n c i y w 5 5 6 k ` #.#.#.{ ! ! { } [ U K U Y ) } >.>.#.` n k i w w y k c c i y y i c n n v c c k j j k i i c n v i i v K K n v c c v l l h h k c c k i i i n { ;.#.#.>.C.",
"d.d.o.I l w 0 0 w w w t i i w i i i 0 0 i n [ [ K c c c s c c c c v K K v k l l j j k c c k h y 0 9 5 y ) | T I Q Q I P H n c k l z n H H K ) Y H h 7 6 w y l l k i i c c v n n n b l N B V v c s c n v i k K U K n z l l l v c k c n n c i i t 0 i ) #.Z.P.h.f.",
"h.o.P l i w w t t t t i i i y h l h 7 w k c v K | } n i i i i c c v l l k k j j j j j j l l i t t i l H | #.o.Q U n c k c i i i i k j j y v ) [ U v y 7 w y y y i c c c c v n n n n n H P H l k c c v c i i l z n n z z b n n H V V v c c c i t t t t n O.C.>.*.",
"d.{ z w i i i i i t 0 0 u j h y y y i i i s i k l H Y K 0 9 t s i k c v l l l l l l i w w y i i i v ` #.#.O.[ U c i i c c k h y i k j u w i ) #.[ Y l y w t t i i k l l j j l z n b l l b H l j h h l l h h b n v v c v n n H n k i c c c i i 0 4 4 9 i ` >.C.Z.",
"Y H h y k c c c i t t i c c k i i i i i c c c i i b ) [ J V i i j j k v l l l l y w 0 9 0 0 t n } #.` U U K n c i i i k V B j h l l h y i s c K } [ v w t i i k c c l l i i c v n n n b l j k c c k l l k c n n n n n n n K U K v c c i i i i w 5 5 9 i ) o.7.9.",
"c i y y k v c c c c i i c v l l i i c c c i i y j j k K $.*.K c c c c i i w w i t 0 9 5 w b } $.Q P H b h y i i i i v H P P z l v c i t t t t v [ [ H l l l h y i t t w 5 6 u j k c c v n n v c c v n n v v n n n n v v n n H n v c s s c i w 6 9 0 i v K ) ) [ ",
"i i i k l l v c c c c c c v l l i i i k j j k c s i i i i K O.| n i i t 0 9 9 9 5 w K ) Q ! { Q R A i t i i i i y h k n K K v v n n v c c i t i l H Y U k w 0 0 t w 5 5 0 y k k h h k c c c c c c c c c c v n n n b l j v v v c c i i i i w 5 5 9 i K [ } } } } ",
"l l k c c l l j k c c c c v l l k i i i j j k i 0 9 9 9 9 k ` >.C.#.U k 0 4 9 c } $.T I D D I Z l y 0 0 w i c c i i v n n n n n v v n v i t 0 9 9 i T T l w 9 5 0 9 4 5 w i i k l l v c c k j j k c c c c v V Z H n z z n H Z V k i i i i t 0 0 w l T { { Q I P ",
"l l k k l l v c c v n n n n v c c c c c c c i t 0 9 9 0 i K #.Q.].!.G.>.#.#.>.*.X.! ! Q I Z l y y t t i l l k s i k j j l l l l l l k i i t 0 0 w k Y | ;.o.! { O.` v i t t t i k v l l v i w 0 t i c c c c c v H P H n c c c c c i i t 0 9 5 w Y | { { [ Y H l ",
"c c c v l l k c n n v v v v c v l l k i i i i w 9 9 t b } C.G.!.]._.G.C.f.f.#.| T P H H z l v k j j i k V V v c i i v b V j k k l l j j y w y h l P #.m.X.Q I I [ *.Z.#.v 0 t t y y i t t t w w t i c c c c c v n n n n v c c c c c i w 5 4 4 y ) } [ Y H l v c ",
"c c c v n b l l n n n n v c c v l l i t t t i v I { | #.#.#.[ } C.Q.G.C.C.C.>.} T P U K v i i c c c k k c c c c i i c v V V l c c i 0 0 w y l H [ #.X.Q R A Z Z S E W } $.[ c 0 0 9 5 5 w w t i k l V V k c c c c v l l l l j j i t 0 9 9 0 w k Y ` ) K k t t t ",
"y h l l v c c c c v c k j j k k y w t t i n } >.[ W E E I P H n n ) m.Q.G.C.C.>.` U K K n v c c c v l l v v l l i i c v l l i t t t 0 0 i K | >.} Y I P z l j j y y j l H Y #.} b w 9 9 w i t i i k k k i c c v l l j j k c c i 0 9 9 0 6 l ) | [ ] ) K i 0 w w ",
"c c c c c k h y i c c c c i 0 9 9 9 0 v o.h.} ) ) U K v t 0 0 0 i K #.G.Z.C.#.} } } } ` K v c i s k V B C V H n v c c c i t t w 0 k ) #.#.#.#.} ) K k i i i i i t t t y l z n U T [ [ Y l h i i i c v n v c c c c k i i k c i t 0 9 0 i Y } #.#.#.} ) K c y y y ",
"t i i c c c i i c k j u w 9 9 9 0 c } >.} ) ) Y H l i t 0 0 t b } m.f.d.d.;.[ ) Y Y ) | h.;.U c c c k k c c k i t t t t t t 0 c [ >.#.} [ Y I H k i i k j j k c i t i y y y l l k c n Y X.Q l w i i i c c c l l i t 0 0 y y i t i v ) } [ [ } #.>.>.} Y Z j i t ",
"y y i k l l i i c i w 0 6 6 0 c } C.>.} U n z l y y y y i b } >.#.} [ Y H l i y y h l H Q X.*.} n i i t 0 9 5 5 4 4 0 y i H { ;.| ) ) ) K n c i i i i c v H Z N j h l l j j h h j j i i c K X.{ k 0 t t 0 0 t t 0 9 4 4 9 0 t n } #.) H A A Q { [ [ | } U n c i ",
"l l h h k c i t w w 0 9 0 c [ Z.Q.Q.G.:.) n v k i t i n } >.#.} [ Y A V k i y y i i i k V A Y [ G.C.K i t 0 9 5 4 9 t n { ;.#.} ) K v c k i i i i c c c c k k i i i c c c v l l y w 0 9 9 i ) >.C.} n t 0 0 0 0 < $ $ % t K *.Z.o.Q Y K K n n n n K U ) [ ` K n ",
"n n z l i w 0 9 5 5 # w ) :.C.G._.(.^.I.Q.Z.>.` n K | C.>.#.[ ) ) Y n k h 8 8 y i i i i i k l z H U [ #.>.C.3.*.{ { *.m.f.;.| U k i i i y y i c c c c c c c c c c c c c c c c i y w 0 9 9 i ) #.C.C.C.C.3.C.C.>.#.} } } >.F.Q.Z.} Y l h i i i i y i c v v K [ #."
};
