/* XPM */
static const char *wolf6[] = {
/* columns rows colors chars-per-pixel */
"128 128 107 2 ",
"   c black",
".  c #070707",
"X  c #00000B",
"o  c #0B0B0B",
"O  c #170F07",
"+  c #1F170B",
"@  c #000017",
"#  c #131313",
"$  c #1B1B1B",
"%  c #2F1B0B",
"&  c #2B230F",
"*  c #372313",
"=  c #332B13",
"-  c #3F2F17",
";  c #2F371F",
":  c #000023",
">  c #00002F",
",  c #00003B",
"<  c #232323",
"1  c #272727",
"2  c #2F2F2F",
"3  c #373737",
"4  c gray23",
"5  c #432F1B",
"6  c #4B371B",
"7  c #533F1F",
"8  c #473323",
"9  c #4F3B23",
"0  c #5F4323",
"q  c #474F33",
"w  c #574333",
"e  c #53573B",
"r  c #6B4727",
"t  c #774F2B",
"y  c #7F532F",
"u  c #675333",
"i  c #67533F",
"p  c #000047",
"a  c #000053",
"s  c #00006B",
"d  c #434343",
"f  c gray28",
"g  c #4B4B4B",
"h  c gray31",
"j  c gray34",
"k  c #5B5B5B",
"l  c #6F5743",
"z  c #775F4B",
"x  c #5B6347",
"c  c #676B4F",
"v  c #7B634F",
"b  c #6F7357",
"n  c gray39",
"m  c gray42",
"M  c #6F6F6F",
"N  c #7B7F63",
"B  c #777777",
"V  c gray50",
"C  c #875733",
"Z  c #8F5F37",
"A  c #9B633B",
"S  c #A36B3F",
"D  c #836B57",
"F  c #8B735B",
"G  c #AB6F43",
"H  c #B37347",
"J  c #BF7B4B",
"K  c #937B63",
"L  c #9B7F6B",
"P  c #CB7F4F",
"I  c #C39B2F",
"U  c #9F8363",
"Y  c #9F876F",
"T  c #A78F77",
"R  c #AF977F",
"E  c #CF8353",
"W  c #D78B5B",
"Q  c #DF9363",
"!  c #E79B6B",
"~  c #EFA373",
"^  c #F7AB7B",
"/  c #EBDB57",
"(  c #000083",
")  c #00009B",
"_  c #0000B3",
"`  c #0000CB",
"'  c #0000E3",
"]  c #838383",
"[  c #8B8B8B",
"{  c #939393",
"}  c #979797",
"|  c #9F9F9F",
" . c #B79F87",
".. c #BFA78F",
"X. c #A7A7A7",
"o. c gray67",
"O. c gray70",
"+. c #B7B7B7",
"@. c gray75",
"#. c #FFB383",
"$. c #FFBF9B",
"%. c gray78",
"&. c #CBCBCB",
"*. c LightGray",
"=. c gray86",
"-. c #DFDFDF",
";. c #E7E7E7",
/* pixels */
"7 C C r 0 r 7 5 5 & * * 7 0 * 0 t 0 * & + 0 r 0 9 7 7 9 & + * & * r 9 * & + & + % 5 5 5 5 & * & * * 5 5 0 5 * 5 & + & 5 5 5 * 9 9 * 5 * * & % + * r 5 & & * 5 0 9 5 * 5 5 5 & & & + + + % 9 0 7 * & 5 0 7 & % & * r r 5 * 5 & + + 5 5 0 7 5 r 0 5 * & + & * 9 5 ",
"0 C C r 7 r r 5 & & % * 5 0 * 0 r 0 5 + + 7 r r 5 5 5 9 & & + % * r 9 * + + + + % 5 5 7 * & * & * * * 5 0 9 * * & % & 5 5 5 & 9 9 * * * * & & + 5 0 5 & & * 5 0 9 5 * * 5 * & + & + + + & 9 9 5 * & 5 0 9 % % + & r r 5 5 * & + + * 9 7 7 5 0 5 5 * + + & * 0 5 ",
"7 C t r 0 r r 5 * & % * * r 5 9 0 0 * + * 9 r r 0 * 7 7 & * + + & C 9 * & + + + % 5 5 5 * * * & 5 * 5 9 r 7 5 * & & * * 5 7 * 9 5 * 5 * & & & & * 0 5 & & 5 5 0 5 9 * * * * & * * + + + % 9 5 * & * 5 0 5 & % & * t r 5 * * * + + 5 9 5 5 5 0 5 * * + & + * 0 0 ",
"0 r r r 0 r r 7 * & & & * r 5 5 0 9 5 & * 5 0 t 0 * 5 * * * & + & C 9 * + + + & % 5 5 7 * * & * * * * 0 r 0 * & & * * * 5 5 & 9 9 * 5 * & % * % * 9 5 * & 5 5 0 5 5 * * & & * * * + + + & 5 5 & & * 7 0 9 & % & * r r 7 * & & + + 5 5 * * 5 0 5 & * + & * 5 r 0 ",
"0 r 0 r 0 7 r 0 & & + % * r 5 5 0 5 5 * * 0 r t 9 & 5 9 * * * + % C 9 5 & + + + % * 5 0 * * & * 5 & * r r 7 * & & & * * 5 5 * 9 * 5 * * & & % & & 5 * * & & 5 C * 5 & * & & * * 5 + + + % 5 * + * * 7 0 7 % & & & 7 9 5 * * * + + & 5 * 5 5 9 & % * & * & 0 r 0 ",
"0 0 0 r 0 r r 0 & & + + & 0 5 7 0 * 7 & 5 5 r C 9 & * 9 * 5 * + & r 9 5 & + + + % 7 7 7 5 & * * 5 * * r r 9 * & & & * % 5 5 * 9 * 5 * * & & % % & 5 * & * 5 9 C * * * * & & * * * + + + & 5 & + * * 7 0 9 % % & * 5 7 5 7 * & + + & 5 * 5 7 5 * % * & * 5 7 r 0 ",
"0 r 0 t r r r 7 * + + % % r 9 9 5 * 7 & 5 0 r C 0 & & * * * * + * 0 r 9 & + + + % 7 7 7 * * & 5 5 * * r 0 5 * & & & * & * 5 * 5 * 5 * * & + + % * 7 & & * 5 9 7 * 5 * * & & * * 5 + + + % * & + * * * 7 * & % & * 7 0 5 7 * * + + & 5 * 9 5 5 & + & * * 5 5 0 0 ",
"0 0 r C C t 0 7 * + & + & r 9 7 5 9 5 5 7 7 r C 0 * * & & * * + & 0 0 9 & + + + % 0 0 0 * * & 5 5 * * r 0 5 * & & & * % 5 9 * 5 * 5 * * & + % % * 9 * * * 9 7 9 * & * * & & & * * + + + * * & + * 5 5 7 * % & * * 7 0 7 * & & + + & 5 * 5 5 5 & + + & 9 0 * 0 0 ",
"7 7 0 A C r 0 5 * + * + * r 9 5 9 5 7 * 0 7 0 r 7 * 5 * & * * + * 0 r 5 & + + + + 5 7 7 * * & 5 & * * 0 7 5 * & & & * & 5 7 * 5 * 5 * * & + + % * 0 * * * 9 7 7 * * & * & + & * * + + + + 5 & + * 5 7 0 5 & & * * 0 0 5 * * * % + 5 5 * 5 * 5 & + + + * 0 7 7 0 ",
"5 5 r C C r 0 5 * * & % & r 9 7 * 5 7 * 7 0 7 r r 5 5 * & * * + & r r 9 & + + + % 5 5 7 * & * & & 5 5 r 9 * * & & + * % 5 0 5 9 5 5 * & & + % % * r * * 5 9 7 7 * * * * & & & 5 * + + + & * & + * 5 7 0 7 & & * * 0 0 7 & * & % + 5 5 * 5 * * * & + + * r 5 0 0 ",
"* 5 0 C C 0 7 & * & * + * r 9 * * 9 7 5 0 7 7 r r 7 9 * & * * % * r r 9 & + & + % 5 5 7 * * * & * 5 5 9 9 5 * & & + & & 5 7 5 9 5 5 * & & + + % % 7 * * 9 9 7 7 * * & * & + & * * + + + % * & + * * 7 0 5 % & * 5 0 0 5 * & * * % 9 5 5 5 * * * + + + * r 7 0 0 ",
"* 5 7 C t 0 7 * * & & % * t 9 5 * 5 7 5 7 r 0 r C 0 0 * & * * % * r 0 9 & + + + & 5 * 9 * & * & * 5 5 7 7 9 & & & + % % * 5 5 9 5 5 * & & + % + % 0 * * 5 9 7 9 * * * * & & & * * + + + & * & + * * 7 0 5 & & * 5 r t 5 * * * * * 9 9 9 5 * * * + + + * 7 7 7 0 ",
"* 5 r r r 0 7 * & + & % * 0 0 5 * 9 5 5 0 t r r C t 0 * + * * + * t r 9 & + & + % * * 7 * * * & 5 5 9 7 0 0 & & & + & & * 5 * 9 * 5 * * & + & + % 0 5 5 9 9 7 7 * * & * & & * * * + + + + & & + * * * * 5 & % & 5 t r 7 * & * 5 * 5 9 9 7 * * & + & + * 9 5 7 0 ",
"* 5 r r r 0 5 * & & % & * 0 0 9 5 7 5 5 7 t r r C C r & & * 5 + * r 0 9 * + + + & * * 7 5 & * & & 5 0 7 0 0 & & & + % & * 0 5 9 * * * * & + % + * r 5 5 5 r 7 9 * * * * * 5 5 * * + + + + & & + * * 5 * 5 % % & 5 r r 5 * * & 5 5 7 5 0 7 * 5 * & + + & * 7 0 0 ",
"* 7 r t r 7 7 * & & & & 5 7 0 5 5 7 5 5 7 r r r r C 0 & * 9 & + * t 0 9 * & + + & * * 7 * * & * * 5 7 0 0 0 & & & + + % * 7 7 7 5 * * * & + + * 5 r 9 5 * 9 7 7 * * & * * 5 * & & % + + + + & + * * 5 * 5 % & * 5 0 7 5 & & * * * 0 5 5 5 5 5 * + + + & & * 0 0 ",
"* 5 0 t r 5 7 * & & % % 5 r 7 7 5 7 5 5 0 r 0 t r C r & & * & + * t r 9 * & + + % * * 9 5 & & & 5 5 7 0 0 0 & & & + % % * 0 0 9 5 5 * * & + + * 5 r 5 * 5 0 9 5 * * * * * 5 5 * & + + + + + & + * * * & 5 % % * 9 7 0 * * & * & * 9 5 5 5 5 7 * & + + * * * 7 0 ",
"* 0 r t 0 7 7 * & & & * 5 r r 9 5 7 5 7 7 r 0 r r C 9 & & 5 & + * C r 5 & + + + % * * 7 5 & & * * 5 0 7 0 r & & & + + + & 0 * 5 * * * 5 & + + * 5 r 5 * * * 9 7 * * & * & 5 5 & & % + + + + & + * * 5 * 5 % & * 7 7 0 5 * * & % * r 0 5 5 5 9 * & + + & * 9 0 7 ",
"* 7 r t r 7 0 5 & & & & 7 r r / / / / / / / / / / / / / / / / / / / / / / / / / / / / / / / / / / / / / / / / / / / / / / / / / / / / / / / / / / / / / / / / / / / / / / / / / / / / / / / / / / / / / / / / / / / / / / / / / t r 0 9 5 * 7 * & + + * 5 5 0 7 ",
"5 0 t C t 0 t 7 & & & % 7 t r / I I I I I I I I I I I I I I I I I I I I I I I I I I I I I I I I I I I I I I I I I I I I I I I I I I I I I I I I I I I I I I I I I I I I I I I I I I I I I I I I I I I I I I I I I I I I I I I I t r 7 7 7 5 7 * & + + * 5 9 5 7 ",
"5 0 t t r 7 t r * + % & * C t / I I I I I I I I I I I I I I I I I I I I I I I I I I I I I I I I I I I I I I I I I I I I I I I I I I I I I I I I I I I I I I I I I I I I I I I I I I I I I I I I I I I I I I I I I I I I I I I I t r 0 7 7 5 7 9 & + + * 5 7 5 5 ",
"5 7 C r 0 r C t * + + & 5 t r / I I t t t t t t t t t t t t t t t t t t t t t t t t t t t t t t t t t t t t t t t t t t t t t t t t t t t t t t t t t t t t t t t t t t t t t t t t t t t t t t t t t t t t t t t t t t t / I I t r r 7 7 5 0 * & + & 5 9 5 7 5 ",
"5 0 C t 9 7 t t * + + & & C t / I I t       X X X @ @ @ : @ @ : : : : : > : @ @ @ @ @ @ @ X X X X X X @ @ @ @ : : > > > > > , , , , , , > > > > > > , , , > > > @ X X X X X X   X X X X X X @ : @ : > , , p p , > @ X X   / I I t r r 9 5 5 0 * & + * 5 9 5 7 5 ",
"5 5 C C 5 9 r 0 * + & & 5 C C / I I t   X X @ : : > > , > > > > > , , > > @ X X   . X X   X @ @ @ : @ @ > > > > > > > > > > , , , > : : : X X X X X @ @ X X                       X X @ @ @ X X @ @ : > > > > : X X       / I I t r 0 7 9 7 r 5 & + * 5 5 0 0 5 ",
"7 5 C C 7 5 r r * + + % 5 C C / I I t   X @ : , p a a s s s ( ( s s s s a a > @ - 0 0 6 - $ > : : , p p a a a s s a p a a a a > : , :                                       X @ X @ , p , : @ X X @ X                     / I I t 7 7 5 5 0 r 5 & + + * 5 0 0 5 ",
"5 5 t t 7 5 r r 5 & & & 5 S C / I I t   X @ : : , p a s s ( ) ( ( ( s s s p : & y C C C Z y 7 = o X : , p p a a a p , > > > : X X : : X X   X X X X X                     p s ( ( ( ) ) ( s a a p :                       / I I t 7 0 9 5 7 0 * & + * * 0 0 0 5 ",
"* 5 r t 7 5 r t 5 + + & 5 S C / I I t     @ @ : > > a s s ( ( ( ( s s 6 6 6 - 7 C A Z S H H H S A r -       @ : @       X         X         X X X X X     X       X @ @ , s ) _ ` ' ' ' ' ` _ ) ( a , , , X @ @ : @       / I I t 0 7 7 5 5 0 5 * & & 0 0 r 0 5 ",
"* 5 r r 5 9 r t 5 * + & 7 A C / I I t     X X : : , p a s ( s s s ( t C C t r r C S S J J J J J J S Z y 6     X               X X X X X : > , : : , p > : > , , : : , , a ( ) ` ' ' ' ' ' ' ' ` _ ) s a a > , , : X X X   / I I t 7 0 5 5 7 0 7 & * 5 r r 7 7 5 ",
"* * 0 r 7 * r r 5 * + % 5 t C / I I t   X @ : > p p p , a s s ( ( t G H S S C r t A S J P P P P P G S S S t @ > : : @ : @ : X @ > > > > p p a , : a s s a a a p p , : : : p ( ) _ ` ' ` ` _ ) ( s a a a p , > @   @ : X   / I I t r 0 5 7 5 0 * * & 5 r 7 7 5 5 ",
"& * 0 t 5 * 0 r 7 * & & 5 C 0 / I I t X > , p s s a a a a s ( ) ) S J J G J J C r t S H P E E E P H G G G S r s ( ( ( ( a a a s ) ( ) ) ) ) ( ( ( ( ) ) ( ( ( , @ : X X X @ > a a a s a p , X X , > : @ X : : @ @ @ @ X   / I I t r r 0 5 7 0 * * * 5 r 9 5 5 * ",
"* & 7 A 7 & 5 r 5 * & & 9 r r / I I t : p a s ( ( s s s ( ) ) ` C H P E W W W A t C A S S H P P J H H H H G C 7 ( ) ) ) ) ) _ _ ` ` ` ` _ ) ) ) ) ) ) ) ) ( s p @ @ @ X X X                     X   X X X X X @ X         / I I t r r 0 7 0 0 & & & 7 r 0 * 5 5 ",
"& & 0 C 7 * 5 0 5 * & * 7 r r / I I t : , a a s ( ( ( ( ( ) _ C J P P Q Q J A C J E J C y Z S G H H H H S C C 0 # , p , p a a p s ( ( ( s a a a a a p , , : @ @ @ X                             X   X : : : @ @ @ X       / I I t r t 0 0 7 5 * * & 7 r 5 * 5 5 ",
"* * r C 7 5 5 9 * * + % * r r / I I t : : , p s ( ( ( ( ( s ) G J P W E S C S J W W W S 0 r t C A S A C r C S A -   X   X X X   : : @ : @     X         > > : X @ @ X   X X @ X         X   X : > , , > p , @ : : > : X   / I I t C t r 7 0 0 5 * & 5 r 9 * 5 5 ",
"* * r C r 5 5 5 5 & + & 5 r r / I I t X : > p a s s s ( ) ) C H J E J C A J P W W W W J y 0 - 6 r y C A C H J J Z @           X     X                 X @ X   X X   @ : @ : , : : X @ : > , p a ( ) ) ) ) ) ( ( s a a > X / I I t t C 0 7 0 0 r * & 5 r 9 * 5 5 ",
"* * r C 7 5 7 9 * * + & * r r / I I t @ > a s s ( ( ( ) ) r H J E G C G J E W W W W W P A C r C S H E W J H W W J y > p , > > :                     X X   X X X @ : @ @ > : @ @ X > p s a s ) ) _ _ _ ` ` _ _ _ ) ( s > @ / I I t t t 0 7 7 r 0 * & & r 9 & 5 5 ",
"& * 0 t 0 0 0 5 * * + & * C C / I I t : , a s ( ( ( ( s s S J J S C H J E W W W W W W W H Z C C P E W W W P ! Q P S 6 ( _ ` _ ( a p , , , : > : : @   X X X : : : @ X X @ X X @ > p p a p , a s s ( ( ( ) ( ( ( s p , @ X / I I t t r 0 9 r r 0 * + & r 9 & * 5 ",
"* % 7 t 0 0 0 7 * & & & 5 C C / I I t : , a s ( ) ) ( a r S H Z C J P P W W W W Q W W W P S S r Z J W W E Q #.~ W J t a _ ` ` _ ) ( s a > @ X                                   X   X   X @ @ > > a p : p > : > X X @ X   / I I t C t 7 0 7 r 7 & + * r 9 * * 5 ",
"& & 7 t r 0 0 0 * * + & 5 C r / I I t : , a s ) ) ) ) 7 S S C C J P E W W W W ! ~ ! Q Q W J G C 7 r H J P ! #.#.Q P G 7 : , , , a a a : > X     X @ X                                     @ @ : : X : : @ @ : , , , , : X / I I t r t r r 7 0 * * & 5 r 0 * 5 5 ",
"* & 5 t r 0 r 0 * & + & 5 C C / I I t : , a s ( ) ) 6 t A y C H P P E W W Q ~ ~ ~ ~ ~ ! E H J S y 0 A H E Q #.$.#.P J A p X : : : @ @ : : X : @ : > @       X     X X     X           X : > : > > > , > p a s s s s a > : / I I t r t r r r 0 * & * 5 r 7 5 5 5 ",
"& % 5 r 0 0 r 0 * & + & 7 A r / I I t @ @ : p s ( s r C r y H J P E W W Q ! ~ ~ ~ ! H S Z A S S y r H E W W ^ #.^ ! P J r   , : @ X X X : : : @ @ : > > : : : : , , , : : @ : : > > : : , : @ @ : > , , a s ( ) ( ( s , : / I I t 7 r r r r 0 * * * 5 r 7 5 5 5 ",
"* & 5 r t t r 0 * + + % 7 C r / I I t   X @ , a p 0 y r C G J J E W W Q ~ ~ ~ Q H S A S J E E S r 7 S P E E E W W Q W P A a s a s _ ) ( ( ) ( s s ( ( a > , a , s ) s a s ( ) ( a , : : , : : > @ : @ X : , , s ( ( a > : / I I t 7 r 7 0 7 0 7 & * 5 0 7 5 5 * ",
"& * 7 C C t t r * & & & 7 C 9 / I I t X : : > > 6 r 0 y G J J P W W ! ~ ~ ~ J A Z G J J E Q ! W y - y H E W E J J J J E G ( ` ` ` ` _ ) ) s a a @ : : X X X X X : > > , s s a p : X X @ : @ : > , a p > @ a a a s a a > @ / I I t 0 r 7 0 7 7 5 & * 5 0 0 7 5 * ",
"5 * 0 C C 0 r 0 * + + % 9 C r / I I t @ : : @ = 0 r y S H J J E ! ! ! E H S S G H J P E W ~ ~ #.H r - A J E W W J J S G S 3 ( a , , , , : @ X                                           @ : : > , , X , > X a p , , , : @ / I I t r 7 5 5 5 7 * * & 0 7 r r 7 * ",
"* * 7 C A 7 0 0 * * & & 7 C r / I I t , a s - 0 t C A G G J P P P S A Z S J J P P P E W Q #.#.~ Q S 6 0 G J E W W P J Z r - ( a , > , : @ X     X                                 X X : : > a s a s , X @ X : @   X X X   / I I t r r 5 5 5 9 & * & 5 5 r r 0 5 ",
"* * 7 C C 7 0 0 5 * & % 9 A r / I I t p a 6 r y C Z A H G C r r 0 C H W W J W W W W Q Q ! ~ ^ ~ H A y - C J P W W E E H r 7 ) ) ) ) ( s : @ > : X                                   @ X : > s ( ) ) ) ( ( s , : @ @ @ X   / I I t r r 9 5 5 5 * & & 5 5 7 r 0 * ",
"5 * 7 t C 0 r r 7 * * % 7 C r / I I t p - 0 t t C C S H S Z C A H P W W W W W W Q ~ ~ W E J S A Z C r r 0 S P W W W W J Z 6 ( ( ( ( s , X @ > : @     X X                                 : : a s s ) ( s ( s a p p > X X / I I t r r 7 5 5 9 * & 5 5 * 9 r 0 * ",
"5 * 5 t C t t t 0 * * & 9 C 0 / I I t : - r r t y y Z G J J J J P E W W Q ! ~ ^ ^ J H Z y C S J E P Z r 7 y H P W W W P S 6 > : X : : @ @ @ @ @ > : @ > @     X                         X @ > > > , p a s ( ( ( s s a > @ / I I t C r 7 0 5 5 & * 5 5 5 5 r 0 * ",
"5 5 5 r t 0 t t 9 * * & 7 C 9 / I I t . = 0 r 0 0 C S H J J J J J E Q ! ~ ~ W S y 0 t Z J E W Q ! W P C 7 r S J P W W J S 6     X X X X X @ : > @ X @ , s ( a p a ( a s ( ( s a , a p s ) ) ) _ ` ' ' ' ' ' ' ' ` _ ) p , / I I t t r 0 0 7 7 * * 7 0 5 * 0 0 5 ",
"0 5 5 0 t 7 r r 7 * + % 7 C 0 / I I t   $ 6 7 0 Z H H H J P J J P W ! ~ E Z r t Z S H J E W W ^ #.! E S 0 t J E P E W H S 6             X : > > : > : a _ ` ` ' ' ' ' ' ' ' ' ' _ _ _ ( ) _ _ ` ' ' ' ' ' ' ' ' ` ` _ p , / I I t t r 0 0 7 7 * * 5 0 7 * 7 7 * ",
"5 5 5 0 7 5 0 0 7 * + & 0 A 9 / I I t     $ 7 C S H S G H H H J E P J Z r C S J J J J W E W W ~ #.! E H y r J E P E W W J r           @ X X : : : : @ a ) ` ` ' ' ' ' ' ' ' ' ' ' _ ( s , , , : a ( ( s s ( _ _ ` _ ) p > / I I t t r 0 7 7 7 & * 5 r 5 5 5 5 5 ",
"0 5 5 0 5 & 7 r 7 * + & r C 0 / I I t   X o r S G S A A S S S H G C r Z G J J J J J J P W W W Q Q E P J S 0 J W P P E W E A @ @ @ : @ @ X : > , p p a ( _ _ _ ' ' ' ' ' ' ' ' ' ' ' _ ( a , > > : : , p > p a a s a p : @ / I I t r r r 0 7 5 * + * 0 0 5 7 5 * ",
"0 5 5 0 5 * 0 r 5 * + & 0 C 9 / I I t X @ @ C H S A Z A S G J J P J P E W W E P E W W W Q ! ~ W E P P J J t J Q J J J J J A , : , , a s a a s s s ( ) _ ) ) _ _ ` ` ' ' ' ' ' ' ' ) ( s , @ @           X : : @   : X     / I I t t r r 0 5 5 & + * 9 0 5 9 5 5 ",
"0 5 7 0 0 * 0 t 0 & + & 7 C 0 / I I t X @   C G Z C Z A S G J E W W W W W W W W Q Q ! ! #.#.Q W J J P J J S G J J J J J H C a , : a s ( ) ) _ ' ' ' ' ' ' ` ' ) , p , a ( ( s p > : @ : :               X @               / I I t r r r 7 * * & * & 5 r 7 7 5 * ",
"5 5 5 7 9 & 7 0 5 & + + 7 C 9 / I I t   X   6 C C C C S S J P E W W W Q ~ ! ! ~ ~ ~ ~ ~ #.~ E E S S J E P G S J P P J J S A p @ > , a ( _ ` ' ' ' ' ' ' ' ' ' ' ' ' ' ' ' ` ) ) _ _ ( s a p , , > > > > @ X @ X X X       / I I t r r r 9 * * * * & * 0 7 5 5 5 ",
"5 * 5 r 7 * 7 0 7 & + + 5 C 9 / I I t   X X # - r C A S J J E W W W Q Q ! Q Q ! ~ ^ ! ! E P J S S H J P E J S J P P E P S r a > a p s ) ) ` ' ' ' ' ' ' ' ' ' ' ' ' ' ' ' ' ' ' ' ' ' ' ' ' ' ' ` ` _ _ _ _ ) ( s a p @ X / I I t r r r 7 * * * & & * 0 0 5 5 * ",
"5 5 0 r 7 & 7 0 5 & + + 7 C r / I I t   X @ : @ $ 7 Z J J P W W W W W W E E W W W W E J S A C t Z Q Q W W E S W Q P E E G r _ _ _ _ ` ' ' ' ' ' ' ' ' ' ' ' ' ' ' ' ' ' ' ' ' ' ' ' ' ' ' ' ' ' ' ' ' ' ' ' ' ' _ ) s > @ / I I t r r r 7 * & * & & * 0 5 5 7 * ",
"7 5 0 t r * 7 0 5 & + + * r 9 / I I t   @ , , , , - S P P P E P J J J J G G G H S Z C y r C G G C J ~ ~ W E S ~ Q E E P A _ ' ' ' ' ' ' ' ' ' ' ` _ ) ( s a a s ( ) ( ) ` ' ' ' ' ' ' ' ' ' ` ` ` ' ' ` ' ' ` ) ( a , @   / I I t r r t 7 * & * * * 5 9 5 * 9 5 ",
"0 7 r t r 5 9 5 5 & + + * r 0 / I I t @ : , a s ( s C E W ! E H G H H H H J P P J H C 7 S J J J J S P W Q G S W E E E H y ` ' ' ' ' ' ' _ ( ( p : : : : @ X : @ @ > X : , a ) _ ` ' ' ` _ _ ( a a s ( s a a , > @   X     / I I t 7 r C 0 & * & * * 5 5 * 5 5 * ",
"5 7 r C r 5 7 0 5 & + & & 0 9 / I I t X : , p s ( ( r E ~ ~ W J J J J J P W E J J P S 7 H J P P P E P P S r S E W E J Z r ` ' ' ` ) ) s > , p , @ X X     : X     X : @ : a ( ) ` ' ' ` _ ( s s s p , @ X @               / I I t 5 r C r & * & & 5 5 7 * * 5 * ",
"5 5 0 r 0 9 7 0 7 * + + * 9 9 / I I t X : , > , a s < H ^ ! J W W W W W E J G H P J A 0 G P P P P P J Z t Z Z S J J A r r s ( s , > > > : @ X X X X X @         X , a a s ( _ ' ' ' ' ' ' ` _ ) ( s > > > > : X X @       / I I t 7 r C t * * & & 5 5 5 * 5 * 5 ",
"5 5 7 0 7 r 7 0 7 * & & 5 r 5 / I I t : , > > , p ,   0 E P J W W W W W E J E W W J y y 0 C S G S A r t C G P H C y y J S 6 : p @ : : > > @ @ : @ > : @ a ( _ _ _ _ ` _ ' ' ' ' ' ' ' ' ' ' ' ' ' ' ` ) ) s p p p >   X X / I I t r r C C 5 & + + 5 0 5 * * * * ",
"* 5 5 0 0 r 7 0 0 * & % 7 r 5 / I I t @ : : > > > > : X t J J P W W W W W W W W E S Z P C C S S S S C Z E J E E G C S E H 0 o > , , > > # # X X X : , s _ ` ' ' ' ' ' ' ' ' ' ' ' ' ' ' ' ' ' ' ' ` ` _ s s p , , @ X X X / I I t r t C t 5 & + & 5 0 9 * & * 5 ",
"* 5 7 0 7 r 7 0 5 * & * 5 C 5 / I I t @ > , p a a a p , < Z G J W W W W W Q W E J Z P W H S E P J H S y W J G J J S G E H t < 1 2 $ 2 4 q D v l i g g h k n j j ) _ ` ` ' ' ' ` ( a s s s s ( ( s ( s s s s s s p , : X   / I I t r C C t 5 & & * 5 0 5 * * * * ",
"* 0 r 0 7 7 7 9 5 * * * 0 A 0 / I I t > , a s ( ( ) ) ) ( r A H W W W W W Q W P S J J E J S E W W J H C S J H G H S G J S y 6 1 4 v K L N T  . .R Y Y L L ] B M M M m k k ) ` _ s a p p a a s a a a a ) ` ` ` _ ( s p > X / I I t t r 0 t * & & & 7 0 0 5 * * * ",
"* 0 r 0 0 * 5 5 7 5 & 5 7 C t / I I t : , a s ) ) _ ` ' ' _ y G J W W W W W P J J J H P J G J Q Q E H Z r J E E G Z G G S y t 6 d F T R T K R ........ . .R { { [ [ { ] B n j g 3 , p s s s s a a s ( _ ' ' ' ` _ ( a > : / I I t r r 0 r * * % 5 7 0 0 9 * 5 & ",
"t r 0 5 5 * * 9 0 * * 5 0 C r / I I t X : , a ( ) _ ' ' ' ' ) C H P P W W E J J G S H J H H P ! ! W J S A Z J E H Z S H Z y y t 6 ; e K T K K R  ... .T T T } ..o.o.X.X.{ V ] [ [ M k f s ) s s ( ) ` ' ' ' ' ' _ ( a : X / I I t r 7 9 7 & + & 5 0 0 0 5 7 5 * ",
"t r 5 7 9 * * 0 0 * 5 0 0 C r / I I t X @ : , a s ( ) ` ' ` _ r S H J P E P G G S G H G G J W Q ~ Q P J A A G J H A S A C A A A Z t 6 1 v K b K T  .+.} ] [ X. .| | | | | { [ } | | ] V V M j ) ) ` ' ' ' ' ' ' ` ) s , > / I I t r 7 9 7 * & & 7 7 5 5 5 5 7 & ",
"r 7 5 7 * + * 0 7 5 7 7 t r 7 / I I t X @ @ : p s s s ) ) ) _ ) C J J J P J G G H J H G H E W E Q #.W J H Z P ! H C C C S H H J J S y r 2 b F N M T  .} { o.+.} o.| | | +.@.O.X.X.| { o.O.V V m j ) ` ' ' ' ' ' ` _ ) p > / I I t r r r 7 * + & * 5 5 7 * 9 5 * ",
"r 0 7 0 * + & 0 7 5 5 0 t C 7 / I I t X @ : > , a a s ( ( ( _ _ _ S P P E E W E J J J J P P H H E ~ Q P J A E ! G y Z S P P H J P J Z C 0 d N Y M V T R R @.&.o.X.X.o.+.O.@.%.o.X.o.o.X.O.{ B [ } [ B j ) ) ) _ ) ( a > : / I I t r r r r * + * 7 * 5 7 5 7 5 & ",
"r 7 5 r 9 & * t t 5 5 0 t t 5 / I I t : , p a s s s ( ) ) _ _ ` ` _ G P E Q ^ ~ ! E E E J G S H E W W E P H E P A C A H W P J P W J H Z y 4 b L Y B [ | } O.@.+.| | X...o.o.O.@.@.O.| | X.O.V | X.X.| | B g a X @ @   X X / I I t r r r 9 & + * 0 5 5 0 5 5 7 & ",
"t 0 5 r 0 & & t r 7 5 7 0 C 5 / I I t > p a s ( ( s ( ) _ ) ) ( ( s ` J P Q ~ ^ ~ ~ W E H Z S J E P J E W W P J S A A J W P J W W J H G S u x K T ] B | | | } | | | |  .O.O. .o.+.+.o.X.o.*.@.} } X.O.o.| } ] h @   X X   / I I t r r 0 7 & + * 0 7 5 0 7 5 7 & ",
"r 0 5 r 0 * & r r 5 5 5 r t 5 / I I t : > a a s s s s s ( s a a a a ( _ H E W Q W Q W E H A H J H S J ~ ! W H S J S H E W E J W W E E J P U n K Y Y m { | }  .| { R | | X.+.| o.o.o.o.o.X.*.;.+.| o.X.o.@.X.} ] h $ X X   / I I t t r 0 0 & + * 0 0 7 0 5 9 * * ",
"r 7 7 0 0 * & r r 7 7 5 0 C * / I I t @ , a a a ( ( ( s s ( ( s s s p _ C G J P E E E E H G J H S S ! #.Q H A J H S E W W W W W W W Q E E R b K L Y B [ | | | R { +.%.@.o.{ n ] | ..| o.O.@.=.*.+.o.O.+.*.+.X.[ M g < o X / I I t r r 7 7 * & & 5 0 0 0 7 5 * & ",
"r 7 7 0 0 & * 0 0 5 5 5 r t 5 / I I t @ > p a s ( ) _ _ ) _ _ ) ) ) _ _ _ A S H J J E E J H J H S J ~ ~ J A J J S J W W W W W W W W W W W  .N Y K [ R [ | | { | &.%.&.%.@.o.} m V X.O.+.+.O.%.%.o.| | | +.+.o.{ B m g $ # / I I t r r 0 7 5 + & 5 0 0 r 7 5 5 * ",
"r 5 5 r 0 5 & 0 0 5 7 5 0 A 9 / I I t : , a a s ( _ _ ) ) ) _ ` ` _ ` ' ' ) S G H H J P J J J G H W #.! G H P J J W ~ ! W Q Q ! ! Q W W Q ..K T n | R R R R V X.*.X.X.| | o.@.X.M ] o.o.o.O.O.| [ [ V B M [ | [ V M j < $ / I I t t r 7 r 9 + * 5 7 0 7 7 5 5 * ",
"5 * 7 0 t 5 * r 7 5 5 * r C 9 / I I t , a s s ( ( ( ( ( ( ( ( ( s s ( ) ` ' _ S J J J P P P P G G Q ~ J S J P J E #.^ Q W ~ ~ ~ ~ ! W W Q ..K K { O.[  .} { [ | o.| } } { [ | *.%.V V X.+.o.[ [ } X.| | | M { [ V M n 1 $ / I I t r 0 0 t 5 * & 5 5 0 7 5 5 * 7 ",
"7 * 5 0 t 7 5 0 7 5 * 5 0 C 5 / I I t p s ( ( ) ( . a _ _ ' ` _ _ _ _ ` ` ' ' ` A G J J P E J G J J Q G H P P J ! ~ Q ~ ~ ~ ~ ~ ! ! W W ! ..L c +.o.[ | } { X.o.X.} | | } [ [ +.;.;.o.X.| V [ O.@.O.X.o.@.} ] [ ] V n 1 # / I I t r 7 7 r 5 * * 5 5 9 7 5 * 5 5 ",
"5 % % 5 r 7 5 0 5 * * 5 7 0 5 / I I t p s ( ) _ s o # ( ` ` _ ' ' ' ' ' ' ' ' ` ` Z G J J P J J J J H S J E P W Q J J W ^ ^ ~ ~ ~ ~ W Q ! ..Y B O.T [ [ } { | +.{ [ |  .{ [ [ } o.-.;.O.| o.@.@.X.} } { O.o.V [ { [ m $ # / I I t r 7 0 r 9 * * 0 7 7 5 * * 5 5 ",
"7 & * 5 r 7 * 0 5 5 * 5 9 9 5 / I I t a s ( _ ) > $ $ $ a a   ` ' ' ' ' ` ' ' ' ' ' y S H J J J J H G H E P P ! ~ ! Q ! ^ ^ ^ ^ ^ ~ W ! ~  .Y } ..Y [ B [ [ ] O.O.[ ] | | ] ] { } O.*.*.&.@.@.} [ } X.| X.@.{ { { ] m $ # / I I t 0 7 7 r 5 & 5 0 r 0 5 * & 5 5 ",
"r * * 5 r 0 7 7 0 * 5 5 7 9 & / I I t a s ) _ ( o $ $ #   . o ' ' ' ' ' ` ( ' ' ' ' ' ) Z S G H H H J J E E W ! ~ ~ ! ~ #.$.#.^ #.! W ^ ~ K K | ..K [ B ] [ k } +.O.] B B M [ o.@.o.o.@.+.X.| } } } | o.o.+.X.| [ B n 1 . / I I t 0 r r t 5 & 5 r 7 7 7 * & 5 5 ",
"r 7 5 5 t 0 9 7 0 * 5 5 5 9 & / I I t a ( _ _ p # $ $ # # o o ) ' ' ' ' 1 . ) ` ' ' ' ' _ y C S S G P J P W W W W Q ! ~ ^ #.~ #.#.~ Q ~ ! K c l K M B M V M g B X.@.@.+.} | @.O.{ B ] | o.o.| } } } } } X.o.o.} V M n 4 < / I I t r r 0 r 5 & 5 0 7 7 r 5 * 5 0 ",
"r 0 5 0 t 0 5 r 0 * 5 5 * 9 & / I I t s ) _ ( . # # # # # . . > ) ' ' ) $ o < ' ` ` ' ' ' ) r y A A H P E W W E W W W Q Q ~ ~ #.#.^ ! ~ ~ T i w 4 D V B n j m M { X.o.@.+.X.{ n m B M B { @.X.V { | X.| } O.&.{ ] B n d 1 / I I t 7 0 7 r 5 * 5 0 0 r 0 9 5 0 0 ",
"t 0 7 0 C 0 5 r 0 * * 5 5 9 & / I I t s ( ) > # # # # # o .   : ( ) ) a $ # o ` ' ` ` ' ' _ - 0 t C A H P E P J P W W W W Q ! ~ #.^ ~ ^ ~ T D i d x M n n j M B M B ] ] V M m B B B B V [ X.+.X.[ B [ [ } *.%.[ ] B m f 1 / I I t 7 0 5 7 * * 5 t t r 0 7 5 5 r ",
"C r 0 r C 0 7 r 7 5 7 5 * 5 & / I I t a s s . # # # # o .     : a ( ( > # o . 1 ` ' ` ' ` 2 $ 1 6 0 r C S J J H H J P E E W W ~ #.^ ^ #.Q } F D Y K c j m m h M m n m m j k M B M M M B V V [ +.O.} | X.%.;.@.[ B M m f 1 / I I t 7 0 5 7 & + 9 C C t 0 5 5 7 r ",
"C r 5 r t 0 * 7 5 5 5 7 5 5 & / I I t a s # o # $ $ # o .     # @ a p $ o   o # 2 ( _ _ 4 $ < $ $ < 2 6 r C A G H H H J J P E W ! ~ ^ #.W R L F Y T g d j M h h k j j n M m B B B B B V B B V [ { o.@.@.&.+.{ B B m n d 1 / I I t 0 7 9 7 & & * C C r r 7 5 5 0 ",
"C r 7 t C 0 9 7 9 * 5 5 5 9 5 / I I t a , . # # $ 1 $ o .     . . # o # o   . o o $ $ 1 $ $ $ $ $ < 1 < $ = 7 t Z S H H J J J E W W ! W J  .F x c N h 4 d B k 3 g g g k M B M B B B B B B M B m m M V { { B n m m n k d < / I I t r 7 0 7 * & * t t r t 9 * 5 0 ",
"C r 5 C C r 5 7 5 * 5 7 * 5 5 / I I t , . o o o # 2 $             . . o o . . o # # # $ # # # # $ $ < 1 $ $ $ < 6 t C S J J J P P P E J H b x c b x h k n n B d 4 f h n n M M m k m M k M M M m n m m B M m m m n n n 3 + / I I t r r t 7 * & * 0 t 0 C 7 * 5 0 ",
"C t 7 r t r * 5 5 5 7 5 5 9 5 / I I t . . o o o o o               . . . o . .   . $ $ $ # # # # $ $ $ $ $ $ $ < $ 8 r t C G J J J J J J S d e n c 4 h j d k V m 3 h g h g j n n n M m j n n n n h n n g j k m m k n m 1 + / I I t r r r 9 5 & 5 t r 7 C 7 5 5 0 ",
"C t 0 r t 0 5 7 7 5 5 7 * 9 5 / I I t   . . . o o .               . . . o o $   < $ < # # # o # # $ $ # $ $ $ $ $ 3 c x r r C S H H H S C z 3 f 4 3 x j 3 h k m d d 3 4 h n x x n n j f g h g f d h g n m j n n k m n < & / I I t r t r r 5 & 5 t 0 7 r 5 5 0 0 ",
"C t r 7 r 0 5 0 0 5 * 7 * 9 5 / I I t   .     # o # .                 . o o # 1 h $ $ o # # . . o # # # # # # # # 2 c c g 3 2 - r C C r r F D k c j h g 4 n M k 4 3 n { X.[ B k f h d d 4 4 4 d d 4 j m m m j d j k d * * / I I t t C t t 5 & 7 t 0 7 7 * 7 r r ",
"C t t r C 0 7 r 7 5 5 5 * 9 5 / I I t     . . o o .                   . .   $ 4 1 # # o . o o . . o . o o o # # # # # 1 2 4 k h 1 - 0 0 7 D Y ] M k j 2 d m ] B m k [ o.@.X.] m h 4 4 4 3 d 4 3 4 4 j n k n g d f 4 0 6 - / I I t r r r r 5 5 7 t t 5 7 * 7 r r ",
"C t r 7 r 0 0 r 7 * 5 * 5 9 5 / I I t     . o o o                         . 1 1   # # $ o o o o . .   .   . . . o . . < 2 2 4 4 1 1 $ = - z k k d f k j d n ] m m V } | @.O.] M k 2 2 4 4 4 3 2 2 4 g h g d 3 d 3 6 t 6 - / I I t r r 0 r 5 & 7 t t 7 7 & 0 0 r ",
"C t 0 5 r 7 5 r 7 5 5 7 5 9 5 / I I t       . . .                         1 2 # o # < $ $ # # .     . . . . . . .     $ d 4 3 2 2 4 d X + 2 2 1 $   g { j j M f k { | O.%.@.} M h 4 d 4 4 3 2 2 3 4 4 4 d 4 d g 3 C y 6 - / I I t 7 0 r r 5 & 7 t t 7 7 * 5 0 r ",
"C t 0 r r 7 0 r 7 5 5 0 5 5 & / I I t         . .                         1 $ # # # 2 < < 2 # .     .                 2 f N B 2 2 4 h 2 o   . o   3 [ | d 3 4 h Y X.} o.@.@.o.B h h f 3 3 3 2 2 4 3 3 3 3 d j 3 0 C y 6 - / I I t r r r 0 5 & 5 r t r r * 5 5 0 ",
"C t r 0 r 7 5 r 7 5 7 r 7 5 & / I I t                                 # . # # . .   $ 1 $ < < < $ o o                 $ e K m 2 d 3 2 2 2 $ . o 2 V [ B 4 h h D [ X.} O.@.} [ B d d d 2 2 4 2 3 4 4 3 3 3 g g 2 C Z y 6 - / I I t r r r 7 * % 9 r r r 7 * * * 0 ",
"C C t 7 0 7 5 r 7 5 0 0 0 5 & / I I t         . o                     # . . .   .   o $ # # $ $ o                   1 h 4 n j d j d 3 2 3 2   < h B V B h h x Y X.X.} O.O.k B k 2 3 2 4 3 2 2 2 3 4 3 2 h n d r C Z C 6 - / I I t r t t 9 5 & 7 r r r 7 * & 5 0 ",
"C C r 7 0 7 5 r 7 5 0 r 5 5 & / I I t       o # #                   o .   . . . o . .       $ $ 1 1 < # @ @ $ 1 $ # 3 d 1 m j 2 2 2 3 f d 4 2 m n j n m 4 c R [ O.| { O.{ M V 3 < 2 d g 2 1 2 3 4 3 1 d k d 0 A A C C 7 - / I I t r C t 0 5 * 7 r r 7 7 * * * 7 ",
"C t r 0 0 7 5 9 5 5 7 0 5 & & / I I t     . < $ .                   # .   . . .   .   4 j n F L T T T Y Y Y T T L F m n k j f 4 f g 4 4 4 3 4 k h h 4 1 D .. .[ o.[ ] X.[ V h 2 g j g 4 3 2 < 1 3 2 2 n g 6 y S S A A 7 - / I I t C t 0 0 5 & 7 0 7 5 5 5 * * 5 ",
"C t r r r 5 * 9 5 5 7 7 & & & / I I t   . # 1 $                   . o . . o . o     h { R R ..O.o.+.+.O.O........... . .R { V b M M M j 3 3 g j g 4 $ N  .| ] ] } B n [ [ k d j h f d g d 2 1 3 f 2 h n 7 C A S S Z A 7 - / I I t A t 0 0 5 & r r 5 5 5 * % & 5 ",
"C t r 7 9 5 * 5 * * 5 5 % & & / I I t . o $ $ #                   #   . . o       + L R | | o.X.| X.X.o.o.| } R R  .R R { { [ ] } N n j 2 2 3 d 4 4 B  .} ] B ] [ g m { B k m n d g j k d d d j h h f 7 y S G S S Z C 7 - / I I t A t r 9 & & r r 5 7 7 * & % 0 ",
"t t r r 9 5 * 5 * & 5 5 & & & / I I t   o # # # o o               o . . . o     4 B { | } [ V B ] [ [ M M B M B M V [ m b Y [ o.o.Y b n d $ < $ f | O.] B [ B ] B h V V M m n k j n n k g j n m n f 6 r Z G G S S C y 6 - / I I t S t r 7 % * r r 7 5 5 & & * 0 ",
"r t r r 7 5 * * * * 5 5 % & & / I I t 1 3 d d f h h h h 4 $     . o . . . .   < M V { } V n g d j m j 3 3 4 g j k m n f 4 M [ { X.| B j 4   $ e ] { [ k n V B V h k g j j j m M M B M n n n n h - - 7 y C A S A C y r - * / I I t S C r 9 & 7 t r 7 5 * & & 5 r ",
"r r 0 r 0 5 * * * % 5 5 * & & / I I t 3 d h k n b D M B B B k 2       . .   o h n n j h 3 1 1 2 h h j g d 3 3 d d 3 3 j n ] } ] V { [ m 2 2 n V V M M n n m M h d d   . . 1 g j n M M M k h 3 + = - 7 r y y C y t r 0 * & / I I t A C r 7 * 7 C C 7 5 5 * % 5 r ",
"t t 0 r 9 5 * * * & 5 5 & & & / I I t 3 4 f h j n n m B B V K N j $         2 d j j 3 $ < $ # # # . # $ $ 1 4 d 2 < 2 j M M M B V V ] B k B V M m n n j d d d 2 $ o . .   # $ $ $ < 1 2 $     O & - 6 7 0 0 0 0 0 0 7 * + / I I t A t r 7 * r C t 7 7 7 * % 7 t ",
"7 t 0 0 r 5 5 * * % * 5 * & & / I I t 2 4 4 4 d f g h g h j n M M z <     # f j h 2 1 $ # . o o         3 4 < < 2 2 $ 2 3 g k n n n m n n V B n g h g 4 1 3 2 #   o . . o $ # $ $ # o # .   . . . + & - 6 - - 6 - 6 6 + + / I I t C t r 7 * 7 C t 0 r 7 * & 0 C ",
"7 t 0 0 0 7 * 5 * & 5 7 5 & & / I I t $ 1 1 2 4 4 4 4 2 1 3 f j h k f < $ # 3 f d 2 $ o               $ 4 1 o     # $ 1 1 $ 1 4 d h k k k n n h 4 4 1 1 1 < o     . .   o # # o # # . . . . . .       O & = = = = = = + + / I I t t r C 7 & 7 t t C r 0 & % 0 C ",
"0 7 7 0 0 0 5 * 5 % 7 0 9 5 & / I I t o $ < $ $ $ $ $ < 1 3 2 d 4 d 4 2 d 4 1 $ 1 2 $ .   . . .       # 2 1 $ 2 4 d 4 4 d 4 3 d f f g g d 4 1 3 2 < $ $ #           o . . o o . . . o . . . .             o + + + + + O o / I I t r r C 0 % 5 t t t r 0 * % 0 C ",
"t r r r r 7 5 * 5 & 7 r 5 * & / I I t   # #       . o $ $ $ $ 1 2 2 2 2 3 4 4 < . # # .   . . .       $ 2 1 $ 2 4 4 4 d d 4 4 4 3 3 3 3 2 < < $ # # # .             . .     . .     . .                       o O O O o o / I I t 7 r S 0 & 7 C t 0 0 7 * & 7 t ",
"C t r r r 0 9 * 5 5 0 r 7 * & / I I / / / / / / / / / / / / / / / / / / / / / / / / / / / / / / / / / / / / / / / / / / / / / / / / / / / / / / / / / / / / / / / / / / / / / / / / / / / / / / / / / / / / / / / / / / / / I I t 0 r S 0 & 7 C r 7 7 7 * & 7 r ",
"t t t C r 5 7 7 5 5 0 0 7 * & / I I I I I I I I I I I I I I I I I I I I I I I I I I I I I I I I I I I I I I I I I I I I I I I I I I I I I I I I I I I I I I I I I I I I I I I I I I I I I I I I I I I I I I I I I I I I I I I I t 0 r A C * 0 t t 0 7 0 * & 0 r ",
"t t t r 9 * 0 0 5 5 7 7 7 + & / I I I I I I I I I I I I I I I I I I I I I I I I I I I I I I I I I I I I I I I I I I I I I I I I I I I I I I I I I I I I I I I I I I I I I I I I I I I I I I I I I I I I I I I I I I I I I I I I t r t A t 5 7 t t 0 0 7 * & 0 r ",
"t C C C 5 9 0 r 5 5 5 7 5 + & t t t t t t t t t t t t t t t t t t t t t t t t t t t t t t t t t t t t t t t t t t t t t t t t t t t t t t t t t t t t t t t t t t t t t t t t t t t t t t t t t t t t t t t t t t t t t t t t t t r r A t 5 5 t t 0 0 5 5 & 0 0 ",
"C C C C 0 7 0 r 5 * 7 5 & & + 5 r 0 0 7 0 0 5 & 0 7 9 5 * 5 * & & 5 9 5 * & 7 5 * 5 7 0 0 0 0 0 0 7 * 5 0 r C C 5 + * % 5 0 * & & 5 * & & + + + % * * * 5 9 5 5 & + & 5 * & * * & + + + 5 C 9 * * * * 5 5 & * * * 5 5 * 7 5 5 5 0 r C C t * 5 t t 7 0 5 5 & 0 r ",
"C C A C 7 9 0 r 5 * 5 5 * & & * r 0 0 0 7 5 & & 5 0 7 7 5 * * & * 5 0 0 7 * 7 5 * 7 5 0 0 0 5 0 0 5 * 5 0 r A S 9 + * * 5 7 * * * 5 * & & + + + % * * * 5 9 5 * & + & 5 * * & * & + + + 5 t 9 & 5 * 5 & * & * % * 5 5 * 0 5 5 5 7 t C C t 5 5 C C 7 7 5 5 & 5 r ",
"C C C A 7 0 0 9 * & 5 * & & & * r 7 0 0 0 * & * 9 7 7 0 * 5 * & * 5 7 7 5 * 5 5 * 5 7 5 0 0 5 0 0 7 5 5 7 C A A 5 + * & * 5 * * * 5 * & & + + + % * & * 5 9 5 * & + & 5 * * * * & + + + 5 t 9 & * * * * * & & % & 5 5 * 0 5 5 * 5 C A C t 5 5 C t 7 7 5 * 5 5 r ",
"C C A A 7 0 0 5 * * 5 * * & & * r 0 0 r r * 5 * * & 7 7 * * * & * 5 5 r 9 * 5 7 * * 7 5 0 0 5 0 0 7 * * 0 C C C 9 + * & * 5 * * 5 9 5 * & + + + + * * * 5 9 5 5 & + & 5 * & * * & + + + 5 t 5 & * * * * & + % & * 5 9 5 0 5 5 * 5 t A C t 5 * C C 0 5 * 5 * 9 0 ",
"t t C S 7 r r 5 * % 5 * & & & * r 7 7 r r * * * 5 & 5 0 * * & % * 5 9 7 7 & 5 5 * * 7 5 0 0 * 5 0 7 * * 9 C A r 0 + * % * 9 5 5 5 9 5 5 & + + + + * * * * 9 5 5 & + & 5 * & * * & + + % 5 0 * 5 * * & * + + % * * 5 5 7 0 5 5 5 5 r A t r 5 5 C C 0 5 5 * 5 * 5 ",
"0 7 t S 7 7 r 5 * * 5 * * & & * 0 5 7 r 7 * & 5 * & 5 7 * * & % * 5 5 5 9 & 5 5 & * 7 5 0 7 * 5 0 0 * 5 5 C A r 0 + & % % 7 5 5 5 5 5 5 & + + + + * * 5 * 9 5 * * & * 5 * * & * & + + + 5 t 5 5 * * & * & + & 5 * 5 7 r 7 5 5 7 5 t A t 0 9 5 C C 0 7 * * * * 5 ",
"7 7 t S r * r 5 * * 5 * & & & * 0 5 7 r 9 & + 5 5 & 5 7 5 & & % * 5 7 7 5 & * 5 * * 7 5 0 5 * 5 0 7 5 9 7 C t r 5 + & % & 5 5 * 5 9 5 * & + + + + * * * * 5 5 * * 5 * 5 * * * * & + + % 5 r 5 5 5 * * * + + & 5 * 7 7 r r 7 5 5 5 r t t 0 5 7 C C 7 5 * * 5 * 5 ",
"7 0 t S 9 * r 5 * 5 7 * % & & 5 r 0 7 7 * & + 5 * 5 5 7 * & 5 * * 5 7 9 * + * 5 * 5 5 0 0 * * 5 0 5 0 0 7 t t 9 9 + & % % 5 * * 5 0 9 * * & + + + * * * * 5 5 * * 5 * 5 5 5 * * & + + + 5 t 9 5 * * * * * & * 7 * 7 0 r r 5 5 5 7 t C t 0 7 7 C t 0 7 * * * * 9 ",
"r t t S 9 * r 0 * 5 7 5 * & & 5 r 7 7 5 * & & 5 0 5 5 7 * * 7 5 5 5 7 7 7 + * 5 5 5 7 0 0 5 * 9 0 5 7 r r t 0 5 5 + % % & 9 * & & 0 5 & * & + + + * 5 * 5 5 * & * * * 9 5 9 * * & + + + 0 r 0 5 5 * * & & % * 5 * 5 0 r r * 5 5 5 A t r 0 7 7 C r 7 0 9 5 * * 5 ",
"t t t A r * 0 0 7 5 7 * * 5 & 5 r 7 * * * * * 0 0 5 5 9 * * 7 5 5 7 7 7 5 & * 5 * 5 7 7 7 * * 5 0 5 9 0 0 t 0 5 * + & % % 5 * * * 5 * & * & + + + * * 5 5 5 5 * * & 5 5 9 7 * 5 & + + + 5 r r 9 5 * * & * & 5 5 * 5 7 r 7 * * * * A r 9 r 7 0 t r 7 5 7 5 & & 7 ",
"r t t S r 5 7 r 7 5 5 * 5 5 & * r 7 * & * * * 9 0 5 9 5 & * 5 5 5 0 0 7 * & * * 5 * 5 7 5 5 * 5 7 5 5 0 0 t 0 5 * + & % & 9 * * * 5 * * * % + + + * * 5 5 5 5 5 * & 5 5 5 9 * * & + + + 5 7 r 0 5 * 5 * * * * 5 & 9 7 r 7 5 * % * C r 7 7 7 0 t 0 5 7 r 5 % & * ",
"0 t t S t 7 0 r 7 5 * * 5 9 5 * 0 r * & & * * 0 C r 9 5 & * 5 5 5 0 5 5 * & * * * * 5 7 5 5 * 5 9 5 9 5 9 0 0 5 * + & % % 5 * & * 5 * * * & + + + * * * 9 5 0 9 * & & 9 * 7 * 5 & + + + % 7 r 0 0 9 5 & 5 * * 5 & 7 7 0 7 * * * * r 0 9 0 7 r r r 7 5 0 5 & & 5 ",
"0 t t A C 5 0 r 7 5 * * 7 9 5 5 0 0 * % & * * 7 C r 7 5 & & 5 5 5 0 9 * * + & * 5 * * 5 5 * 5 5 5 5 5 5 * 0 0 * * + & % & * & & * 5 5 * * & + + + 5 * * 5 * 9 7 * & * 5 5 9 * * & + + + & 9 r 7 5 9 * * 5 * * 5 & 7 0 0 0 7 & * * 0 7 5 7 0 t t t 7 5 0 5 % & * ",
"0 t t S 7 5 7 r 0 5 * 5 0 5 * * r 0 * & + * * 0 r 0 5 5 + * * 7 5 0 9 * * + & * * 5 * 5 5 * * 5 5 9 5 5 * 0 0 * & + & % % * & & 5 9 5 * * & & + + * * * 5 5 5 7 * * * 5 5 7 * 5 & + + + % 7 r 0 5 5 5 * 7 & * * & r 0 5 0 5 * % * 7 0 5 7 7 t C t 5 7 7 5 & * * ",
"7 t t C 7 5 0 r 5 5 * 5 r 9 * 5 r r * & + * 5 9 r 0 & 5 + + * 5 5 0 9 * & + & % * * * * 5 & * * * 5 5 * 5 0 0 * & + & % & 5 & & 5 r 9 * * % % + + * * * 5 * 7 9 5 & * 7 5 9 * * & + + + % 7 7 0 9 * & 5 5 * % * & r 7 9 0 * * & & 5 9 5 7 7 t t t 5 5 0 5 & * * ",
"0 t t C 7 0 7 0 5 5 & 5 7 5 * 0 r r * + + * 9 0 9 7 & 5 + & & 5 * 0 9 * * + & % * * * * 5 & * * * 9 * 5 * 0 9 & & + & % * 7 & & * 5 9 * * & & + + * * 9 5 * 9 7 5 & * 7 9 5 * 5 & + + + + 7 7 0 5 * * 5 5 & % & * t r 7 0 5 * + & 5 0 5 9 7 t t r 9 * 5 * & * * ",
"0 t t t 9 0 7 0 * & & 5 0 9 * 0 t r * + + * 0 7 5 0 * 5 + & & * 7 0 9 * * + & + * * 5 5 * & * * * 5 * 5 * 0 9 & & + * * 5 5 & 5 5 * 9 * * & % + + 5 * 5 5 5 5 9 5 * & 9 5 * * * & + + + & 7 0 0 7 * * 5 * % % % * r r 5 0 0 * + & 5 7 9 5 5 r t r * * * & & * * "
};
