/* XPM */
static const char *wolf8[] = {
/* columns rows colors chars-per-pixel */
"128 128 94 2 ",
"   c black",
".  c #070707",
"X  c #0B0B0B",
"o  c #170F07",
"O  c #1F170B",
"+  c #131313",
"@  c #1B1B1B",
"#  c #2F1B0B",
"$  c #2B230F",
"%  c #232B0F",
"&  c #372313",
"*  c #332B13",
"=  c #3F2F17",
"-  c #3F2B1B",
";  c #2F371F",
":  c #232323",
">  c #272727",
",  c #2F2F2F",
"<  c #373F27",
"1  c #373737",
"2  c gray23",
"3  c #430000",
"4  c #530707",
"5  c #5B0707",
"6  c #6B0F0F",
"7  c #771717",
"8  c #432F1B",
"9  c #43331B",
"0  c #4B371B",
"q  c #533F1F",
"w  c #473323",
"e  c #4F3B23",
"r  c #4F3B2B",
"t  c #533F2F",
"y  c #3F472B",
"u  c #5F4323",
"i  c #474F33",
"p  c #574333",
"a  c #5F4B37",
"s  c #53573B",
"d  c #6B4727",
"f  c #774F2B",
"g  c #7F532F",
"h  c #675333",
"j  c #67533F",
"k  c #775F3F",
"l  c #434343",
"z  c gray28",
"x  c #4B4B4B",
"c  c gray31",
"v  c gray34",
"b  c #5B5B5B",
"n  c #6F5743",
"m  c #775F4B",
"M  c #5B6347",
"N  c #676B4F",
"B  c #7B634F",
"V  c gray39",
"C  c gray42",
"Z  c #6F6F6F",
"A  c #777777",
"S  c gray50",
"D  c #831F1F",
"F  c #8F2B2B",
"G  c #875733",
"H  c #9B633B",
"J  c #A36B3F",
"K  c #836B4B",
"L  c #836B57",
"P  c #8F7753",
"I  c #8B735B",
"U  c #937B63",
"Y  c #9B7F6B",
"T  c #A76B6B",
"R  c #C39B2F",
"E  c #9F8363",
"W  c #9F876F",
"Q  c #A78F77",
"!  c #AF977F",
"~  c #EBDB57",
"^  c #838383",
"/  c #8B8B8B",
"(  c #939393",
")  c #9F9F9F",
"_  c #B79F87",
"`  c #BFA78F",
"'  c #A7A7A7",
"]  c gray67",
"[  c gray70",
"{  c #B7B7B7",
"}  c #F3A3A3",
"|  c #FFC7A7",
" . c gray78",
".. c #E7E7E7",
/* pixels */
"q G G d u d q 8 8 $ & & q u & u f u & $ O u d u e q q e $ O & $ & d e & $ O $ O # 8 8 8 8 $ & $ & & 8 8 u 8 & 8 $ O $ 8 8 8 & e e & 8 & & $ # O & d 8 $ $ & 8 u e 8 & 8 8 8 $ $ $ O O O # e u q & $ 8 u q $ # $ & d d 8 & 8 $ O O 8 8 u q 8 d u 8 & $ O $ & e 8 ",
"u G G d q d d 8 $ $ # & 8 u & u d u 8 O O q d d 8 8 8 e $ $ O # & d e & O O O O # 8 8 q & $ & $ & & & 8 u e & & $ # $ 8 8 8 $ e e & & & & $ $ O 8 u 8 $ $ & 8 u e 8 & & 8 & $ O $ O O O $ e e 8 & $ 8 u e # # O $ d d 8 8 & $ O O & e q q 8 u 8 8 & O O $ & u 8 ",
"q G f d u d d 8 & $ # & & d 8 e u u & O & e d d u & q q $ & O O $ G e & $ O O O # 8 8 8 & & & $ 8 & 8 e d q 8 & $ $ & & 8 q & e 8 & 8 & $ $ $ $ & u 8 $ $ 8 8 u 8 e & & & & $ & & O O O # e 8 & $ & 8 u 8 $ # $ & f d 8 & & & O O 8 e 8 8 8 u 8 & & O $ O & u u ",
"u d d d u d d q & $ $ $ & d 8 8 u e 8 $ & 8 u f u & 8 & & & $ O $ G e & O O O $ # 8 8 q & & $ & & & & u d u & $ $ & & & 8 8 $ e e & 8 & $ # & # & e 8 & $ 8 8 u 8 8 & & $ $ & & & O O O $ 8 8 $ $ & q u e $ # $ & d d q & $ $ O O 8 8 & & 8 u 8 $ & O $ & 8 d u ",
"u d u d u q d u $ $ O # & d 8 8 u 8 8 & & u d f e $ 8 e & & & O # G e 8 $ O O O # & 8 u & & $ & 8 $ & d d q & $ $ $ & & 8 8 & e & 8 & & $ $ # $ $ 8 & & $ $ 8 G & 8 $ & $ $ & & 8 O O O # 8 & O & & q u q # $ $ $ q e 8 & & & O O $ 8 & 8 8 e $ # & $ & $ u d u ",
"u u u d u d d u $ $ O O $ u 8 q u & q $ 8 8 d G e $ & e & 8 & O $ d e 8 $ O O O # q q q 8 $ & & 8 & & d d e & $ $ $ & # 8 8 & e & 8 & & $ $ # # $ 8 & $ & 8 e G & & & & $ $ & & & O O O $ 8 $ O & & q u e # # $ & 8 q 8 q & $ O O $ 8 & 8 q 8 & # & $ & 8 q d u ",
"u d u f d d d q & O O # # d e e 8 & q $ 8 u d G u $ $ & & & & O & u d e $ O O O # q q q & & $ 8 8 & & d u 8 & $ $ $ & $ & 8 & 8 & 8 & & $ O O # & q $ $ & 8 e q & 8 & & $ $ & & 8 O O O # & $ O & & & q & $ # $ & q u 8 q & & O O $ 8 & e 8 8 $ O $ & & 8 8 u u ",
"u u d G G f u q & O $ O $ d e q 8 e 8 8 q q d G u & & $ $ & & O $ u u e $ O O O # u u u & & $ 8 8 & & d u 8 & $ $ $ & # 8 e & 8 & 8 & & $ O # # & e & & & e q e & $ & & $ $ $ & & O O O & & $ O & 8 8 q & # $ & & q u q & $ $ O O $ 8 & 8 8 8 $ O O $ e u & u u ",
"q q u H G d u 8 & O & O & d e 8 e 8 q & u q u d q & 8 & $ & & O & u d 8 $ O O O O 8 q q & & $ 8 $ & & u q 8 & $ $ $ & $ 8 q & 8 & 8 & & $ O O # & u & & & e q q & & $ & $ O $ & & O O O O 8 $ O & 8 q u 8 $ $ & & u u 8 & & & # O 8 8 & 8 & 8 $ O O O & u q q u ",
"8 8 d G G d u 8 & & $ # $ d e q & 8 q & q u q d d 8 8 & $ & & O $ d d e $ O O O # 8 8 q & $ & $ $ 8 8 d e & & $ $ O & # 8 u 8 e 8 8 & $ $ O # # & d & & 8 e q q & & & & $ $ $ 8 & O O O $ & $ O & 8 q u q $ $ & & u u q $ & $ # O 8 8 & 8 & & & $ O O & d 8 u u ",
"& 8 u G G u q $ & $ & O & d e & & e q 8 u q q d d q e & $ & & # & d d e $ O $ O # 8 8 q & & & $ & 8 8 e e 8 & $ $ O $ $ 8 q 8 e 8 8 & $ $ O O # # q & & e e q q & & $ & $ O $ & & O O O # & $ O & & q u 8 # $ & 8 u u 8 & $ & & # e 8 8 8 & & & O O O & d q u u ",
"& 8 q G f u q & & $ $ # & f e 8 & 8 q 8 q d u d G u u & $ & & # & d u e $ O O O $ 8 & e & $ & $ & 8 8 q q e $ $ $ O # # & 8 8 e 8 8 & $ $ O # O # u & & 8 e q e & & & & $ $ $ & & O O O $ & $ O & & q u 8 $ $ & 8 d f 8 & & & & & e e e 8 & & & O O O & q q q u ",
"& 8 d d d u q & $ O $ # & u u 8 & e 8 8 u f d d G f u & O & & O & f d e $ O $ O # & & q & & & $ 8 8 e q u u $ $ $ O $ $ & 8 & e & 8 & & $ O $ O # u 8 8 e e q q & & $ & $ $ & & & O O O O $ $ O & & & & 8 $ # $ 8 f d q & $ & 8 & 8 e e q & & $ O $ O & e 8 q u ",
"& 8 d d d u 8 & $ $ # $ & u u e 8 q 8 8 q f d d G G d $ $ & 8 O & d u e & O O O $ & & q 8 $ & $ $ 8 u q u u $ $ $ O # $ & u 8 e & & & & $ O # O & d 8 8 8 d q e & & & & & 8 8 & & O O O O $ $ O & & 8 & 8 # # $ 8 d d 8 & & $ 8 8 q 8 u q & 8 & $ O O $ & q u u ",
"& q d f d q q & $ $ $ $ 8 q u 8 8 q 8 8 q d d d d G u $ & e $ O & f u e & $ O O $ & & q & & $ & & 8 q u u u $ $ $ O O # & q q q 8 & & & $ O O & 8 d e 8 & e q q & & $ & & 8 & $ $ # O O O O $ O & & 8 & 8 # $ & 8 u q 8 $ $ & & & u 8 8 8 8 8 & O O O $ $ & u u ",
"& 8 u f d 8 q & $ $ # # 8 d q q 8 q 8 8 u d u f d G d $ $ & $ O & f d e & $ O O # & & e 8 $ $ $ 8 8 q u u u $ $ $ O # # & u u e 8 8 & & $ O O & 8 d 8 & 8 u e 8 & & & & & 8 8 & $ O O O O O $ O & & & $ 8 # # & e q u & & $ & $ & e 8 8 8 8 q & $ O O & & & q u ",
"& u d f u q q & $ $ $ & 8 d d e 8 q 8 q q d u d d G e $ $ 8 $ O & G d 8 $ O O O # & & q 8 $ $ & & 8 u q u d $ $ $ O O O $ u & 8 & & & 8 $ O O & 8 d 8 & & & e q & & $ & $ 8 8 $ $ # O O O O $ O & & 8 & 8 # $ & q q u 8 & & $ # & d u 8 8 8 e & $ O O $ & e u q ",
"& q d f d q u 8 $ $ $ $ q d d ~ ~ ~ ~ ~ ~ ~ ~ ~ ~ ~ ~ ~ ~ ~ ~ ~ ~ ~ ~ ~ ~ ~ ~ ~ ~ ~ ~ ~ ~ ~ ~ ~ ~ ~ ~ ~ ~ ~ ~ ~ ~ ~ ~ ~ ~ ~ ~ ~ ~ ~ ~ ~ ~ ~ ~ ~ ~ ~ ~ ~ ~ ~ ~ ~ ~ ~ ~ ~ ~ ~ ~ ~ ~ ~ ~ ~ ~ ~ ~ ~ ~ ~ ~ ~ ~ ~ ~ ~ ~ ~ ~ ~ ~ ~ ~ ~ f d u e 8 & q & $ O O & 8 8 u q ",
"8 u f G f u f q $ $ $ # q f d ~ R R R R R R R R R R R R R R R R R R R R R R R R R R R R R R R R R R R R R R R R R R R R R R R R R R R R R R R R R R R R R R R R R R R R R R R R R R R R R R R R R R R R R R R R R R R R R R R R f d q q q 8 q & $ O O & 8 e 8 q ",
"8 u f f d q f d & O # $ & G f ~ R R R R R R R R R R R R R R R R R R R R R R R R R R R R R R R R R R R R R R R R R R R R R R R R R R R R R R R R R R R R R R R R R R R R R R R R R R R R R R R R R R R R R R R R R R R R R R R R f d u q q 8 q e $ O O & 8 q 8 8 ",
"8 q G d u d G f & O O $ 8 f d ~ R R f f f f f f f f f f f f f f f f f f f f f f f f f f f f f f f f f f f f f f f f f f f f f f f f f f f f f f f f f f f f f f f f f f f f f f f f f f f f f f f f f f f f f f f f f f f ~ R R f d d q q 8 u & $ O $ 8 e 8 q 8 ",
"8 u G f e q f f & O O $ $ G f ~ R R f 4 4 6 6 6 6 6 6 6 7 6 6 7 7 6 6 4 4 6 6 6 6 6 7 7 7 7 7 6 6 7 7 7 7 7 7 7 7 7 7 7 7 7 7 7 7 7 7 7 7 7 7 7 6 6 6 7 7 w 6 6 6 6 6 6 6 6 6 7 7 7 7 7 7 7 7 6 6 7 6 7 6 7 7 6 6 6 , : + ~ R R f d d e 8 8 u & $ O & 8 e 8 q 8 ",
"8 8 G G 8 e d u & O $ $ 8 G G ~ R R f 6 7 7 7 7 7 7 7 7 7 7 7 7 7 7 6 6 6 6 6 6 7 7 7 7 6 7 7 6 6 7 7 7 7 7 7 7 7 7 D 7 7 7 7 7 7 7 6 7 7 7 6 6 6 6 6 6 6 6 6 6 - 6 6 6 7 7 7 7 7 7 7 7 7 6 6 7 6 6 6 6 6 6 6 6 2 , , @ + ~ R R f d u q e q d 8 $ O & 8 8 u u 8 ",
"q 8 G G q 8 d d & O O # 8 G G ~ R R f 7 7 7 7 7 6 6 7 7 7 7 6 6 7 7 6 6 6 6 6 6 7 7 7 6 6 7 7 7 7 7 7 D 7 7 7 7 7 D D D 7 7 7 7 7 6 4 & 4 4 # 4 4 & & # # # 4 # O # 4 4 4 4 4 4 6 6 6 6 4 4 # 4 # # 4 4 # x x l , : : + + ~ R R f q q 8 8 u d 8 $ O O & 8 u u 8 ",
"8 8 f f q 8 d d 8 $ $ $ 8 J G ~ R R f 4 4 4 4 6 6 6 6 6 6 6 6 6 7 7 7 6 6 6 6 6 6 6 6 7 7 7 7 7 7 7 D 7 7 7 7 7 7 7 7 7 6 6 6 4 # 4 & O O O O O O O . . O O O O O O O O O O O O O O # 3 O O O O O O o V l 2 1 @ + @ + , o ~ R R f q u e 8 q u & $ O & & u u u 8 ",
"& 8 d f q 8 d f 8 O O $ 8 J G ~ R R f & & 4 4 4 6 4 4 6 6 6 4 6 6 6 6 6 6 6 6 6 6 7 7 7 7 7 7 7 7 7 7 7 7 7 7 7 7 7 7 7 7 7 7 6 4 4 4 & O O O O O O O O O O O O o O o o o O O o o o O O O O o . . . , x , @ + + + X + @ O ~ R R f u q q 8 8 u 8 & $ $ u u d u 8 ",
"& 8 d d 8 e d f 8 & O $ q H G ~ R R f 4 6 6 6 6 6 6 6 6 6 6 6 7 6 6 6 6 6 7 7 7 7 7 7 7 7 7 7 7 7 6 6 6 6 6 7 7 7 7 7 7 6 6 6 6 6 4 4 4 4 # # # # & # # # O # O O O O O O O O O O o + o . . , x 2 2 2 : + + + + + X + o O ~ R R f q u 8 8 q u q $ & 8 d d q q 8 ",
"& & u d q & d d 8 & O # 8 f G ~ R R f 6 6 6 6 6 6 6 7 7 7 7 7 7 7 7 7 6 6 6 6 6 6 6 6 6 6 6 4 4 4 4 4 # & 4 4 4 - 4 4 4 4 4 & & # & # # # # & 4 4 4 4 4 4 4 4 4 6 6 6 6 6 4 4 # # 3 3 3 # O 2 l 1 : + + + + @ : o o @ :   ~ R R f d u 8 q 8 u & & $ 8 d q q 8 8 ",
"$ & u f 8 & u d q & $ $ 8 G u ~ R R f 6 7 7 7 7 7 7 7 7 7 7 7 7 7 7 7 6 6 6 4 6 6 6 6 4 4 # O O O O O O O O O # O O O # # # # # O # & & & 4 # O # # 4 4 4 4 & 4 6 7 7 D D 7 7 6 6 6 6 4 , 2 2 : + @ + + + : , o . . > :   ~ R R f d d u 8 q u & & & 8 d e 8 8 & ",
"& $ q H q $ 8 d 8 & $ $ e d d ~ R R f 4 6 7 7 7 7 7 7 7 7 7 7 7 7 7 7 6 6 6 6 6 6 4 4 & # O O O O O O O O O O O O O O O # 4 4 & & 4 4 4 4 4 4 4 4 4 6 6 6 4 & 4 4 & - 4 4 4 4 6 6 4 , 2 , > > X o . + @ , 2 o . + + : @ + ~ R R f d d u q u u $ $ $ q d u & 8 8 ",
"$ $ u G q & 8 u 8 & $ & q d d ~ R R f 6 6 6 6 7 7 7 6 6 7 7 7 7 7 7 7 7 7 6 6 6 4 4 # # O # O O O O O O O O O O O # # & 4 6 7 7 7 7 6 6 6 6 6 6 6 6 6 6 4 4 4 4 4 # O # O O 3 , , , > : : @ , O O o @ > 2 O O + + + : @ + ~ R R f d f u u q 8 & & $ q d 8 & 8 8 ",
"& & d G q 8 8 e & & O # & d d ~ R R f 4 6 4 6 6 6 6 6 6 6 6 6 7 7 7 7 7 6 6 4 4 4 # # O O O O O O O O O O O O O O # 4 4 4 6 7 7 7 7 7 7 6 6 6 4 4 4 4 # O O O O O # O O O # , , > : + + X @ : : @ @ > 2 O O o + o + O O @ ~ R R f G f d q u u 8 & $ 8 d e & 8 8 ",
"& & d G d 8 8 8 8 $ O $ 8 d d ~ R R f & 3 # 4 4 4 4 4 4 4 4 4 6 6 7 7 6 6 4 4 4 4 # # O O O O O O O O O O O O O # & 4 4 6 7 7 D D 7 7 7 6 6 6 6 6 4 4 4 4 # # 4 O O # 3 & 2 2 > @ @ + @ @ > , : @ @ 2 4 4 4 4 O # 4 # # 4 ~ R R f f G u q u u d & $ 8 d e & 8 8 ",
"& & d G q 8 q e & & O $ & d d ~ R R f # # # # 4 4 4 4 4 4 4 4 4 6 6 6 6 4 4 4 4 4 # # O O O O O O # # # & 4 & & & 4 6 7 7 D D d d d D D D D 7 7 7 7 7 7 7 7 6 6 6 - 6 7 6 x > @ @ @ @ # 6 : : @ @ @ 4 6 - 4 4 4 3 4 4 4 4 ~ R R f f f u q q d u & $ $ d e $ 8 8 ",
"$ & u f u u u 8 & & O $ & G G ~ R R f 6 6 6 6 6 6 4 6 6 6 4 4 4 4 # # 4 4 4 4 4 O # # # # O O O & 4 6 6 6 6 7 7 7 7 7 D D d d d d d d D D D D D D D D d d D D D D D D D l x @ @ + - : 6 6 > : + + + + + @ > o O O o o o o ~ R R f f d u e d d u & O $ d e $ & 8 ",
"& # q f u u u q & $ $ $ 8 G G ~ R R f 4 6 6 6 4 4 4 6 6 4 4 4 4 4 4 # 4 4 4 4 3 # 4 4 4 4 4 4 4 6 6 7 7 7 7 7 7 7 7 7 7 7 7 7 7 7 6 6 6 6 6 6 6 4 4 6 6 6 6 6 6 6 6 6 6 x 2 1 : o O @ # # > @ + X + + + : . . . . . . . . ~ R R f G f q u q d q $ O & d e & & 8 ",
"$ $ q f d u u u & & O $ 8 G d ~ R R f 7 7 7 D 7 7 D D D 7 7 7 7 7 7 6 6 6 6 4 4 4 6 7 7 7 6 7 7 7 7 7 7 D D D D D D D 7 7 6 6 6 7 6 6 6 6 6 4 4 4 4 4 4 6 6 6 6 6 6 6 4 x , > @ o 2 > , O o @ + + X + + . . o o . . . . . ~ R R f d f d d q u & & $ 8 d u & 8 8 ",
"& $ 8 f d u d u & $ O $ 8 G G ~ R R f d d D d D d d d D D D D 7 7 7 7 6 6 6 4 6 6 7 7 7 7 7 7 7 7 7 7 D 7 D D D d d D D 7 7 7 7 7 7 7 6 7 7 6 6 6 6 6 6 7 7 7 7 7 7 7 > 2 , @ @ # + > , , # @ @ @ @ @ . . . . . . . . . . ~ R R f d f d d d u & $ & 8 d q 8 8 8 ",
"$ # 8 d u u d u & $ O $ q H d ~ R R f D d d d d d d d d d D D D 7 7 7 6 7 7 6 7 7 7 7 7 7 D D D D D 7 D 7 7 7 7 7 7 7 7 7 7 7 7 7 7 7 7 7 7 7 7 7 7 7 D D D D D D D 7 , 2 > + X @ + + : : , : @ + @ @ o o o o O o . o o o ~ R R f q d d d d u & & & 8 d q 8 8 8 ",
"& $ 8 d f f d u & O O # q G d ~ R R f 7 D D D D D D D D D 7 7 7 6 6 6 7 7 7 7 7 7 7 7 7 7 7 D D D D 7 7 7 7 7 6 6 6 6 4 4 4 4 4 4 4 4 4 4 4 < 2 x b b V C V x 2 2 4 & : > : @ + @ + + : + : @ @ + @ o O # # O O O o o O O ~ R R f q d q u q u q $ & 8 u q 8 8 & ",
"$ & q G G f f d & $ $ $ q G e ~ R R f 4 6 6 6 6 6 6 6 6 6 6 6 6 4 4 6 6 6 6 6 6 6 6 7 7 7 7 7 D D 7 6 6 6 6 4 3 # # 4 # # # # O O # O > V S S S S ^ ( ( ^ {  .{ ^ v > @ @ @ + : > + @ + @ @ : @ + @ o # 3 # O O # # o # # ~ R R f u d q u q q 8 $ & 8 u u q 8 & ",
"8 & u G G u d u & O O # e G d ~ R R f O # # 4 4 4 4 4 4 4 4 4 4 4 4 4 4 4 6 6 6 6 7 7 7 7 D D D 7 7 6 4 4 4 4 4 4 # # # # # & O O O , v C C S S C S ]  .S ] ....( c 1 @ @ , @ : + : > + + + @ : + + 3 3 3 3 4 - 7 7 6 6 6 ~ R R f d q 8 8 8 q & & $ u q d d q & ",
"& & q G H q u u & & $ $ q G d ~ R R f O O + O O O O O # # # # # 4 4 4 4 4 6 6 6 7 7 7 7 7 7 7 7 6 6 6 6 4 4 4 4 4 4 & O # 4 # O # l , l v j L T L C / ] ( {  .] V c V : + : + + @ > l 1 + + @ @ X + O # 4 4 4 6 7 7 7 D D ~ R R f d d 8 8 8 e $ & $ 8 8 d d u 8 ",
"& & q G G q u u 8 & $ # e H d ~ R R f O # # # 3 # # O O O O O O O # 4 4 6 6 6 7 7 7 7 7 7 7 6 6 6 6 6 4 6 4 4 4 4 4 4 # # 3 # 4 2 : > l l M L U T V c C ( ( ( S c V b , @ : @ @ @ o o o o @ @ O o O O # 3 4 4 6 7 7 7 D D ~ R R f d d e 8 8 8 & $ $ 8 8 q d u & ",
"8 & q f G u d d q & & # q G d ~ R R f - 6 6 6 4 4 4 4 4 4 4 4 4 4 4 4 6 6 6 7 6 6 6 6 6 7 7 7 7 7 7 6 6 6 6 6 4 4 4 6 6 4 4 4 6 + , , i z M L T L v y S ..( ^ A b V v , : > > O o # 3 # O , l O # 4 4 4 4 6 6 6 7 7 7 7 D ~ R R f d d q 8 8 e & $ 8 8 & e d u & ",
"8 & 8 f G f f f u & & $ e G u ~ R R f D D 7 7 7 6 6 6 4 4 4 4 4 4 4 4 4 4 6 6 6 6 6 7 7 7 7 7 7 7 7 7 7 7 7 7 7 7 7 7 7 7 7 D : : > , < i i L T V l x S [ ( S S V l l > l 4 O O # 4 , 2 1 1 # # 4 6 6 6 6 7 7 7 6 6 6 6 6 ~ R R f G d q u 8 8 $ & 8 8 8 8 d u & ",
"8 8 8 d f u f f e & & $ q G e ~ R R f 7 7 7 6 6 6 4 4 4 4 4 4 4 4 4 4 4 4 4 4 4 4 6 6 6 6 7 7 7 7 7 7 7 D D D d d d d d d F : > > : 2 2 l x C C b c v v v V V Z V x 2 l C , , , 2 1 1 > > @ # & 7 7 D D D 7 D D 7 7 7 7 4 ~ R R f f d u u q q & & q u 8 & u u 8 ",
"u 8 8 u f q d d q & O # q G u ~ R R f 6 6 4 4 4 4 4 4 4 4 4 4 4 4 4 4 4 4 6 6 4 4 6 4 4 6 6 6 6 7 7 D D d d d d d d d d d p : , > : > , 2 c v z 1 l c b l l c v x 2 , l l > x V v > @ @ @ + w D d d d g g g g g g g g g d ~ R R f f d u u q q & & 8 u q & q q & ",
"8 8 8 u q 8 u u q & O $ u H e ~ R R f # # O O # 4 # # 4 4 4 4 4 4 4 4 4 4 4 4 4 4 # 4 # # # & & 4 6 7 7 7 7 D D D D D D D - : , ; : : @ > 2 v z 2 l l c a i 1 2 2 l > v V > l l : @ + + + 4 7 D D d g g g g g g g g g g g ~ R R f f d u q q q $ & 8 d 8 8 8 8 8 ",
"u 8 8 u 8 $ q d q & O $ d G u ~ R R f # O O O # 4 # # 4 4 4 4 4 4 4 4 4 4 4 4 3 3 # # # 4 # # # 4 4 4 4 4 4 6 6 6 6 6 6 - 2 : < y , 1 l , > l 2 2 2 1 2 l l l 1 2 v 1 v C 2 x @ : @ X   +   D g g g g g g g d d d d d d d ~ R R f d d d u q 8 & O & u u 8 q 8 & ",
"u 8 8 u 8 & u d 8 & O $ u G e ~ R R f # # & 4 4 4 4 4 4 4 6 4 4 4 4 4 4 4 4 4 4 4 4 4 4 4 4 6 6 6 6 6 7 7 7 D D D D D d d + > 1 M 2 > v S V A ^ S C A A ^ A V b V l l b x p F 1 2 s r - , 1 O O d d D 7 D 7 7 6 6 6 6 6 6 ~ R R f f d d u 8 8 $ O & e u 8 e 8 8 ",
"u 8 q u u & u f u $ O $ q G u ~ R R f 6 6 6 4 4 4 4 4 4 6 6 6 6 6 6 6 7 7 7 6 6 6 7 7 7 7 7 7 7 D D D D d d d d d d g g g d @ , y a 1 2 S ^ ( ( ( '  .........( A , x c : @ > V U U L j j v C c l 6 4 # # # # # # 3 # # 4 ~ R R f d d d q & & $ & $ 8 d q q 8 & ",
"8 8 8 q e $ q u 8 $ O O q G e ~ R R f 4 4 4 4 4 6 6 6 6 6 6 6 7 7 7 7 7 7 7 7 7 7 7 7 7 : , 7 7 7 7 7 7 7 D D D 7 7 D D 7 7 > , , y l 1 A ^ ( ' ( ] ........ .( c > l , + + l C S L n p V C Z A V c 1 o O O + O O O O O O ~ R R f d d d e & & & & $ & u q 8 8 8 ",
"8 & 8 d q & q u q $ O O 8 G e ~ R R f 4 6 6 6 6 6 4 4 6 6 6 4 4 6 6 6 6 7 7 6 7 7 6 6 : , , 6 4 4 4 4 4 4 4 4 4 # 4 6 : : : @ > - < z 1 C ^ ^ ^ S ( ' { [ ] ( / c 1 , @ + @ b S S s 2 n n V c A / S c l c O O o o O . . . ~ R R f d d d q & & & $ $ & u u 8 8 & ",
"8 8 u d q $ q u 8 $ O O q G d ~ R R f 6 6 7 6 6 6 6 6 6 6 6 4 4 4 6 4 4 4 4 4 4 4 4 3 : , 2 2 # # # # O O O O o O O & : : : + : 1 2 2 l z b 2 l l x v b V c V Z : : : + + 1 V V v > 1 a B ^ ] { [ / b V l 2 O O O # # # # ~ R R f d d d q & $ & $ $ & u 8 8 q & ",
"q 8 u f d & q u 8 $ O O & d e ~ R R f 7 7 7 6 6 7 7 7 7 6 4 4 4 4 4 4 4 3 3 4 4 4 # O + , , , O O O + O O O O O O O 2 , @ @ @ : , x l l , l c x l v V Z S b c l + : + + , l V V 1 : s a S ^ ( ( ( ' S V C x 2 4 - 7 7 7 7 ~ R R f d d f q & $ & & & 8 e 8 & e 8 ",
"u q d f d 8 e 8 8 $ O O & d u ~ R R f 7 7 7 7 6 6 6 6 6 4 4 4 4 4 4 4 4 4 4 4 4 4 3 3 + @ @ > O O O O O O O O < 2 z > @ + @ : : : l l : , b x - t c A ^ ( ^ C z @ @ @ @ , s V v > > M n ^  . .^ ] { ( S v V v x u D d d d ~ R R f q d G u $ & $ & & 8 8 & 8 8 & ",
"8 q d G d 8 q u 8 $ O $ $ u e ~ R R f 7 7 7 7 6 6 6 6 6 6 6 6 6 6 6 4 4 4 4 4 4 4 4 3   + + @ 2 , 3 # O O < < l 1 @ : , : @ @ , : 1 , : , l t < < < l V V ( S l +     @ , r V l > 1 t p ( ..{ ( ( ( ( ( S C A v > 7 7 D d ~ R R f 8 d G d $ & $ $ 8 8 q & & 8 & ",
"8 8 u d u e q u q & O O & e e ~ R R f 7 7 7 7 7 7 7 7 7 7 7 7 7 7 7 6 7 6 6 6 6 6 6 6   + + + > 2 6 4 4 , l 2 : + @ l 1 : @ + 2 , , : > , , < i i i v A S ^ C 2 @   X > , x C 1 , w w t C ^ U L S ^ ( ( ( S v V v 6 7 7 D ~ R R f q d G f & & $ $ 8 8 8 & 8 & 8 ",
"8 8 q u q d q u q & $ $ 8 d 8 ~ R R f 6 6 6 6 6 6 6 6 6 7 6 6 7 7 7 7 7 7 D D D 7 7 7 + + + + @ 2 l , 2 l > + @ : 2 1 , , , 7 7 7 , : > , 2 2 , , , , l b C s 1 +   + : , b b 1 2 , * w V C n d p b S ( ( ( c b Z 2 6 6 6 ~ R R f d d G G 8 $ O O 8 u 8 & & & & ",
"& 8 8 u u d q u u & $ # q d 8 ~ R R f 4 4 4 4 4 4 4 4 4 6 6 6 6 7 7 7 D D D D D D 7 7 @ + + @ : : x x 1 : @ @ @ > v l 1 , d d g d & @ : > , x z b b M V C x , : $   X : l V c l 2 , , , 2 M N M x b V C ^ S V c A b 6 6 4 ~ R R f d f G f 8 $ O $ 8 u e & $ & 8 ",
"& 8 q u q d q u 8 & $ & 8 G 8 ~ R R f 3 4 4 4 4 4 4 4 4 4 4 4 6 6 6 7 7 7 7 D D 7 7 7 7   X + : 2 l : + , 7 + : x V , @ 2 7 D D F = = @ @ > 2 l b b M l , @ O $ +   + @ l b l l 1 : , , , p b b l x b V S S A l V ^ , D D ~ R R f d G G f 8 $ $ & 8 u 8 & & & & ",
"& u d u q q q e 8 & & & u H u ~ R R f 3 4 4 4 4 4 4 4 4 4 4 4 4 4 6 6 6 6 7 7 7 7 7 < > n x z t , : : > 4 4 4 l V 2 : > 6 4 6 : ; t p - $ $ : : * , : $ # $ $ : +   + @ y M z 1 : @ : , , , , , , , x b b x V 2 x ( 2 d d ~ R R f f d u f & $ $ $ q u u 8 & & & ",
"& u d u u & 8 8 q 8 $ 8 q G f ~ R R f 4 4 4 4 4 4 4 4 4 4 4 4 4 4 6 6 4 6 6 6 6 < i i t k a p r - O O 6 6 6 , ^ ( , > + + @ @ $ w t j a w ; $ $ $ $ $ - r * : $ +   > * s n y , : @ : , , > , , , , 2 b b t M r : S x 7 7 ~ R R f d d u d & & # 8 q u u e & 8 $ ",
"f d u 8 8 & & e u & & 8 u G d ~ R R f 6 6 6 6 6 6 6 6 6 6 6 4 4 4 4 6 6 6 6 6 < w j K E B h s p w O O O 7 > l S x @ : D D @ $ w t i j K n p p p p t r t w $ > $ O   : * j n 1 > , @ @ : , , , > : , 2 x x t b c , ' x 6 6 ~ R R f d q e q $ O $ 8 u u u 8 q 8 & ",
"f d 8 q e & & u u & 8 u u G d ~ R R f 7 7 7 7 7 7 7 7 7 7 7 6 7 6 6 6 6 6 4 j B I Q E L j L ! M w < O O : y M y : @ D @ ; % $ w t i K K K n n a t w - $ * & - O @   @ ; t v 2 , , @ > @ @ @ > , l x V C S S S C , v l 4 6 ~ R R f d q e q & $ $ q q 8 8 8 8 q $ ",
"d q 8 q & O & u q 8 q q f d q ~ R R f 7 7 7 7 7 7 7 7 7 7 6 7 7 7 6 6 6 4 a j I ! ! V j i p K r g < O O , y p , @ + & = e - $ O = t p n n h a $ $ $ $ * t r e & %   + : y v l l , > , 1 1 x l i a C A Z c 2 , : + : > 6 6 ~ R R f d d d q & O $ & 8 8 q & e 8 & ",
"d u q u & O $ u q 8 8 u f G q ~ R R f 6 6 6 6 6 6 7 6 6 6 7 6 6 6 6 6 4 O m E I I N p i w ; a p g > @ , < p p < + + & e < e w * # $ w p w : & 9 r p h h h h t & *   X : < p x l l l x x V j t a 1 1 , > @ @ @ > : @ : 6 6 ~ R R f d d d d & O & q & 8 q 8 q 8 $ ",
"d q 8 d e $ & f f 8 8 u f f 8 ~ R R f 6 6 6 6 6 6 6 6 6 6 6 6 6 6 6 6 O * a P P n r ; , $ * n j q > > , t p p , @ $ 0 e e e t e 0 ; , 1 * * w t p h h m U I B t 0 & X : y t M c V V N V x r t , : @ : : > w < , , : @ D 7 ~ R R f d d d e $ O & u 8 8 u 8 8 q $ ",
"f u 8 d u $ $ f d q 8 q u G 8 ~ R R f 6 6 6 6 6 6 6 6 6 6 6 6 6 6 6 6 O $ & ; p w $ * * $ a j r : > > ; w p , @ + % e t e t h p t t $ - r t t h h h h U ( U W m 0 0 + + r t t v c N p a l , , > , 2 2 t w t ; $ D d d d d ~ R R f d d u q $ O & u q 8 u q 8 q $ ",
"d u 8 d u & $ d d 8 8 8 d f 8 ~ R R f 6 6 7 7 7 7 7 7 7 7 6 6 7 6 4 & 1 2 >   - w * @ $ t m w p : @ ; < < ; : + @ & e e t h I C m p 0 9 w e h h B I B U W W W W h e $ + < p t y 1 < w 2 > : w j I I N j a j t $ 7 D D d d ~ R R f f d u u $ O & u u q u 8 e & & ",
"d q q u u & $ d d q q 8 u G & ~ R R f D D D D D 7 7 7 7 7 7 7 7 , , ; > @     $ w $ - a I s % - 2 @ > ; ; % : + @ w 0 e B ( ] ( m & 0 - t p h m I I I I U I I W B r - > @ , w t , 2 , > w B E Q ! | } E B a n w 7 7 D d d ~ R R f d d q q & $ $ 8 u u u q 8 & $ ",
"d q q u u $ & u u 8 8 8 d f 8 ~ R R f d d d d d d D D D D D : @ : @ : +     $ - p p n V k w > 6 l @ @ > : : + O * 0 e t I ( ( I u * - w t p h h m m I I B h p h h t - $ @ : > 2 , ; w p B Q _ _ ` | | Q E m P I p d d d d ~ R R f d d u q 8 O $ 8 u u d q 8 8 & ",
"d 8 8 d u 8 $ u u 8 q 8 u H e ~ R R f d d d d d d d d D 2 , , @ + X       $ w a n h K B u 7 D d d : @ @ > : @ O $ e t t m W ( B 9 * w t t p h h h p M B M t t t e 0 $ @ $ ; ; + & * t K E Q _ _ } } } _ Q K n ! N d d d d ~ R R f f d q d e O & 8 q u q q 8 8 & ",
"8 & q u f 8 & d q 8 8 & d G e ~ R R f d d d d d d d d x l l @ + + X   + = ; M E n t j = > t - D d > : : : @ @ $ $ - w e p I ( m % - e t e t h t p t t t t t t t e - % @ % ; @ + $ $ p P E Q _ _ ` | } _ _ n j I r D D D D ~ R R f d u u f 8 & $ 8 8 u q 8 8 & q ",
"q & 8 u f q 8 u q 8 & 8 u G 8 ~ R R f d d d d d d d 2 l , + X + X + @ & $ * w B h w $ @ y n a w u d D D > > $ $ = w e e h M B > $ 9 e 0 e e e t t e 0 e t t * & $ - % % O O + @ # > t P E E _ _ _ | | _ _ E j j - 7 7 7 7 ~ R R f d q q d 8 & & 8 8 e q 8 & 8 8 ",
"8 # # 8 d q 8 u 8 & & 8 q u 8 ~ R R f d d d d g d + , > + X + +     & & $ O $ 0 = $ @ , n L L s - - 4 4 D : + $ & & - e p t = $ * * & & & = * 9 9 & w e 0 - $ $ $ % @ + + + + @ $ : r m E E Q _ _ | | _ _ Q K r * D D D D ~ R R f d q u d e & & u q q 8 & & 8 8 ",
"q $ & 8 d q & u 8 8 & 8 e e 8 ~ R R f g d d g d     + : @ + +     + & O # $ & $ : : * a L L B n v * o 3 - @ + $ O O O - r 9 O @ $ & - - - w & * * e e w 0 & $ : O @ @ + ; + + % % : - j P E E Q Q } } _ _ Q P < $ d d d d ~ R R f u q q d 8 $ 8 u d u 8 & $ 8 8 ",
"d & & 8 d u q q u & 8 8 q e $ ~ R R f d d g g g +     + + + @ # O O O # O O ; @ , l t p n U T L n i , o # @ @ @ ; $ O $ & $ O @ @ % - ; 0 e e 0 e t - * ; ; $ ; $ * $ O O O + % + $ > a P E P P P Q _ _ _ _ B 1 > d d d d ~ R R f u d d f 8 $ 8 d q q q & $ 8 8 ",
"d q 8 8 f u e q u & 8 8 8 e $ ~ R R f d d g g g :         + & O O # o # 3 $ + + > c j p r m T T L B i 2 l % @ ; ; ; = = $ $ ; ; ; ; @ ; $ < y , ; ; - > $ $ * $ O $ $ $ O % % + + > , r j E P P E Q Q E Q Q j 1 y d d d d ~ R R f d d u d 8 $ 8 u q q d 8 & 8 u ",
"d u 8 u f u 8 d u & 8 8 & e $ ~ R R f d d d d d d <     & - # O O # O # 3 @ @ > , , 1 l t p n U L L L C 2 , @ @ ; ; ; ; % < ; ; : < < < < y 2 y < ; $ $ $ $ O O $ $ * * * > % + + > < < r P B P E E E E P P n w w d D D d ~ R R f q u q d 8 & 8 u u d u e 8 u u ",
"f u q u G u 8 d u & & 8 8 e $ ~ R R f D d D D d d d d d d 4 O O # 4 4 4 3 @ > 1 > , , 1 1 , 1 2 p n U U B w , , ; ; ; ; ; < : @ $ * * - t t t t * - * * * - & 9 0 & $ * * ; @ + ; : > $ w r B V V L B B E Q n w r 7 4 6 d ~ R R f q u 8 q & & 8 f f d u q 8 8 d ",
"G d u d G u q d q 8 q 8 & 8 $ ~ R R f D d d d d d d d d - O O 3 4 4 4 5 3 : : , 1 1 2 , l x l 2 l a m T L n s 1 1 ; 0 * $ $ O O O $ $ w e w w - - - * w n h e = * $ * ; * % + ; ; 7 7 $ - - t a j a a B ` } B r p 6 4 4 6 ~ R R f q u 8 q $ O e G G f u 8 8 q d ",
"G d 8 d f u & q 8 8 8 q 8 8 $ ~ R R f d g d d d d d d - o O O 3 3 4 4 6 o o % > 1 l v l x v V S S ^ ^ U U L n i , ; & $ $ O $ $ $ $ $ $ $ $ $ & * - = p m p e - * $ : ; % + + ; & - - & : $ $ ; w t a E ! S n k t : 4 6 6 ~ R R f u q e q $ $ & G G d d q 8 8 u ",
"G d q f G u e q e & 8 8 8 e 8 ~ R R f g d d d d d D - O o 3 O 3 3 3 3 # . . . ; > 2 l v l z z x Z S V N L C N M < % % $ $ - & = = = * - - $ & * * - & = t t t - O O O $ $ + % ; O O # 4 $ > $ ; < w n Q ! P n a ; : , 4 4 ~ R R f d q u q & $ & f f d f e & 8 u ",
"G d 8 G G d 8 q 8 & 8 q & 8 8 ~ R R f d d d g g d 4 o o O o # 3 3 3 o o   . . . $ > 1 l 1 1 1 , l c M M N n M M w + @ & & = t t t e < e $ - * $ $ $ $ = 9 h p 9 $ $ O O + + % & O O 4 4 $ $ w w t p L _ Q n a , , < l 2 3 ~ R R f d d f q & $ & u f u G q & 8 u ",
"G f q d f d & 8 8 8 q 8 8 e 8 ~ R R f d d d d d - 3 o o 3 o . o 3 3 3 3 .   . .   * , 1 2 1 2 2 l l M M M p a < ; : & & = t h M m p p h t e r * $ * $ $ & a p 0 0 $ O $ + @ o O + # 4 # $ > > t p B S S N 2 2 l m n V x m ~ R R f d d d e 8 $ 8 f d q G q 8 8 u ",
"G f u d f u 8 q q 8 8 q & e 8 ~ R R f 7 D D 4 # o 3 o o o o o 3 3 3 3 3 o   . .     % @ > , 1 l 2 2 z M 2 < , , > + & = e t h h h B B h t 0 e r r 9 $ $ $ 9 t t e O O * + $ o o o 4 4 # O : $ t n L M 1 , 2 M I m Y S b 2 ~ R R f d f d d 8 $ 8 f u q d 8 8 u u ",
"G f d q d u 8 u u 8 & q & e 8 ~ R R f . . . .   . o o . o o o o 3 O . . .               : > 1 1 2 2 1 , ; , ; , : + % = t t e t t t h m h e 0 - e t 9 $ O & e e t - - ; $ o . o 3 4 3 O # $ $ p n i 1 2 s I L U I ( ^ S ^ ~ R R f f G f f 8 $ q f u q q & q d d ",
"G f f d G u q d q 8 8 8 & e 8 ~ R R f           . . o o . o O O O o o .   .                   : , , > > > ; ; ; > : + & = = = = e e 0 e h h e $ w t e * $ $ 9 - w - ; ; . . . . o o o o # : , l l t w t m U Y ( ^ ^ ( ' M ~ R R f d d d d 8 8 q f f 8 q & q d d ",
"G f d q d u u d q & 8 & 8 e 8 ~ R R f           .   o o   o o o o . o                         % , , > > > ; ; < 2 , @ + & & ; ; = = e 0 e t t $ $ w e 0 - $ * 9 * $ $ w . . . . . . o O O @ : w w w t j U S ( ' ( ( { { b ~ R R f d d u d 8 $ q f f q q $ u u d ",
"G f u 8 d q 8 d q 8 8 q 8 e 8 ~ R R f           . . . . .   . . o o .                       . . . < , , , > , , : : % % & & $ & $ - = = = 0 e * O $ e e w & * - * $ - 9 p .   . . . o O 3 - @ 1 z x V C S ^ ( ] ( ( { ] b ~ R R f q u d d 8 $ q f f q q & 8 u d ",
"G f u d d q u d q 8 8 u 8 8 $ ~ R R f           .       .   . . o . .                           3 o 3 # , , > : @ + @ + + O + + O O $ $ $ * * $ $ $ e e = * & > : $ ; = 0           O o o 0 : : 2 l v C L L ( { ] ^ ( ] S ~ R R f d d d u 8 $ 8 d f d d & 8 8 u ",
"G f d u d q 8 d q 8 q d q 8 $ ~ R R f o .     .   . .   . .   . o 3 .                         . 3 3 3 3 o . o ; ; @ + % @ + % % ; - - * * - & * & $ = = $ & ; w < $ % w p h .       o o o $ @ @ ; 2 c V C m U ( ( V ( ] ( ~ R R f d d d q & # e d d d q & & & u ",
"G G f q u q 8 d q 8 u u u 8 $ ~ R R f 3 3   . .   . o . .   o 3 3 4 o                       . 3 o o o 3 o o o o o * + @ + + @ % ; = e r r 9 & & @ O O O $ - t s , * $ * s M M         o o $ + : , w t j V A n Y Z b S ( ( ~ R R f d f f e 8 $ q d d d q & $ 8 u ",
"G G d q u q 8 d q 8 u d 8 8 $ ~ R R f 4 3 o . . o .       o 4 6 3 3 .                       o 3 o . o 3 o o o . 3 - @ + @ + O $ ; = e t t 0 = - @ + @ $ ; p C l & & # s N x s         o   O @ : > 1 , a A v V S C v V ( ' ~ R R f d G f u 8 & q d d q q & & & q ",
"G f d u u q 8 e 8 8 q u 8 $ $ ~ R R f 3 o . o . o o o . o 3 6 6 3 o                       . o 3 o o o 3 . 3 o   o & & % @ O $ * % - & & & * $ O O O $ ; < m C i $ $ C ( C z l a           o O @ > , 1 l v l b S A l b ] ] ~ R R f G f u u 8 $ q u q 8 8 8 & & 8 ",
"G f d d d 8 & e 8 8 q q $ $ $ ~ R R f 3 o . o . o 3 3 3 4 4 6 4 3 .                       3 o . . o 3 3   o .   ; & = w ; $ $ * & & * * - = - & O + % < y p y $ & ) ..( n b l r         o 3 $ @ : > > w v c C V Z l b ] ] ~ R R f H f u u 8 $ d d 8 8 8 & # $ 8 ",
"G f d q e 8 & 8 & & 8 8 # $ $ ~ R R f o 3 o . o o 3 3 4 4 6 4 4 3                         3 o o o o 3 o         : ; = - < * O - = t p p M p e - $ + % ; = < < e ) { ( V m b l *       . o # o O : * * < p c V x b z x ( ( ~ R R f H f d e $ $ d d 8 q q & $ # u ",
"f f d d e 8 & 8 & $ 8 8 $ $ $ ~ R R f o 3 o 3 3 4 4 3 4 4 4 4 3 3                       o 3 o o o . 3 o     . + 1 t = * w < O $ * t h h h p t ; % % ; ; ; p I ( ^ S l - s 2 @ O     . o . o o   + : * * t p j l v 1 x ( ] ~ R R f J f d q # & d d q 8 8 $ $ & u ",
"d f d d q 8 & & & & 8 8 # $ $ ~ R R f o o 3 4 4 4 4 4 4 4 3 4 3 o                       o 3 o o o o o .     : : y w - * 0 = $ $ $ t h h B p p ; ; ; % ; C ] ' ( C n M > : @ + $     o o . .     O @ $ - t p a z b 2 x ( ] ~ R R f J G d e $ q f d q 8 & $ $ 8 d ",
"d d u d u 8 & & & # 8 8 & $ $ ~ R R f o 3 4 4 4 4 4 6 4 4 4 3 .                           o   o o o o       > : ; w - w w w = - 0 t p p p p p < ; % < p S ] ^ C N M z : + + : $ &   . .           @ @ - t p c v V , 2 ( ( ~ R R f H G d q & q G G q 8 8 & # 8 d ",
"f f u d e 8 & & & $ 8 8 $ $ $ ~ R R f . 3 3 4 6 3 4 4 3 4 6 o                                 . . o o   .   , : : < w w p r < ; ; ; 9 w - w < p a n a V v V b M M y @ + + O $ $ $ .               # @ : , t x v V , 1 / ] ~ R R f H f d q & d G f q q q & # q f ",
"q f u u d 8 8 & & # & 8 & $ $ ~ R R f o 3 4 4 4 3 4 3 3 4 4 .                                   .   . . o   . , , , < - r p y < < w > - t j a B B B B B 2 s n M t : + $ & $ $ $ $                   @ @ : w C V c 2 1 V ] ~ R R f G f d q & q G f u d q & $ u G ",
"q f u u u q & 8 & $ 8 q 8 $ $ ~ R R f 3 4 4 3 3 3 4 3 o o . .                                         . o   . > , , , ; w 2 p p t - * j { ] Y B z t m m * i s , : + $ 9 * * $ $ $ $                 $ @ : < n m m l 2 v ( ~ R R f f d G q $ q f f G d u $ # u G ",
"u q q u u u 8 & 8 # q u e 8 $ ~ R R f o 3 3 3 o o o o 3 .                                   .     .   o       > , , , < < w t w w - - A { ] ^ v l M n p : $ % : : - t - w $ $ $ $ =                 > + 2 t n L L x , x V ~ R R f d d G u # 8 f f f d u & # u G ",
"f d d d d q 8 & 8 $ q d 8 & $ ~ R R f o 3 o 3 o .     o .   .                                   . . . o         , : > , < > t ; < w p m ( S B i l p y < > > ; = e t t t w * w * O -                   s B n n I m 2 , l v ~ R R f q d J u $ q G f u u q & $ q f ",
"G f d d d u e & 8 8 u d q & $ ~ R R ~ ~ ~ ~ ~ ~ ~ ~ ~ ~ ~ ~ ~ ~ ~ ~ ~ ~ ~ ~ ~ ~ ~ ~ ~ ~ ~ ~ ~ ~ ~ ~ ~ ~ ~ ~ ~ ~ ~ ~ ~ ~ ~ ~ ~ ~ ~ ~ ~ ~ ~ ~ ~ ~ ~ ~ ~ ~ ~ ~ ~ ~ ~ ~ ~ ~ ~ ~ ~ ~ ~ ~ ~ ~ ~ ~ ~ ~ ~ ~ ~ ~ ~ ~ ~ ~ ~ ~ ~ ~ ~ ~ R R f u d J u $ q G d q q q & $ q d ",
"f f f G d 8 q q 8 8 u u q & $ ~ R R R R R R R R R R R R R R R R R R R R R R R R R R R R R R R R R R R R R R R R R R R R R R R R R R R R R R R R R R R R R R R R R R R R R R R R R R R R R R R R R R R R R R R R R R R R R R R R f u d H G & u f f u q u & $ u d ",
"f f f d e & u u 8 8 q q q O $ ~ R R R R R R R R R R R R R R R R R R R R R R R R R R R R R R R R R R R R R R R R R R R R R R R R R R R R R R R R R R R R R R R R R R R R R R R R R R R R R R R R R R R R R R R R R R R R R R R R f d f H f 8 q f f u u q & $ u d ",
"f G G G 8 e u d 8 8 8 q 8 O $ f f f f f f f f f f f f f f f f f f f f f f f f f f f f f f f f f f f f f f f f f f f f f f f f f f f f f f f f f f f f f f f f f f f f f f f f f f f f f f f f f f f f f f f f f f f f f f f f f f d d H f 8 8 f f u u 8 8 $ u u ",
"G G G G u q u d 8 & q 8 $ $ O 8 d u u q u u 8 $ u q e 8 & 8 & $ $ 8 e 8 & $ q 8 & 8 q u u u u u u q & 8 u d G G 8 O & # 8 u & $ $ 8 & $ $ O O O # & & & 8 e 8 8 $ O $ 8 & $ & & $ O O O 8 G e & & & & 8 8 $ & & & 8 8 & q 8 8 8 u d G G f & 8 f f q u 8 8 $ u d ",
"G G H G q e u d 8 & 8 8 & $ $ & d u u u q 8 $ $ 8 u q q 8 & & $ & 8 u u q & q 8 & q 8 u u u 8 u u 8 & 8 u d H J e O & & 8 q & & & 8 & $ $ O O O # & & & 8 e 8 & $ O $ 8 & & $ & $ O O O 8 f e $ 8 & 8 $ & $ & # & 8 8 & u 8 8 8 q f G G f 8 8 G G q q 8 8 $ 8 d ",
"G G G H q u u e & $ 8 & $ $ $ & d q u u u & $ & e q q u & 8 & $ & 8 q q 8 & 8 8 & 8 q 8 u u 8 u u q 8 8 q G H H 8 O & $ & 8 & & & 8 & $ $ O O O # & $ & 8 e 8 & $ O $ 8 & & & & $ O O O 8 f e $ & & & & & $ $ # $ 8 8 & u 8 8 & 8 G H G f 8 8 G f q q 8 & 8 8 d ",
"G G H H q u u 8 & & 8 & & $ $ & d u u d d & 8 & & $ q q & & & $ & 8 8 d e & 8 q & & q 8 u u 8 u u q & & u G G G e O & $ & 8 & & 8 e 8 & $ O O O O & & & 8 e 8 8 $ O $ 8 & $ & & $ O O O 8 f 8 $ & & & & $ O # $ & 8 e 8 u 8 8 & 8 f H G f 8 & G G u 8 & 8 & e u ",
"f f G J q d d 8 & # 8 & $ $ $ & d q q d d & & & 8 $ 8 u & & $ # & 8 e q q $ 8 8 & & q 8 u u & 8 u q & & e G H d u O & # & e 8 8 8 e 8 8 $ O O O O & & & & e 8 8 $ O $ 8 & $ & & $ O O # 8 u & 8 & & $ & O O # & & 8 8 q u 8 8 8 8 d H f d 8 8 G G u 8 8 & 8 & 8 ",
"u q f J q q d 8 & & 8 & & $ $ & u 8 q d q & $ 8 & $ 8 q & & $ # & 8 8 8 e $ 8 8 $ & q 8 u q & 8 u u & 8 8 G H d u O $ # # q 8 8 8 8 8 8 $ O O O O & & 8 & e 8 & & $ & 8 & & $ & $ O O O 8 f 8 8 & & $ & $ O $ 8 & 8 q d q 8 8 q 8 f H f u e 8 G G u q & & & & 8 ",
"q q f J d & d 8 & & 8 & $ $ $ & u 8 q d e $ O 8 8 $ 8 q 8 $ $ # & 8 q q 8 $ & 8 & & q 8 u 8 & 8 u q 8 e q G f d 8 O $ # $ 8 8 & 8 e 8 & $ O O O O & & & & 8 8 & & 8 & 8 & & & & $ O O # 8 d 8 8 8 & & & O O $ 8 & q q d d q 8 8 8 d f f u 8 q G G q 8 & & 8 & 8 ",
"q u f J e & d 8 & 8 q & # $ $ 8 d u q q & $ O 8 & 8 8 q & $ 8 & & 8 q e & O & 8 & 8 8 u u & & 8 u 8 u u q f f e e O $ # # 8 & & 8 u e & & $ O O O & & & & 8 8 & & 8 & 8 8 8 & & $ O O O 8 f e 8 & & & & & $ & q & q u d d 8 8 8 q f G f u q q G f u q & & & & e ",
"d f f J e & d u & 8 q 8 & $ $ 8 d q q 8 & $ $ 8 u 8 8 q & & q 8 8 8 q q q O & 8 8 8 q u u 8 & e u 8 q d d f u 8 8 O # # $ e & $ $ u 8 $ & $ O O O & 8 & 8 8 & $ & & & e 8 e & & $ O O O u d u 8 8 & & $ $ # & 8 & 8 u d d & 8 8 8 H f d u q q G d q u e 8 & & 8 ",
"f f f H d & u u q 8 q & & 8 $ 8 d q & & & & & u u 8 8 e & & q 8 8 q q q 8 $ & 8 & 8 q q q & & 8 u 8 e u u f u 8 & O $ # # 8 & & & 8 & $ & $ O O O & & 8 8 8 8 & & $ 8 8 e q & 8 $ O O O 8 d d e 8 & & $ & $ 8 8 & 8 q d q & & & & H d e d q u f d q 8 q 8 $ $ q ",
"d f f J d 8 q d q 8 8 & 8 8 $ & d q & $ & & & e u 8 e 8 $ & 8 8 8 u u q & $ & & 8 & 8 q 8 8 & 8 q 8 8 u u f u 8 & O $ # $ e & & & 8 & & & # O O O & & 8 8 8 8 8 & $ 8 8 8 e & & $ O O O 8 q d u 8 & 8 & & & & 8 $ e q d q 8 & # & G d q q q u f u 8 q d 8 # $ & ",
"u f f J f q u d q 8 & & 8 e 8 & u d & $ $ & & u G d e 8 $ & 8 8 8 u 8 8 & $ & & & & 8 q 8 8 & 8 e 8 e 8 e u u 8 & O $ # # 8 & $ & 8 & & & $ O O O & & & e 8 u e & $ $ e & q & 8 $ O O O # q d u u e 8 $ 8 & & 8 $ q q u q & & & & d u e u q d d d q 8 u 8 $ $ 8 ",
"u f f H G 8 u d q 8 & & q e 8 8 u u & # $ & & q G d q 8 $ $ 8 8 8 u e & & O $ & 8 & & 8 8 & 8 8 8 8 8 8 & u u & & O $ # $ & $ $ & 8 8 & & $ O O O 8 & & 8 & e q & $ & 8 8 e & & $ O O O $ e d q 8 e & & 8 & & 8 $ q u u u q $ & & u q 8 q u f f f q 8 u 8 # $ & ",
"u f f J q 8 q d u 8 & 8 u 8 & & d u & $ O & & u d u 8 8 O & & q 8 u e & & O $ & & 8 & 8 8 & & 8 8 e 8 8 & u u & $ O $ # # & $ $ 8 e 8 & & $ $ O O & & & 8 8 8 q & & & 8 8 q & 8 $ O O O # q d u 8 8 8 & q $ & & $ d u 8 u 8 & # & q u 8 q q f G f 8 q q 8 $ & & ",
"q f f G q 8 u d 8 8 & 8 d e & 8 d d & $ O & 8 e d u $ 8 O O & 8 8 u e & $ O $ # & & & & 8 $ & & & 8 8 & 8 u u & $ O $ # $ 8 $ $ 8 d e & & # # O O & & & 8 & q e 8 $ & q 8 e & & $ O O O # q q u e & $ 8 8 & # & $ d q e u & & $ $ 8 e 8 q q f f f 8 8 u 8 $ & & ",
"u f f G q u q u 8 8 $ 8 q 8 & u d d & O O & e u e q $ 8 O $ $ 8 & u e & & O $ # & & & & 8 $ & & & e & 8 & u e $ $ O $ # & q $ $ & 8 e & & $ $ O O & & e 8 & e q 8 $ & q e 8 & 8 $ O O O O q q u 8 & & 8 8 $ # $ & f d q u 8 & O $ 8 u 8 e q f f d e & 8 & $ & & ",
"u f f f e u q u & $ $ 8 u e & u f d & O O & u q 8 u & 8 O $ $ & q u e & & O $ O & & 8 8 & $ & & & 8 & 8 & u e $ $ O & & 8 8 $ 8 8 & e & & $ # O O 8 & 8 8 8 8 e 8 & $ e 8 & & & $ O O O $ q u u q & & 8 & # # # & d d 8 u u & O $ 8 q e 8 8 d f d & & & $ $ & & "
};
